rolosa10/RGSpipe/dataset/synthetic_dataset/Coods3D_unique0723_102532.csv
filename,left_eye,left_eye,left_eye,right_eye,right_eye,right_eye,left_shoulder,left_shoulder,left_shoulder,right_shoulder,right_shoulder,right_shoulder,left_elbow,left_elbow,left_elbow,right_elbow,right_elbow,right_elbow,left_wrist,left_wrist,left_wrist,right_wrist,right_wrist,right_wrist,left_eye_2D,left_eye_2D,left_eye_2D,right_eye_2D,right_eye_2D,right_eye_2D,left_shoulder_2D,left_shoulder_2D,left_shoulder_2D,right_shoulder_2D,right_shoulder_2D,right_shoulder_2D,left_elbow_2D,left_elbow_2D,left_elbow_2D,right_elbow_2D,right_elbow_2D,right_elbow_2D,left_wrist_2D,left_wrist_2D,left_wrist_2D,right_wrist_2D,right_wrist_2D,right_wrist_2D,root_position,root_position,root_position,root_pitch,root_yaw,root_roll,root_scale,root_scale,root_scale,look_at,look_at,look_at
0723_102532_0001.png,0.000,0.170,0.920,-0.064,0.176,0.931,0.116,0.005,1.138,-0.170,-0.007,1.082,0.073,-0.165,0.937,-0.266,-0.248,1.019,0.028,-0.331,0.741,-0.163,-0.337,0.806,959.741,716.305,0.920,895.072,719.791,0.931,1057.184,544.546,1.138,810.394,533.578,1.082,1033.774,372.294,0.937,711.466,308.629,1.019,996.355,115.052,0.741,767.277,141.995,0.806,-0.036,-0.974,1.404,0.000,-347.593,0.000,0.016,-0.010,0.042,-0.249,-1.073,1.257
0723_102532_0002.png,0.036,0.171,0.930,-0.028,0.170,0.931,0.159,-0.016,1.091,-0.124,-0.004,1.146,0.181,-0.245,1.247,-0.115,-0.183,0.935,0.184,-0.301,0.990,-0.107,-0.360,0.730,996.791,715.184,0.930,931.255,714.030,0.931,1098.712,525.821,1.091,856.875,537.062,1.146,1098.193,353.333,1.247,843.130,353.398,0.935,1137.213,251.057,0.990,820.470,71.068,0.730,-0.029,-0.958,1.400,0.000,-10.163,0.000,0.027,-0.027,0.000,-0.244,-0.973,1.237
0723_102532_0003.png,0.030,0.180,0.938,-0.036,0.180,0.938,0.148,-0.001,1.121,-0.149,0.001,1.130,0.256,-0.254,1.110,-0.190,-0.182,0.916,0.133,-0.323,0.880,-0.231,-0.361,0.708,990.590,722.618,0.938,923.897,722.494,0.938,1085.511,538.877,1.121,834.921,540.642,1.130,1179.425,322.438,1.110,763.216,350.912,0.916,1103.842,190.647,0.880,649.449,55.645,0.708,-0.033,-0.966,1.402,0.000,-0.626,0.000,0.001,-0.017,-0.029,-0.013,-0.876,1.280
0723_102532_0004.png,0.049,0.156,0.934,-0.016,0.153,0.931,0.170,-0.017,1.095,-0.117,-0.004,1.153,0.123,-0.269,0.997,-0.262,-0.234,1.155,-0.018,-0.350,0.783,-0.310,-0.317,0.903,1010.344,698.717,0.934,943.900,695.926,0.931,1108.016,525.089,1.095,863.193,537.007,1.153,1077.420,282.979,0.997,744.272,347.296,1.155,938.576,114.928,0.783,633.679,206.171,0.903,-0.036,-0.959,1.401,0.000,-10.687,0.000,0.010,-0.003,-0.023,-0.086,-1.193,1.357
0723_102532_0005.png,-0.006,0.173,0.923,-0.071,0.179,0.937,0.119,0.002,1.144,-0.177,-0.010,1.092,0.241,-0.212,1.272,-0.206,-0.254,0.972,0.183,-0.280,1.023,-0.186,-0.356,0.731,953.502,718.143,0.923,887.903,721.702,0.937,1058.646,541.704,1.144,805.447,531.269,1.092,1140.571,381.425,1.272,758.630,291.728,0.972,1130.086,279.482,1.023,718.049,76.042,0.731,-0.032,-0.963,1.402,0.000,-348.512,0.000,-0.014,-0.031,0.001,-0.341,-0.912,1.537
0723_102532_0006.png,0.021,0.159,0.938,-0.046,0.160,0.941,0.144,-0.008,1.115,-0.158,-0.005,1.126,0.220,-0.248,1.032,-0.263,-0.227,1.023,0.225,-0.327,0.786,-0.201,-0.328,0.793,981.311,701.492,0.938,913.530,701.706,0.941,1083.059,533.176,1.115,826.630,535.436,1.126,1162.300,311.713,1.032,715.780,329.400,1.023,1231.840,144.690,0.786,719.396,146.672,0.793,-0.026,-0.973,1.404,0.000,-1.024,0.000,-0.019,0.034,0.019,-0.124,-1.029,1.262
0723_102532_0007.png,0.036,0.161,0.936,-0.030,0.160,0.935,0.152,-0.012,1.119,-0.145,-0.010,1.126,0.154,-0.247,0.988,-0.133,-0.225,0.963,0.011,-0.340,0.788,-0.085,-0.351,0.738,996.665,703.393,0.936,929.669,703.054,0.935,1089.125,529.919,1.119,837.172,531.363,1.126,1108.142,302.428,0.988,828.866,317.850,0.963,972.896,130.374,0.788,850.863,88.326,0.738,-0.038,-0.962,1.401,0.000,-0.234,0.000,-0.002,0.002,0.007,0.057,-0.972,1.476
0723_102532_0008.png,0.027,0.172,0.926,-0.038,0.171,0.922,0.135,0.000,1.121,-0.160,-0.001,1.116,0.188,-0.179,0.916,-0.248,-0.186,1.304,0.239,-0.354,0.717,-0.294,-0.276,1.061,987.944,716.800,0.926,920.609,716.138,0.922,1074.853,540.264,1.121,823.434,539.337,1.116,1155.160,354.336,0.916,778.859,404.354,1.304,1277.400,70.227,0.717,696.708,292.358,1.061,-0.028,-0.966,1.402,0.000,-357.885,0.000,0.004,-0.033,0.002,0.221,-1.074,1.593
0723_102532_0009.png,0.048,0.199,0.928,-0.017,0.196,0.923,0.163,-0.002,1.073,-0.119,0.013,1.142,0.224,-0.249,1.191,-0.176,-0.165,0.947,0.278,-0.312,0.947,-0.230,-0.340,0.757,1008.720,743.568,0.928,942.837,742.458,0.923,1104.649,537.907,1.073,860.727,551.127,1.142,1139.091,341.226,1.191,783.503,374.039,0.947,1239.008,226.709,0.947,671.263,112.929,0.757,-0.029,-0.975,1.404,0.000,-12.784,0.000,0.020,-0.036,0.028,-0.020,-0.722,1.276
0723_102532_0010.png,-0.004,0.159,0.921,-0.069,0.164,0.929,0.109,-0.002,1.142,-0.182,-0.016,1.081,0.230,-0.216,1.260,-0.235,-0.179,1.290,0.396,-0.263,1.071,-0.302,-0.266,1.060,956.216,704.587,0.921,889.582,708.025,0.929,1051.037,538.422,1.142,799.935,525.968,1.081,1133.590,377.053,1.260,786.982,407.807,1.290,1311.496,306.466,1.071,689.286,301.171,1.060,-0.028,-0.967,1.402,0.000,-346.671,0.000,-0.004,-0.008,0.044,-0.083,-1.080,1.474
0723_102532_0011.png,0.024,0.166,0.931,-0.042,0.166,0.931,0.139,-0.012,1.115,-0.159,-0.011,1.117,0.133,-0.242,0.987,-0.282,-0.214,1.252,-0.019,-0.334,0.800,-0.428,-0.271,1.047,984.292,709.340,0.931,916.746,709.161,0.931,1078.768,530.070,1.115,824.617,530.657,1.117,1087.695,306.494,0.987,745.738,377.471,1.252,937.185,143.216,0.800,571.375,293.645,1.047,-0.027,-0.963,1.401,0.000,-359.395,0.000,-0.005,-0.009,0.036,0.060,-0.949,1.378
0723_102532_0012.png,0.026,0.156,0.939,-0.041,0.156,0.938,0.146,-0.006,1.124,-0.158,-0.004,1.136,0.166,-0.253,1.002,-0.134,-0.184,0.918,0.007,-0.336,0.797,-0.112,-0.359,0.705,986.791,698.350,0.939,918.499,697.782,0.938,1083.703,534.662,1.124,828.126,537.051,1.136,1117.194,299.502,1.002,821.391,349.511,0.918,968.134,139.532,0.797,809.306,55.437,0.705,-0.026,-0.965,1.402,0.000,-1.173,0.000,-0.024,0.013,-0.037,0.015,-1.143,1.457
0723_102532_0013.png,0.060,0.178,0.927,-0.004,0.173,0.919,0.174,-0.008,1.081,-0.105,0.008,1.151,0.214,-0.208,1.273,-0.188,-0.169,0.949,0.369,-0.284,1.078,-0.271,-0.343,0.755,1021.638,722.754,0.927,956.345,718.987,0.919,1113.336,533.161,1.081,873.307,546.946,1.151,1119.689,384.293,1.273,771.764,370.919,0.949,1285.397,289.349,1.078,618.708,108.150,0.755,-0.039,-0.966,1.402,0.000,-13.336,0.000,0.029,-0.039,-0.011,0.076,-1.077,1.429
0723_102532_0014.png,0.006,0.182,0.923,-0.057,0.187,0.933,0.123,0.011,1.135,-0.164,0.003,1.101,0.237,-0.217,1.040,-0.246,-0.243,1.018,0.242,-0.347,0.810,-0.153,-0.354,0.797,965.857,727.872,0.923,901.409,730.371,0.933,1062.840,549.231,1.135,818.631,542.749,1.101,1176.644,341.637,1.040,730.289,312.557,1.018,1244.668,132.404,0.810,777.564,117.573,0.797,-0.034,-0.974,1.404,0.000,-351.863,0.000,0.028,-0.028,-0.003,-0.219,-0.926,1.557
0723_102532_0015.png,0.010,0.181,0.932,-0.056,0.183,0.936,0.125,0.001,1.126,-0.170,-0.004,1.101,0.185,-0.195,1.302,-0.247,-0.178,0.913,0.232,-0.265,1.062,-0.319,-0.348,0.730,969.986,724.761,0.932,903.540,725.490,0.936,1065.454,541.173,1.126,813.434,536.206,1.101,1095.401,397.732,1.302,703.248,354.484,0.913,1167.748,302.716,1.062,544.170,87.288,0.730,-0.027,-0.974,1.404,0.000,-353.820,0.000,0.004,-0.001,0.039,-0.025,-0.760,1.320
0723_102532_0016.png,0.035,0.155,0.937,-0.032,0.156,0.942,0.165,-0.008,1.113,-0.138,-0.002,1.141,0.239,-0.257,1.035,-0.310,-0.204,1.195,0.117,-0.327,0.806,-0.417,-0.285,0.962,995.451,697.568,0.937,927.208,697.746,0.942,1101.044,532.754,1.113,844.531,538.184,1.141,1179.908,303.826,1.035,713.354,377.986,1.195,1098.324,154.447,0.806,548.258,258.518,0.962,-0.038,-0.968,1.403,0.000,-4.124,0.000,-0.027,0.024,-0.021,-0.248,-1.082,1.511
0723_102532_0017.png,0.017,0.192,0.924,-0.050,0.192,0.923,0.128,0.011,1.128,-0.173,0.005,1.102,0.147,-0.209,0.972,-0.324,-0.224,1.161,0.078,-0.349,0.760,-0.200,-0.306,0.944,977.350,737.505,0.924,908.372,738.031,0.923,1067.675,549.471,1.128,810.382,544.449,1.102,1103.881,335.067,0.972,694.946,356.749,1.161,1057.092,103.600,0.760,758.704,231.945,0.944,-0.027,-0.973,1.404,0.000,-353.672,0.000,-0.018,-0.045,0.007,0.171,-0.983,1.171
0723_102532_0018.png,0.032,0.188,0.929,-0.034,0.187,0.929,0.157,-0.009,1.086,-0.138,0.004,1.141,0.232,-0.209,1.266,-0.230,-0.170,0.949,0.360,-0.278,1.047,-0.317,-0.339,0.762,993.084,732.536,0.929,924.962,731.828,0.929,1097.224,532.198,1.086,844.593,543.029,1.141,1134.433,382.851,1.266,729.813,369.991,0.949,1286.690,287.753,1.047,564.680,117.193,0.762,-0.023,-0.965,1.402,0.000,-9.573,0.000,-0.012,-0.037,0.016,-0.182,-0.762,1.309
0723_102532_0019.png,0.009,0.159,0.943,-0.056,0.162,0.948,0.115,0.001,1.155,-0.174,-0.013,1.096,0.118,-0.227,1.007,-0.201,-0.274,1.101,0.007,-0.339,0.794,-0.150,-0.321,0.844,969.251,700.573,0.943,903.635,702.905,0.948,1055.099,540.702,1.155,809.286,529.154,1.096,1071.673,325.558,1.007,786.560,303.532,1.101,967.973,133.540,0.794,791.557,178.913,0.844,-0.037,-0.971,1.403,0.000,-347.178,0.000,0.005,0.041,-0.017,0.104,-0.899,1.441
0723_102532_0020.png,0.041,0.149,0.944,-0.025,0.148,0.942,0.158,-0.023,1.108,-0.138,-0.016,1.136,0.225,-0.255,1.204,-0.218,-0.199,0.961,0.253,-0.286,0.951,-0.229,-0.342,0.748,1001.021,689.996,0.944,934.673,688.951,0.942,1095.463,520.424,1.108,844.383,526.327,1.136,1138.042,338.728,1.204,744.021,343.604,0.961,1212.639,253.711,0.951,668.491,104.607,0.748,-0.035,-0.962,1.401,0.000,-4.407,0.000,-0.001,0.040,0.027,0.024,-0.975,1.265
0723_102532_0021.png,0.017,0.158,0.945,-0.048,0.160,0.949,0.133,-0.007,1.138,-0.159,-0.010,1.124,0.235,-0.254,1.130,-0.263,-0.255,1.129,0.103,-0.313,0.905,-0.277,-0.324,0.868,977.172,699.480,0.945,912.278,700.613,0.949,1071.049,534.434,1.138,825.447,531.738,1.124,1157.992,326.640,1.130,738.766,325.127,1.129,1068.614,211.739,0.905,656.621,184.876,0.868,-0.032,-0.965,1.402,0.000,-356.107,0.000,0.016,0.028,-0.032,-0.059,-0.913,1.489
0723_102532_0022.png,0.007,0.172,0.939,-0.056,0.173,0.940,0.110,-0.002,1.139,-0.172,-0.010,1.103,0.069,-0.179,0.931,-0.311,-0.234,1.140,0.031,-0.352,0.730,-0.186,-0.317,0.927,967.154,713.898,0.939,903.176,714.709,0.940,1052.149,538.266,1.139,811.337,531.250,1.103,1030.349,357.421,0.931,700.576,344.492,1.140,999.823,81.155,0.730,769.073,214.858,0.927,-0.024,-0.967,1.402,0.000,-351.562,0.000,0.040,0.007,0.006,0.153,-0.834,1.312
0723_102532_0023.png,0.039,0.179,0.936,-0.028,0.178,0.935,0.164,-0.013,1.079,-0.131,0.003,1.152,0.188,-0.252,0.957,-0.186,-0.229,1.028,0.162,-0.350,0.716,-0.070,-0.329,0.813,999.350,721.956,0.936,931.039,720.799,0.935,1104.301,528.130,1.079,851.868,542.738,1.152,1146.610,289.263,0.957,787.929,328.403,1.028,1174.792,75.817,0.716,878.502,155.085,0.813,-0.021,-0.968,1.403,0.000,-13.097,0.000,-0.024,-0.002,0.010,-0.221,-0.779,1.216
0723_102532_0024.png,0.042,0.163,0.949,-0.022,0.160,0.942,0.152,-0.011,1.115,-0.135,-0.005,1.145,0.272,-0.249,1.103,-0.291,-0.206,1.218,0.315,-0.332,0.849,-0.369,-0.297,0.975,1002.014,703.232,0.949,938.062,701.205,0.942,1089.208,530.201,1.115,847.606,536.139,1.145,1194.840,325.012,1.103,732.934,379.449,1.218,1312.554,167.554,0.849,600.245,250.594,0.975,-0.031,-0.964,1.402,0.000,-4.907,0.000,0.029,0.021,-0.035,0.177,-0.890,1.520
0723_102532_0025.png,0.031,0.169,0.926,-0.032,0.169,0.929,0.156,-0.008,1.089,-0.122,0.004,1.145,0.068,-0.189,0.903,-0.137,-0.181,0.943,-0.016,-0.367,0.722,-0.153,-0.362,0.748,992.236,713.770,0.926,927.684,712.598,0.929,1096.587,532.768,1.089,858.787,543.725,1.145,1031.283,340.796,0.903,822.154,357.932,0.943,938.542,56.522,0.722,765.021,79.472,0.748,-0.028,-0.969,1.403,0.000,-10.405,0.000,0.043,-0.014,0.003,-0.313,-1.017,1.594
0723_102532_0026.png,0.023,0.181,0.930,-0.043,0.182,0.933,0.144,-0.006,1.119,-0.157,-0.006,1.115,0.116,-0.212,0.950,-0.282,-0.219,1.244,0.046,-0.349,0.739,-0.405,-0.280,1.022,983.929,724.974,0.930,915.820,725.362,0.933,1082.586,535.320,1.119,825.840,534.598,1.115,1076.274,327.543,0.950,744.747,372.489,1.244,1019.022,91.115,0.739,582.773,278.947,1.022,-0.033,-0.963,1.401,0.000,-358.125,0.000,-0.016,-0.031,0.017,-0.065,-0.731,1.556
0723_102532_0027.png,0.020,0.161,0.937,-0.048,0.162,0.937,0.133,0.005,1.139,-0.172,-0.001,1.113,0.196,-0.239,1.038,-0.279,-0.213,1.230,0.061,-0.324,0.821,-0.345,-0.278,0.978,980.071,703.517,0.937,911.255,704.492,0.937,1071.192,544.556,1.139,813.414,539.537,1.113,1140.081,321.036,1.038,744.259,375.083,1.230,1030.140,164.362,0.821,624.394,269.795,0.978,-0.031,-0.976,1.404,0.000,-353.804,0.000,-0.030,0.025,-0.021,0.138,-1.184,1.340
0723_102532_0028.png,-0.001,0.175,0.928,-0.067,0.180,0.938,0.120,0.010,1.145,-0.180,-0.002,1.093,0.154,-0.237,1.038,-0.281,-0.210,1.236,-0.019,-0.319,0.851,-0.388,-0.277,1.001,959.343,719.229,0.928,891.758,722.137,0.938,1059.723,548.249,1.145,802.974,538.210,1.093,1100.959,323.184,1.038,743.902,378.580,1.236,938.359,182.890,0.851,591.808,276.977,1.001,-0.032,-0.976,1.404,0.000,-348.727,0.000,-0.028,-0.001,-0.002,-0.151,-0.879,1.625
0723_102532_0029.png,0.010,0.149,0.931,-0.058,0.152,0.933,0.120,-0.003,1.150,-0.182,-0.016,1.091,0.228,-0.245,1.113,-0.294,-0.252,1.021,0.074,-0.297,0.901,-0.224,-0.329,0.781,969.710,691.795,0.931,900.462,694.591,0.933,1059.137,537.523,1.150,801.351,525.722,1.091,1155.110,330.178,1.113,686.076,305.604,1.021,1037.904,226.608,0.901,686.853,139.730,0.781,-0.033,-0.966,1.402,0.000,-347.628,0.000,-0.037,0.018,0.009,0.138,-1.253,1.305
0723_102532_0030.png,0.023,0.171,0.928,-0.042,0.171,0.926,0.130,-0.002,1.125,-0.163,-0.007,1.102,0.285,-0.216,1.085,-0.182,-0.237,0.976,0.382,-0.317,0.872,-0.061,-0.344,0.778,983.558,715.558,0.928,916.717,715.898,0.926,1070.315,538.659,1.125,819.797,534.259,1.102,1209.887,350.632,1.085,783.049,308.637,0.976,1376.002,194.792,0.872,885.374,119.471,0.778,-0.032,-0.969,1.403,0.000,-354.410,0.000,0.010,-0.014,0.037,0.192,-1.039,1.288
0723_102532_0031.png,0.030,0.185,0.941,-0.038,0.185,0.940,0.150,-0.001,1.118,-0.156,0.001,1.128,0.098,-0.181,0.910,-0.120,-0.185,0.926,0.046,-0.355,0.708,-0.060,-0.352,0.723,990.252,727.455,0.941,921.666,727.244,0.940,1087.183,538.731,1.118,828.291,540.662,1.128,1062.178,350.962,0.910,836.737,350.185,0.926,1022.370,62.664,0.708,881.224,76.648,0.723,-0.030,-0.968,1.403,0.000,-0.732,0.000,-0.030,-0.012,-0.014,0.033,-0.760,1.192
0723_102532_0032.png,0.042,0.177,0.941,-0.023,0.175,0.937,0.162,-0.009,1.097,-0.130,0.003,1.150,0.235,-0.269,1.064,-0.275,-0.210,1.234,0.083,-0.330,0.851,-0.311,-0.292,0.979,1002.727,719.396,0.941,936.216,717.907,0.937,1100.212,532.554,1.097,852.604,542.882,1.150,1169.931,299.121,1.064,748.358,378.009,1.234,1053.285,170.827,0.851,657.810,256.425,0.979,-0.028,-0.967,1.402,0.000,-9.303,0.000,0.001,-0.004,-0.024,-0.045,-0.741,1.663
0723_102532_0033.png,0.035,0.187,0.944,-0.029,0.185,0.938,0.146,0.001,1.116,-0.144,0.006,1.138,0.135,-0.212,0.930,-0.239,-0.241,1.053,0.082,-0.376,0.715,-0.105,-0.343,0.844,995.331,728.877,0.944,930.390,727.737,0.938,1084.160,540.717,1.116,839.521,545.047,1.138,1098.137,323.206,0.930,744.152,322.656,1.053,1068.525,40.262,0.715,841.798,153.438,0.844,-0.027,-0.968,1.403,0.000,-3.406,0.000,0.021,-0.017,-0.042,0.174,-0.838,1.167
0723_102532_0034.png,0.043,0.176,0.932,-0.023,0.175,0.932,0.167,-0.007,1.095,-0.129,0.004,1.144,0.246,-0.202,1.271,-0.208,-0.173,0.942,0.339,-0.276,1.034,-0.284,-0.345,0.745,1004.177,719.767,0.932,936.137,718.516,0.932,1105.322,533.878,1.095,852.414,543.437,1.144,1144.071,388.858,1.271,749.976,365.617,0.942,1272.287,286.048,1.034,597.088,99.417,0.745,-0.034,-0.968,1.403,0.000,-8.379,0.000,-0.014,-0.014,-0.007,-0.141,-1.008,1.156
0723_102532_0035.png,0.018,0.164,0.928,-0.048,0.165,0.932,0.144,-0.009,1.110,-0.154,-0.004,1.132,0.226,-0.221,1.264,-0.258,-0.202,1.291,0.363,-0.275,1.044,-0.305,-0.274,1.041,978.536,708.392,0.928,911.081,708.512,0.932,1083.409,532.517,1.110,830.987,536.968,1.132,1130.174,373.553,1.264,770.306,391.407,1.291,1290.504,289.052,1.044,681.502,289.700,1.041,-0.023,-0.963,1.401,0.000,-3.223,0.000,-0.006,-0.016,-0.002,-0.214,-1.050,1.506
0723_102532_0036.png,0.030,0.150,0.931,-0.036,0.149,0.932,0.153,-0.013,1.104,-0.146,-0.006,1.133,0.186,-0.189,1.299,-0.288,-0.212,1.041,0.282,-0.256,1.068,-0.353,-0.322,0.818,991.037,693.432,0.931,923.086,692.516,0.932,1091.656,528.622,1.104,837.404,534.608,1.133,1096.008,401.599,1.299,697.070,346.459,1.041,1210.950,312.373,1.068,549.735,165.892,0.818,-0.028,-0.968,1.403,0.000,-4.613,0.000,-0.012,0.021,0.025,-0.090,-1.178,1.495
0723_102532_0037.png,0.002,0.145,0.925,-0.065,0.152,0.935,0.122,-0.001,1.151,-0.177,-0.016,1.085,0.127,-0.216,0.994,-0.272,-0.265,1.059,0.002,-0.328,0.789,-0.093,-0.308,0.871,961.571,689.407,0.925,894.193,694.862,0.935,1060.604,539.178,1.151,805.085,525.794,1.085,1081.070,333.329,0.994,715.853,301.776,1.059,962.107,144.548,0.789,858.115,203.970,0.871,-0.040,-0.968,1.403,0.000,-346.012,0.000,-0.031,0.019,0.014,-0.189,-1.265,1.448
0723_102532_0038.png,-0.019,0.152,0.934,-0.081,0.160,0.949,0.095,-0.002,1.156,-0.183,-0.017,1.093,0.241,-0.209,1.064,-0.288,-0.222,1.221,0.285,-0.337,0.833,-0.374,-0.297,0.984,940.444,694.942,0.934,879.017,700.116,0.949,1037.792,538.176,1.156,800.513,525.593,1.093,1175.536,353.199,1.064,735.814,366.735,1.221,1285.196,155.490,0.833,598.567,253.008,0.984,-0.025,-0.965,1.402,0.000,-345.851,0.000,0.039,0.024,-0.015,-0.306,-0.973,1.610
0723_102532_0039.png,0.034,0.159,0.943,-0.031,0.157,0.941,0.152,-0.018,1.106,-0.137,-0.009,1.144,0.295,-0.240,1.070,-0.258,-0.183,1.305,0.363,-0.330,0.830,-0.291,-0.270,1.056,994.104,700.237,0.943,928.818,699.012,0.941,1090.541,524.948,1.106,845.956,532.768,1.144,1222.091,326.356,1.070,772.011,406.860,1.305,1376.059,162.267,0.830,697.620,296.839,1.056,-0.027,-0.961,1.401,0.000,-6.572,0.000,0.018,0.018,-0.009,-0.056,-0.895,1.484
0723_102532_0040.png,0.023,0.159,0.937,-0.043,0.161,0.938,0.133,0.001,1.146,-0.165,-0.007,1.110,0.280,-0.223,1.091,-0.281,-0.205,1.248,0.315,-0.325,0.841,-0.405,-0.277,1.019,983.277,701.650,0.937,915.939,703.240,0.938,1070.010,540.977,1.146,818.921,533.942,1.110,1203.830,345.535,1.091,745.570,383.567,1.248,1315.975,172.285,0.841,582.499,281.393,1.019,-0.039,-0.967,1.403,0.000,-351.765,0.000,-0.009,0.011,-0.033,0.131,-1.084,1.507
0723_102532_0041.png,0.047,0.155,0.939,-0.020,0.153,0.939,0.174,-0.019,1.094,-0.123,-0.004,1.156,0.160,-0.267,1.186,-0.213,-0.207,0.993,0.134,-0.295,0.922,-0.250,-0.342,0.762,1007.611,696.869,0.939,939.451,694.964,0.939,1111.119,523.870,1.094,858.814,536.554,1.156,1087.894,325.722,1.186,755.984,341.399,0.993,1097.745,235.333,0.922,647.484,113.161,0.762,-0.033,-0.962,1.401,0.000,-11.019,0.000,-0.023,0.019,-0.021,-0.181,-0.962,1.653
0723_102532_0042.png,0.028,0.169,0.933,-0.036,0.170,0.937,0.154,-0.013,1.104,-0.134,-0.004,1.141,0.268,-0.212,1.252,-0.247,-0.234,1.236,0.297,-0.295,1.001,-0.244,-0.299,0.978,988.399,712.732,0.933,923.028,712.554,0.937,1092.674,529.122,1.104,848.167,536.737,1.141,1163.597,378.995,1.252,769.995,360.077,1.236,1241.740,259.459,1.001,722.188,248.803,0.978,-0.029,-0.960,1.401,0.000,-6.511,0.000,0.021,-0.015,-0.010,-0.307,-0.922,1.380
0723_102532_0043.png,0.014,0.174,0.932,-0.052,0.175,0.936,0.133,-0.005,1.124,-0.167,-0.010,1.102,0.216,-0.254,1.086,-0.258,-0.195,1.275,0.040,-0.305,0.903,-0.322,-0.266,1.041,974.043,717.189,0.932,906.667,718.004,0.936,1072.134,536.106,1.124,816.307,531.800,1.102,1148.906,318.067,1.086,767.753,394.243,1.275,1001.905,219.172,0.903,665.665,297.003,1.041,-0.030,-0.970,1.403,0.000,-354.641,0.000,-0.010,0.002,0.048,-0.061,-0.751,1.511
0723_102532_0044.png,0.053,0.159,0.942,-0.012,0.157,0.939,0.170,-0.028,1.084,-0.115,-0.013,1.148,0.281,-0.268,1.100,-0.210,-0.252,1.091,0.310,-0.319,0.853,-0.185,-0.321,0.847,1013.409,700.860,0.942,948.192,699.458,0.939,1108.940,515.221,1.084,864.621,528.830,1.148,1203.132,308.763,1.100,777.281,320.404,1.091,1305.713,183.778,0.853,752.323,179.117,0.847,-0.036,-0.959,1.401,0.000,-11.852,0.000,0.015,0.021,0.036,-0.060,-0.772,1.328
0723_102532_0045.png,0.005,0.168,0.933,-0.064,0.170,0.932,0.110,0.001,1.153,-0.193,-0.014,1.084,0.224,-0.221,1.047,-0.316,-0.259,1.101,0.258,-0.322,0.807,-0.319,-0.312,0.842,964.776,711.337,0.933,894.672,713.048,0.932,1050.931,541.083,1.153,790.993,527.333,1.084,1163.218,339.125,1.047,686.959,316.215,1.101,1263.953,160.935,0.807,599.631,187.660,0.842,-0.027,-0.965,1.402,0.000,-345.756,0.000,-0.048,-0.007,0.003,0.276,-0.959,1.361
0723_102532_0046.png,0.034,0.190,0.936,-0.031,0.189,0.933,0.147,0.010,1.120,-0.146,0.013,1.130,0.290,-0.220,1.079,-0.221,-0.240,1.039,0.384,-0.335,0.850,-0.081,-0.345,0.834,994.682,733.139,0.936,928.727,732.511,0.933,1084.526,548.878,1.120,837.283,550.752,1.130,1215.992,345.980,1.079,757.661,320.734,1.039,1389.473,165.629,0.850,868.074,146.767,0.834,-0.033,-0.976,1.404,0.000,-0.855,0.000,0.014,-0.020,-0.042,0.107,-0.840,1.556
0723_102532_0047.png,-0.008,0.173,0.942,-0.074,0.177,0.952,0.111,0.003,1.150,-0.185,-0.011,1.089,0.263,-0.184,1.264,-0.229,-0.256,0.996,0.275,-0.269,1.018,-0.213,-0.339,0.749,951.875,715.066,0.942,886.203,716.966,0.952,1051.400,542.287,1.150,798.347,530.190,1.089,1158.162,401.626,1.264,741.083,295.091,0.996,1217.335,288.404,1.018,690.034,108.962,0.749,-0.029,-0.974,1.404,0.000,-346.891,0.000,-0.018,0.032,0.009,-0.152,-0.672,1.349
0723_102532_0048.png,0.043,0.148,0.944,-0.024,0.146,0.943,0.165,-0.024,1.095,-0.130,-0.011,1.151,0.182,-0.184,1.299,-0.092,-0.179,0.938,0.238,-0.255,1.054,-0.053,-0.342,0.731,1002.861,689.412,0.944,935.857,687.673,0.943,1102.895,519.262,1.095,852.244,530.813,1.151,1093.109,405.464,1.299,866.935,358.197,0.938,1174.489,310.141,1.054,890.680,94.812,0.731,-0.029,-0.963,1.401,0.000,-9.767,0.000,-0.012,0.044,0.009,-0.104,-0.911,1.580
0723_102532_0049.png,0.043,0.159,0.944,-0.021,0.156,0.939,0.159,-0.016,1.110,-0.129,-0.006,1.150,0.250,-0.233,0.966,-0.179,-0.261,1.055,0.291,-0.365,0.730,-0.135,-0.347,0.800,1003.285,700.039,0.944,938.255,697.968,0.939,1095.847,526.623,1.110,853.192,534.746,1.150,1206.149,310.732,0.966,798.455,304.624,1.055,1338.414,64.986,0.730,799.681,127.101,0.800,-0.032,-0.958,1.400,0.000,-7.004,0.000,0.021,0.006,-0.042,0.033,-0.998,1.465
0723_102532_0050.png,0.033,0.177,0.934,-0.032,0.177,0.937,0.159,-0.004,1.109,-0.135,0.003,1.139,0.071,-0.184,0.906,-0.167,-0.224,0.982,-0.012,-0.359,0.709,-0.060,-0.352,0.773,994.042,720.128,0.934,927.441,719.935,0.937,1096.258,536.228,1.109,847.016,542.181,1.139,1034.905,347.286,0.906,798.627,323.543,0.982,943.815,57.841,0.709,886.437,106.139,0.773,-0.035,-0.966,1.402,0.000,-4.900,0.000,0.003,-0.018,-0.026,-0.226,-0.921,1.355
0723_102532_0051.png,0.024,0.175,0.930,-0.040,0.177,0.935,0.140,-0.004,1.124,-0.149,-0.006,1.115,0.281,-0.221,1.208,-0.213,-0.272,1.125,0.208,-0.305,0.972,-0.172,-0.328,0.873,984.746,718.898,0.930,919.518,719.698,0.935,1078.824,536.798,1.124,833.065,535.023,1.115,1181.504,366.252,1.208,780.289,310.443,1.125,1163.242,241.572,0.972,772.819,183.039,0.873,-0.038,-0.964,1.402,0.000,-357.014,0.000,0.025,-0.020,0.007,-0.088,-0.857,1.474
0723_102532_0052.png,0.012,0.167,0.941,-0.053,0.169,0.947,0.133,-0.006,1.132,-0.161,-0.008,1.124,0.086,-0.184,0.916,-0.244,-0.184,0.925,0.041,-0.358,0.705,-0.327,-0.357,0.732,971.751,708.585,0.941,906.512,709.841,0.947,1071.966,535.068,1.132,823.776,533.529,1.124,1048.894,348.909,0.916,709.213,350.333,0.925,1015.873,56.753,0.705,535.255,76.504,0.732,-0.028,-0.964,1.402,0.000,-357.282,0.000,0.008,0.009,-0.026,-0.203,-0.885,1.328
0723_102532_0053.png,0.018,0.147,0.947,-0.047,0.147,0.945,0.123,-0.019,1.140,-0.169,-0.026,1.108,0.222,-0.243,1.041,-0.317,-0.244,1.116,0.237,-0.330,0.799,-0.201,-0.307,0.894,978.487,687.407,0.947,912.948,687.676,0.945,1062.692,523.875,1.140,814.728,517.320,1.108,1163.190,317.865,1.041,689.613,331.971,1.116,1241.777,146.764,0.799,745.804,212.874,0.894,-0.029,-0.957,1.400,0.000,-352.629,0.000,0.009,0.038,0.020,0.255,-0.865,1.500
0723_102532_0054.png,0.037,0.162,0.930,-0.031,0.161,0.927,0.155,-0.008,1.115,-0.153,-0.005,1.126,0.108,-0.229,0.967,-0.305,-0.226,1.069,0.025,-0.344,0.744,-0.359,-0.319,0.829,997.902,706.196,0.930,928.022,705.236,0.927,1092.177,533.466,1.115,830.790,535.772,1.126,1066.612,314.357,0.967,688.259,339.210,1.069,992.365,100.480,0.744,548.665,174.330,0.829,-0.034,-0.964,1.402,0.000,-1.029,0.000,-0.038,-0.015,0.004,0.117,-1.103,1.535
0723_102532_0055.png,0.041,0.159,0.928,-0.025,0.156,0.925,0.157,-0.009,1.105,-0.140,-0.002,1.133,0.093,-0.220,0.950,-0.201,-0.234,1.010,0.011,-0.350,0.738,-0.071,-0.335,0.806,1001.492,702.749,0.928,933.792,700.833,0.925,1094.833,532.242,1.105,842.161,537.952,1.133,1053.421,319.588,0.950,771.072,319.829,1.010,974.231,89.353,0.738,876.123,145.115,0.806,-0.033,-0.966,1.402,0.000,-4.469,0.000,-0.005,-0.007,0.011,0.088,-1.161,1.603
0723_102532_0056.png,0.049,0.178,0.919,-0.017,0.174,0.916,0.171,-0.002,1.074,-0.114,0.015,1.149,0.198,-0.193,1.276,-0.221,-0.200,1.023,0.342,-0.276,1.073,-0.196,-0.343,0.803,1010.215,724.637,0.919,942.514,721.163,0.916,1111.484,538.147,1.074,865.689,552.660,1.149,1107.216,396.058,1.276,754.870,353.902,1.023,1263.402,295.112,1.073,728.184,133.786,0.803,-0.031,-0.974,1.404,0.000,-14.069,0.000,0.005,-0.035,0.001,-0.130,-1.213,1.381
0723_102532_0057.png,0.006,0.168,0.939,-0.059,0.168,0.939,0.109,-0.003,1.138,-0.179,-0.013,1.093,0.213,-0.241,1.101,-0.229,-0.210,0.927,0.078,-0.309,0.894,-0.224,-0.354,0.717,965.695,709.824,0.939,900.207,710.613,0.939,1051.159,537.863,1.138,804.283,528.820,1.093,1143.800,331.902,1.101,725.663,324.477,0.927,1042.803,211.467,0.894,662.330,70.270,0.717,-0.023,-0.972,1.403,0.000,-349.764,0.000,0.017,0.025,0.037,0.205,-0.764,1.530
0723_102532_0058.png,0.021,0.151,0.934,-0.047,0.153,0.939,0.145,-0.008,1.129,-0.159,-0.010,1.123,0.139,-0.198,0.930,-0.252,-0.253,1.048,0.082,-0.353,0.719,-0.089,-0.320,0.847,980.929,693.625,0.934,912.840,695.024,0.939,1082.102,532.880,1.129,825.388,531.701,1.123,1102.012,337.610,0.930,731.531,310.677,1.048,1068.099,73.471,0.719,860.380,181.100,0.847,-0.034,-0.964,1.402,0.000,-357.694,0.000,-0.024,0.017,-0.010,-0.136,-1.085,1.613
0723_102532_0059.png,0.042,0.174,0.927,-0.026,0.172,0.927,0.169,-0.014,1.084,-0.130,0.001,1.150,0.156,-0.288,1.047,-0.196,-0.175,0.951,0.124,-0.337,0.788,-0.259,-0.345,0.756,1002.879,718.764,0.927,933.325,716.988,0.927,1108.209,527.503,1.084,852.636,540.869,1.150,1101.835,278.646,1.047,763.619,365.407,0.951,1110.000,133.027,0.788,633.858,105.310,0.756,-0.027,-0.960,1.401,0.000,-11.702,0.000,-0.032,-0.034,-0.002,-0.196,-1.053,1.137
0723_102532_0060.png,0.056,0.169,0.952,-0.009,0.163,0.939,0.166,-0.019,1.083,-0.120,-0.001,1.163,0.208,-0.266,1.169,-0.166,-0.184,0.958,0.206,-0.307,0.904,-0.184,-0.351,0.745,1015.850,708.815,0.952,951.111,705.496,0.939,1105.355,523.180,1.083,861.621,539.232,1.163,1129.107,323.578,1.169,795.620,357.024,0.958,1176.422,217.694,0.904,724.807,91.674,0.745,-0.022,-0.965,1.402,0.000,-14.717,0.000,-0.001,0.024,-0.022,0.204,-0.783,1.360
0723_102532_0061.png,0.052,0.171,0.930,-0.012,0.170,0.930,0.173,-0.017,1.079,-0.103,-0.001,1.149,0.100,-0.260,0.992,-0.210,-0.219,1.040,0.026,-0.358,0.764,-0.133,-0.342,0.828,1012.776,715.043,0.930,948.184,713.461,0.930,1112.315,525.228,1.079,875.096,539.509,1.149,1055.766,290.919,0.992,767.792,339.643,1.040,991.910,94.747,0.764,806.928,146.861,0.828,-0.040,-0.964,1.402,0.000,-13.516,0.000,0.042,-0.011,0.018,-0.233,-0.868,1.480
0723_102532_0062.png,0.013,0.155,0.925,-0.051,0.156,0.925,0.113,-0.007,1.138,-0.170,-0.017,1.093,0.189,-0.212,1.301,-0.145,-0.194,0.895,0.239,-0.278,1.059,-0.120,-0.368,0.703,973.207,699.122,0.925,907.748,700.840,0.925,1054.620,534.218,1.138,811.815,524.922,1.093,1097.916,384.901,1.301,806.070,333.364,0.895,1174.629,290.317,1.059,797.647,42.321,0.703,-0.030,-0.961,1.401,0.000,-349.522,0.000,0.032,-0.015,0.032,0.192,-1.134,1.572
0723_102532_0063.png,0.037,0.172,0.932,-0.031,0.170,0.925,0.148,-0.005,1.115,-0.160,-0.004,1.118,0.097,-0.222,0.968,-0.306,-0.218,1.215,-0.020,-0.335,0.764,-0.371,-0.282,0.972,998.116,715.895,0.932,928.594,714.698,0.925,1086.524,536.072,1.115,824.207,536.708,1.118,1054.907,321.851,0.968,720.853,369.218,1.215,934.656,122.319,0.764,596.913,264.597,0.972,-0.031,-0.967,1.402,0.000,-359.437,0.000,-0.038,-0.019,0.020,0.302,-0.983,1.487
0723_102532_0064.png,0.013,0.176,0.936,-0.051,0.178,0.943,0.134,-0.011,1.123,-0.156,-0.012,1.116,0.251,-0.227,1.241,-0.270,-0.217,0.987,0.396,-0.284,1.034,-0.324,-0.350,0.771,973.596,718.790,0.936,909.059,719.488,0.943,1073.044,530.824,1.123,826.759,529.480,1.116,1152.176,366.210,1.241,699.826,330.748,0.987,1324.444,278.575,1.034,560.541,107.780,0.771,-0.030,-0.959,1.401,0.000,-357.493,0.000,0.023,-0.014,0.015,-0.208,-0.678,1.378
0723_102532_0065.png,0.015,0.164,0.923,-0.052,0.166,0.928,0.136,0.000,1.128,-0.164,-0.003,1.112,0.138,-0.274,1.107,-0.243,-0.222,0.971,0.083,-0.322,0.853,-0.219,-0.352,0.743,975.103,708.635,0.923,906.992,710.412,0.928,1074.713,539.963,1.128,819.599,537.033,1.112,1078.442,304.604,1.107,722.379,322.459,0.971,1052.919,180.789,0.853,679.808,89.368,0.743,-0.031,-0.966,1.402,0.000,-355.909,0.000,-0.013,-0.024,0.000,-0.130,-1.238,1.370
0723_102532_0066.png,0.006,0.177,0.934,-0.059,0.180,0.942,0.123,0.000,1.142,-0.171,-0.007,1.109,0.267,-0.199,1.264,-0.243,-0.246,1.227,0.279,-0.291,1.009,-0.231,-0.301,0.963,965.925,720.336,0.934,899.923,722.051,0.942,1062.680,540.323,1.142,813.031,533.825,1.109,1160.695,389.872,1.264,771.419,349.436,1.227,1222.742,266.122,1.009,731.820,242.972,0.963,-0.030,-0.962,1.401,0.000,-352.269,0.000,0.001,-0.022,-0.027,-0.125,-0.812,1.466
0723_102532_0067.png,-0.001,0.163,0.919,-0.066,0.168,0.926,0.111,0.004,1.147,-0.182,-0.011,1.081,0.056,-0.168,0.941,-0.267,-0.266,1.036,0.000,-0.335,0.740,-0.125,-0.331,0.828,959.318,708.185,0.919,891.932,712.251,0.926,1051.885,543.445,1.147,800.301,530.434,1.081,1016.207,370.417,0.941,715.221,296.214,1.036,959.816,109.933,0.740,816.050,160.314,0.828,-0.032,-0.968,1.403,0.000,-345.901,0.000,-0.010,-0.021,0.019,-0.058,-1.252,1.254
0723_102532_0068.png,0.011,0.149,0.928,-0.052,0.153,0.934,0.119,-0.005,1.139,-0.164,-0.015,1.095,0.061,-0.179,0.944,-0.285,-0.209,1.229,0.005,-0.349,0.755,-0.354,-0.288,0.996,971.079,692.719,0.928,906.578,695.679,0.934,1059.716,535.471,1.139,817.655,526.599,1.095,1021.784,359.349,0.944,739.205,378.410,1.229,966.138,100.158,0.755,621.857,265.424,0.996,-0.036,-0.968,1.403,0.000,-349.865,0.000,0.034,0.018,0.031,-0.031,-1.228,1.331
0723_102532_0069.png,0.023,0.152,0.943,-0.044,0.151,0.944,0.145,-0.014,1.119,-0.156,-0.009,1.140,0.217,-0.221,0.953,-0.287,-0.193,1.279,0.234,-0.353,0.718,-0.434,-0.259,1.065,982.918,692.936,0.943,915.570,692.472,0.944,1083.380,528.400,1.119,830.149,532.789,1.140,1176.930,319.675,0.953,746.882,396.743,1.279,1269.705,72.904,0.718,572.460,309.072,1.065,-0.022,-0.964,1.401,0.000,-3.070,0.000,-0.016,0.032,-0.022,-0.083,-0.983,1.589
0723_102532_0070.png,0.026,0.178,0.937,-0.042,0.180,0.944,0.157,-0.003,1.112,-0.151,0.001,1.128,0.141,-0.187,0.915,-0.328,-0.207,1.139,0.082,-0.349,0.715,-0.417,-0.293,0.907,986.169,720.925,0.937,917.346,721.435,0.944,1094.523,537.568,1.112,832.538,540.736,1.128,1106.096,345.159,0.915,685.841,367.153,1.139,1068.845,76.235,0.715,523.169,232.531,0.907,-0.034,-0.973,1.404,0.000,-1.906,0.000,-0.040,0.009,0.009,-0.291,-0.788,1.262
0723_102532_0071.png,-0.002,0.148,0.927,-0.067,0.154,0.936,0.107,-0.002,1.157,-0.181,-0.016,1.095,0.176,-0.223,1.005,-0.335,-0.221,1.182,0.192,-0.352,0.766,-0.266,-0.309,0.934,958.112,691.920,0.927,892.316,696.830,0.936,1048.028,538.643,1.157,803.218,526.200,1.095,1127.018,328.449,1.005,690.473,362.359,1.182,1198.824,102.626,0.766,688.785,225.887,0.934,-0.032,-0.959,1.401,0.000,-346.366,0.000,0.008,-0.006,-0.032,-0.066,-1.202,1.612
0723_102532_0072.png,0.027,0.171,0.925,-0.039,0.171,0.927,0.150,-0.012,1.102,-0.145,-0.004,1.133,0.181,-0.279,1.046,-0.129,-0.181,0.922,-0.004,-0.329,0.867,-0.113,-0.353,0.717,987.370,716.366,0.925,919.875,715.889,0.927,1089.717,529.991,1.102,838.609,536.237,1.133,1124.530,286.557,1.046,826.956,353.785,0.922,955.424,178.958,0.867,810.322,72.646,0.717,-0.027,-0.959,1.400,0.000,-4.976,0.000,0.001,-0.040,0.012,-0.176,-1.077,1.211
0723_102532_0073.png,0.032,0.159,0.944,-0.032,0.158,0.946,0.154,-0.019,1.097,-0.128,-0.007,1.149,0.112,-0.243,0.956,-0.305,-0.196,1.095,-0.017,-0.355,0.756,-0.423,-0.315,0.892,991.949,699.924,0.944,927.961,699.055,0.946,1093.385,523.640,1.097,854.329,534.337,1.149,1071.027,297.823,0.956,694.622,369.966,1.095,938.096,93.749,0.756,508.993,204.364,0.892,-0.025,-0.965,1.402,0.000,-9.628,0.000,0.035,0.034,0.000,-0.275,-0.885,1.294
0723_102532_0074.png,0.021,0.192,0.930,-0.044,0.193,0.935,0.145,0.007,1.110,-0.147,0.012,1.132,0.225,-0.186,0.927,-0.262,-0.183,1.291,0.269,-0.366,0.728,-0.282,-0.286,1.042,981.570,736.659,0.930,915.647,736.698,0.935,1083.926,545.921,1.110,836.663,550.092,1.132,1190.542,348.922,0.927,766.901,405.175,1.291,1311.156,61.795,0.728,702.995,278.717,1.042,-0.026,-0.974,1.404,0.000,-3.297,0.000,0.015,-0.031,-0.025,-0.230,-0.855,1.310
0723_102532_0075.png,0.000,0.188,0.928,-0.064,0.191,0.936,0.117,0.007,1.131,-0.174,0.000,1.101,0.110,-0.214,0.977,-0.254,-0.181,0.914,0.004,-0.349,0.782,-0.332,-0.357,0.733,960.101,732.816,0.928,894.686,734.047,0.936,1058.348,545.625,1.131,809.716,539.809,1.101,1067.033,332.059,0.977,695.514,352.205,0.914,965.142,115.542,0.782,528.825,77.189,0.733,-0.023,-0.973,1.404,0.000,-352.773,0.000,0.015,-0.024,0.014,-0.159,-0.807,1.246
0723_102532_0076.png,0.012,0.186,0.933,-0.053,0.187,0.935,0.122,0.001,1.131,-0.169,-0.005,1.103,0.192,-0.264,1.138,-0.227,-0.273,1.130,0.183,-0.321,0.884,-0.205,-0.324,0.875,971.764,729.366,0.933,905.651,729.959,0.935,1062.965,540.892,1.131,813.882,535.280,1.103,1120.704,319.687,1.138,769.107,310.354,1.130,1157.241,194.706,0.884,737.372,187.801,0.875,-0.028,-0.967,1.402,0.000,-353.120,0.000,0.012,-0.025,0.014,0.053,-0.703,1.443
0723_102532_0077.png,0.045,0.172,0.940,-0.022,0.170,0.937,0.166,-0.013,1.090,-0.130,0.001,1.153,0.119,-0.252,0.968,-0.282,-0.218,1.094,-0.017,-0.344,0.757,-0.317,-0.319,0.849,1005.534,714.302,0.940,937.830,712.347,0.937,1104.493,528.684,1.090,852.724,541.169,1.153,1077.183,292.190,0.968,714.955,350.818,1.094,938.838,107.596,0.757,605.094,182.978,0.849,-0.026,-0.966,1.402,0.000,-11.088,0.000,-0.019,0.005,-0.013,-0.050,-0.932,1.110
0723_102532_0078.png,0.013,0.143,0.935,-0.053,0.145,0.934,0.121,-0.016,1.140,-0.176,-0.026,1.097,0.188,-0.179,0.941,-0.351,-0.229,1.081,0.250,-0.337,0.746,-0.435,-0.310,0.853,973.679,685.860,0.935,905.981,687.146,0.934,1061.123,526.329,1.140,807.327,517.249,1.097,1150.035,358.962,0.941,651.200,338.685,1.081,1278.643,110.304,0.746,475.755,194.056,0.853,-0.029,-0.958,1.400,0.000,-350.411,0.000,-0.012,0.021,0.040,0.191,-1.082,1.457
0723_102532_0079.png,0.054,0.162,0.919,-0.013,0.158,0.917,0.177,-0.017,1.068,-0.111,0.002,1.150,0.154,-0.269,0.983,-0.262,-0.159,0.998,-0.016,-0.334,0.801,-0.406,-0.317,0.849,1015.498,707.349,0.919,946.988,703.838,0.917,1117.755,524.976,1.068,867.858,541.530,1.150,1109.267,279.418,0.983,710.479,388.238,0.998,941.517,143.965,0.801,505.009,185.163,0.849,-0.035,-0.965,1.402,0.000,-14.987,0.000,-0.012,-0.022,0.033,-0.128,-1.118,1.701
0723_102532_0080.png,0.038,0.160,0.937,-0.030,0.157,0.933,0.157,-0.013,1.108,-0.151,-0.006,1.138,0.201,-0.274,1.053,-0.123,-0.185,0.933,0.007,-0.309,0.871,-0.067,-0.345,0.726,998.896,701.977,0.937,929.293,700.108,0.933,1094.910,528.959,1.108,833.572,535.202,1.138,1141.947,292.632,1.053,834.648,351.725,0.933,967.902,202.956,0.871,871.599,88.661,0.726,-0.027,-0.963,1.401,0.000,-4.708,0.000,-0.044,0.006,-0.002,0.122,-1.125,1.247
0723_102532_0081.png,0.005,0.178,0.935,-0.057,0.180,0.940,0.113,0.001,1.138,-0.168,-0.007,1.105,0.155,-0.182,0.931,-0.264,-0.254,1.050,0.199,-0.361,0.731,-0.145,-0.346,0.834,965.350,721.406,0.935,901.966,722.578,0.940,1054.099,540.683,1.138,815.140,534.156,1.105,1118.031,354.383,0.931,721.309,310.273,1.050,1218.564,70.639,0.731,794.095,145.101,0.834,-0.026,-0.967,1.402,0.000,-351.934,0.000,0.047,-0.011,-0.005,-0.004,-0.759,1.483
0723_102532_0082.png,-0.002,0.174,0.918,-0.067,0.179,0.928,0.116,0.006,1.141,-0.179,-0.006,1.086,0.173,-0.193,0.970,-0.221,-0.229,0.942,0.177,-0.347,0.760,-0.216,-0.358,0.716,958.040,719.861,0.918,891.121,723.185,0.928,1056.480,545.158,1.141,803.670,534.469,1.086,1129.123,350.866,0.970,736.586,308.383,0.942,1181.642,105.892,0.760,673.450,65.349,0.716,-0.031,-0.968,1.403,0.000,-348.087,0.000,-0.009,-0.034,0.018,-0.166,-0.983,1.619
0723_102532_0083.png,0.018,0.144,0.929,-0.045,0.145,0.932,0.130,-0.013,1.130,-0.157,-0.017,1.113,0.148,-0.258,1.024,-0.330,-0.216,1.085,-0.008,-0.338,0.835,-0.435,-0.322,0.874,978.622,686.955,0.929,913.658,688.435,0.932,1069.505,528.807,1.130,826.218,525.388,1.113,1097.067,300.255,1.024,670.523,350.844,1.085,950.802,154.758,0.835,486.609,189.179,0.874,-0.033,-0.959,1.401,0.000,-355.436,0.000,0.033,0.003,0.016,-0.022,-1.312,1.375
0723_102532_0084.png,0.043,0.179,0.929,-0.023,0.177,0.928,0.166,-0.007,1.085,-0.124,0.008,1.149,0.268,-0.260,1.123,-0.196,-0.252,1.100,0.145,-0.318,0.895,-0.154,-0.327,0.849,1003.983,723.637,0.929,936.561,721.851,0.928,1105.627,533.865,1.085,857.503,546.295,1.149,1186.809,319.862,1.123,790.239,321.899,1.100,1114.282,202.296,0.895,787.776,173.511,0.849,-0.029,-0.969,1.403,0.000,-11.501,0.000,-0.001,-0.021,-0.006,-0.149,-0.905,1.493
0723_102532_0085.png,0.064,0.169,0.937,-0.001,0.164,0.931,0.183,-0.014,1.082,-0.100,0.004,1.162,0.232,-0.195,1.280,-0.107,-0.175,0.938,0.189,-0.283,1.026,-0.116,-0.350,0.721,1025.052,711.226,0.937,958.690,707.806,0.931,1120.966,527.362,1.082,877.834,543.284,1.162,1132.405,395.002,1.280,851.587,362.992,0.938,1134.995,278.156,1.026,807.167,79.063,0.721,-0.040,-0.964,1.402,0.000,-14.981,0.000,0.006,-0.004,-0.033,-0.044,-0.901,1.689
0723_102532_0086.png,0.020,0.156,0.942,-0.047,0.155,0.940,0.135,-0.011,1.122,-0.167,-0.011,1.122,0.277,-0.203,1.235,-0.207,-0.266,1.073,0.266,-0.275,0.988,-0.171,-0.319,0.823,980.478,697.075,0.942,912.943,696.677,0.940,1074.344,530.763,1.122,818.796,530.925,1.122,1173.161,383.935,1.235,776.492,304.455,1.073,1216.457,275.053,0.988,762.341,171.898,0.823,-0.022,-0.969,1.403,0.000,-358.983,0.000,-0.015,0.036,0.020,0.120,-1.068,1.142
0723_102532_0087.png,0.040,0.172,0.928,-0.025,0.171,0.931,0.167,-0.014,1.081,-0.117,0.002,1.150,0.094,-0.192,0.887,-0.215,-0.220,1.032,0.023,-0.366,0.698,-0.137,-0.341,0.814,1001.010,716.490,0.928,934.481,715.193,0.931,1107.296,527.448,1.081,863.090,541.421,1.150,1061.099,333.940,0.887,761.457,337.231,1.032,991.707,41.599,0.698,800.466,142.033,0.814,-0.031,-0.965,1.402,0.000,-12.905,0.000,0.012,-0.016,0.007,-0.336,-0.925,1.425
0723_102532_0088.png,0.019,0.185,0.934,-0.046,0.186,0.933,0.123,0.007,1.136,-0.166,-0.001,1.100,0.170,-0.207,0.977,-0.162,-0.227,0.951,0.149,-0.355,0.760,-0.078,-0.361,0.741,978.995,728.436,0.934,913.171,729.023,0.933,1062.941,545.557,1.136,816.298,538.749,1.100,1125.887,338.149,0.977,797.955,312.841,0.951,1147.014,95.501,0.760,859.334,76.771,0.741,-0.033,-0.972,1.404,0.000,-351.714,0.000,0.018,-0.015,0.004,0.207,-0.786,1.434
0723_102532_0089.png,0.032,0.165,0.944,-0.034,0.162,0.938,0.141,-0.006,1.123,-0.158,-0.004,1.131,0.210,-0.258,1.175,-0.238,-0.257,1.166,0.214,-0.304,0.912,-0.219,-0.307,0.904,991.921,705.969,0.944,925.280,704.590,0.938,1079.643,535.104,1.123,827.411,536.661,1.131,1130.100,330.901,1.175,765.585,330.630,1.166,1183.323,223.062,0.912,729.377,217.622,0.904,-0.026,-0.968,1.402,0.000,-0.377,0.000,-0.007,0.017,-0.018,0.267,-1.018,1.284
0723_102532_0090.png,0.023,0.181,0.928,-0.043,0.181,0.927,0.130,0.005,1.133,-0.165,0.000,1.109,0.132,-0.213,0.963,-0.276,-0.219,0.986,0.096,-0.362,0.744,-0.324,-0.355,0.761,983.315,724.915,0.928,916.158,725.359,0.927,1069.102,544.502,1.133,818.847,539.893,1.109,1089.970,330.041,0.963,693.963,328.756,0.986,1083.307,76.899,0.744,555.135,96.330,0.761,-0.032,-0.967,1.402,0.000,-354.071,0.000,0.005,-0.036,-0.014,0.207,-1.071,1.192
0723_102532_0091.png,0.008,0.173,0.937,-0.057,0.176,0.941,0.112,0.001,1.151,-0.175,-0.012,1.092,0.253,-0.196,1.028,-0.268,-0.204,0.922,0.355,-0.333,0.824,-0.304,-0.363,0.712,968.428,715.805,0.937,902.788,717.434,0.941,1052.584,541.050,1.151,807.751,529.377,1.092,1194.281,358.428,1.028,683.228,329.973,0.922,1369.355,155.221,0.824,553.801,54.865,0.712,-0.035,-0.966,1.402,0.000,-346.989,0.000,0.013,0.000,-0.007,0.143,-0.833,1.283
0723_102532_0092.png,0.045,0.163,0.932,-0.020,0.159,0.924,0.154,-0.014,1.097,-0.137,-0.005,1.135,0.076,-0.187,0.910,-0.129,-0.180,0.928,-0.001,-0.356,0.728,-0.121,-0.350,0.727,1005.634,706.733,0.932,939.905,703.901,0.924,1093.384,528.054,1.097,845.442,535.817,1.135,1039.455,344.619,0.910,827.696,355.770,0.928,958.924,75.344,0.728,802.094,81.915,0.727,-0.029,-0.964,1.402,0.000,-6.516,0.000,0.013,-0.009,0.026,0.253,-1.089,1.412
0723_102532_0093.png,0.022,0.150,0.941,-0.044,0.151,0.947,0.151,-0.017,1.118,-0.149,-0.011,1.142,0.123,-0.282,1.080,-0.288,-0.224,1.042,0.063,-0.326,0.822,-0.344,-0.333,0.801,982.203,691.409,0.941,915.376,691.903,0.947,1088.527,525.530,1.118,836.236,530.435,1.142,1068.141,291.655,1.080,696.734,335.315,1.042,1033.372,162.532,0.822,551.177,144.920,0.801,-0.027,-0.959,1.400,0.000,-3.533,0.000,-0.013,0.023,-0.025,-0.303,-1.094,1.260
0723_102532_0094.png,0.031,0.186,0.934,-0.033,0.186,0.935,0.149,0.001,1.111,-0.142,0.005,1.127,0.278,-0.233,1.065,-0.259,-0.188,0.977,0.302,-0.337,0.825,-0.324,-0.349,0.777,991.932,729.635,0.934,926.183,729.435,0.935,1087.425,541.099,1.111,840.075,544.281,1.127,1207.756,332.327,1.065,707.454,356.988,0.977,1308.599,151.817,0.825,563.513,113.208,0.777,-0.033,-0.973,1.404,0.000,-2.156,0.000,0.019,-0.015,0.002,-0.058,-0.822,1.275
0723_102532_0095.png,0.069,0.171,0.930,0.006,0.163,0.917,0.176,-0.015,1.074,-0.100,0.002,1.151,0.077,-0.192,0.892,-0.241,-0.210,1.244,-0.017,-0.366,0.715,-0.273,-0.298,1.001,1030.157,714.467,0.930,966.657,709.366,0.917,1115.483,526.343,1.074,877.480,541.988,1.151,1042.384,334.802,0.892,775.465,379.291,1.244,937.097,52.901,0.715,700.238,257.114,1.001,-0.039,-0.964,1.402,0.000,-14.946,0.000,0.035,-0.027,0.012,0.275,-1.096,1.437
0723_102532_0096.png,0.045,0.153,0.938,-0.020,0.150,0.934,0.162,-0.012,1.109,-0.130,-0.003,1.148,0.161,-0.273,1.027,-0.235,-0.177,0.947,-0.016,-0.336,0.834,-0.341,-0.346,0.752,1005.518,694.778,0.938,939.177,692.314,0.934,1099.315,530.096,1.109,852.481,537.888,1.148,1109.021,287.113,1.027,723.476,362.409,0.947,942.195,156.978,0.834,528.502,101.766,0.752,-0.035,-0.963,1.402,0.000,-6.656,0.000,0.006,0.012,-0.036,0.029,-1.236,1.413
0723_102532_0097.png,0.050,0.177,0.941,-0.015,0.173,0.933,0.166,-0.009,1.086,-0.117,0.009,1.162,0.089,-0.194,0.882,-0.295,-0.199,1.165,0.017,-0.375,0.682,-0.212,-0.313,0.934,1010.209,719.159,0.941,944.353,715.850,0.933,1105.580,532.278,1.086,864.126,547.176,1.162,1056.064,330.958,0.882,719.294,377.676,1.165,984.377,17.177,0.682,743.928,221.542,0.934,-0.024,-0.968,1.402,0.000,-14.316,0.000,0.010,-0.004,-0.045,0.001,-1.019,1.065
0723_102532_0098.png,0.056,0.192,0.941,-0.008,0.188,0.932,0.166,-0.004,1.094,-0.116,0.009,1.148,0.261,-0.195,1.270,-0.262,-0.197,1.251,0.302,-0.298,1.025,-0.344,-0.297,1.013,1016.202,733.759,0.941,952.161,731.988,0.932,1104.089,536.581,1.094,863.630,547.112,1.148,1155.182,393.741,1.270,760.480,390.315,1.251,1240.356,263.815,1.025,637.210,261.633,1.013,-0.036,-0.968,1.403,0.000,-10.037,0.000,0.032,-0.027,-0.026,0.170,-0.706,1.456
0723_102532_0099.png,0.025,0.166,0.920,-0.040,0.165,0.920,0.143,-0.009,1.105,-0.147,-0.003,1.127,0.192,-0.214,1.290,-0.284,-0.206,1.258,0.250,-0.286,1.047,-0.431,-0.284,1.059,985.767,711.149,0.920,919.186,710.349,0.920,1082.748,532.639,1.105,835.855,537.095,1.127,1101.205,382.015,1.290,745.360,384.408,1.258,1187.075,280.152,1.047,572.967,284.977,1.059,-0.025,-0.961,1.401,0.000,-3.329,0.000,0.021,-0.042,0.016,-0.052,-1.218,1.407
0723_102532_0100.png,0.060,0.154,0.934,-0.005,0.149,0.926,0.174,-0.020,1.081,-0.115,-0.005,1.149,0.266,-0.268,1.111,-0.270,-0.212,1.089,0.135,-0.307,0.894,-0.195,-0.316,0.865,1021.349,697.226,0.934,955.151,693.222,0.926,1112.866,522.059,1.081,864.876,536.191,1.149,1188.159,310.243,1.111,724.345,355.149,1.089,1103.184,212.948,0.894,745.666,192.508,0.865,-0.036,-0.966,1.402,0.000,-12.548,0.000,-0.001,0.016,0.028,0.128,-1.029,1.693
0723_102532_0101.png,0.010,0.172,0.938,-0.054,0.176,0.949,0.131,0.000,1.141,-0.159,-0.007,1.110,0.091,-0.180,0.930,-0.280,-0.247,1.095,0.055,-0.357,0.726,-0.125,-0.321,0.892,970.321,714.036,0.938,906.331,716.214,0.949,1069.263,539.971,1.141,823.701,533.916,1.110,1053.327,355.726,0.930,717.247,325.386,1.095,1031.781,72.639,0.726,826.876,197.535,0.892,-0.039,-0.968,1.403,0.000,-352.622,0.000,0.017,0.009,-0.017,-0.258,-0.776,1.515
0723_102532_0102.png,0.041,0.178,0.941,-0.024,0.176,0.938,0.162,-0.010,1.100,-0.129,0.002,1.152,0.090,-0.226,0.935,-0.229,-0.239,1.055,-0.002,-0.367,0.719,-0.086,-0.336,0.849,1001.803,719.520,0.941,935.502,718.111,0.938,1099.983,531.189,1.100,853.892,541.493,1.152,1052.025,309.898,0.935,753.822,324.810,1.055,957.227,54.186,0.719,863.365,163.861,0.849,-0.029,-0.962,1.401,0.000,-9.279,0.000,0.005,-0.014,-0.038,-0.084,-0.787,1.505
0723_102532_0103.png,0.038,0.169,0.926,-0.027,0.167,0.926,0.159,-0.016,1.085,-0.125,-0.003,1.142,0.244,-0.227,1.241,-0.133,-0.206,0.971,0.381,-0.287,1.031,-0.063,-0.352,0.770,998.732,713.072,0.926,932.603,711.529,0.926,1099.819,525.799,1.085,855.857,537.576,1.142,1146.964,366.245,1.241,829.589,338.462,0.971,1311.563,275.467,1.031,882.649,105.865,0.770,-0.029,-0.962,1.401,0.000,-10.603,0.000,0.021,-0.021,0.026,-0.189,-1.055,1.216
0723_102532_0104.png,0.036,0.173,0.938,-0.029,0.172,0.939,0.161,-0.006,1.100,-0.134,0.003,1.141,0.235,-0.198,1.270,-0.159,-0.176,0.935,0.184,-0.274,1.023,-0.184,-0.351,0.733,996.992,715.056,0.938,930.154,714.403,0.939,1098.911,534.573,1.100,848.251,542.561,1.141,1135.930,391.786,1.270,797.839,360.742,0.935,1131.012,285.743,1.023,721.475,85.513,0.733,-0.032,-0.973,1.404,0.000,-6.889,0.000,-0.003,0.015,0.000,-0.197,-0.918,1.220
0723_102532_0105.png,0.029,0.170,0.942,-0.038,0.171,0.944,0.151,-0.015,1.112,-0.150,-0.012,1.126,0.124,-0.241,0.979,-0.303,-0.208,1.230,-0.019,-0.332,0.782,-0.435,-0.271,1.017,989.077,711.611,0.942,921.614,711.681,0.944,1089.486,526.957,1.112,833.030,530.026,1.126,1080.535,305.411,0.979,725.787,379.106,1.230,936.879,136.616,0.782,552.919,286.737,1.017,-0.032,-0.963,1.402,0.000,-1.735,0.000,-0.018,0.013,0.028,-0.108,-0.704,1.229
0723_102532_0106.png,0.013,0.177,0.933,-0.052,0.179,0.937,0.129,0.001,1.134,-0.165,-0.004,1.112,0.251,-0.235,1.203,-0.172,-0.254,0.997,0.311,-0.303,0.951,-0.056,-0.352,0.777,973.360,720.047,0.933,907.101,721.266,0.937,1068.176,540.874,1.134,818.771,536.627,1.112,1158.737,354.536,1.203,796.314,297.903,0.997,1270.901,237.085,0.951,891.272,109.466,0.777,-0.030,-0.965,1.402,0.000,-354.499,0.000,0.006,-0.019,-0.017,-0.064,-0.944,1.240
0723_102532_0107.png,0.020,0.163,0.924,-0.047,0.165,0.929,0.146,-0.004,1.121,-0.159,-0.004,1.120,0.231,-0.229,1.258,-0.267,-0.251,1.067,0.350,-0.275,1.025,-0.106,-0.319,0.866,981.019,707.521,0.924,911.842,708.681,0.929,1084.208,536.931,1.121,825.154,536.797,1.120,1134.329,366.777,1.258,721.984,316.687,1.067,1284.392,284.543,1.025,843.462,189.455,0.866,-0.032,-0.964,1.402,0.000,-358.697,0.000,-0.028,-0.024,-0.001,-0.159,-1.142,1.565
0723_102532_0108.png,0.046,0.184,0.931,-0.021,0.183,0.931,0.170,-0.001,1.101,-0.127,0.010,1.145,0.241,-0.227,1.247,-0.229,-0.227,1.039,0.173,-0.293,0.991,-0.128,-0.342,0.815,1006.858,728.111,0.931,938.915,726.908,0.931,1106.591,539.486,1.101,854.605,547.970,1.145,1143.785,366.949,1.247,749.929,331.895,1.039,1125.790,259.084,0.991,811.186,141.183,0.815,-0.038,-0.968,1.403,0.000,-7.550,0.000,-0.011,-0.031,-0.035,-0.109,-0.918,1.435
0723_102532_0109.png,0.020,0.156,0.930,-0.045,0.156,0.931,0.138,-0.013,1.108,-0.154,-0.010,1.124,0.283,-0.236,1.123,-0.220,-0.183,0.938,0.352,-0.309,0.890,-0.271,-0.348,0.749,980.515,699.641,0.930,914.184,699.362,0.931,1078.481,528.606,1.108,829.297,531.810,1.124,1200.006,340.042,1.123,736.737,354.607,0.938,1335.980,209.604,0.890,615.648,98.519,0.749,-0.023,-0.966,1.402,0.000,-1.973,0.000,0.013,0.010,0.041,-0.064,-1.086,1.412
0723_102532_0110.png,-0.008,0.161,0.931,-0.072,0.165,0.939,0.103,-0.004,1.145,-0.183,-0.016,1.091,0.091,-0.215,0.983,-0.331,-0.226,1.166,0.012,-0.348,0.775,-0.257,-0.306,0.932,951.756,704.779,0.931,887.104,707.462,0.939,1045.907,536.692,1.145,800.754,525.877,1.091,1048.487,331.987,0.983,689.773,355.765,1.166,974.872,112.903,0.775,697.621,227.872,0.932,-0.023,-0.965,1.402,0.000,-348.029,0.000,0.019,0.007,0.019,-0.092,-0.862,1.644
0723_102532_0111.png,0.007,0.156,0.926,-0.061,0.161,0.935,0.133,0.000,1.139,-0.172,-0.008,1.107,0.167,-0.252,1.042,-0.277,-0.205,1.263,-0.018,-0.318,0.858,-0.415,-0.266,1.041,966.735,700.000,0.926,898.441,703.442,0.935,1070.680,539.740,1.139,811.997,533.426,1.107,1112.837,309.676,1.042,751.279,385.693,1.263,939.623,187.867,0.858,580.796,297.028,1.041,-0.033,-0.966,1.402,0.000,-352.691,0.000,-0.033,-0.003,-0.009,-0.229,-1.216,1.448
0723_102532_0112.png,0.048,0.147,0.935,-0.017,0.142,0.929,0.164,-0.018,1.094,-0.123,-0.004,1.154,0.116,-0.254,0.964,-0.280,-0.201,1.242,0.021,-0.360,0.738,-0.353,-0.286,0.999,1008.408,689.253,0.935,942.518,684.952,0.929,1102.346,524.075,1.094,858.925,536.385,1.154,1074.440,289.747,0.964,745.456,385.849,1.242,986.489,75.595,0.738,624.206,268.037,0.999,-0.029,-0.962,1.401,0.000,-11.080,0.000,0.013,0.013,-0.016,0.052,-1.287,1.496
0723_102532_0113.png,0.027,0.173,0.944,-0.037,0.173,0.945,0.145,-0.009,1.110,-0.144,-0.004,1.131,0.275,-0.234,1.066,-0.207,-0.241,1.030,0.281,-0.330,0.825,-0.203,-0.342,0.791,987.206,713.968,0.944,922.634,713.832,0.945,1083.885,532.658,1.110,838.851,536.713,1.131,1205.648,331.042,1.066,768.379,317.352,1.030,1283.556,158.997,0.825,715.808,128.067,0.791,-0.029,-0.971,1.403,0.000,-2.954,0.000,0.025,0.026,0.015,-0.096,-0.696,1.423
0723_102532_0114.png,0.034,0.184,0.919,-0.033,0.183,0.921,0.161,-0.001,1.083,-0.136,0.012,1.140,0.187,-0.223,0.931,-0.262,-0.228,1.100,0.182,-0.359,0.708,-0.136,-0.315,0.886,994.718,730.656,0.919,925.559,729.197,0.921,1101.225,538.801,1.083,846.936,549.993,1.140,1150.583,311.739,0.931,733.798,343.246,1.100,1203.710,58.012,0.708,813.997,201.910,0.886,-0.025,-0.973,1.404,0.000,-10.199,0.000,-0.018,-0.039,0.015,-0.214,-1.025,1.398
0723_102532_0115.png,0.005,0.166,0.942,-0.061,0.169,0.948,0.121,0.000,1.144,-0.175,-0.007,1.113,0.213,-0.252,1.099,-0.195,-0.270,1.044,0.043,-0.313,0.902,-0.147,-0.341,0.787,964.640,708.083,0.942,898.701,709.778,0.948,1060.395,539.599,1.144,810.577,533.614,1.113,1144.196,322.100,1.099,782.409,294.366,1.044,1004.837,210.463,0.902,781.989,128.275,0.787,-0.026,-0.968,1.402,0.000,-352.799,0.000,-0.001,0.018,-0.030,-0.063,-0.849,1.514
0723_102532_0116.png,0.015,0.159,0.926,-0.051,0.161,0.929,0.133,-0.004,1.127,-0.165,-0.006,1.117,0.202,-0.180,0.926,-0.248,-0.215,1.276,0.270,-0.352,0.730,-0.268,-0.281,1.020,975.467,703.278,0.926,907.784,704.404,0.929,1072.345,536.816,1.127,819.507,534.771,1.117,1167.827,354.783,0.926,775.393,380.074,1.276,1311.409,80.523,0.730,710.492,278.333,1.020,-0.027,-0.963,1.401,0.000,-356.798,0.000,-0.005,-0.018,-0.004,-0.047,-1.136,1.666
0723_102532_0117.png,0.049,0.160,0.936,-0.015,0.154,0.926,0.159,-0.012,1.089,-0.128,0.002,1.149,0.174,-0.175,1.301,-0.221,-0.165,0.948,0.236,-0.267,1.062,-0.312,-0.327,0.753,1009.848,702.756,0.936,944.633,698.199,0.926,1098.581,529.889,1.089,853.746,541.715,1.149,1087.584,412.250,1.301,738.149,374.708,0.948,1170.851,301.284,1.062,565.527,126.427,0.753,-0.025,-0.970,1.403,0.000,-10.816,0.000,0.012,0.013,0.002,0.232,-1.132,1.531
0723_102532_0118.png,0.030,0.161,0.938,-0.038,0.162,0.939,0.148,-0.016,1.122,-0.155,-0.017,1.115,0.243,-0.224,1.262,-0.249,-0.257,1.049,0.395,-0.260,1.054,-0.077,-0.313,0.861,990.083,703.296,0.938,921.930,703.574,0.939,1085.514,526.783,1.122,827.506,525.383,1.115,1143.276,370.821,1.262,734.439,307.041,1.049,1316.244,305.812,1.054,874.506,194.740,0.861,-0.037,-0.961,1.401,0.000,-357.524,0.000,-0.022,0.011,0.034,0.028,-0.763,1.630
0723_102532_0119.png,0.063,0.169,0.934,0.000,0.163,0.922,0.170,-0.018,1.071,-0.111,0.001,1.150,0.182,-0.185,1.282,-0.200,-0.161,0.954,0.247,-0.272,1.050,-0.285,-0.319,0.763,1023.968,711.975,0.934,959.761,707.734,0.922,1110.879,524.436,1.071,867.844,540.609,1.150,1094.946,402.923,1.282,760.779,379.601,0.954,1183.623,293.258,1.050,605.029,142.891,0.763,-0.031,-0.968,1.403,0.000,-14.991,0.000,0.014,-0.001,0.032,0.272,-0.949,1.502
0723_102532_0120.png,-0.003,0.175,0.930,-0.068,0.179,0.939,0.108,0.004,1.148,-0.179,-0.011,1.083,0.207,-0.217,1.268,-0.256,-0.263,1.028,0.239,-0.279,1.018,-0.111,-0.332,0.825,956.902,718.540,0.930,891.631,720.881,0.939,1049.675,543.163,1.148,802.823,530.350,1.083,1115.170,376.953,1.268,723.147,297.116,1.028,1183.433,279.329,1.018,832.403,157.213,0.825,-0.032,-0.970,1.403,0.000,-345.866,0.000,0.007,-0.002,0.017,-0.075,-0.740,1.648
0723_102532_0121.png,0.036,0.173,0.941,-0.030,0.173,0.941,0.154,-0.009,1.118,-0.142,-0.006,1.131,0.224,-0.217,1.278,-0.223,-0.181,0.927,0.387,-0.267,1.075,-0.304,-0.351,0.729,996.156,714.982,0.941,929.839,714.796,0.941,1090.801,532.231,1.118,840.641,534.842,1.131,1126.835,378.586,1.278,730.763,354.601,0.927,1302.299,303.542,1.075,563.749,82.253,0.729,-0.038,-0.962,1.401,0.000,-1.419,0.000,0.003,-0.004,-0.011,-0.024,-0.875,1.106
0723_102532_0122.png,-0.002,0.175,0.931,-0.068,0.179,0.940,0.117,0.009,1.146,-0.181,-0.001,1.100,0.084,-0.172,0.931,-0.172,-0.242,0.968,0.052,-0.348,0.721,-0.099,-0.355,0.735,958.308,718.616,0.931,891.438,721.273,0.940,1056.841,547.635,1.146,803.580,538.815,1.100,1045.640,364.510,0.931,791.145,302.065,0.968,1028.892,80.873,0.721,831.854,80.277,0.735,-0.028,-0.974,1.404,0.000,-349.816,0.000,-0.015,-0.002,-0.020,-0.126,-0.862,1.661
0723_102532_0123.png,-0.003,0.181,0.931,-0.067,0.185,0.938,0.100,0.012,1.153,-0.182,-0.003,1.087,0.122,-0.228,1.020,-0.303,-0.231,1.004,0.000,-0.347,0.818,-0.351,-0.355,0.772,956.864,725.283,0.931,891.812,727.771,0.938,1042.597,550.064,1.153,800.635,537.362,1.087,1074.225,327.744,1.020,672.522,320.850,1.004,960.535,136.767,0.818,527.113,102.818,0.772,-0.030,-0.973,1.404,0.000,-345.295,0.000,0.022,-0.011,-0.021,0.044,-0.829,1.500
0723_102532_0124.png,0.012,0.165,0.941,-0.057,0.167,0.945,0.133,-0.005,1.139,-0.175,-0.010,1.118,0.253,-0.239,1.061,-0.324,-0.235,1.071,0.286,-0.325,0.807,-0.364,-0.322,0.819,971.858,707.123,0.941,903.164,708.318,0.945,1071.111,536.138,1.139,811.339,531.880,1.118,1186.313,325.404,1.061,672.559,330.966,1.071,1297.214,156.802,0.807,537.222,165.412,0.819,-0.027,-0.964,1.402,0.000,-354.748,0.000,-0.039,0.010,-0.026,-0.049,-0.940,1.232
0723_102532_0125.png,0.037,0.165,0.936,-0.029,0.163,0.934,0.155,-0.006,1.112,-0.139,0.001,1.140,0.099,-0.187,0.900,-0.218,-0.245,1.046,0.046,-0.365,0.693,-0.057,-0.332,0.851,997.568,707.720,0.936,930.841,706.434,0.934,1092.724,535.225,1.112,843.748,540.690,1.140,1064.584,342.106,0.900,761.698,316.916,1.046,1023.423,39.065,0.693,896.033,169.415,0.851,-0.032,-0.966,1.402,0.000,-4.378,0.000,0.003,-0.001,-0.028,0.000,-1.080,1.452
0723_102532_0126.png,0.027,0.157,0.933,-0.040,0.156,0.933,0.149,-0.008,1.114,-0.154,-0.004,1.135,0.161,-0.267,1.033,-0.314,-0.212,1.060,-0.017,-0.323,0.841,-0.396,-0.321,0.831,987.796,699.885,0.933,919.125,699.098,0.933,1087.217,532.859,1.114,830.688,537.050,1.135,1107.891,294.093,1.033,678.274,349.539,1.060,941.141,174.877,0.841,506.958,172.138,0.831,-0.025,-0.966,1.402,0.000,-2.906,0.000,-0.024,0.006,-0.010,-0.029,-1.086,1.647
0723_102532_0127.png,-0.009,0.172,0.936,-0.073,0.177,0.948,0.105,0.001,1.155,-0.182,-0.011,1.100,0.192,-0.179,0.948,-0.242,-0.270,1.024,0.280,-0.355,0.749,-0.092,-0.347,0.810,950.778,714.325,0.936,886.689,717.349,0.948,1046.054,541.009,1.155,802.583,530.109,1.100,1152.209,360.626,0.948,735.064,288.875,1.024,1315.669,89.266,0.749,851.652,132.362,0.810,-0.027,-0.961,1.401,0.000,-347.666,0.000,0.016,-0.012,-0.042,-0.187,-0.858,1.376
0723_102532_0128.png,0.053,0.178,0.931,-0.012,0.173,0.922,0.168,-0.010,1.084,-0.122,0.006,1.154,0.123,-0.220,0.907,-0.158,-0.209,0.983,0.033,-0.372,0.702,-0.086,-0.353,0.768,1014.559,721.946,0.931,947.662,718.205,0.922,1107.356,531.461,1.084,859.786,545.177,1.154,1088.857,309.783,0.907,806.995,338.062,0.983,1004.171,36.617,0.702,853.162,102.637,0.768,-0.028,-0.963,1.401,0.000,-12.701,0.000,-0.004,-0.037,-0.022,0.148,-1.088,1.229
0723_102532_0129.png,0.048,0.162,0.948,-0.016,0.158,0.939,0.158,-0.022,1.091,-0.130,-0.009,1.147,0.100,-0.193,0.895,-0.279,-0.196,1.258,0.042,-0.359,0.703,-0.459,-0.258,1.084,1008.310,702.319,0.948,943.637,700.151,0.939,1097.990,520.876,1.091,852.261,532.376,1.147,1065.926,334.731,0.895,749.257,391.669,1.258,1016.407,53.788,0.703,557.181,313.679,1.084,-0.026,-0.964,1.402,0.000,-10.003,0.000,0.011,0.032,0.023,0.176,-0.733,1.560
0723_102532_0130.png,0.007,0.160,0.945,-0.057,0.161,0.948,0.114,-0.016,1.142,-0.173,-0.026,1.097,0.275,-0.219,1.096,-0.226,-0.274,1.030,0.360,-0.313,0.876,-0.063,-0.328,0.840,967.410,701.198,0.945,902.932,701.967,0.948,1054.835,526.649,1.142,810.334,517.297,1.097,1198.100,349.880,1.096,751.618,286.514,1.030,1350.815,199.756,0.876,889.069,168.413,0.840,-0.029,-0.958,1.400,0.000,-349.826,0.000,0.023,0.025,0.034,0.115,-0.694,1.270
0723_102532_0131.png,0.016,0.162,0.942,-0.051,0.165,0.951,0.147,-0.006,1.126,-0.157,-0.006,1.127,0.188,-0.246,1.010,-0.167,-0.245,1.003,0.178,-0.338,0.760,-0.055,-0.334,0.778,976.202,703.168,0.942,909.455,704.660,0.951,1084.002,534.710,1.126,827.728,534.989,1.127,1137.102,308.391,1.010,801.767,307.621,1.003,1182.122,117.751,0.760,893.333,131.898,0.778,-0.032,-0.970,1.403,0.000,-359.100,0.000,-0.022,0.035,-0.010,-0.324,-0.868,1.444
0723_102532_0132.png,-0.007,0.152,0.937,-0.073,0.158,0.951,0.122,-0.011,1.149,-0.180,-0.024,1.095,0.234,-0.187,0.979,-0.292,-0.265,1.093,0.286,-0.331,0.768,-0.135,-0.299,0.887,953.174,694.695,0.937,887.422,698.133,0.951,1061.147,530.701,1.149,803.755,519.590,1.095,1187.221,358.403,0.979,705.684,309.203,1.093,1314.470,130.184,0.768,815.734,219.555,0.887,-0.033,-0.961,1.401,0.000,-348.548,0.000,-0.034,0.029,0.016,-0.344,-0.855,1.446
0723_102532_0133.png,0.020,0.159,0.923,-0.046,0.161,0.928,0.144,-0.006,1.118,-0.158,-0.007,1.113,0.109,-0.179,0.917,-0.283,-0.192,1.270,0.071,-0.347,0.720,-0.261,-0.270,1.028,981.000,704.002,0.923,912.354,705.195,0.928,1082.624,535.033,1.118,824.644,534.114,1.113,1072.698,354.066,0.917,748.314,396.098,1.270,1053.121,81.814,0.720,719.034,290.174,1.028,-0.033,-0.967,1.402,0.000,-357.938,0.000,-0.019,-0.009,0.033,-0.149,-1.245,1.276
0723_102532_0134.png,0.043,0.178,0.941,-0.021,0.177,0.942,0.167,-0.009,1.093,-0.114,0.006,1.155,0.299,-0.243,1.075,-0.115,-0.175,0.934,0.349,-0.340,0.828,-0.120,-0.353,0.719,1003.825,719.960,0.941,939.154,718.832,0.942,1105.451,532.390,1.093,866.495,544.703,1.155,1224.377,325.111,1.075,843.016,361.479,0.934,1360.838,149.804,0.828,801.086,72.735,0.719,-0.033,-0.968,1.403,0.000,-11.778,0.000,0.030,0.002,-0.034,-0.287,-0.796,1.367
0723_102532_0135.png,0.039,0.155,0.940,-0.026,0.152,0.933,0.149,-0.016,1.104,-0.142,-0.008,1.137,0.240,-0.197,1.273,-0.138,-0.227,0.987,0.341,-0.271,1.046,-0.090,-0.344,0.761,999.110,697.318,0.940,933.713,694.923,0.933,1088.348,526.402,1.104,841.273,533.233,1.137,1139.585,392.468,1.273,827.121,321.309,0.987,1270.433,293.884,1.046,847.963,110.329,0.761,-0.026,-0.966,1.402,0.000,-5.559,0.000,0.014,0.024,0.019,0.194,-1.031,1.466
0723_102532_0136.png,-0.012,0.155,0.929,-0.079,0.162,0.941,0.111,-0.001,1.155,-0.191,-0.016,1.090,0.258,-0.219,1.080,-0.255,-0.252,0.970,0.246,-0.317,0.833,-0.241,-0.345,0.722,947.861,698.992,0.929,880.410,703.542,0.941,1051.171,539.182,1.155,793.260,526.194,1.090,1187.352,347.583,1.080,709.986,292.714,0.970,1240.927,178.418,0.833,643.123,85.017,0.722,-0.027,-0.964,1.402,0.000,-346.455,0.000,-0.041,0.007,-0.008,-0.226,-1.103,1.356
0723_102532_0137.png,0.004,0.152,0.936,-0.059,0.155,0.942,0.114,-0.013,1.139,-0.169,-0.021,1.105,0.224,-0.253,1.123,-0.236,-0.223,0.946,0.073,-0.313,0.926,-0.235,-0.363,0.728,963.806,694.749,0.936,900.378,696.654,0.942,1055.042,529.116,1.139,814.913,522.227,1.105,1149.720,325.557,1.123,723.174,316.177,0.946,1035.175,218.058,0.926,653.424,66.147,0.728,-0.027,-0.960,1.401,0.000,-351.954,0.000,0.042,0.017,0.017,-0.055,-0.892,1.622
0723_102532_0138.png,0.005,0.180,0.920,-0.060,0.184,0.928,0.118,0.003,1.140,-0.173,-0.008,1.089,0.234,-0.248,1.146,-0.205,-0.225,0.930,0.111,-0.313,0.924,-0.192,-0.365,0.710,965.458,726.044,0.920,898.779,728.343,0.928,1058.700,542.868,1.140,808.859,532.715,1.089,1154.578,334.312,1.146,750.797,309.890,0.930,1074.272,218.101,0.924,702.460,50.663,0.710,-0.034,-0.963,1.402,0.000,-348.597,0.000,0.003,-0.048,0.013,-0.090,-1.012,1.162
0723_102532_0139.png,-0.002,0.169,0.930,-0.068,0.172,0.934,0.103,-0.002,1.150,-0.188,-0.017,1.085,0.188,-0.247,1.072,-0.148,-0.264,0.982,0.019,-0.319,0.882,-0.079,-0.349,0.744,958.120,713.282,0.930,890.794,715.307,0.934,1045.524,538.391,1.150,795.009,525.184,1.085,1126.986,320.702,1.072,817.099,284.504,0.982,980.464,195.966,0.882,859.385,93.702,0.744,-0.025,-0.961,1.401,0.000,-345.933,0.000,-0.008,-0.019,0.009,0.135,-0.973,1.159
0723_102532_0140.png,0.044,0.164,0.934,-0.019,0.160,0.928,0.158,-0.014,1.093,-0.122,-0.002,1.148,0.276,-0.247,1.163,-0.229,-0.249,1.170,0.152,-0.317,0.941,-0.209,-0.320,0.916,1004.620,706.525,0.934,940.321,703.636,0.928,1097.025,527.429,1.093,858.995,538.357,1.148,1185.346,337.940,1.163,773.755,337.255,1.170,1113.789,219.069,0.941,743.131,208.109,0.916,-0.029,-0.962,1.401,0.000,-10.098,0.000,0.040,-0.008,-0.006,0.035,-1.133,1.259
0723_102532_0141.png,0.012,0.164,0.927,-0.054,0.168,0.936,0.139,-0.009,1.128,-0.161,-0.012,1.113,0.202,-0.216,1.299,-0.261,-0.253,1.035,0.322,-0.267,1.071,-0.265,-0.339,0.787,971.818,708.286,0.927,905.096,710.392,0.936,1076.813,532.721,1.128,822.778,529.665,1.113,1107.967,381.853,1.299,719.970,307.684,1.035,1246.352,302.684,1.071,639.870,130.859,0.787,-0.034,-0.958,1.400,0.000,-355.871,0.000,-0.009,-0.023,0.006,-0.287,-0.955,1.553
0723_102532_0142.png,0.018,0.180,0.927,-0.047,0.182,0.931,0.131,0.006,1.136,-0.162,-0.001,1.104,0.285,-0.218,1.098,-0.253,-0.205,0.944,0.386,-0.324,0.876,-0.283,-0.363,0.730,978.942,724.430,0.927,912.118,725.954,0.931,1069.797,545.191,1.136,820.228,539.083,1.104,1206.656,351.260,1.098,705.364,333.547,0.944,1378.888,188.253,0.876,591.760,66.878,0.730,-0.037,-0.968,1.403,0.000,-352.519,0.000,0.005,-0.032,-0.013,0.002,-0.995,1.330
0723_102532_0143.png,0.053,0.185,0.937,-0.010,0.181,0.928,0.162,-0.007,1.097,-0.121,0.003,1.139,0.205,-0.229,0.946,-0.267,-0.212,1.220,0.195,-0.373,0.724,-0.381,-0.302,1.000,1013.982,727.417,0.937,950.130,725.657,0.928,1100.116,533.677,1.097,859.397,542.098,1.139,1165.953,309.616,0.946,751.539,374.728,1.220,1216.566,49.791,0.724,597.743,252.492,1.000,-0.038,-0.965,1.402,0.000,-7.649,0.000,0.038,-0.028,-0.002,0.207,-0.789,1.447
0723_102532_0144.png,0.040,0.168,0.951,-0.027,0.167,0.948,0.155,-0.011,1.124,-0.145,-0.008,1.135,0.150,-0.245,0.980,-0.249,-0.192,1.299,0.007,-0.343,0.773,-0.282,-0.267,1.041,999.775,708.265,0.951,933.048,707.676,0.948,1091.352,530.871,1.124,838.219,533.157,1.135,1105.878,301.841,0.980,777.573,399.389,1.299,969.176,117.688,0.773,702.805,296.471,1.041,-0.037,-0.962,1.401,0.000,-1.056,0.000,-0.013,0.019,-0.029,0.116,-0.820,1.158
0723_102532_0145.png,0.033,0.163,0.931,-0.036,0.163,0.931,0.152,-0.006,1.121,-0.158,-0.007,1.115,0.100,-0.239,1.003,-0.263,-0.209,0.972,0.027,-0.328,0.770,-0.293,-0.336,0.749,993.598,706.039,0.931,923.477,706.188,0.931,1088.732,534.967,1.121,825.488,533.696,1.115,1054.983,313.147,1.003,702.255,335.985,0.972,993.577,135.334,0.770,588.201,113.759,0.749,-0.038,-0.967,1.403,0.000,-357.624,0.000,-0.043,0.000,0.022,0.082,-1.154,1.181
0723_102532_0146.png,0.004,0.178,0.933,-0.060,0.182,0.941,0.122,0.010,1.140,-0.170,0.003,1.112,0.092,-0.207,0.966,-0.237,-0.176,1.306,-0.010,-0.357,0.764,-0.296,-0.275,1.060,964.513,721.971,0.933,899.071,724.055,0.941,1061.853,548.040,1.140,814.327,542.725,1.112,1050.725,336.097,0.966,787.308,411.712,1.306,947.539,95.906,0.764,694.911,293.470,1.060,-0.028,-0.973,1.404,0.000,-353.200,0.000,0.010,-0.008,-0.036,-0.165,-0.991,1.266
0723_102532_0147.png,0.017,0.176,0.929,-0.048,0.177,0.932,0.135,-0.003,1.119,-0.158,-0.001,1.128,0.108,-0.230,0.962,-0.282,-0.202,1.272,-0.010,-0.361,0.761,-0.433,-0.281,1.067,977.011,720.155,0.929,910.709,720.266,0.932,1074.928,537.413,1.119,827.154,539.159,1.128,1067.102,312.913,0.962,748.971,389.098,1.272,946.905,89.393,0.761,574.497,289.343,1.067,-0.022,-0.962,1.401,0.000,-0.615,0.000,0.013,-0.036,-0.021,-0.098,-1.088,1.103
0723_102532_0148.png,0.022,0.175,0.934,-0.045,0.176,0.939,0.145,-0.004,1.126,-0.160,-0.009,1.104,0.246,-0.222,1.250,-0.246,-0.202,1.272,0.377,-0.264,1.033,-0.276,-0.264,1.027,982.673,717.726,0.934,914.189,718.580,0.939,1082.078,536.524,1.126,821.797,532.268,1.104,1147.326,371.330,1.250,776.102,389.040,1.272,1307.453,297.203,1.033,704.056,295.494,1.027,-0.039,-0.970,1.403,0.000,-354.754,0.000,-0.030,0.004,0.038,-0.084,-0.760,1.375
0723_102532_0149.png,0.013,0.171,0.929,-0.054,0.174,0.936,0.138,-0.007,1.131,-0.166,-0.011,1.111,0.108,-0.183,0.923,-0.286,-0.228,0.994,0.076,-0.355,0.721,-0.324,-0.343,0.760,973.557,715.215,0.929,905.297,716.714,0.936,1075.906,534.133,1.131,817.664,530.203,1.111,1070.923,351.058,0.923,686.190,321.947,0.994,1060.948,71.645,0.721,554.850,110.241,0.760,-0.032,-0.958,1.400,0.000,-355.072,0.000,-0.027,-0.030,0.000,-0.190,-0.966,1.204
0723_102532_0150.png,0.036,0.173,0.934,-0.031,0.171,0.930,0.155,-0.014,1.092,-0.146,-0.004,1.136,0.232,-0.250,0.993,-0.168,-0.253,1.047,0.192,-0.337,0.757,-0.106,-0.322,0.807,996.921,716.293,0.934,928.288,715.077,0.930,1095.294,527.530,1.092,837.636,536.464,1.136,1181.820,300.722,0.993,807.490,310.107,1.047,1201.473,117.188,0.757,835.211,161.018,0.807,-0.023,-0.966,1.402,0.000,-7.331,0.000,-0.026,-0.007,0.037,0.033,-0.882,1.212
0723_102532_0151.png,0.015,0.180,0.932,-0.049,0.181,0.932,0.119,0.003,1.130,-0.166,-0.004,1.101,0.206,-0.225,1.023,-0.265,-0.247,1.169,0.156,-0.346,0.801,-0.290,-0.316,0.922,975.195,723.861,0.932,910.444,724.427,0.932,1060.135,542.183,1.130,816.941,536.379,1.101,1151.845,330.892,1.023,744.146,338.911,1.169,1144.581,129.864,0.801,661.163,213.475,0.922,-0.028,-0.972,1.403,0.000,-352.751,0.000,0.036,-0.011,0.023,0.174,-0.903,1.155
0723_102532_0152.png,0.029,0.179,0.929,-0.037,0.179,0.931,0.154,-0.006,1.106,-0.143,0.001,1.138,0.231,-0.235,1.248,-0.187,-0.222,0.981,0.337,-0.292,1.009,-0.105,-0.355,0.763,989.675,723.396,0.929,922.113,722.927,0.931,1092.244,534.896,1.106,840.910,541.233,1.138,1136.227,360.731,1.248,778.835,324.869,0.981,1277.823,264.258,1.009,829.509,97.622,0.763,-0.028,-0.961,1.401,0.000,-5.199,0.000,-0.004,-0.040,-0.020,-0.184,-0.981,1.278
0723_102532_0153.png,0.051,0.150,0.928,-0.013,0.145,0.923,0.167,-0.019,1.080,-0.112,-0.002,1.153,0.190,-0.283,1.032,-0.112,-0.175,0.939,0.032,-0.336,0.832,-0.113,-0.344,0.731,1012.529,693.953,0.928,947.114,689.106,0.923,1107.258,523.043,1.080,867.572,538.069,1.153,1135.378,279.144,1.032,846.541,362.702,0.939,996.344,155.916,0.832,812.914,92.136,0.731,-0.030,-0.963,1.401,0.000,-13.957,0.000,0.026,0.002,0.008,0.011,-1.289,1.517
0723_102532_0154.png,0.024,0.175,0.934,-0.040,0.175,0.938,0.150,-0.006,1.101,-0.136,0.004,1.144,0.179,-0.189,1.301,-0.291,-0.166,0.990,0.233,-0.279,1.056,-0.443,-0.331,0.842,984.775,718.004,0.934,919.729,717.560,0.938,1089.265,534.758,1.101,846.591,543.082,1.144,1090.766,401.968,1.301,680.840,380.755,0.990,1169.715,288.688,1.056,460.046,166.354,0.842,-0.024,-0.968,1.403,0.000,-7.504,0.000,0.025,-0.006,-0.017,-0.303,-0.904,1.403
0723_102532_0155.png,0.038,0.179,0.926,-0.026,0.176,0.925,0.161,-0.002,1.086,-0.122,0.013,1.152,0.183,-0.228,1.248,-0.193,-0.208,1.000,0.198,-0.302,0.989,-0.143,-0.356,0.781,999.229,723.847,0.926,932.760,721.356,0.925,1101.030,537.905,1.086,859.058,550.552,1.152,1099.467,366.320,1.248,776.128,341.783,1.000,1150.127,249.329,0.989,785.648,106.459,0.781,-0.025,-0.970,1.403,0.000,-12.277,0.000,0.019,-0.029,-0.027,-0.164,-1.002,1.628
0723_102532_0156.png,0.054,0.187,0.937,-0.009,0.183,0.926,0.161,-0.002,1.094,-0.123,0.009,1.141,0.237,-0.247,1.002,-0.169,-0.186,0.954,0.250,-0.360,0.763,-0.185,-0.362,0.754,1014.657,730.183,0.937,950.554,727.774,0.926,1100.098,538.109,1.094,857.653,547.363,1.141,1184.728,305.416,1.002,791.206,354.419,0.954,1271.277,91.718,0.763,727.185,82.824,0.754,-0.034,-0.971,1.403,0.000,-8.651,0.000,0.030,-0.022,-0.005,0.279,-0.866,1.367
0723_102532_0157.png,0.041,0.176,0.936,-0.027,0.175,0.935,0.162,-0.004,1.116,-0.147,-0.001,1.127,0.274,-0.242,1.191,-0.292,-0.206,1.239,0.342,-0.290,0.939,-0.357,-0.275,0.992,1002.065,718.562,0.936,932.477,718.179,0.935,1098.108,536.599,1.116,836.179,538.866,1.127,1178.876,346.610,1.191,735.990,381.712,1.239,1305.963,246.337,0.939,617.664,276.212,0.992,-0.040,-0.968,1.403,0.000,-1.018,0.000,-0.041,-0.007,-0.002,0.052,-0.904,1.291
0723_102532_0158.png,0.026,0.152,0.939,-0.040,0.152,0.939,0.138,-0.006,1.132,-0.157,-0.009,1.120,0.101,-0.219,0.968,-0.282,-0.222,1.012,-0.016,-0.345,0.766,-0.323,-0.340,0.778,986.078,693.464,0.939,919.748,693.822,0.939,1075.768,534.553,1.132,826.383,532.275,1.120,1058.962,324.371,0.968,694.661,331.708,1.012,939.591,111.647,0.766,565.046,124.790,0.778,-0.034,-0.968,1.403,0.000,-356.560,0.000,0.005,0.030,-0.007,0.102,-1.207,1.253
0723_102532_0159.png,0.053,0.191,0.938,-0.011,0.187,0.929,0.167,-0.008,1.084,-0.114,0.008,1.154,0.131,-0.197,0.879,-0.258,-0.186,1.017,0.100,-0.382,0.680,-0.344,-0.346,0.816,1013.501,733.407,0.938,948.372,731.490,0.929,1106.304,532.696,1.084,865.707,546.449,1.154,1102.089,327.109,0.879,718.903,366.434,1.017,1099.721,5.878,0.680,558.643,136.805,0.816,-0.030,-0.964,1.402,0.000,-13.213,0.000,0.022,-0.036,-0.026,0.053,-0.726,1.426
0723_102532_0160.png,0.007,0.172,0.934,-0.057,0.175,0.941,0.126,0.003,1.135,-0.167,-0.003,1.107,0.217,-0.207,1.274,-0.129,-0.184,0.905,0.378,-0.265,1.074,-0.092,-0.360,0.709,967.581,714.853,0.934,901.996,716.683,0.941,1065.466,542.525,1.135,816.184,537.087,1.107,1122.280,385.438,1.274,824.410,346.898,0.905,1294.584,305.273,1.074,836.252,57.213,0.709,-0.030,-0.973,1.404,0.000,-353.258,0.000,0.007,0.009,0.000,-0.146,-0.868,1.510
0723_102532_0161.png,0.011,0.170,0.930,-0.053,0.171,0.931,0.118,0.002,1.133,-0.170,-0.005,1.101,0.067,-0.171,0.929,-0.319,-0.224,1.144,0.017,-0.340,0.731,-0.403,-0.312,0.917,970.860,713.446,0.930,905.384,714.585,0.931,1058.678,541.858,1.133,813.191,535.650,1.101,1028.091,365.139,0.929,695.008,354.152,1.144,982.111,97.809,0.731,542.320,216.365,0.917,-0.026,-0.973,1.404,0.000,-352.405,0.000,0.026,0.001,0.021,0.103,-1.009,1.392
0723_102532_0162.png,-0.002,0.171,0.935,-0.067,0.175,0.943,0.108,-0.003,1.154,-0.181,-0.016,1.095,0.118,-0.231,0.999,-0.210,-0.289,1.075,-0.012,-0.348,0.798,-0.176,-0.344,0.813,957.826,713.975,0.935,892.504,716.242,0.943,1048.637,537.780,1.154,803.263,526.015,1.095,1072.631,319.590,0.999,774.464,283.927,1.075,945.882,125.242,0.798,754.190,137.746,0.813,-0.030,-0.958,1.400,0.000,-347.084,0.000,0.009,-0.017,-0.024,-0.038,-0.758,1.594
0723_102532_0163.png,0.051,0.192,0.931,-0.015,0.189,0.926,0.168,-0.007,1.073,-0.122,0.009,1.145,0.255,-0.241,0.970,-0.185,-0.228,1.039,0.278,-0.350,0.738,-0.050,-0.328,0.840,1011.938,735.625,0.931,944.610,734.374,0.926,1109.166,533.508,1.073,858.876,547.682,1.145,1209.610,304.003,0.970,790.824,331.791,1.039,1318.655,89.676,0.738,902.825,168.377,0.840,-0.029,-0.973,1.404,0.000,-13.141,0.000,-0.008,-0.024,0.028,-0.005,-0.684,1.448
0723_102532_0164.png,0.006,0.157,0.936,-0.060,0.161,0.944,0.120,-0.007,1.151,-0.175,-0.022,1.085,0.277,-0.206,1.237,-0.190,-0.256,0.963,0.260,-0.276,0.989,-0.145,-0.343,0.724,966.073,699.051,0.936,899.240,701.734,0.944,1059.364,534.264,1.151,806.547,520.627,1.085,1173.296,381.244,1.237,772.479,287.126,0.963,1210.164,274.736,0.989,769.116,90.082,0.724,-0.040,-0.964,1.402,0.000,-345.922,0.000,-0.021,0.026,0.023,-0.041,-0.949,1.137
0723_102532_0165.png,0.032,0.184,0.932,-0.032,0.184,0.931,0.142,0.004,1.122,-0.146,0.003,1.118,0.266,-0.238,1.145,-0.224,-0.257,1.160,0.336,-0.324,0.905,-0.196,-0.323,0.904,992.980,727.880,0.932,927.779,727.862,0.931,1080.777,543.330,1.122,836.127,542.634,1.118,1180.985,342.088,1.145,776.396,329.082,1.160,1313.432,199.681,0.905,754.301,199.900,0.904,-0.038,-0.971,1.403,0.000,-358.088,0.000,0.030,-0.024,-0.006,0.098,-0.895,1.352
0723_102532_0166.png,0.045,0.171,0.953,-0.020,0.168,0.945,0.156,-0.012,1.114,-0.135,-0.004,1.148,0.148,-0.282,1.088,-0.313,-0.191,1.217,0.113,-0.339,0.823,-0.314,-0.299,0.965,1005.085,710.868,0.953,940.350,709.062,0.945,1093.222,530.034,1.114,847.744,536.876,1.148,1089.051,293.239,1.088,715.146,390.392,1.217,1091.076,148.150,0.823,650.348,245.450,0.965,-0.031,-0.962,1.401,0.000,-5.727,0.000,0.011,0.013,-0.042,0.206,-0.825,1.215
0723_102532_0167.png,0.043,0.157,0.947,-0.021,0.153,0.938,0.151,-0.015,1.105,-0.135,-0.005,1.147,0.135,-0.261,0.997,-0.183,-0.199,0.958,0.007,-0.350,0.782,-0.171,-0.357,0.742,1002.757,697.882,0.947,938.734,694.843,0.938,1090.043,527.424,1.105,848.134,535.762,1.147,1089.175,290.563,0.997,777.892,342.569,0.958,967.968,114.155,0.782,741.115,81.791,0.742,-0.025,-0.966,1.402,0.000,-7.270,0.000,0.026,0.030,-0.014,0.216,-0.977,1.520
0723_102532_0168.png,0.039,0.161,0.944,-0.027,0.161,0.947,0.167,-0.013,1.098,-0.129,-0.001,1.148,0.213,-0.260,1.013,-0.198,-0.231,1.031,0.072,-0.327,0.801,-0.189,-0.332,0.788,999.485,702.485,0.944,932.602,701.835,0.947,1104.223,529.143,1.098,852.839,539.150,1.148,1159.474,296.264,1.013,777.563,326.472,1.031,1045.354,151.674,0.801,731.743,138.763,0.788,-0.033,-0.973,1.404,0.000,-8.681,0.000,-0.011,0.046,-0.001,-0.260,-0.829,1.515
0723_102532_0169.png,0.005,0.167,0.922,-0.060,0.171,0.931,0.126,-0.001,1.133,-0.169,-0.009,1.098,0.264,-0.222,1.066,-0.300,-0.185,1.263,0.287,-0.327,0.833,-0.368,-0.281,1.033,965.070,711.949,0.922,898.660,714.713,0.931,1065.592,539.244,1.133,813.580,532.242,1.098,1195.286,342.122,1.066,734.308,400.684,1.263,1287.707,166.698,0.833,621.125,281.473,1.033,-0.032,-0.966,1.402,0.000,-351.873,0.000,0.000,-0.021,0.025,-0.228,-1.109,1.300
0723_102532_0170.png,0.023,0.176,0.930,-0.041,0.177,0.930,0.132,0.000,1.133,-0.158,-0.005,1.110,0.278,-0.229,1.104,-0.128,-0.200,0.917,0.360,-0.329,0.871,-0.057,-0.369,0.720,983.855,719.836,0.930,917.883,720.579,0.930,1070.438,540.292,1.133,824.293,535.767,1.110,1199.012,342.393,1.104,827.288,332.368,0.917,1352.651,180.818,0.871,884.459,53.059,0.720,-0.036,-0.963,1.401,0.000,-354.172,0.000,0.020,-0.033,-0.013,0.118,-1.042,1.203
0723_102532_0171.png,0.036,0.155,0.928,-0.031,0.154,0.929,0.161,-0.010,1.096,-0.138,0.000,1.136,0.159,-0.258,1.007,-0.291,-0.202,1.226,-0.017,-0.321,0.826,-0.359,-0.275,0.989,997.076,698.503,0.928,928.653,697.233,0.929,1099.676,531.679,1.096,844.603,539.751,1.136,1110.411,296.182,1.007,734.101,383.515,1.226,940.546,170.120,0.826,614.961,275.627,0.989,-0.031,-0.973,1.404,0.000,-6.731,0.000,-0.016,0.019,0.027,-0.139,-1.205,1.484
0723_102532_0172.png,0.021,0.155,0.937,-0.046,0.156,0.939,0.139,-0.018,1.127,-0.162,-0.023,1.108,0.232,-0.251,1.218,-0.219,-0.279,1.080,0.239,-0.280,0.967,-0.175,-0.315,0.834,981.287,697.537,0.937,913.803,698.342,0.939,1076.869,524.666,1.127,821.088,520.626,1.108,1141.219,344.074,1.218,767.616,294.403,1.080,1194.558,264.379,0.967,760.477,180.632,0.834,-0.034,-0.959,1.400,0.000,-355.089,0.000,-0.014,0.015,0.046,-0.009,-0.961,1.086
0723_102532_0173.png,0.037,0.171,0.934,-0.028,0.170,0.932,0.155,-0.009,1.096,-0.130,0.001,1.141,0.090,-0.188,0.896,-0.259,-0.224,1.070,0.028,-0.362,0.700,-0.166,-0.333,0.852,997.200,714.660,0.934,931.874,713.347,0.932,1094.563,532.180,1.096,851.415,541.103,1.141,1055.433,340.808,0.896,730.158,340.931,1.070,997.567,47.871,0.700,774.493,168.213,0.852,-0.029,-0.968,1.403,0.000,-8.014,0.000,0.026,-0.002,0.005,-0.087,-0.862,1.637
0723_102532_0174.png,0.050,0.174,0.948,-0.014,0.169,0.938,0.162,-0.007,1.098,-0.124,0.006,1.155,0.219,-0.250,0.984,-0.215,-0.233,1.051,0.168,-0.362,0.740,-0.230,-0.347,0.803,1010.358,714.703,0.948,945.903,711.769,0.938,1099.929,533.641,1.098,858.222,544.768,1.155,1171.308,298.224,0.984,765.632,329.395,1.051,1175.726,74.313,0.740,687.092,129.288,0.803,-0.028,-0.970,1.403,0.000,-10.447,0.000,0.020,0.016,-0.038,0.159,-0.921,1.251
0723_102532_0175.png,0.007,0.183,0.935,-0.057,0.186,0.939,0.105,0.006,1.156,-0.177,-0.009,1.090,0.078,-0.172,0.934,-0.342,-0.222,1.061,0.055,-0.348,0.720,-0.444,-0.339,0.843,967.147,726.366,0.935,901.808,728.009,0.939,1046.726,545.265,1.156,805.762,532.518,1.090,1039.494,364.737,0.934,652.990,340.705,1.061,1032.550,79.872,0.720,459.161,157.531,0.843,-0.035,-0.963,1.402,0.000,-345.500,0.000,0.023,-0.028,-0.034,0.196,-0.781,1.381
0723_102532_0176.png,0.021,0.166,0.933,-0.047,0.167,0.937,0.144,-0.008,1.126,-0.161,-0.008,1.128,0.159,-0.251,0.993,-0.231,-0.263,1.046,0.009,-0.341,0.786,-0.055,-0.326,0.852,981.076,709.437,0.933,912.482,709.978,0.937,1081.709,532.958,1.126,824.432,533.359,1.128,1112.027,299.612,0.993,749.616,300.938,1.046,970.989,127.624,0.786,899.061,175.728,0.852,-0.028,-0.958,1.400,0.000,-359.215,0.000,-0.027,-0.021,-0.026,-0.098,-0.992,1.425
0723_102532_0177.png,0.044,0.182,0.929,-0.020,0.179,0.926,0.163,-0.009,1.078,-0.120,0.006,1.145,0.094,-0.188,0.891,-0.269,-0.167,1.005,0.027,-0.363,0.708,-0.386,-0.330,0.839,1005.337,725.889,0.929,939.153,724.192,0.926,1104.079,531.878,1.078,860.064,545.177,1.145,1060.812,338.878,0.891,705.422,382.048,1.005,996.103,52.261,0.708,521.969,166.090,0.839,-0.029,-0.970,1.403,0.000,-12.488,0.000,0.017,-0.018,0.020,-0.103,-0.833,1.459
0723_102532_0178.png,0.036,0.171,0.932,-0.028,0.169,0.929,0.154,-0.011,1.091,-0.127,0.002,1.148,0.217,-0.197,0.901,-0.284,-0.166,0.992,0.252,-0.373,0.703,-0.438,-0.329,0.843,996.670,714.930,0.932,931.692,712.775,0.929,1093.875,529.979,1.091,854.664,541.423,1.148,1189.079,331.631,0.901,688.092,381.154,0.992,1300.414,36.205,0.703,465.834,168.480,0.843,-0.023,-0.964,1.402,0.000,-10.695,0.000,0.034,-0.016,-0.007,-0.081,-0.987,1.407
0723_102532_0179.png,0.011,0.174,0.933,-0.054,0.175,0.935,0.117,-0.002,1.141,-0.173,-0.014,1.091,0.198,-0.210,1.298,-0.253,-0.255,1.005,0.307,-0.268,1.070,-0.259,-0.348,0.764,970.945,716.985,0.933,904.633,718.192,0.935,1057.734,537.998,1.141,809.416,527.922,1.091,1105.253,385.900,1.298,720.674,298.501,1.005,1232.540,301.759,1.070,637.251,107.497,0.764,-0.033,-0.964,1.402,0.000,-348.828,0.000,0.008,-0.010,0.021,0.123,-0.802,1.403
0723_102532_0180.png,0.024,0.182,0.936,-0.040,0.182,0.935,0.140,-0.005,1.118,-0.152,-0.002,1.128,0.134,-0.249,0.990,-0.191,-0.227,0.975,-0.015,-0.351,0.796,-0.183,-0.361,0.743,984.836,725.239,0.936,918.917,725.021,0.935,1079.138,536.143,1.118,831.600,538.275,1.128,1088.720,301.205,0.990,773.383,318.187,0.975,941.903,120.414,0.796,725.198,77.488,0.743,-0.027,-0.962,1.401,0.000,-1.001,0.000,0.015,-0.029,-0.015,0.005,-0.777,1.446
0723_102532_0181.png,0.049,0.152,0.937,-0.016,0.149,0.931,0.160,-0.014,1.103,-0.130,-0.007,1.134,0.229,-0.234,1.229,-0.249,-0.221,1.230,0.298,-0.285,0.987,-0.257,-0.286,0.982,1009.378,694.355,0.937,944.155,692.015,0.931,1097.628,527.831,1.103,851.402,534.252,1.134,1137.317,359.050,1.229,767.673,369.079,1.230,1246.774,265.105,0.987,711.606,262.962,0.982,-0.038,-0.969,1.403,0.000,-5.220,0.000,0.020,0.029,0.027,0.167,-1.154,1.391
0723_102532_0182.png,0.028,0.165,0.934,-0.036,0.162,0.928,0.133,-0.007,1.117,-0.158,-0.006,1.118,0.137,-0.251,1.011,-0.205,-0.263,1.059,0.000,-0.340,0.813,-0.171,-0.336,0.814,988.092,707.648,0.934,922.599,706.466,0.928,1072.832,534.326,1.117,825.663,534.540,1.118,1088.394,304.102,1.011,775.484,304.041,1.059,959.418,141.719,0.813,760.178,147.592,0.814,-0.025,-0.968,1.402,0.000,-359.044,0.000,0.021,-0.001,0.024,0.283,-1.027,1.495
0723_102532_0183.png,0.009,0.184,0.937,-0.056,0.187,0.943,0.119,0.006,1.144,-0.169,-0.005,1.099,0.235,-0.220,1.044,-0.325,-0.212,1.177,0.221,-0.342,0.808,-0.224,-0.308,0.950,968.717,727.127,0.937,903.745,728.416,0.943,1058.847,544.638,1.144,813.733,535.956,1.099,1173.551,339.536,1.044,697.742,368.813,1.177,1219.512,137.619,0.808,735.434,231.247,0.950,-0.034,-0.970,1.403,0.000,-349.795,0.000,0.018,-0.008,-0.011,-0.016,-0.749,1.210
0723_102532_0184.png,0.034,0.172,0.946,-0.030,0.170,0.939,0.142,-0.002,1.118,-0.149,0.002,1.135,0.196,-0.192,1.299,-0.152,-0.231,0.988,0.315,-0.269,1.072,-0.059,-0.354,0.768,994.432,713.380,0.946,929.578,711.807,0.939,1081.096,537.948,1.118,835.610,541.305,1.135,1103.590,399.085,1.299,813.310,317.501,0.988,1239.760,301.557,1.072,886.857,102.086,0.768,-0.026,-0.971,1.403,0.000,-2.315,0.000,0.018,0.014,-0.027,0.230,-0.863,1.550
0723_102532_0185.png,0.054,0.136,0.940,-0.010,0.131,0.932,0.165,-0.029,1.088,-0.117,-0.014,1.153,0.129,-0.257,0.959,-0.299,-0.201,1.183,0.000,-0.349,0.754,-0.423,-0.290,0.974,1014.534,678.163,0.940,950.070,673.308,0.932,1104.528,514.752,1.088,863.559,528.679,1.153,1087.449,285.079,0.959,719.551,378.391,1.183,959.943,99.886,0.754,546.930,257.228,0.974,-0.031,-0.959,1.401,0.000,-12.301,0.000,0.023,0.039,0.017,0.137,-1.227,1.505
0723_102532_0186.png,0.022,0.160,0.937,-0.041,0.159,0.934,0.131,-0.004,1.120,-0.156,-0.003,1.124,0.058,-0.181,0.922,-0.194,-0.244,1.014,-0.013,-0.354,0.730,-0.073,-0.343,0.806,982.683,702.287,0.937,917.927,701.579,0.934,1071.561,536.407,1.120,827.806,537.225,1.124,1019.435,353.551,0.922,778.330,311.491,1.014,943.486,79.396,0.730,873.474,134.892,0.806,-0.023,-0.973,1.404,0.000,0.327,0.000,0.031,0.023,0.008,0.129,-1.039,1.563
0723_102532_0187.png,0.030,0.160,0.932,-0.037,0.159,0.932,0.152,-0.014,1.098,-0.148,-0.005,1.134,0.112,-0.208,0.926,-0.156,-0.178,0.934,0.024,-0.344,0.726,-0.160,-0.344,0.737,990.339,703.348,0.932,922.038,702.285,0.932,1091.462,528.200,1.098,835.651,535.478,1.134,1075.102,325.786,0.926,801.086,358.987,0.934,991.348,89.459,0.726,753.243,95.757,0.737,-0.024,-0.968,1.403,0.000,-5.813,0.000,-0.018,0.013,0.033,-0.082,-1.114,1.158
0723_102532_0188.png,0.012,0.164,0.931,-0.053,0.167,0.936,0.127,-0.004,1.142,-0.169,-0.011,1.109,0.227,-0.216,1.284,-0.159,-0.243,0.959,0.204,-0.282,1.025,-0.111,-0.362,0.722,972.490,707.902,0.931,905.667,709.850,0.936,1065.418,537.062,1.142,815.199,530.557,1.109,1127.779,380.090,1.284,802.314,299.134,0.959,1148.919,277.977,1.025,813.142,63.025,0.722,-0.032,-0.959,1.401,0.000,-352.374,0.000,-0.001,-0.019,-0.022,-0.032,-1.124,1.162
0723_102532_0189.png,0.036,0.174,0.921,-0.029,0.172,0.921,0.159,-0.011,1.077,-0.121,0.005,1.147,0.218,-0.213,1.261,-0.117,-0.172,0.938,0.385,-0.282,1.077,-0.113,-0.346,0.735,996.771,719.751,0.921,930.559,717.658,0.921,1100.310,529.865,1.077,859.369,543.768,1.147,1124.495,379.079,1.261,841.393,365.364,0.938,1299.998,291.052,1.077,813.840,92.897,0.735,-0.024,-0.965,1.402,0.000,-13.148,0.000,0.026,-0.035,0.015,-0.215,-0.958,1.685
0723_102532_0190.png,0.039,0.171,0.927,-0.028,0.170,0.929,0.166,0.000,1.096,-0.129,0.011,1.147,0.247,-0.260,1.069,-0.273,-0.216,1.097,0.248,-0.336,0.810,-0.180,-0.322,0.869,999.623,715.399,0.927,931.764,713.818,0.929,1103.767,539.610,1.096,853.406,549.365,1.147,1179.967,308.303,1.069,723.103,352.430,1.097,1251.572,146.024,0.810,763.593,187.425,0.869,-0.032,-0.974,1.404,0.000,-8.932,0.000,-0.006,-0.009,-0.023,-0.220,-1.186,1.368
0723_102532_0191.png,0.009,0.179,0.936,-0.056,0.182,0.945,0.136,0.003,1.129,-0.162,0.002,1.122,0.207,-0.257,1.172,-0.233,-0.217,0.969,0.212,-0.311,0.907,-0.206,-0.356,0.738,969.328,722.191,0.936,903.253,723.626,0.945,1074.851,542.802,1.129,822.373,541.575,1.122,1127.942,331.601,1.172,731.694,326.610,0.969,1181.970,213.689,0.907,694.541,80.601,0.738,-0.028,-0.970,1.403,0.000,-357.571,0.000,-0.007,-0.006,-0.028,-0.316,-0.883,1.255
0723_102532_0192.png,0.033,0.167,0.941,-0.036,0.167,0.941,0.158,-0.006,1.112,-0.151,0.000,1.135,0.226,-0.224,0.965,-0.153,-0.236,1.004,0.224,-0.341,0.728,-0.096,-0.331,0.763,993.386,709.203,0.941,924.086,708.742,0.941,1094.954,534.992,1.112,833.779,539.687,1.135,1182.554,319.323,0.965,814.706,316.315,1.004,1252.441,94.038,0.728,840.466,126.952,0.763,-0.030,-0.972,1.404,0.000,-3.363,0.000,-0.042,0.023,-0.005,-0.076,-0.963,1.234
0723_102532_0193.png,0.038,0.176,0.935,-0.027,0.173,0.928,0.146,-0.005,1.106,-0.149,-0.001,1.123,0.116,-0.181,0.910,-0.288,-0.209,1.225,0.084,-0.353,0.719,-0.358,-0.284,0.991,998.802,718.799,0.935,932.538,717.393,0.928,1085.676,535.912,1.106,834.005,539.317,1.123,1080.710,350.757,0.910,736.207,377.971,1.225,1070.661,73.920,0.719,616.718,267.467,0.991,-0.029,-0.972,1.404,0.000,-2.247,0.000,0.005,-0.002,0.034,0.288,-0.901,1.376
0723_102532_0194.png,0.033,0.182,0.921,-0.033,0.182,0.924,0.159,0.002,1.097,-0.133,0.011,1.136,0.268,-0.252,1.085,-0.186,-0.175,0.939,0.307,-0.337,0.838,-0.239,-0.356,0.749,993.585,727.799,0.921,926.298,727.192,0.924,1098.265,542.008,1.097,848.975,549.495,1.136,1195.206,319.455,1.085,771.510,363.281,0.939,1308.069,157.623,0.838,656.672,87.288,0.749,-0.033,-0.972,1.404,0.000,-6.682,0.000,0.007,-0.039,-0.004,-0.271,-1.132,1.278
0723_102532_0195.png,0.011,0.161,0.946,-0.055,0.163,0.950,0.127,-0.013,1.134,-0.169,-0.019,1.110,0.201,-0.208,1.294,-0.265,-0.197,0.936,0.250,-0.261,1.046,-0.300,-0.348,0.728,970.771,702.007,0.946,904.846,702.865,0.950,1066.910,528.917,1.134,815.143,524.093,1.110,1107.828,387.032,1.294,691.110,340.089,0.936,1187.002,302.343,1.046,567.444,84.918,0.728,-0.028,-0.963,1.402,0.000,-354.215,0.000,-0.002,0.033,0.021,-0.044,-0.766,1.190
0723_102532_0196.png,0.006,0.169,0.933,-0.062,0.173,0.943,0.133,-0.006,1.140,-0.174,-0.013,1.107,0.247,-0.256,1.145,-0.232,-0.268,1.025,0.073,-0.293,0.942,-0.200,-0.335,0.770,965.780,712.220,0.933,897.631,714.306,0.943,1071.037,535.328,1.140,810.498,528.748,1.107,1164.958,327.807,1.145,745.249,291.539,1.025,1034.220,243.792,0.942,713.494,127.115,0.770,-0.032,-0.960,1.401,0.000,-352.607,0.000,-0.040,-0.013,-0.007,-0.242,-0.875,1.327
0723_102532_0197.png,0.026,0.175,0.932,-0.038,0.175,0.931,0.140,-0.002,1.109,-0.151,0.001,1.123,0.159,-0.181,0.907,-0.311,-0.211,1.153,0.176,-0.357,0.711,-0.399,-0.304,0.930,986.737,719.028,0.932,920.752,718.505,0.931,1080.391,538.530,1.109,832.222,541.250,1.123,1126.490,349.888,0.907,703.208,366.135,1.153,1195.823,62.768,0.711,552.180,229.377,0.930,-0.026,-0.974,1.404,0.000,-1.626,0.000,0.018,0.000,0.025,0.038,-0.960,1.294
0723_102532_0198.png,0.016,0.173,0.937,-0.050,0.173,0.935,0.121,0.002,1.140,-0.174,-0.006,1.106,0.159,-0.249,1.041,-0.252,-0.184,0.909,-0.015,-0.327,0.857,-0.329,-0.357,0.718,975.762,715.516,0.937,908.717,716.139,0.935,1061.238,541.720,1.140,810.166,535.071,1.106,1105.510,312.097,1.041,696.070,347.654,0.909,943.187,176.698,0.857,524.076,66.381,0.718,-0.028,-0.968,1.403,0.000,-352.113,0.000,-0.003,-0.004,-0.012,0.243,-0.976,1.248
0723_102532_0199.png,0.026,0.185,0.926,-0.040,0.184,0.925,0.144,0.000,1.106,-0.152,0.005,1.130,0.194,-0.184,0.906,-0.277,-0.209,1.259,0.243,-0.363,0.711,-0.451,-0.277,1.073,986.241,729.710,0.926,918.698,728.934,0.925,1083.579,539.885,1.106,832.308,544.455,1.130,1163.691,347.014,0.906,750.745,382.376,1.259,1285.258,53.679,0.711,559.874,294.217,1.073,-0.023,-0.967,1.402,0.000,-3.515,0.000,0.002,-0.046,-0.004,-0.012,-1.030,1.204
0723_102532_0200.png,0.000,0.157,0.921,-0.063,0.162,0.930,0.115,-0.006,1.137,-0.171,-0.015,1.098,0.120,-0.240,1.006,-0.299,-0.224,1.220,0.003,-0.349,0.804,-0.229,-0.301,0.983,960.411,701.958,0.921,895.804,705.266,0.930,1055.888,535.144,1.137,812.183,527.216,1.098,1073.458,313.395,1.006,727.305,365.413,1.220,963.353,126.582,0.804,738.771,248.543,0.983,-0.028,-0.960,1.401,0.000,-350.852,0.000,0.030,-0.023,0.017,-0.177,-1.153,1.480
0723_102532_0201.png,0.049,0.174,0.932,-0.018,0.171,0.927,0.169,-0.011,1.083,-0.125,0.005,1.151,0.119,-0.199,0.891,-0.227,-0.227,1.050,0.029,-0.362,0.701,-0.101,-0.327,0.839,1009.619,717.407,0.932,941.492,714.868,0.927,1108.369,530.418,1.083,856.548,543.810,1.151,1087.442,328.004,0.891,754.703,334.710,1.050,999.749,49.580,0.701,845.795,169.003,0.839,-0.029,-0.967,1.402,0.000,-12.086,0.000,-0.018,-0.013,-0.001,-0.028,-0.984,1.360
0723_102532_0202.png,0.015,0.164,0.942,-0.053,0.167,0.950,0.141,-0.010,1.136,-0.166,-0.015,1.112,0.147,-0.243,1.005,-0.193,-0.273,1.050,-0.021,-0.322,0.812,-0.138,-0.322,0.799,974.984,705.582,0.942,907.223,707.025,0.950,1078.259,531.856,1.136,818.363,526.924,1.112,1098.950,309.953,1.005,784.863,292.383,1.050,935.494,163.090,0.812,795.514,156.635,0.799,-0.037,-0.963,1.402,0.000,-354.205,0.000,-0.037,0.022,0.006,-0.196,-0.783,1.265
0723_102532_0203.png,0.055,0.180,0.932,-0.010,0.176,0.925,0.169,-0.004,1.095,-0.124,0.007,1.143,0.226,-0.211,1.269,-0.286,-0.161,0.994,0.392,-0.273,1.071,-0.444,-0.324,0.850,1016.028,723.315,0.932,949.254,720.736,0.925,1106.957,536.531,1.095,857.162,546.027,1.143,1129.686,381.829,1.269,686.847,386.414,0.994,1307.742,297.864,1.071,463.396,177.092,0.850,-0.038,-0.969,1.403,0.000,-8.552,0.000,0.000,-0.024,-0.012,0.157,-1.065,1.182
0723_102532_0204.png,0.009,0.163,0.928,-0.055,0.166,0.933,0.110,0.004,1.147,-0.171,-0.009,1.090,0.077,-0.169,0.935,-0.237,-0.263,1.033,0.046,-0.340,0.728,-0.082,-0.340,0.838,968.967,706.481,0.928,904.169,709.292,0.933,1051.326,543.182,1.147,811.070,532.039,1.090,1038.293,367.583,0.935,741.858,297.603,1.033,1020.595,96.777,0.728,867.334,153.814,0.838,-0.035,-0.970,1.403,0.000,-347.184,0.000,0.034,0.002,0.003,0.107,-1.176,1.221
0723_102532_0205.png,0.014,0.175,0.926,-0.053,0.178,0.933,0.138,0.001,1.134,-0.165,-0.004,1.110,0.228,-0.234,1.257,-0.158,-0.232,0.954,0.326,-0.284,1.011,-0.103,-0.360,0.724,974.514,719.571,0.926,906.280,721.545,0.933,1075.495,541.072,1.134,818.517,536.343,1.110,1132.710,363.121,1.257,802.122,308.380,0.954,1266.376,273.249,1.011,824.334,67.731,0.724,-0.035,-0.963,1.401,0.000,-354.152,0.000,-0.024,-0.037,-0.017,-0.176,-0.996,1.421
0723_102532_0206.png,0.032,0.164,0.945,-0.036,0.162,0.939,0.146,-0.008,1.126,-0.163,-0.007,1.129,0.230,-0.224,1.261,-0.227,-0.239,0.998,0.324,-0.269,1.013,-0.102,-0.334,0.778,992.695,705.033,0.945,923.830,703.929,0.939,1083.010,533.532,1.126,822.615,534.222,1.129,1133.176,370.873,1.261,743.815,311.990,0.998,1264.536,287.553,1.013,835.725,131.570,0.778,-0.027,-0.964,1.402,0.000,-359.487,0.000,-0.040,0.012,-0.022,0.259,-1.010,1.253
0723_102532_0207.png,-0.001,0.161,0.937,-0.064,0.165,0.947,0.120,-0.007,1.140,-0.169,-0.012,1.118,0.092,-0.217,0.959,-0.229,-0.191,0.907,-0.004,-0.361,0.753,-0.291,-0.365,0.702,959.417,703.308,0.937,895.556,705.767,0.947,1060.339,534.399,1.140,816.201,530.091,1.118,1051.461,325.345,0.959,719.775,340.040,0.907,954.523,84.272,0.753,566.008,45.157,0.702,-0.024,-0.960,1.401,0.000,-354.470,0.000,0.023,0.001,-0.030,-0.284,-0.992,1.328
0723_102532_0208.png,0.013,0.182,0.932,-0.052,0.183,0.932,0.127,0.006,1.130,-0.169,0.004,1.119,0.232,-0.203,1.279,-0.335,-0.214,1.093,0.357,-0.282,1.052,-0.437,-0.327,0.869,973.649,726.003,0.932,906.692,726.408,0.932,1066.728,545.166,1.130,816.429,543.157,1.119,1132.596,388.870,1.279,668.397,353.362,1.093,1282.344,284.938,1.052,481.351,182.042,0.869,-0.022,-0.968,1.403,0.000,-356.733,0.000,0.003,-0.031,-0.034,0.052,-1.032,1.199
0723_102532_0209.png,0.052,0.164,0.927,-0.015,0.162,0.926,0.175,-0.016,1.070,-0.114,0.003,1.150,0.168,-0.165,1.291,-0.157,-0.208,1.001,0.236,-0.258,1.061,-0.050,-0.329,0.799,1012.844,708.527,0.927,944.766,705.938,0.926,1115.692,526.152,1.070,865.516,542.471,1.150,1083.739,418.387,1.291,811.123,342.707,1.001,1172.001,308.484,1.061,900.533,147.735,0.799,-0.033,-0.972,1.404,0.000,-14.811,0.000,-0.014,0.010,0.036,-0.183,-1.042,1.410
0723_102532_0210.png,0.057,0.161,0.938,-0.007,0.155,0.930,0.171,-0.012,1.082,-0.110,0.006,1.159,0.211,-0.274,1.049,-0.244,-0.196,1.266,0.043,-0.330,0.851,-0.269,-0.282,1.015,1018.042,703.301,0.938,953.025,698.492,0.930,1109.911,529.890,1.082,869.703,544.930,1.159,1151.166,291.686,1.049,777.145,393.035,1.266,1008.106,170.563,0.851,707.799,275.906,1.015,-0.031,-0.972,1.404,0.000,-14.399,0.000,0.019,0.023,-0.017,0.086,-1.148,1.403
0723_102532_0211.png,0.060,0.184,0.937,-0.004,0.182,0.932,0.176,-0.012,1.074,-0.103,0.006,1.150,0.222,-0.224,0.919,-0.185,-0.212,1.021,0.230,-0.366,0.702,-0.100,-0.339,0.813,1021.285,726.579,0.937,956.200,725.237,0.932,1116.141,529.475,1.074,874.556,544.665,1.150,1189.770,308.101,0.919,787.290,342.506,1.021,1270.927,44.878,0.702,842.661,143.838,0.813,-0.039,-0.972,1.404,0.000,-14.462,0.000,0.022,-0.001,0.021,-0.061,-0.671,1.416
0723_102532_0212.png,0.032,0.161,0.933,-0.034,0.160,0.932,0.147,-0.009,1.107,-0.146,-0.004,1.126,0.207,-0.248,1.015,-0.245,-0.224,1.022,0.109,-0.334,0.795,-0.265,-0.332,0.792,992.314,703.921,0.933,925.811,703.073,0.932,1086.627,532.537,1.107,836.358,536.461,1.126,1153.747,307.765,1.015,731.573,331.262,1.022,1090.020,140.278,0.795,642.049,141.626,0.792,-0.029,-0.972,1.404,0.000,-2.734,0.000,0.008,0.020,0.035,0.035,-0.944,1.691
0723_102532_0213.png,0.025,0.180,0.930,-0.039,0.178,0.926,0.135,0.005,1.119,-0.156,0.007,1.128,0.224,-0.257,1.121,-0.150,-0.181,0.913,0.068,-0.326,0.916,-0.148,-0.366,0.704,985.598,723.577,0.930,919.740,722.482,0.926,1074.308,544.389,1.119,828.688,546.093,1.128,1149.825,321.637,1.121,803.370,351.449,0.913,1030.291,201.577,0.916,759.695,45.601,0.704,-0.023,-0.970,1.403,0.000,-0.643,0.000,0.022,-0.032,-0.031,0.170,-1.105,1.361
0723_102532_0214.png,-0.004,0.162,0.935,-0.070,0.167,0.948,0.121,-0.001,1.149,-0.177,-0.014,1.092,0.177,-0.172,0.941,-0.237,-0.174,1.294,0.229,-0.338,0.738,-0.287,-0.256,1.050,955.726,704.287,0.935,890.105,707.697,0.948,1060.349,538.766,1.149,805.421,527.392,1.092,1138.532,365.917,0.941,785.750,412.395,1.294,1254.736,104.799,0.738,700.057,308.430,1.050,-0.035,-0.970,1.403,0.000,-347.842,0.000,-0.025,0.026,0.011,-0.307,-0.887,1.362
0723_102532_0215.png,0.004,0.157,0.930,-0.061,0.161,0.936,0.119,-0.002,1.138,-0.173,-0.010,1.107,0.051,-0.179,0.940,-0.194,-0.257,1.000,-0.015,-0.352,0.747,-0.082,-0.348,0.779,963.710,700.934,0.930,897.846,703.360,0.936,1059.554,537.967,1.138,811.367,531.768,1.107,1011.510,358.724,0.940,775.818,295.427,1.000,941.047,91.997,0.747,859.342,115.257,0.779,-0.026,-0.966,1.402,0.000,-352.594,0.000,0.010,0.004,-0.002,-0.093,-1.042,1.658
0723_102532_0216.png,0.010,0.154,0.936,-0.057,0.156,0.936,0.116,-0.004,1.149,-0.181,-0.017,1.091,0.270,-0.201,1.245,-0.285,-0.222,1.223,0.275,-0.276,0.996,-0.309,-0.280,0.971,970.412,696.632,0.936,902.413,698.557,0.936,1055.704,536.814,1.149,802.264,524.953,1.091,1166.544,386.458,1.245,738.287,367.435,1.223,1222.488,276.837,0.996,657.107,266.126,0.971,-0.032,-0.967,1.402,0.000,-347.416,0.000,-0.019,0.023,0.014,0.221,-1.058,1.392
0723_102532_0217.png,-0.004,0.165,0.927,-0.070,0.172,0.938,0.114,0.008,1.150,-0.180,-0.004,1.095,0.216,-0.243,1.111,-0.268,-0.230,0.966,0.051,-0.310,0.912,-0.257,-0.356,0.728,955.602,709.784,0.927,889.324,714.079,0.938,1054.604,546.958,1.150,803.315,536.353,1.095,1145.022,332.360,1.111,696.050,313.367,0.966,1012.672,217.062,0.912,624.114,75.093,0.728,-0.031,-0.971,1.403,0.000,-348.013,0.000,-0.011,-0.003,-0.023,-0.217,-1.148,1.329
0723_102532_0218.png,0.036,0.158,0.939,-0.029,0.157,0.939,0.154,-0.005,1.114,-0.140,0.000,1.136,0.235,-0.197,1.274,-0.298,-0.195,1.219,0.186,-0.273,1.024,-0.436,-0.279,1.008,996.524,700.116,0.939,930.255,699.298,0.939,1091.797,535.643,1.114,842.925,539.957,1.136,1135.753,392.607,1.274,727.592,387.554,1.219,1132.605,286.127,1.024,548.685,277.081,1.008,-0.034,-0.973,1.404,0.000,-3.212,0.000,0.006,0.032,-0.013,-0.020,-0.980,1.737
0723_102532_0219.png,0.004,0.145,0.940,-0.060,0.147,0.942,0.104,-0.011,1.151,-0.179,-0.024,1.098,0.236,-0.213,1.255,-0.294,-0.260,1.101,0.190,-0.284,1.007,-0.136,-0.317,0.901,964.153,686.751,0.940,899.600,688.754,0.942,1046.059,530.506,1.151,805.118,519.538,1.098,1138.746,378.418,1.255,705.695,315.082,1.101,1138.885,272.020,1.007,816.599,205.770,0.901,-0.026,-0.960,1.401,0.000,-347.989,0.000,0.029,0.030,0.001,0.196,-1.068,1.387
0723_102532_0220.png,-0.004,0.170,0.926,-0.070,0.174,0.936,0.116,-0.004,1.141,-0.180,-0.016,1.091,0.215,-0.244,1.070,-0.310,-0.196,1.252,0.072,-0.320,0.864,-0.368,-0.282,1.015,955.550,714.204,0.926,889.119,716.680,0.936,1056.719,536.658,1.141,802.981,526.482,1.091,1150.702,322.851,1.070,724.607,390.862,1.252,1039.638,187.573,0.864,615.443,276.044,1.015,-0.028,-0.961,1.401,0.000,-348.996,0.000,-0.012,-0.021,0.024,-0.198,-0.834,1.574
0723_102532_0221.png,0.029,0.156,0.940,-0.037,0.156,0.938,0.138,-0.011,1.133,-0.157,-0.014,1.119,0.064,-0.187,0.936,-0.321,-0.226,1.138,-0.016,-0.353,0.742,-0.396,-0.311,0.898,989.115,698.007,0.940,922.721,698.036,0.938,1075.868,531.137,1.133,826.172,528.260,1.119,1024.995,350.160,0.936,691.540,351.112,1.138,938.865,88.181,0.742,540.690,211.009,0.898,-0.035,-0.961,1.401,0.000,-356.015,0.000,0.004,0.011,-0.007,0.185,-1.044,1.362
0723_102532_0222.png,0.023,0.177,0.929,-0.043,0.179,0.936,0.152,-0.007,1.114,-0.147,-0.003,1.130,0.248,-0.226,1.258,-0.277,-0.227,1.230,0.170,-0.287,1.011,-0.355,-0.294,0.984,983.309,720.739,0.929,916.079,721.463,0.936,1090.039,534.361,1.114,836.268,537.438,1.130,1147.568,369.532,1.258,745.618,364.503,1.230,1120.014,269.720,1.011,616.603,255.903,0.984,-0.033,-0.960,1.401,0.000,-1.869,0.000,-0.010,-0.034,-0.012,-0.326,-0.923,1.312
0723_102532_0223.png,0.012,0.168,0.940,-0.052,0.169,0.938,0.111,-0.002,1.145,-0.175,-0.012,1.103,0.262,-0.196,1.028,-0.250,-0.190,0.905,0.373,-0.336,0.830,-0.325,-0.363,0.714,972.386,710.499,0.940,907.387,711.221,0.938,1052.514,538.211,1.145,809.488,529.765,1.103,1202.214,358.633,1.028,697.705,340.656,0.905,1387.646,155.500,0.830,526.863,56.290,0.714,-0.027,-0.964,1.402,0.000,-350.203,0.000,0.026,0.000,-0.013,0.285,-0.863,1.504
0723_102532_0224.png,0.023,0.162,0.927,-0.040,0.164,0.934,0.147,-0.004,1.107,-0.137,0.001,1.128,0.100,-0.185,0.910,-0.172,-0.217,0.981,0.056,-0.362,0.719,-0.087,-0.351,0.779,983.487,706.043,0.927,919.526,706.661,0.934,1085.912,536.444,1.107,844.648,540.622,1.128,1064.722,346.904,0.910,793.095,329.516,0.981,1034.573,61.533,0.719,854.055,111.459,0.779,-0.033,-0.974,1.404,0.000,-3.221,0.000,0.043,0.012,0.022,-0.307,-1.094,1.500
0723_102532_0225.png,0.032,0.170,0.942,-0.032,0.169,0.942,0.146,-0.003,1.120,-0.140,0.000,1.134,0.238,-0.249,1.059,-0.183,-0.185,0.927,0.250,-0.346,0.808,-0.227,-0.365,0.727,991.851,711.167,0.942,927.749,710.787,0.942,1083.513,537.380,1.120,842.170,539.994,1.134,1173.635,316.080,1.059,772.705,350.672,0.927,1254.435,132.786,0.808,662.525,62.621,0.727,-0.034,-0.970,1.403,0.000,-1.580,0.000,0.036,0.014,-0.026,-0.006,-0.900,1.467
0723_102532_0226.png,0.033,0.174,0.939,-0.034,0.174,0.941,0.157,-0.008,1.116,-0.149,-0.005,1.128,0.234,-0.217,1.269,-0.124,-0.217,0.962,0.391,-0.260,1.058,-0.065,-0.343,0.737,993.746,715.868,0.939,925.223,715.890,0.941,1093.433,533.353,1.116,834.428,535.812,1.128,1135.217,377.250,1.269,837.799,325.408,0.962,1311.336,306.249,1.058,875.594,97.203,0.737,-0.036,-0.966,1.402,0.000,-1.196,0.000,-0.030,0.003,0.003,-0.069,-0.769,1.424
0723_102532_0227.png,0.051,0.167,0.946,-0.012,0.162,0.938,0.164,-0.014,1.091,-0.116,0.002,1.159,0.135,-0.281,1.104,-0.156,-0.220,0.998,0.084,-0.335,0.844,-0.088,-0.356,0.776,1011.650,707.596,0.946,947.469,704.216,0.938,1103.004,527.815,1.091,864.935,541.464,1.159,1076.256,298.229,1.104,811.598,330.382,0.998,1054.407,162.818,0.844,852.439,104.267,0.776,-0.027,-0.966,1.402,0.000,-12.941,0.000,0.028,0.019,-0.033,0.075,-0.944,1.335
0723_102532_0228.png,0.000,0.170,0.942,-0.064,0.174,0.950,0.105,-0.005,1.155,-0.175,-0.018,1.096,0.075,-0.177,0.934,-0.258,-0.271,1.049,0.049,-0.347,0.719,-0.100,-0.341,0.847,959.596,711.911,0.942,896.324,713.776,0.950,1046.786,536.024,1.155,808.458,524.115,1.096,1036.419,359.386,0.934,725.925,294.094,1.049,1024.772,80.869,0.719,848.118,157.341,0.847,-0.033,-0.959,1.401,0.000,-346.700,0.000,0.035,0.002,-0.021,-0.022,-0.695,1.415
