rolosa10/RGSpipe/dataset/synthetic_dataset/Coods3D_unique0723_101442.csv
filename,left_eye,left_eye,left_eye,right_eye,right_eye,right_eye,left_shoulder,left_shoulder,left_shoulder,right_shoulder,right_shoulder,right_shoulder,left_elbow,left_elbow,left_elbow,right_elbow,right_elbow,right_elbow,left_wrist,left_wrist,left_wrist,right_wrist,right_wrist,right_wrist,left_eye_2D,left_eye_2D,left_eye_2D,right_eye_2D,right_eye_2D,right_eye_2D,left_shoulder_2D,left_shoulder_2D,left_shoulder_2D,right_shoulder_2D,right_shoulder_2D,right_shoulder_2D,left_elbow_2D,left_elbow_2D,left_elbow_2D,right_elbow_2D,right_elbow_2D,right_elbow_2D,left_wrist_2D,left_wrist_2D,left_wrist_2D,right_wrist_2D,right_wrist_2D,right_wrist_2D,root_position,root_position,root_position,root_pitch,root_yaw,root_roll,root_scale,root_scale,root_scale,look_at,look_at,look_at
0723_101442_0001.png,0.028,0.176,0.932,-0.037,0.176,0.934,0.143,-0.006,1.113,-0.147,-0.005,1.115,0.144,-0.249,1.011,-0.309,-0.214,1.157,-0.017,-0.333,0.834,-0.395,-0.303,0.937,988.167,719.071,0.932,922.775,719.241,0.934,1081.948,534.959,1.113,834.652,535.315,1.115,1094.966,306.329,1.011,706.168,364.330,1.157,940.293,159.882,0.834,559.248,232.619,0.937,-0.035,-0.970,1.403,0.000,-359.188,0.000,0.025,-0.001,0.043,-0.033,-0.856,1.183
0723_101442_0002.png,0.021,0.166,0.927,-0.045,0.167,0.932,0.147,-0.003,1.106,-0.152,0.002,1.126,0.183,-0.214,1.269,-0.255,-0.237,1.065,0.211,-0.271,1.019,-0.103,-0.315,0.869,981.339,709.766,0.927,913.621,710.068,0.932,1086.631,537.393,1.106,831.856,541.271,1.126,1097.470,379.939,1.269,732.648,328.612,1.065,1156.768,286.978,1.019,847.308,195.001,0.869,-0.027,-0.975,1.404,0.000,-2.703,0.000,-0.009,0.008,0.027,-0.239,-1.138,1.286
0723_101442_0003.png,0.045,0.171,0.942,-0.018,0.169,0.938,0.161,-0.019,1.085,-0.118,-0.004,1.149,0.247,-0.220,1.238,-0.263,-0.168,0.988,0.380,-0.284,1.027,-0.404,-0.327,0.831,1005.882,713.005,0.942,941.549,711.650,0.938,1101.376,523.212,1.085,861.947,536.402,1.149,1149.984,370.670,1.238,706.986,378.405,0.988,1311.593,277.124,1.027,497.719,165.482,0.831,-0.029,-0.964,1.402,0.000,-12.121,0.000,0.032,0.010,0.017,-0.076,-0.726,1.365
0723_101442_0004.png,-0.003,0.163,0.935,-0.071,0.168,0.944,0.113,-0.001,1.157,-0.187,-0.017,1.090,0.078,-0.210,0.979,-0.168,-0.252,0.952,0.007,-0.341,0.754,-0.109,-0.354,0.711,956.514,705.815,0.935,888.797,708.980,0.944,1052.553,538.788,1.157,797.053,525.322,1.090,1036.030,336.406,0.979,792.157,287.777,0.952,968.282,110.506,0.754,814.630,65.885,0.711,-0.032,-0.962,1.401,0.000,-345.935,0.000,-0.035,0.003,-0.018,-0.075,-0.975,1.204
0723_101442_0005.png,0.009,0.150,0.931,-0.057,0.153,0.934,0.113,0.000,1.151,-0.177,-0.015,1.085,0.262,-0.198,1.051,-0.236,-0.172,1.290,0.357,-0.318,0.841,-0.292,-0.261,1.052,969.147,692.907,0.931,902.226,696.185,0.934,1053.709,539.768,1.151,805.345,526.556,1.085,1197.407,361.131,1.051,786.191,413.531,1.290,1363.648,180.705,0.841,695.745,303.663,1.052,-0.037,-0.970,1.403,0.000,-345.770,0.000,-0.003,0.027,0.015,0.136,-1.178,1.436
0723_101442_0006.png,0.032,0.167,0.929,-0.036,0.168,0.933,0.162,0.001,1.111,-0.142,0.007,1.140,0.183,-0.220,0.940,-0.202,-0.240,1.029,0.173,-0.360,0.705,-0.073,-0.336,0.810,992.444,711.348,0.929,923.573,711.166,0.933,1098.410,540.429,1.111,841.916,546.158,1.140,1145.490,317.504,0.940,773.337,318.393,1.029,1193.191,54.592,0.705,874.815,145.851,0.810,-0.033,-0.971,1.403,0.000,-4.613,0.000,-0.026,-0.009,-0.035,-0.222,-1.103,1.629
0723_101442_0007.png,0.041,0.149,0.936,-0.028,0.147,0.935,0.166,-0.019,1.095,-0.138,-0.006,1.151,0.146,-0.273,1.012,-0.243,-0.230,1.042,0.013,-0.327,0.790,-0.245,-0.323,0.794,1001.338,691.434,0.936,931.745,689.104,0.935,1104.342,523.714,1.095,845.815,535.177,1.151,1097.590,283.561,1.012,737.785,330.415,1.042,975.848,146.274,0.790,666.203,153.578,0.794,-0.026,-0.964,1.402,0.000,-9.554,0.000,-0.043,0.024,-0.003,-0.096,-1.172,1.392
0723_101442_0008.png,0.007,0.153,0.944,-0.057,0.156,0.948,0.114,-0.008,1.150,-0.172,-0.017,1.111,0.230,-0.223,1.250,-0.168,-0.249,0.962,0.284,-0.290,0.994,-0.096,-0.367,0.728,967.105,694.126,0.944,902.775,696.054,0.948,1054.221,533.387,1.150,812.508,525.323,1.111,1135.085,370.262,1.250,793.842,293.830,0.962,1232.156,262.391,0.994,834.776,60.389,0.728,-0.029,-0.960,1.401,0.000,-350.715,0.000,0.026,0.025,-0.031,0.060,-0.989,1.367
0723_101442_0009.png,0.050,0.155,0.946,-0.015,0.151,0.940,0.166,-0.026,1.084,-0.118,-0.008,1.160,0.203,-0.276,1.001,-0.278,-0.205,1.237,0.054,-0.336,0.792,-0.401,-0.277,1.016,1010.248,695.957,0.946,944.709,693.138,0.940,1106.057,517.280,1.084,863.007,533.098,1.160,1152.654,277.375,1.001,746.647,382.386,1.237,1025.208,136.112,0.792,584.638,280.920,1.016,-0.025,-0.961,1.401,0.000,-14.155,0.000,0.006,0.034,-0.001,-0.033,-0.912,1.301
0723_101442_0010.png,0.022,0.161,0.938,-0.045,0.163,0.941,0.137,0.002,1.139,-0.162,-0.004,1.115,0.280,-0.225,1.097,-0.306,-0.177,1.258,0.289,-0.320,0.845,-0.369,-0.274,1.016,981.939,703.414,0.938,914.668,704.861,0.941,1074.615,541.463,1.139,821.814,536.825,1.115,1202.755,345.155,1.097,729.044,406.123,1.258,1285.350,179.603,0.845,614.068,283.147,1.016,-0.037,-0.972,1.404,0.000,-354.157,0.000,-0.011,0.022,-0.024,0.015,-1.167,1.149
0723_101442_0011.png,0.052,0.166,0.927,-0.011,0.159,0.918,0.164,-0.011,1.083,-0.114,0.005,1.151,0.117,-0.219,0.911,-0.166,-0.225,1.012,0.024,-0.376,0.716,-0.158,-0.356,0.782,1013.508,709.922,0.927,948.715,704.904,0.918,1104.034,530.687,1.083,865.493,544.220,1.151,1082.451,311.037,0.911,804.068,328.938,1.012,992.538,41.110,0.716,768.560,107.663,0.782,-0.030,-0.965,1.402,0.000,-12.972,0.000,0.033,-0.024,-0.007,0.141,-1.256,1.434
0723_101442_0012.png,-0.011,0.184,0.927,-0.075,0.190,0.943,0.107,0.008,1.151,-0.181,-0.007,1.088,0.269,-0.198,1.069,-0.264,-0.205,0.915,0.386,-0.326,0.866,-0.292,-0.369,0.705,948.329,728.798,0.927,884.317,731.578,0.943,1048.324,546.367,1.151,801.713,534.030,1.088,1199.037,364.071,1.069,685.288,327.378,0.915,1384.253,182.220,0.866,566.132,42.412,0.705,-0.031,-0.967,1.402,0.000,-346.127,0.000,0.006,-0.029,-0.015,-0.304,-0.774,1.399
0723_101442_0013.png,0.036,0.164,0.939,-0.027,0.163,0.934,0.140,-0.002,1.127,-0.146,-0.004,1.121,0.276,-0.231,1.127,-0.286,-0.230,1.117,0.348,-0.321,0.889,-0.157,-0.321,0.907,996.605,706.362,0.939,932.407,705.559,0.934,1077.920,538.101,1.127,835.715,537.011,1.121,1192.630,344.918,1.127,716.456,344.070,1.117,1332.274,197.145,0.889,795.717,203.712,0.907,-0.037,-0.970,1.403,0.000,-357.689,0.000,0.036,0.013,-0.007,0.271,-1.024,1.494
0723_101442_0014.png,0.012,0.181,0.922,-0.054,0.184,0.929,0.132,0.008,1.134,-0.168,0.002,1.105,0.087,-0.172,0.923,-0.248,-0.181,0.912,0.043,-0.348,0.717,-0.326,-0.359,0.724,972.467,726.360,0.922,904.513,728.319,0.929,1070.621,546.875,1.134,815.776,541.324,1.105,1049.630,362.497,0.923,701.585,351.471,0.912,1016.948,78.098,0.717,532.183,68.784,0.724,-0.033,-0.969,1.403,0.000,-353.156,0.000,-0.014,-0.041,-0.012,-0.111,-0.916,1.712
0723_101442_0015.png,0.056,0.153,0.944,-0.011,0.149,0.939,0.175,-0.015,1.098,-0.120,-0.002,1.156,0.120,-0.242,0.954,-0.289,-0.195,1.230,0.017,-0.352,0.729,-0.363,-0.279,0.984,1016.562,693.859,0.944,949.312,690.684,0.939,1111.917,526.921,1.098,860.937,538.655,1.156,1079.430,298.742,0.954,736.265,389.168,1.230,981.707,81.202,0.729,609.497,270.772,0.984,-0.037,-0.967,1.402,0.000,-10.315,0.000,-0.017,0.037,-0.027,0.023,-1.099,1.438
0723_101442_0016.png,0.035,0.176,0.943,-0.030,0.174,0.940,0.148,0.001,1.124,-0.146,0.003,1.134,0.252,-0.200,1.272,-0.101,-0.183,0.923,0.331,-0.284,1.025,-0.061,-0.365,0.718,995.673,717.405,0.943,929.930,716.596,0.940,1084.867,540.747,1.124,837.466,542.691,1.134,1148.072,390.758,1.272,855.676,351.811,0.923,1267.149,276.078,1.025,879.102,56.538,0.718,-0.033,-0.969,1.403,0.000,-0.851,0.000,0.010,0.001,-0.044,0.137,-0.967,1.233
0723_101442_0017.png,0.049,0.162,0.929,-0.019,0.161,0.932,0.180,-0.015,1.080,-0.118,0.002,1.150,0.224,-0.254,1.190,-0.285,-0.195,1.235,0.263,-0.288,0.935,-0.353,-0.271,0.997,1010.314,705.765,0.929,941.035,704.215,0.932,1118.271,527.045,1.080,862.148,541.240,1.150,1139.157,337.402,1.190,740.181,389.714,1.235,1227.154,247.342,0.935,623.161,281.919,0.997,-0.037,-0.970,1.403,0.000,-12.477,0.000,-0.033,0.014,0.019,-0.291,-0.998,1.521
0723_101442_0018.png,0.052,0.174,0.927,-0.014,0.168,0.919,0.166,-0.004,1.090,-0.127,0.009,1.146,0.099,-0.187,0.891,-0.287,-0.198,1.232,0.033,-0.365,0.697,-0.446,-0.281,1.034,1013.050,718.007,0.927,945.642,714.237,0.919,1105.155,536.558,1.090,854.725,547.307,1.146,1065.382,340.639,0.891,738.117,386.855,1.232,1005.123,41.551,0.697,549.726,281.749,1.034,-0.032,-0.969,1.403,0.000,-9.813,0.000,-0.006,-0.029,-0.011,0.160,-1.185,1.423
0723_101442_0019.png,0.033,0.179,0.924,-0.032,0.178,0.925,0.154,-0.006,1.102,-0.139,0.002,1.133,0.206,-0.276,1.069,-0.214,-0.173,0.931,0.030,-0.330,0.881,-0.288,-0.343,0.734,994.387,723.854,0.924,927.203,723.039,0.925,1092.847,535.205,1.102,843.309,541.332,1.133,1143.405,294.485,1.069,740.852,363.614,0.931,992.335,183.966,0.881,586.965,95.593,0.734,-0.031,-0.963,1.401,0.000,-5.040,0.000,0.008,-0.044,0.002,-0.084,-1.023,1.327
0723_101442_0020.png,0.033,0.176,0.942,-0.030,0.175,0.938,0.146,-0.016,1.101,-0.137,-0.008,1.137,0.244,-0.203,0.937,-0.244,-0.242,1.219,0.289,-0.362,0.735,-0.236,-0.303,0.966,993.686,718.113,0.942,929.625,717.385,0.938,1086.300,526.464,1.101,845.071,533.705,1.137,1207.174,334.043,0.937,769.371,351.407,1.219,1333.860,72.551,0.735,727.661,241.545,0.966,-0.026,-0.961,1.401,0.000,-6.140,0.000,0.037,-0.008,0.015,0.028,-0.681,1.366
0723_101442_0021.png,0.035,0.143,0.943,-0.032,0.141,0.939,0.151,-0.020,1.114,-0.152,-0.015,1.134,0.253,-0.234,1.223,-0.206,-0.193,0.941,0.300,-0.275,0.971,-0.203,-0.344,0.727,995.373,684.635,0.943,927.552,683.139,0.939,1088.635,523.339,1.114,832.412,527.369,1.134,1157.116,357.807,1.223,751.968,344.572,0.941,1253.458,270.898,0.971,695.030,90.588,0.727,-0.028,-0.963,1.401,0.000,-2.595,0.000,-0.022,0.041,0.015,0.127,-1.060,1.562
0723_101442_0022.png,0.033,0.162,0.937,-0.032,0.161,0.938,0.157,-0.020,1.086,-0.130,-0.005,1.149,0.126,-0.283,1.085,-0.305,-0.204,1.174,0.072,-0.322,0.836,-0.415,-0.292,0.958,993.568,704.029,0.937,927.456,702.844,0.938,1097.843,522.696,1.086,852.582,535.719,1.149,1070.356,292.260,1.085,713.301,374.627,1.174,1041.506,173.222,0.836,548.177,249.901,0.958,-0.022,-0.966,1.402,0.000,-11.604,0.000,0.009,0.021,0.021,-0.274,-0.906,1.296
0723_101442_0023.png,0.020,0.151,0.940,-0.047,0.151,0.939,0.135,-0.013,1.130,-0.171,-0.017,1.115,0.148,-0.234,0.985,-0.312,-0.179,1.272,0.122,-0.337,0.748,-0.357,-0.263,1.031,980.594,692.519,0.940,911.979,692.700,0.939,1073.406,528.932,1.130,814.457,525.812,1.115,1102.877,313.562,0.985,726.438,406.035,1.272,1115.732,112.061,0.748,630.388,297.423,1.031,-0.027,-0.963,1.401,0.000,-355.915,0.000,-0.030,0.029,0.017,0.139,-0.987,1.518
0723_101442_0024.png,0.033,0.163,0.932,-0.032,0.162,0.934,0.157,-0.007,1.098,-0.133,0.004,1.143,0.274,-0.245,1.126,-0.163,-0.222,0.997,0.321,-0.317,0.877,-0.084,-0.347,0.780,993.917,705.779,0.932,927.669,704.513,0.934,1095.875,534.076,1.098,849.602,542.962,1.143,1191.434,332.889,1.126,804.816,328.706,0.997,1308.522,195.903,0.877,857.847,116.946,0.780,-0.028,-0.973,1.404,0.000,-7.938,0.000,0.012,0.015,-0.001,-0.209,-1.183,1.230
0723_101442_0025.png,0.016,0.166,0.934,-0.047,0.168,0.937,0.123,-0.005,1.136,-0.160,-0.011,1.109,0.206,-0.214,1.287,-0.311,-0.229,1.084,0.338,-0.281,1.071,-0.299,-0.340,0.845,975.991,709.316,0.934,912.062,710.507,0.937,1063.059,536.102,1.136,823.230,530.846,1.109,1112.521,382.212,1.287,687.073,338.916,1.084,1260.650,290.438,1.071,623.827,157.327,0.845,-0.033,-0.963,1.401,0.000,-353.392,0.000,0.044,-0.008,-0.003,0.039,-0.934,1.475
0723_101442_0026.png,0.018,0.166,0.938,-0.048,0.166,0.939,0.136,-0.007,1.122,-0.163,-0.007,1.119,0.247,-0.246,1.079,-0.157,-0.208,0.942,0.129,-0.317,0.859,-0.091,-0.351,0.734,978.109,707.930,0.938,911.179,708.248,0.939,1074.899,534.286,1.122,821.831,533.800,1.119,1178.047,323.690,1.079,802.060,330.177,0.942,1102.466,188.558,0.859,842.013,85.819,0.734,-0.025,-0.969,1.403,0.000,-358.349,0.000,-0.004,0.016,0.015,-0.017,-0.822,1.640
0723_101442_0027.png,0.044,0.174,0.951,-0.023,0.172,0.949,0.165,-0.011,1.094,-0.128,0.003,1.156,0.208,-0.273,1.078,-0.231,-0.223,1.044,0.021,-0.309,0.890,-0.114,-0.326,0.825,1003.532,713.728,0.951,936.949,712.483,0.949,1103.498,530.157,1.094,854.436,542.488,1.156,1143.280,299.329,1.078,749.220,336.823,1.044,982.340,209.615,0.890,828.191,164.613,0.825,-0.026,-0.972,1.403,0.000,-11.145,0.000,-0.011,0.036,-0.023,-0.130,-0.691,1.348
0723_101442_0028.png,0.053,0.157,0.941,-0.013,0.151,0.933,0.167,-0.017,1.084,-0.126,0.000,1.154,0.114,-0.251,0.968,-0.294,-0.203,1.102,-0.016,-0.337,0.758,-0.261,-0.310,0.865,1013.861,698.565,0.941,947.146,694.429,0.933,1106.538,525.426,1.084,855.914,539.715,1.154,1072.303,293.815,0.968,706.320,364.767,1.102,940.328,116.874,0.758,672.642,199.060,0.865,-0.025,-0.971,1.403,0.000,-12.731,0.000,-0.018,0.036,0.007,0.158,-1.116,1.249
0723_101442_0029.png,0.043,0.175,0.937,-0.022,0.174,0.935,0.161,-0.012,1.097,-0.130,-0.003,1.135,0.303,-0.239,1.099,-0.170,-0.216,0.984,0.382,-0.317,0.867,-0.081,-0.343,0.779,1003.557,717.454,0.937,937.471,716.725,0.935,1099.949,529.866,1.097,851.403,537.684,1.135,1222.427,332.969,1.099,795.423,331.494,0.984,1379.398,191.998,0.867,860.911,121.424,0.779,-0.036,-0.968,1.403,0.000,-6.621,0.000,0.011,0.002,0.027,-0.052,-0.739,1.496
0723_101442_0030.png,0.002,0.164,0.933,-0.062,0.167,0.938,0.107,-0.007,1.148,-0.178,-0.021,1.086,0.068,-0.178,0.940,-0.279,-0.226,1.231,0.029,-0.344,0.738,-0.309,-0.292,0.983,962.400,707.545,0.933,897.056,709.485,0.938,1048.630,534.293,1.148,804.233,521.438,1.086,1028.644,360.346,0.940,744.874,365.494,1.231,997.708,96.383,0.738,661.438,258.025,0.983,-0.031,-0.960,1.401,0.000,-346.194,0.000,0.017,-0.003,0.022,0.080,-0.875,1.292
0723_101442_0031.png,0.027,0.165,0.931,-0.038,0.166,0.931,0.138,-0.008,1.123,-0.154,-0.012,1.106,0.253,-0.235,1.054,-0.181,-0.255,1.009,0.218,-0.330,0.823,-0.054,-0.337,0.805,987.205,709.110,0.931,921.165,709.636,0.931,1076.561,533.240,1.123,827.961,529.759,1.106,1188.512,327.908,1.054,789.628,299.590,1.009,1212.472,158.956,0.823,895.914,142.177,0.805,-0.038,-0.966,1.402,0.000,-355.383,0.000,0.017,-0.001,0.044,0.078,-0.921,1.458
0723_101442_0032.png,0.029,0.167,0.940,-0.038,0.166,0.936,0.141,-0.001,1.125,-0.163,-0.003,1.115,0.277,-0.218,1.199,-0.247,-0.222,0.987,0.388,-0.278,0.970,-0.197,-0.336,0.759,989.487,709.404,0.940,921.241,709.056,0.936,1079.158,539.130,1.125,821.074,537.311,1.115,1179.964,366.687,1.199,722.302,326.409,0.987,1340.361,267.302,0.970,712.875,119.140,0.759,-0.031,-0.975,1.404,0.000,-357.039,0.000,-0.024,0.025,0.015,0.219,-0.948,1.407
0723_101442_0033.png,0.015,0.171,0.934,-0.051,0.174,0.940,0.137,0.002,1.133,-0.160,-0.001,1.122,0.155,-0.272,1.108,-0.245,-0.262,1.127,0.125,-0.332,0.844,-0.231,-0.326,0.862,975.390,714.387,0.934,908.861,715.895,0.940,1075.029,541.658,1.133,824.086,539.531,1.122,1093.196,306.529,1.108,753.583,319.143,1.127,1100.766,165.527,0.844,705.685,180.339,0.862,-0.032,-0.967,1.402,0.000,-356.652,0.000,-0.003,-0.010,-0.038,-0.164,-0.953,1.543
0723_101442_0034.png,0.016,0.161,0.942,-0.052,0.161,0.941,0.129,-0.006,1.139,-0.175,-0.010,1.122,0.162,-0.184,0.921,-0.289,-0.221,1.248,0.194,-0.356,0.708,-0.388,-0.279,1.001,975.796,702.540,0.942,907.420,702.838,0.941,1067.965,534.756,1.139,811.261,531.357,1.122,1127.277,350.134,0.921,739.690,371.573,1.248,1221.176,61.272,0.708,591.652,275.229,1.001,-0.023,-0.961,1.401,0.000,-355.544,0.000,-0.028,0.005,-0.036,0.135,-0.932,1.612
0723_101442_0035.png,0.024,0.160,0.926,-0.041,0.161,0.931,0.149,-0.009,1.116,-0.145,-0.006,1.130,0.159,-0.190,0.904,-0.144,-0.235,0.980,0.171,-0.366,0.698,-0.058,-0.356,0.760,984.908,704.140,0.926,918.452,704.781,0.931,1086.726,532.194,1.116,838.124,535.022,1.130,1127.438,340.337,0.904,820.261,311.664,0.980,1192.490,40.544,0.698,887.940,94.196,0.760,-0.033,-0.959,1.401,0.000,-1.653,0.000,0.010,-0.023,-0.011,-0.226,-1.185,1.407
0723_101442_0036.png,0.018,0.160,0.942,-0.050,0.161,0.942,0.131,-0.006,1.141,-0.171,-0.011,1.116,0.080,-0.183,0.930,-0.229,-0.248,0.990,0.030,-0.355,0.724,-0.104,-0.342,0.771,977.813,701.781,0.942,909.972,702.561,0.942,1069.414,535.023,1.141,814.412,530.251,1.116,1041.340,352.925,0.930,739.640,301.754,0.990,998.920,73.913,0.724,831.655,118.398,0.771,-0.029,-0.962,1.401,0.000,-354.200,0.000,-0.021,0.012,-0.025,0.104,-0.909,1.604
0723_101442_0037.png,0.032,0.147,0.933,-0.034,0.147,0.936,0.155,-0.008,1.110,-0.140,-0.003,1.132,0.085,-0.181,0.911,-0.305,-0.202,1.187,0.016,-0.348,0.715,-0.383,-0.286,0.954,992.532,689.655,0.933,925.659,689.545,0.936,1093.140,533.289,1.110,842.052,537.625,1.132,1049.012,351.265,0.911,715.926,377.786,1.187,981.374,76.855,0.715,577.634,254.472,0.954,-0.035,-0.974,1.404,0.000,-3.150,0.000,0.001,0.040,0.014,-0.154,-1.233,1.556
0723_101442_0038.png,0.010,0.179,0.932,-0.054,0.181,0.936,0.124,0.002,1.129,-0.165,-0.002,1.112,0.264,-0.216,1.051,-0.278,-0.212,1.245,0.322,-0.339,0.825,-0.402,-0.289,1.027,969.938,723.034,0.932,904.831,724.044,0.936,1064.882,541.674,1.129,819.171,538.385,1.112,1198.694,344.402,1.051,747.747,378.048,1.245,1331.106,149.737,0.825,587.686,272.332,1.027,-0.026,-0.969,1.403,0.000,-355.403,0.000,0.024,-0.016,-0.001,-0.090,-0.949,1.121
0723_101442_0039.png,0.045,0.177,0.948,-0.024,0.176,0.946,0.169,-0.012,1.096,-0.136,0.000,1.151,0.274,-0.261,1.080,-0.281,-0.208,1.243,0.294,-0.316,0.821,-0.384,-0.270,1.005,1004.942,717.546,0.948,936.197,716.697,0.946,1106.501,529.192,1.096,847.909,540.178,1.151,1200.989,310.522,1.080,744.809,380.787,1.243,1300.835,174.110,0.821,596.972,284.575,1.005,-0.029,-0.968,1.403,0.000,-9.353,0.000,-0.043,0.018,-0.012,-0.092,-0.655,1.318
0723_101442_0040.png,0.020,0.171,0.940,-0.046,0.172,0.945,0.144,-0.006,1.113,-0.152,-0.003,1.129,0.071,-0.180,0.919,-0.320,-0.193,1.044,-0.001,-0.350,0.729,-0.438,-0.318,0.848,979.972,712.927,0.940,914.028,713.253,0.945,1082.874,534.566,1.113,832.271,537.859,1.129,1033.233,353.152,0.919,668.531,364.585,1.044,958.896,84.005,0.729,469.227,182.835,0.848,-0.026,-0.972,1.404,0.000,-2.127,0.000,0.003,0.023,0.011,-0.236,-0.858,1.151
0723_101442_0041.png,-0.003,0.170,0.932,-0.065,0.175,0.942,0.103,0.004,1.153,-0.175,-0.011,1.089,0.228,-0.235,1.147,-0.234,-0.261,1.002,0.098,-0.316,0.937,-0.222,-0.362,0.756,957.351,713.473,0.932,894.133,716.608,0.942,1044.609,542.927,1.153,807.475,530.185,1.089,1148.963,344.941,1.147,737.516,292.536,1.002,1058.913,219.256,0.937,681.195,85.293,0.756,-0.034,-0.967,1.402,0.000,-345.435,0.000,0.040,-0.001,-0.012,-0.081,-0.922,1.303
0723_101442_0042.png,-0.002,0.150,0.926,-0.068,0.155,0.933,0.113,0.000,1.151,-0.183,-0.013,1.094,0.273,-0.218,1.119,-0.277,-0.234,0.964,0.355,-0.310,0.883,-0.279,-0.353,0.726,958.182,693.631,0.926,890.966,698.155,0.933,1053.124,539.815,1.151,801.301,528.478,1.094,1192.085,354.615,1.119,686.472,309.540,0.964,1341.606,205.824,0.883,594.761,77.145,0.726,-0.030,-0.964,1.402,0.000,-347.682,0.000,-0.014,0.000,-0.010,-0.096,-1.308,1.396
0723_101442_0043.png,0.030,0.168,0.933,-0.039,0.167,0.931,0.149,-0.012,1.109,-0.159,-0.008,1.128,0.186,-0.281,1.103,-0.296,-0.234,1.203,0.170,-0.313,0.846,-0.308,-0.285,0.949,990.415,711.644,0.933,920.598,710.861,0.931,1088.090,529.709,1.109,825.767,533.520,1.128,1120.662,297.726,1.103,726.117,354.759,1.203,1150.702,187.825,0.846,651.645,254.076,0.949,-0.025,-0.962,1.401,0.000,-2.402,0.000,-0.041,-0.012,0.019,0.072,-0.852,1.627
0723_101442_0044.png,0.008,0.174,0.926,-0.058,0.177,0.933,0.131,-0.001,1.126,-0.168,-0.004,1.110,0.180,-0.263,1.193,-0.319,-0.228,1.070,0.166,-0.301,0.935,-0.308,-0.328,0.830,968.473,719.044,0.926,901.169,720.414,0.933,1070.319,539.485,1.126,815.713,536.391,1.110,1103.303,330.298,1.193,676.786,337.405,1.070,1128.510,233.524,0.935,606.746,164.535,0.830,-0.026,-0.967,1.402,0.000,-355.748,0.000,-0.008,-0.021,0.013,-0.162,-0.876,1.615
0723_101442_0045.png,0.025,0.151,0.934,-0.040,0.150,0.931,0.137,-0.014,1.116,-0.158,-0.012,1.125,0.104,-0.198,0.925,-0.183,-0.259,1.031,0.027,-0.355,0.732,-0.137,-0.336,0.788,985.952,694.029,0.934,919.265,692.935,0.931,1077.171,527.725,1.116,826.647,529.703,1.125,1066.710,336.137,0.925,790.841,300.603,1.031,995.321,78.971,0.732,794.976,134.448,0.788,-0.023,-0.962,1.401,0.000,-0.748,0.000,0.005,0.010,0.021,0.144,-1.187,1.352
0723_101442_0046.png,0.039,0.147,0.939,-0.026,0.143,0.934,0.153,-0.020,1.097,-0.136,-0.008,1.146,0.085,-0.238,0.960,-0.183,-0.242,1.027,-0.017,-0.348,0.747,-0.158,-0.338,0.787,999.362,688.706,0.939,933.556,685.596,0.934,1092.925,522.857,1.097,846.894,533.067,1.146,1043.936,304.142,0.960,790.969,316.362,1.027,938.097,97.080,0.747,768.675,131.165,0.787,-0.023,-0.965,1.402,0.000,-8.807,0.000,0.010,0.033,0.011,0.078,-1.098,1.598
0723_101442_0047.png,0.044,0.160,0.950,-0.023,0.158,0.945,0.164,-0.024,1.090,-0.135,-0.009,1.153,0.302,-0.237,1.162,-0.161,-0.218,0.988,0.386,-0.288,0.918,-0.067,-0.333,0.770,1004.174,700.450,0.950,936.590,698.864,0.945,1102.887,519.453,1.090,848.698,532.464,1.153,1207.562,346.046,1.162,804.787,330.585,0.988,1359.990,241.234,0.918,877.803,129.137,0.770,-0.023,-0.963,1.401,0.000,-10.992,0.000,-0.029,0.039,0.009,-0.028,-0.782,1.219
0723_101442_0048.png,0.027,0.162,0.942,-0.036,0.164,0.949,0.151,-0.013,1.118,-0.134,-0.008,1.139,0.278,-0.230,1.201,-0.171,-0.239,0.994,0.393,-0.301,0.973,-0.085,-0.359,0.772,987.083,703.532,0.942,923.820,704.187,0.949,1088.496,529.033,1.118,848.224,533.222,1.139,1180.401,358.069,1.201,796.716,311.853,0.994,1343.871,246.255,0.973,854.860,97.470,0.772,-0.036,-0.961,1.401,0.000,-3.110,0.000,0.038,0.016,-0.023,-0.310,-0.825,1.541
0723_101442_0049.png,-0.004,0.175,0.938,-0.068,0.179,0.948,0.106,0.005,1.152,-0.179,-0.009,1.092,0.173,-0.253,1.106,-0.244,-0.244,0.975,0.155,-0.328,0.852,-0.166,-0.356,0.746,955.687,717.296,0.938,891.491,719.543,0.948,1047.725,543.907,1.152,804.221,532.162,1.092,1108.459,322.640,1.106,722.187,301.975,0.975,1132.973,173.912,0.852,748.221,85.714,0.746,-0.031,-0.971,1.403,0.000,-346.693,0.000,0.018,0.013,-0.012,-0.088,-0.748,1.399
0723_101442_0050.png,0.021,0.157,0.933,-0.042,0.158,0.934,0.128,-0.008,1.129,-0.156,-0.012,1.111,0.190,-0.253,1.046,-0.246,-0.213,1.263,0.046,-0.336,0.850,-0.267,-0.289,1.016,981.014,700.078,0.933,916.788,700.794,0.934,1067.722,533.381,1.129,826.595,529.822,1.111,1132.778,309.581,1.046,774.780,379.722,1.263,1011.754,164.064,0.850,710.284,269.797,1.016,-0.032,-0.965,1.402,0.000,-355.194,0.000,0.042,0.008,0.017,0.088,-1.143,1.237
0723_101442_0051.png,0.007,0.146,0.934,-0.056,0.151,0.943,0.122,-0.004,1.143,-0.163,-0.012,1.107,0.171,-0.240,1.024,-0.189,-0.266,1.030,0.046,-0.340,0.818,-0.145,-0.346,0.782,967.351,688.911,0.934,903.703,692.526,0.943,1061.872,536.540,1.143,820.379,529.372,1.107,1118.719,316.867,1.024,785.572,294.168,1.030,1013.764,144.779,0.818,783.757,118.940,0.782,-0.036,-0.969,1.403,0.000,-351.495,0.000,0.032,0.033,-0.004,-0.180,-1.136,1.567
0723_101442_0052.png,0.032,0.184,0.940,-0.034,0.184,0.941,0.154,-0.005,1.097,-0.136,0.006,1.142,0.214,-0.250,1.001,-0.267,-0.229,1.166,0.140,-0.349,0.767,-0.318,-0.309,0.919,991.991,726.572,0.940,926.005,726.042,0.941,1093.758,535.891,1.097,846.564,544.881,1.142,1163.614,302.063,1.001,742.090,353.276,1.166,1133.678,107.094,0.767,631.140,219.936,0.919,-0.025,-0.973,1.404,0.000,-8.082,0.000,0.009,0.003,-0.003,-0.192,-0.681,1.414
0723_101442_0053.png,0.012,0.177,0.926,-0.053,0.179,0.928,0.113,0.006,1.144,-0.173,-0.009,1.080,0.091,-0.169,0.938,-0.227,-0.253,0.983,0.069,-0.339,0.737,-0.221,-0.354,0.747,972.541,721.314,0.926,905.904,723.065,0.928,1053.848,544.670,1.144,807.385,531.923,1.080,1052.510,368.989,0.938,740.522,294.991,0.983,1048.861,103.233,0.737,678.425,89.280,0.747,-0.037,-0.971,1.403,0.000,-345.837,0.000,0.010,-0.017,0.027,0.201,-0.871,1.532
0723_101442_0054.png,0.013,0.151,0.948,-0.053,0.153,0.952,0.132,-0.013,1.139,-0.166,-0.016,1.124,0.227,-0.197,0.956,-0.342,-0.215,1.082,0.266,-0.350,0.735,-0.419,-0.318,0.846,973.171,691.260,0.948,907.097,692.495,0.952,1070.310,529.484,1.139,819.253,526.428,1.124,1185.904,343.650,0.956,659.430,350.788,1.082,1304.522,87.201,0.735,488.819,182.853,0.846,-0.028,-0.961,1.401,0.000,-355.877,0.000,-0.007,0.041,-0.024,-0.071,-0.862,1.603
0723_101442_0055.png,0.002,0.163,0.925,-0.065,0.168,0.936,0.128,-0.003,1.142,-0.175,-0.015,1.089,0.268,-0.232,1.192,-0.237,-0.256,1.200,0.339,-0.285,0.950,-0.211,-0.285,0.945,961.812,707.346,0.925,894.177,710.752,0.936,1066.767,537.641,1.142,807.081,526.871,1.089,1173.790,354.547,1.192,772.163,337.147,1.200,1299.650,254.607,0.950,747.294,253.272,0.945,-0.037,-0.965,1.402,0.000,-348.648,0.000,-0.038,-0.007,0.027,-0.257,-0.939,1.572
0723_101442_0056.png,0.007,0.159,0.931,-0.059,0.163,0.937,0.120,0.000,1.149,-0.177,-0.014,1.084,0.228,-0.214,1.269,-0.236,-0.166,1.294,0.379,-0.257,1.061,-0.308,-0.255,1.060,967.494,702.749,0.931,899.760,705.778,0.937,1059.021,540.384,1.149,805.077,527.341,1.084,1130.918,379.920,1.269,786.881,417.774,1.294,1299.336,309.619,1.061,683.584,310.853,1.060,-0.039,-0.970,1.403,0.000,-346.177,0.000,-0.023,0.017,0.019,0.017,-1.016,1.409
0723_101442_0057.png,-0.010,0.152,0.928,-0.073,0.159,0.940,0.104,-0.007,1.154,-0.182,-0.022,1.086,0.051,-0.175,0.942,-0.283,-0.204,1.257,-0.001,-0.340,0.736,-0.460,-0.267,1.076,950.243,695.954,0.928,885.698,700.516,0.940,1045.793,534.582,1.154,800.421,520.558,1.086,1011.474,362.913,0.942,746.335,385.433,1.257,959.077,100.713,0.736,553.234,304.304,1.076,-0.031,-0.959,1.401,0.000,-345.136,0.000,0.008,0.002,0.007,-0.209,-1.129,1.216
0723_101442_0058.png,0.006,0.170,0.931,-0.062,0.172,0.935,0.121,-0.008,1.142,-0.183,-0.019,1.092,0.198,-0.175,0.947,-0.293,-0.205,1.264,0.269,-0.337,0.754,-0.252,-0.271,1.017,966.385,713.552,0.931,897.045,714.842,0.935,1060.930,533.682,1.142,800.410,523.473,1.092,1159.077,364.318,0.947,739.759,385.600,1.264,1299.512,114.640,0.754,724.377,286.796,1.017,-0.028,-0.958,1.400,0.000,-349.343,0.000,-0.040,-0.021,0.021,0.064,-0.824,1.378
0723_101442_0059.png,0.019,0.170,0.946,-0.045,0.171,0.949,0.138,-0.006,1.121,-0.153,-0.004,1.130,0.103,-0.254,1.022,-0.304,-0.202,1.216,0.039,-0.344,0.781,-0.435,-0.284,1.002,979.535,711.254,0.946,914.856,711.490,0.949,1077.426,534.735,1.121,831.519,536.653,1.130,1056.145,303.889,1.022,722.611,381.661,1.216,1007.054,121.489,0.781,547.593,270.310,1.002,-0.026,-0.970,1.403,0.000,-0.784,0.000,0.019,0.029,-0.008,-0.117,-0.695,1.593
0723_101442_0060.png,0.052,0.180,0.937,-0.011,0.178,0.931,0.166,-0.010,1.092,-0.117,0.002,1.141,0.116,-0.190,0.894,-0.097,-0.181,0.942,0.068,-0.367,0.702,-0.078,-0.359,0.748,1013.178,722.893,0.937,948.618,721.407,0.931,1104.275,531.460,1.092,862.250,541.381,1.141,1082.920,337.713,0.894,862.286,357.708,0.942,1052.205,43.116,0.702,861.118,83.594,0.748,-0.038,-0.968,1.403,0.000,-9.079,0.000,0.032,-0.011,0.011,0.058,-0.809,1.307
0723_101442_0061.png,0.014,0.175,0.929,-0.053,0.177,0.934,0.138,0.000,1.125,-0.166,-0.001,1.118,0.203,-0.209,1.294,-0.245,-0.218,0.971,0.341,-0.264,1.072,-0.231,-0.351,0.741,974.543,719.093,0.929,906.128,720.084,0.934,1076.533,540.246,1.125,819.048,538.972,1.118,1109.497,386.707,1.294,719.532,326.576,0.971,1262.881,305.689,1.072,663.676,89.871,0.741,-0.027,-0.967,1.402,0.000,-357.564,0.000,-0.023,-0.022,-0.009,-0.138,-0.970,1.418
0723_101442_0062.png,0.031,0.165,0.948,-0.034,0.164,0.947,0.148,-0.012,1.115,-0.146,-0.007,1.136,0.262,-0.251,1.115,-0.247,-0.232,1.030,0.138,-0.311,0.890,-0.157,-0.335,0.805,991.123,705.620,0.948,925.494,705.092,0.947,1086.463,529.986,1.115,837.780,534.297,1.136,1183.579,326.190,1.115,732.031,325.829,1.030,1107.410,208.336,0.890,774.925,143.762,0.805,-0.029,-0.968,1.402,0.000,-3.101,0.000,0.006,0.033,-0.004,-0.017,-0.862,1.095
0723_101442_0063.png,0.011,0.186,0.938,-0.057,0.190,0.947,0.137,0.007,1.142,-0.171,-0.001,1.104,0.088,-0.171,0.931,-0.166,-0.233,0.957,0.038,-0.344,0.724,-0.101,-0.349,0.723,970.661,729.052,0.938,902.420,730.488,0.947,1074.108,546.082,1.142,812.818,538.878,1.104,1049.622,364.894,0.931,795.403,308.083,0.957,1010.155,87.959,0.724,826.803,80.885,0.723,-0.038,-0.972,1.404,0.000,-351.715,0.000,-0.045,-0.005,-0.019,-0.193,-0.662,1.455
0723_101442_0064.png,0.003,0.163,0.935,-0.063,0.166,0.942,0.120,-0.002,1.147,-0.178,-0.010,1.111,0.188,-0.202,1.319,-0.265,-0.191,0.913,0.243,-0.268,1.059,-0.321,-0.363,0.705,963.290,705.703,0.935,896.255,708.081,0.942,1059.837,538.485,1.147,807.589,531.443,1.111,1095.756,394.157,1.319,684.567,340.669,0.913,1177.863,299.276,1.059,527.627,50.652,0.705,-0.026,-0.961,1.401,0.000,-351.859,0.000,-0.013,-0.007,-0.040,-0.085,-1.044,1.355
0723_101442_0065.png,0.043,0.153,0.948,-0.024,0.152,0.947,0.162,-0.024,1.105,-0.134,-0.016,1.140,0.176,-0.276,1.036,-0.310,-0.195,1.049,-0.016,-0.313,0.864,-0.426,-0.312,0.850,1002.696,693.417,0.948,936.358,692.655,0.947,1099.573,519.164,1.105,848.089,526.511,1.140,1121.533,286.370,1.036,679.121,363.552,1.049,942.169,195.637,0.864,483.524,190.196,0.850,-0.036,-0.961,1.401,0.000,-5.738,0.000,-0.005,0.044,0.022,-0.056,-0.866,1.120
0723_101442_0066.png,0.027,0.171,0.929,-0.042,0.173,0.934,0.155,0.001,1.116,-0.153,0.004,1.126,0.244,-0.256,1.107,-0.173,-0.229,0.987,0.066,-0.301,0.911,-0.134,-0.339,0.749,987.195,715.448,0.929,917.624,716.035,0.934,1091.990,541.139,1.116,830.467,543.031,1.126,1169.293,319.869,1.107,793.656,318.981,0.987,1028.966,226.087,0.911,790.168,109.853,0.749,-0.034,-0.973,1.404,0.000,-0.695,0.000,-0.039,-0.004,-0.004,-0.178,-1.028,1.473
0723_101442_0067.png,0.020,0.157,0.940,-0.044,0.160,0.943,0.129,-0.001,1.141,-0.159,-0.008,1.110,0.275,-0.216,1.182,-0.257,-0.237,1.013,0.392,-0.296,0.958,-0.188,-0.346,0.781,979.905,699.198,0.940,915.218,700.836,0.943,1067.441,539.091,1.141,824.011,532.961,1.110,1181.466,366.258,1.182,718.965,317.279,1.013,1348.718,246.079,0.958,730.691,117.861,0.781,-0.038,-0.972,1.404,0.000,-352.516,0.000,0.025,0.035,-0.009,0.047,-1.086,1.240
0723_101442_0068.png,0.010,0.175,0.939,-0.058,0.177,0.943,0.128,-0.005,1.141,-0.177,-0.012,1.108,0.174,-0.180,0.927,-0.254,-0.258,1.012,0.219,-0.349,0.718,-0.112,-0.333,0.798,970.331,717.501,0.939,901.986,718.471,0.943,1066.550,535.970,1.141,808.389,529.308,1.108,1138.845,355.844,0.927,721.737,297.482,1.012,1249.332,77.501,0.718,826.883,142.657,0.798,-0.029,-0.960,1.401,0.000,-352.453,0.000,-0.032,-0.013,-0.013,0.006,-0.742,1.379
0723_101442_0069.png,0.013,0.174,0.922,-0.053,0.176,0.923,0.118,0.004,1.139,-0.175,-0.008,1.091,0.123,-0.240,1.020,-0.197,-0.277,1.041,-0.017,-0.339,0.822,-0.162,-0.345,0.792,973.290,719.637,0.922,905.570,721.271,0.923,1058.170,542.975,1.139,807.535,533.460,1.091,1074.571,316.363,1.020,780.137,286.931,1.041,940.408,147.737,0.822,765.230,125.081,0.792,-0.031,-0.965,1.402,0.000,-349.240,0.000,0.001,-0.040,0.012,0.181,-1.086,1.343
0723_101442_0070.png,0.049,0.193,0.929,-0.015,0.191,0.927,0.169,0.000,1.089,-0.114,0.013,1.145,0.224,-0.250,1.205,-0.253,-0.187,1.017,0.243,-0.316,0.946,-0.331,-0.347,0.816,1010.389,737.449,0.929,944.610,736.162,0.927,1107.965,539.935,1.089,865.065,550.565,1.145,1136.630,342.628,1.205,723.640,365.152,1.017,1203.960,222.302,0.946,574.585,135.849,0.816,-0.039,-0.971,1.403,0.000,-10.208,0.000,0.025,-0.039,-0.015,-0.126,-0.831,1.374
0723_101442_0071.png,0.037,0.182,0.943,-0.030,0.181,0.944,0.164,-0.005,1.094,-0.130,0.009,1.157,0.304,-0.236,1.125,-0.228,-0.170,0.958,0.384,-0.315,0.877,-0.326,-0.345,0.764,997.006,723.875,0.943,929.782,722.804,0.944,1102.143,535.365,1.094,853.220,547.557,1.157,1216.649,340.805,1.125,733.383,370.865,0.958,1376.547,198.691,0.877,554.244,110.581,0.764,-0.023,-0.971,1.403,0.000,-11.292,0.000,-0.012,0.004,-0.044,-0.257,-0.734,1.436
0723_101442_0072.png,0.029,0.189,0.930,-0.035,0.188,0.928,0.143,0.000,1.102,-0.145,0.004,1.121,0.181,-0.194,1.293,-0.189,-0.240,1.026,0.266,-0.277,1.068,-0.055,-0.339,0.834,989.815,733.295,0.930,924.368,732.899,0.928,1083.195,539.881,1.102,836.898,543.629,1.121,1093.446,397.152,1.293,784.408,317.354,1.026,1197.064,292.865,1.068,897.632,153.409,0.834,-0.028,-0.974,1.404,0.000,-2.745,0.000,0.028,-0.021,0.036,0.028,-0.716,1.518
0723_101442_0073.png,0.016,0.179,0.940,-0.053,0.179,0.940,0.130,0.004,1.139,-0.179,-0.005,1.103,0.197,-0.199,1.305,-0.207,-0.259,1.016,0.313,-0.249,1.073,-0.084,-0.327,0.791,975.845,720.629,0.940,906.069,721.296,0.940,1068.458,542.934,1.139,805.523,535.744,1.103,1103.362,394.983,1.305,766.586,297.172,1.016,1237.739,318.885,1.073,858.550,146.713,0.791,-0.030,-0.972,1.404,0.000,-351.868,0.000,-0.049,0.006,-0.001,0.174,-0.834,1.167
0723_101442_0074.png,0.013,0.150,0.935,-0.053,0.152,0.935,0.115,-0.007,1.150,-0.175,-0.019,1.097,0.066,-0.177,0.935,-0.332,-0.224,1.168,0.019,-0.343,0.726,-0.254,-0.304,0.929,972.902,692.684,0.935,906.366,694.675,0.935,1055.187,534.610,1.150,808.095,523.957,1.097,1027.230,360.220,0.935,689.363,357.928,1.168,984.921,90.841,0.726,699.907,228.924,0.929,-0.033,-0.961,1.401,0.000,-348.377,0.000,0.006,0.012,-0.003,0.218,-1.138,1.421
0723_101442_0075.png,0.047,0.160,0.951,-0.019,0.158,0.948,0.165,-0.020,1.099,-0.127,-0.008,1.150,0.256,-0.231,1.222,-0.275,-0.224,1.187,0.142,-0.279,0.990,-0.331,-0.295,0.940,1007.025,700.054,0.951,941.280,698.672,0.948,1102.682,522.631,1.099,854.739,533.040,1.150,1158.933,360.524,1.222,740.011,360.252,1.187,1096.608,271.948,0.990,625.037,241.764,0.940,-0.032,-0.965,1.402,0.000,-8.932,0.000,0.000,0.042,-0.002,-0.024,-0.729,1.504
0723_101442_0076.png,0.048,0.165,0.947,-0.018,0.162,0.942,0.164,-0.016,1.104,-0.132,-0.006,1.148,0.160,-0.268,1.002,-0.273,-0.233,1.178,-0.016,-0.334,0.813,-0.320,-0.303,0.924,1008.036,705.293,0.947,941.625,703.449,0.942,1101.210,526.339,1.104,851.050,535.253,1.148,1111.513,285.933,1.002,739.621,352.100,1.178,941.003,149.137,0.813,630.680,228.136,0.924,-0.033,-0.962,1.401,0.000,-7.530,0.000,-0.007,0.017,-0.018,0.084,-0.925,1.152
0723_101442_0077.png,0.009,0.188,0.927,-0.057,0.191,0.933,0.118,0.010,1.148,-0.175,-0.004,1.087,0.244,-0.227,1.086,-0.231,-0.270,1.149,0.178,-0.330,0.849,-0.211,-0.320,0.887,968.922,733.038,0.927,901.602,734.847,0.933,1057.635,548.659,1.148,807.104,536.924,1.087,1173.354,341.185,1.086,769.045,316.205,1.149,1159.588,170.285,0.849,734.127,196.478,0.887,-0.038,-0.969,1.403,0.000,-346.797,0.000,-0.008,-0.036,-0.012,0.039,-0.749,1.592
0723_101442_0078.png,0.038,0.162,0.944,-0.029,0.159,0.938,0.153,-0.017,1.111,-0.149,-0.011,1.139,0.222,-0.241,1.243,-0.193,-0.222,0.972,0.241,-0.281,0.982,-0.193,-0.348,0.738,998.490,702.821,0.944,930.965,701.189,0.938,1090.513,525.146,1.111,835.281,530.872,1.139,1129.982,355.240,1.243,770.858,323.161,0.972,1193.315,267.885,0.982,711.234,91.220,0.738,-0.026,-0.958,1.400,0.000,-4.255,0.000,-0.021,0.007,-0.007,0.171,-0.838,1.595
0723_101442_0079.png,0.027,0.184,0.932,-0.039,0.185,0.937,0.153,0.002,1.109,-0.146,0.007,1.130,0.295,-0.230,1.131,-0.271,-0.208,1.019,0.385,-0.310,0.895,-0.321,-0.337,0.794,987.565,727.538,0.932,920.175,727.729,0.937,1091.474,541.647,1.109,837.477,545.559,1.130,1208.315,346.246,1.131,707.307,345.705,1.019,1368.814,210.450,0.895,575.029,136.518,0.794,-0.032,-0.974,1.404,0.000,-2.827,0.000,-0.009,-0.011,-0.003,-0.238,-0.886,1.232
0723_101442_0080.png,0.064,0.163,0.933,-0.004,0.159,0.927,0.185,-0.018,1.077,-0.115,0.000,1.155,0.188,-0.285,1.045,-0.113,-0.173,0.939,-0.011,-0.307,0.872,-0.107,-0.339,0.728,1025.398,706.152,0.933,956.133,702.835,0.927,1123.075,524.093,1.077,865.498,539.875,1.155,1131.070,280.589,1.045,846.011,365.367,0.939,948.004,204.685,0.872,819.987,97.616,0.728,-0.038,-0.965,1.402,0.000,-13.744,0.000,-0.044,0.003,0.010,0.023,-0.947,1.663
0723_101442_0081.png,0.008,0.167,0.931,-0.057,0.171,0.938,0.114,0.006,1.155,-0.173,-0.008,1.097,0.253,-0.216,1.229,-0.244,-0.227,1.243,0.398,-0.291,1.012,-0.242,-0.298,0.980,967.847,710.597,0.931,902.052,713.813,0.938,1053.766,544.844,1.155,809.807,533.459,1.097,1155.804,373.047,1.229,773.009,366.574,1.243,1334.190,266.858,1.012,724.646,250.685,0.980,-0.038,-0.966,1.402,0.000,-347.035,0.000,0.012,-0.010,-0.040,0.027,-1.062,1.371
0723_101442_0082.png,0.004,0.165,0.942,-0.062,0.169,0.950,0.117,-0.001,1.156,-0.177,-0.014,1.098,0.228,-0.219,1.265,-0.260,-0.189,1.281,0.347,-0.274,1.029,-0.307,-0.270,1.028,963.886,706.763,0.942,897.879,709.290,0.950,1056.323,539.300,1.156,807.100,527.698,1.098,1131.280,375.597,1.265,766.737,399.860,1.281,1280.766,287.225,1.029,676.364,290.060,1.028,-0.037,-0.965,1.402,0.000,-347.353,0.000,-0.009,0.019,-0.029,-0.046,-0.823,1.390
0723_101442_0083.png,0.034,0.171,0.946,-0.033,0.171,0.948,0.160,-0.011,1.103,-0.138,-0.002,1.144,0.290,-0.244,1.102,-0.205,-0.212,0.987,0.247,-0.315,0.851,-0.146,-0.341,0.763,994.200,711.617,0.946,927.377,711.306,0.948,1097.758,530.656,1.103,845.424,538.706,1.144,1210.286,329.808,1.102,762.958,335.697,0.987,1235.838,187.808,0.851,778.465,115.275,0.763,-0.030,-0.970,1.403,0.000,-6.758,0.000,-0.012,0.030,-0.005,-0.215,-0.694,1.495
0723_101442_0084.png,0.035,0.184,0.923,-0.032,0.184,0.924,0.158,0.002,1.103,-0.143,0.006,1.122,0.261,-0.248,1.064,-0.181,-0.241,1.024,0.293,-0.326,0.821,-0.153,-0.337,0.787,996.246,729.272,0.923,927.313,729.041,0.924,1096.434,541.616,1.103,838.700,545.408,1.122,1193.634,318.405,1.064,791.506,316.188,1.024,1299.217,162.031,0.821,775.672,133.027,0.787,-0.037,-0.974,1.404,0.000,-2.648,0.000,-0.017,-0.031,0.026,-0.097,-1.017,1.245
0723_101442_0085.png,0.007,0.181,0.942,-0.058,0.183,0.948,0.123,-0.004,1.140,-0.169,-0.009,1.116,0.194,-0.207,1.310,-0.160,-0.193,0.902,0.296,-0.275,1.068,-0.153,-0.372,0.694,967.082,722.479,0.942,901.999,723.378,0.948,1062.838,536.891,1.140,815.717,532.201,1.116,1101.073,389.638,1.310,791.739,336.811,0.902,1223.711,294.837,1.068,750.352,29.608,0.694,-0.027,-0.959,1.400,0.000,-354.094,0.000,0.011,-0.018,-0.034,-0.092,-0.638,1.493
0723_101442_0086.png,0.058,0.158,0.949,-0.009,0.155,0.943,0.175,-0.028,1.085,-0.119,-0.011,1.157,0.126,-0.271,0.990,-0.106,-0.180,0.945,0.079,-0.341,0.743,-0.091,-0.342,0.737,1018.091,698.637,0.949,951.361,696.648,0.943,1113.383,515.433,1.085,862.318,530.683,1.157,1081.081,279.483,0.990,853.616,359.203,0.945,1061.367,103.678,0.743,842.267,98.478,0.737,-0.032,-0.960,1.401,0.000,-13.057,0.000,-0.021,0.035,0.010,0.025,-0.729,1.417
0723_101442_0087.png,-0.003,0.157,0.938,-0.069,0.161,0.944,0.110,0.000,1.155,-0.186,-0.011,1.104,0.099,-0.215,0.977,-0.289,-0.180,1.285,-0.007,-0.347,0.764,-0.412,-0.264,1.058,957.085,698.912,0.938,890.320,702.002,0.944,1050.525,540.400,1.155,799.845,530.393,1.104,1056.266,331.132,0.977,746.017,406.727,1.285,951.403,107.676,0.764,589.968,302.377,1.058,-0.025,-0.965,1.402,0.000,-348.866,0.000,-0.012,0.016,-0.039,-0.022,-1.051,1.472
0723_101442_0088.png,0.009,0.182,0.938,-0.058,0.184,0.943,0.124,0.011,1.149,-0.176,0.001,1.102,0.246,-0.233,1.164,-0.175,-0.238,0.961,0.094,-0.296,0.948,-0.089,-0.355,0.730,969.154,724.127,0.938,901.467,725.934,0.943,1062.507,549.432,1.149,807.984,540.619,1.102,1160.687,349.644,1.164,786.324,304.182,0.961,1053.961,243.130,0.948,844.309,77.383,0.730,-0.034,-0.975,1.404,0.000,-349.800,0.000,-0.023,0.001,-0.035,0.006,-0.822,1.417
0723_101442_0089.png,0.064,0.173,0.941,-0.001,0.167,0.930,0.176,-0.008,1.085,-0.108,0.009,1.161,0.091,-0.192,0.884,-0.270,-0.208,1.121,0.011,-0.371,0.688,-0.322,-0.322,0.878,1024.499,714.764,0.941,959.155,710.428,0.930,1114.576,532.629,1.085,871.899,547.481,1.161,1058.172,333.900,0.884,731.127,363.259,1.121,975.902,26.802,0.688,611.267,190.959,0.878,-0.034,-0.970,1.403,0.000,-14.252,0.000,0.008,0.004,-0.040,0.144,-0.917,1.656
0723_101442_0090.png,0.052,0.188,0.946,-0.014,0.185,0.940,0.170,-0.008,1.091,-0.120,0.008,1.158,0.197,-0.188,1.296,-0.268,-0.203,1.049,0.330,-0.268,1.075,-0.285,-0.339,0.811,1012.714,728.800,0.946,946.290,727.201,0.940,1108.212,533.335,1.091,861.138,546.283,1.158,1104.534,401.742,1.296,717.055,356.266,1.049,1251.804,302.986,1.075,626.266,142.440,0.811,-0.030,-0.966,1.402,0.000,-12.062,0.000,-0.005,-0.011,-0.043,0.003,-0.706,1.245
0723_101442_0091.png,0.025,0.180,0.927,-0.041,0.179,0.924,0.136,0.005,1.126,-0.164,0.002,1.114,0.090,-0.176,0.916,-0.231,-0.259,1.047,0.045,-0.353,0.712,-0.055,-0.331,0.860,985.654,724.441,0.927,917.334,724.426,0.924,1074.499,543.905,1.126,819.885,541.472,1.114,1053.000,357.146,0.916,750.591,304.790,1.047,1019.649,68.786,0.712,898.990,174.004,0.860,-0.029,-0.967,1.402,0.000,-356.352,0.000,-0.010,-0.041,-0.011,0.188,-1.092,1.310
0723_101442_0092.png,0.009,0.146,0.937,-0.056,0.150,0.945,0.128,-0.019,1.135,-0.166,-0.025,1.106,0.188,-0.182,0.931,-0.207,-0.256,0.987,0.244,-0.341,0.731,-0.056,-0.332,0.794,968.835,688.507,0.937,903.222,690.603,0.945,1067.533,524.475,1.135,816.882,518.213,1.106,1152.230,354.084,0.931,760.923,293.746,0.987,1277.973,96.704,0.731,892.402,142.189,0.794,-0.032,-0.958,1.400,0.000,-352.951,0.000,0.002,0.029,0.034,-0.174,-1.035,1.138
0723_101442_0093.png,0.016,0.172,0.928,-0.053,0.173,0.932,0.138,-0.005,1.123,-0.170,-0.008,1.112,0.226,-0.220,1.273,-0.250,-0.179,0.919,0.397,-0.257,1.074,-0.323,-0.346,0.730,976.119,715.974,0.928,906.319,716.706,0.932,1077.144,535.633,1.123,814.456,533.444,1.112,1128.604,375.373,1.273,701.704,354.822,0.919,1311.231,312.341,1.074,538.902,89.926,0.730,-0.027,-0.964,1.402,0.000,-356.748,0.000,-0.040,-0.020,0.020,-0.056,-0.944,1.375
0723_101442_0094.png,0.034,0.188,0.933,-0.032,0.188,0.933,0.150,-0.006,1.117,-0.150,-0.005,1.118,0.104,-0.184,0.913,-0.277,-0.205,1.266,0.058,-0.357,0.714,-0.442,-0.272,1.073,994.725,731.622,0.933,927.072,731.571,0.933,1087.621,535.196,1.117,832.775,535.430,1.118,1068.441,348.691,0.913,751.663,386.221,1.266,1037.083,64.540,0.714,568.437,298.444,1.073,-0.037,-0.961,1.401,0.000,-359.058,0.000,-0.008,-0.041,0.012,0.070,-0.689,1.340
0723_101442_0095.png,0.010,0.176,0.942,-0.058,0.177,0.944,0.117,0.004,1.157,-0.183,-0.011,1.092,0.239,-0.240,1.136,-0.332,-0.240,1.101,0.244,-0.309,0.875,-0.237,-0.314,0.860,970.327,717.358,0.942,901.752,718.768,0.944,1056.276,543.261,1.157,800.764,530.450,1.092,1160.346,338.937,1.136,673.419,332.988,1.101,1225.285,204.152,0.875,697.706,192.081,0.860,-0.036,-0.967,1.402,0.000,-346.298,0.000,-0.035,0.005,-0.027,0.220,-0.753,1.397
0723_101442_0096.png,0.025,0.178,0.927,-0.041,0.177,0.928,0.148,-0.005,1.105,-0.150,0.003,1.136,0.109,-0.206,0.920,-0.286,-0.200,1.270,0.021,-0.361,0.719,-0.424,-0.277,1.055,985.703,722.125,0.927,917.496,721.335,0.928,1087.682,535.969,1.105,834.469,542.204,1.136,1072.743,327.040,0.920,745.807,390.014,1.270,987.862,62.613,0.719,577.589,290.552,1.055,-0.022,-0.963,1.401,0.000,-5.076,0.000,-0.011,-0.038,-0.012,-0.122,-1.088,1.173
0723_101442_0097.png,0.004,0.182,0.938,-0.061,0.183,0.941,0.115,0.003,1.137,-0.176,-0.004,1.107,0.188,-0.175,0.934,-0.142,-0.188,0.899,0.260,-0.349,0.736,-0.112,-0.367,0.697,963.792,724.340,0.938,898.477,725.252,0.941,1055.914,542.567,1.137,809.228,536.675,1.107,1151.125,361.707,0.934,809.481,341.596,0.899,1296.255,89.151,0.736,807.606,38.928,0.697,-0.022,-0.969,1.403,0.000,-352.732,0.000,0.017,-0.007,-0.010,0.017,-0.754,1.376
0723_101442_0098.png,0.049,0.161,0.948,-0.017,0.157,0.943,0.166,-0.018,1.092,-0.125,-0.004,1.155,0.147,-0.235,0.931,-0.258,-0.205,1.033,0.111,-0.359,0.699,-0.319,-0.328,0.806,1008.966,701.095,0.948,942.881,698.758,0.943,1104.529,524.337,1.092,857.003,537.109,1.155,1109.638,299.868,0.931,722.485,351.209,1.033,1111.023,51.354,0.699,583.984,152.409,0.806,-0.028,-0.968,1.402,0.000,-11.348,0.000,-0.004,0.041,-0.008,-0.001,-0.953,1.056
0723_101442_0099.png,0.008,0.166,0.942,-0.056,0.168,0.944,0.114,0.001,1.148,-0.174,-0.008,1.110,0.103,-0.183,0.934,-0.149,-0.200,0.904,0.097,-0.364,0.725,-0.100,-0.375,0.697,968.247,708.023,0.942,903.487,709.449,0.944,1054.014,540.587,1.148,811.305,533.133,1.110,1064.983,353.246,0.934,803.710,330.028,0.904,1087.062,62.714,0.725,824.176,28.295,0.697,-0.027,-0.966,1.402,0.000,-351.101,0.000,0.024,0.012,-0.039,0.125,-0.992,1.200
0723_101442_0100.png,0.018,0.161,0.940,-0.050,0.160,0.938,0.127,-0.001,1.141,-0.176,-0.006,1.117,0.228,-0.223,1.255,-0.166,-0.237,0.964,0.318,-0.277,1.005,-0.102,-0.355,0.727,977.868,702.392,0.940,909.507,702.668,0.938,1066.276,539.359,1.141,810.150,534.752,1.117,1132.479,371.177,1.255,796.256,306.210,0.964,1260.812,278.278,1.005,826.005,75.755,0.727,-0.025,-0.967,1.402,0.000,-354.290,0.000,-0.025,0.011,-0.034,0.232,-1.142,1.292
0723_101442_0101.png,0.015,0.186,0.935,-0.050,0.188,0.941,0.140,0.004,1.116,-0.153,0.008,1.134,0.273,-0.234,1.089,-0.257,-0.241,1.076,0.265,-0.337,0.838,-0.133,-0.333,0.857,974.982,729.289,0.935,909.484,729.629,0.941,1079.227,543.034,1.116,832.033,546.602,1.134,1198.551,335.469,1.089,732.766,327.234,1.076,1260.814,156.879,0.838,812.575,169.918,0.857,-0.022,-0.971,1.403,0.000,-2.595,0.000,0.013,-0.017,-0.034,-0.281,-0.839,1.314
0723_101442_0102.png,0.038,0.191,0.934,-0.030,0.190,0.933,0.161,-0.001,1.095,-0.140,0.009,1.138,0.229,-0.217,0.944,-0.098,-0.170,0.931,0.253,-0.352,0.718,-0.055,-0.345,0.729,998.492,734.110,0.934,929.781,733.398,0.933,1100.125,539.468,1.095,843.116,547.842,1.138,1190.605,321.594,0.944,860.385,365.941,0.931,1295.134,73.653,0.718,888.887,90.091,0.729,-0.029,-0.974,1.404,0.000,-7.258,0.000,-0.026,-0.018,0.002,-0.101,-0.778,1.231
0723_101442_0103.png,0.024,0.188,0.934,-0.042,0.187,0.933,0.140,0.002,1.115,-0.156,0.004,1.126,0.266,-0.234,1.052,-0.220,-0.178,0.923,0.326,-0.338,0.814,-0.282,-0.356,0.726,984.729,731.401,0.934,917.682,731.080,0.933,1079.552,541.375,1.115,827.887,543.411,1.126,1200.660,328.524,1.052,733.803,356.559,0.923,1340.426,145.205,0.814,591.080,73.761,0.726,-0.025,-0.969,1.403,0.000,-0.918,0.000,0.000,-0.029,-0.011,0.041,-0.859,1.199
0723_101442_0104.png,-0.001,0.167,0.930,-0.068,0.172,0.938,0.116,0.006,1.152,-0.184,-0.009,1.085,0.171,-0.248,1.085,-0.340,-0.232,1.085,0.154,-0.317,0.831,-0.320,-0.314,0.836,959.441,710.465,0.930,891.387,713.798,0.938,1055.625,545.300,1.152,798.946,532.017,1.085,1109.999,322.673,1.085,661.802,336.804,1.085,1135.716,176.884,0.831,596.280,182.160,0.836,-0.035,-0.973,1.404,0.000,-345.799,0.000,-0.036,0.011,0.002,-0.064,-0.944,1.497
0723_101442_0105.png,0.020,0.152,0.943,-0.046,0.154,0.949,0.148,-0.014,1.117,-0.153,-0.010,1.135,0.277,-0.242,1.070,-0.253,-0.211,1.267,0.319,-0.318,0.822,-0.257,-0.267,1.011,980.303,693.433,0.943,913.407,693.977,0.949,1085.979,527.801,1.117,831.714,531.635,1.135,1206.037,324.675,1.070,770.028,381.343,1.267,1329.510,171.852,0.822,718.056,289.282,1.011,-0.026,-0.967,1.402,0.000,-2.507,0.000,-0.016,0.045,0.001,-0.266,-0.989,1.276
0723_101442_0106.png,0.036,0.164,0.948,-0.028,0.163,0.945,0.148,-0.014,1.114,-0.142,-0.010,1.131,0.072,-0.186,0.919,-0.178,-0.227,0.982,-0.002,-0.353,0.729,-0.071,-0.344,0.776,996.366,704.758,0.948,931.801,704.034,0.945,1086.527,527.888,1.114,841.060,531.549,1.131,1034.339,348.049,0.919,788.020,320.229,0.982,957.519,80.329,0.729,872.568,118.144,0.776,-0.033,-0.966,1.402,0.000,-2.469,0.000,0.022,0.032,0.013,0.099,-0.742,1.450
0723_101442_0107.png,0.035,0.175,0.928,-0.031,0.175,0.930,0.161,-0.012,1.092,-0.132,0.000,1.145,0.099,-0.251,0.975,-0.277,-0.220,1.073,-0.017,-0.351,0.760,-0.319,-0.330,0.836,995.774,719.728,0.928,928.025,718.723,0.930,1100.619,529.659,1.092,850.072,540.198,1.145,1056.390,295.299,0.975,714.310,344.573,1.073,938.284,100.282,0.760,596.678,164.585,0.836,-0.028,-0.961,1.401,0.000,-9.259,0.000,-0.006,-0.031,-0.003,-0.244,-0.984,1.221
0723_101442_0108.png,0.011,0.184,0.929,-0.055,0.187,0.937,0.134,0.006,1.132,-0.166,0.001,1.109,0.164,-0.239,1.014,-0.147,-0.219,0.945,0.023,-0.337,0.810,-0.094,-0.357,0.723,971.408,727.927,0.929,904.221,729.504,0.937,1072.584,545.297,1.132,817.848,540.830,1.109,1113.669,315.414,1.014,812.450,319.965,0.945,986.899,143.980,0.810,835.811,69.639,0.723,-0.033,-0.970,1.403,0.000,-354.281,0.000,-0.013,-0.024,-0.011,-0.204,-0.919,1.215
0723_101442_0109.png,0.026,0.172,0.943,-0.037,0.173,0.945,0.136,-0.003,1.133,-0.149,-0.006,1.117,0.132,-0.244,1.008,-0.301,-0.203,1.205,0.001,-0.350,0.808,-0.434,-0.295,0.999,986.445,713.754,0.943,922.859,714.328,0.945,1073.901,537.872,1.133,833.473,534.777,1.117,1084.378,310.186,1.008,722.691,379.431,1.205,960.833,127.926,0.808,546.634,259.631,0.999,-0.039,-0.969,1.403,0.000,-355.591,0.000,0.041,0.014,-0.011,0.042,-0.757,1.509
0723_101442_0110.png,0.010,0.168,0.933,-0.058,0.170,0.937,0.130,0.002,1.134,-0.175,-0.002,1.118,0.125,-0.231,0.985,-0.279,-0.202,0.955,-0.018,-0.339,0.781,-0.326,-0.350,0.732,969.726,711.188,0.933,900.865,712.375,0.937,1069.392,541.484,1.134,810.756,538.471,1.118,1080.878,316.778,0.985,681.795,338.998,0.955,938.565,127.614,0.781,536.136,85.190,0.732,-0.023,-0.968,1.403,0.000,-355.847,0.000,-0.032,-0.005,-0.027,-0.049,-0.981,1.615
0723_101442_0111.png,0.025,0.187,0.937,-0.041,0.188,0.939,0.145,0.002,1.120,-0.152,0.004,1.128,0.126,-0.183,0.908,-0.258,-0.250,1.128,0.109,-0.364,0.703,-0.277,-0.326,0.870,984.943,729.832,0.937,918.206,729.976,0.939,1083.331,541.735,1.120,831.893,543.406,1.128,1092.056,348.356,0.908,742.939,328.948,1.128,1107.597,47.327,0.703,657.526,183.287,0.870,-0.030,-0.969,1.403,0.000,-0.545,0.000,-0.001,-0.020,-0.025,-0.092,-0.728,1.508
0723_101442_0112.png,0.042,0.158,0.936,-0.022,0.156,0.931,0.154,-0.022,1.098,-0.134,-0.013,1.136,0.250,-0.245,1.213,-0.268,-0.242,1.156,0.301,-0.294,0.967,-0.309,-0.310,0.914,1002.510,700.638,0.936,937.384,698.838,0.931,1093.258,521.281,1.098,848.129,529.149,1.136,1155.727,347.864,1.213,739.215,340.968,1.156,1255.404,250.729,0.967,638.504,217.199,0.914,-0.031,-0.959,1.401,0.000,-6.486,0.000,0.023,0.004,0.034,0.114,-0.939,1.460
0723_101442_0113.png,0.010,0.169,0.942,-0.053,0.171,0.950,0.135,-0.008,1.122,-0.154,-0.005,1.134,0.173,-0.261,1.028,-0.152,-0.188,0.923,0.013,-0.341,0.832,-0.154,-0.368,0.718,970.181,710.054,0.942,906.442,710.892,0.950,1074.085,533.509,1.122,830.863,536.023,1.134,1119.564,298.703,1.028,803.239,346.204,0.923,975.345,150.050,0.832,756.348,52.789,0.718,-0.022,-0.965,1.402,0.000,-1.408,0.000,0.027,0.014,-0.025,-0.317,-0.801,1.442
0723_101442_0114.png,0.014,0.180,0.925,-0.050,0.182,0.929,0.124,0.007,1.134,-0.164,0.000,1.100,0.213,-0.202,1.289,-0.229,-0.183,0.906,0.211,-0.286,1.041,-0.294,-0.363,0.718,974.353,725.197,0.925,908.727,726.677,0.929,1063.645,546.165,1.134,818.234,539.735,1.100,1116.899,391.364,1.289,719.265,347.568,0.906,1152.530,278.671,1.041,570.550,60.120,0.718,-0.033,-0.972,1.404,0.000,-352.049,0.000,0.025,-0.025,0.005,0.016,-0.924,1.517
0723_101442_0115.png,0.057,0.173,0.939,-0.008,0.169,0.931,0.173,-0.013,1.090,-0.111,0.003,1.159,0.188,-0.193,1.297,-0.099,-0.178,0.936,0.240,-0.282,1.046,-0.091,-0.356,0.719,1017.474,715.401,0.939,951.789,712.270,0.931,1110.828,528.956,1.090,868.658,542.710,1.159,1097.619,398.754,1.297,859.044,359.058,0.936,1177.739,283.981,1.046,839.629,68.916,0.719,-0.034,-0.961,1.401,0.000,-12.905,0.000,0.014,-0.016,-0.041,0.037,-0.873,1.636
0723_101442_0116.png,0.047,0.167,0.933,-0.017,0.164,0.931,0.166,-0.016,1.079,-0.112,0.001,1.150,0.296,-0.248,1.087,-0.109,-0.173,0.940,0.317,-0.331,0.843,-0.108,-0.342,0.735,1008.094,709.761,0.933,943.090,707.596,0.931,1106.628,526.266,1.079,867.560,540.584,1.150,1218.627,322.552,1.087,849.202,365.237,0.940,1318.066,166.732,0.843,820.290,97.230,0.735,-0.032,-0.968,1.403,0.000,-13.483,0.000,0.032,0.008,0.018,-0.147,-0.874,1.645
0723_101442_0117.png,0.014,0.155,0.935,-0.050,0.157,0.935,0.116,-0.002,1.141,-0.169,-0.010,1.103,0.055,-0.173,0.934,-0.284,-0.197,1.251,-0.003,-0.340,0.732,-0.461,-0.269,1.078,974.285,698.024,0.935,909.554,699.266,0.935,1056.362,538.481,1.141,814.431,530.988,1.103,1015.881,364.043,0.934,744.440,390.239,1.251,956.715,97.910,0.732,553.521,303.179,1.078,-0.030,-0.970,1.403,0.000,-351.112,0.000,0.033,0.022,0.005,0.196,-1.033,1.659
0723_101442_0118.png,0.036,0.182,0.941,-0.031,0.181,0.940,0.157,-0.007,1.117,-0.148,-0.002,1.137,0.163,-0.266,1.014,-0.241,-0.241,1.027,-0.016,-0.335,0.822,-0.244,-0.343,0.775,996.543,723.700,0.941,928.242,723.267,0.940,1093.336,534.055,1.117,836.560,537.940,1.137,1112.897,290.714,1.014,736.819,316.676,1.027,941.273,152.518,0.822,660.915,119.013,0.775,-0.033,-0.960,1.401,0.000,-2.624,0.000,-0.027,-0.025,-0.034,0.013,-0.705,1.521
0723_101442_0119.png,0.044,0.142,0.942,-0.021,0.139,0.938,0.158,-0.021,1.108,-0.136,-0.014,1.140,0.246,-0.216,1.257,-0.231,-0.179,0.949,0.396,-0.263,1.048,-0.322,-0.340,0.761,1004.473,683.335,0.942,938.414,681.092,0.938,1095.670,521.607,1.108,846.499,528.390,1.140,1146.258,376.715,1.257,728.815,360.241,0.949,1319.443,301.877,1.048,557.379,115.397,0.761,-0.033,-0.962,1.401,0.000,-5.327,0.000,0.003,0.042,0.013,0.118,-1.110,1.507
0723_101442_0120.png,0.039,0.176,0.943,-0.027,0.175,0.943,0.158,-0.009,1.102,-0.137,-0.002,1.132,0.083,-0.217,0.958,-0.122,-0.177,0.928,0.003,-0.340,0.748,-0.106,-0.345,0.729,998.995,717.051,0.943,932.643,716.721,0.943,1096.661,531.956,1.102,844.800,538.070,1.132,1042.367,324.862,0.958,834.809,359.078,0.928,964.221,107.231,0.748,822.162,89.178,0.729,-0.035,-0.974,1.404,0.000,-4.884,0.000,0.000,0.027,0.031,-0.073,-0.683,1.256
0723_101442_0121.png,0.039,0.174,0.943,-0.026,0.171,0.935,0.148,-0.007,1.113,-0.145,-0.002,1.136,0.244,-0.257,1.156,-0.254,-0.213,1.001,0.093,-0.307,0.944,-0.311,-0.349,0.777,999.287,715.477,0.943,933.964,713.771,0.935,1086.227,533.806,1.113,838.828,538.546,1.136,1160.959,328.738,1.156,718.637,337.472,1.001,1053.289,230.821,0.944,579.894,113.280,0.777,-0.028,-0.965,1.402,0.000,-3.635,0.000,0.011,-0.003,-0.017,0.248,-0.830,1.530
0723_101442_0122.png,0.050,0.146,0.936,-0.014,0.142,0.930,0.165,-0.026,1.085,-0.120,-0.012,1.148,0.155,-0.234,0.924,-0.272,-0.204,1.053,0.124,-0.359,0.703,-0.295,-0.325,0.829,1010.943,688.365,0.936,945.402,685.044,0.930,1104.861,516.814,1.085,860.650,530.117,1.148,1119.143,299.100,0.924,713.901,355.643,1.053,1127.248,53.752,0.703,622.238,166.852,0.829,-0.031,-0.961,1.401,0.000,-11.636,0.000,0.015,0.024,0.031,0.033,-1.144,1.381
0723_101442_0123.png,0.005,0.182,0.924,-0.061,0.187,0.935,0.129,0.006,1.138,-0.171,-0.006,1.087,0.193,-0.206,1.303,-0.299,-0.244,1.048,0.291,-0.260,1.071,-0.335,-0.328,0.807,965.059,727.836,0.924,897.977,729.988,0.935,1067.714,544.800,1.138,810.506,534.854,1.087,1100.484,389.483,1.303,688.663,318.527,1.048,1218.017,309.095,1.071,565.247,153.589,0.807,-0.039,-0.971,1.403,0.000,-349.005,0.000,-0.025,-0.022,0.028,-0.262,-0.862,1.220
0723_101442_0124.png,0.042,0.159,0.943,-0.021,0.155,0.934,0.152,-0.014,1.102,-0.134,-0.003,1.146,0.266,-0.231,1.201,-0.129,-0.196,0.951,0.355,-0.298,0.962,-0.078,-0.358,0.745,1002.824,700.645,0.943,938.395,697.490,0.934,1091.167,528.332,1.102,848.667,537.220,1.146,1170.896,357.176,1.201,831.305,343.684,0.951,1311.267,245.557,0.962,860.940,83.300,0.745,-0.025,-0.966,1.402,0.000,-7.844,0.000,0.024,0.020,-0.010,0.204,-1.061,1.375
0723_101442_0125.png,0.028,0.154,0.926,-0.038,0.154,0.928,0.151,-0.013,1.105,-0.147,-0.007,1.130,0.287,-0.233,1.190,-0.224,-0.265,1.120,0.214,-0.294,0.950,-0.195,-0.314,0.868,989.185,698.487,0.926,921.085,697.962,0.928,1090.231,528.684,1.105,836.046,533.700,1.130,1189.329,353.465,1.190,769.560,314.541,1.120,1174.460,245.164,0.950,746.500,195.677,0.868,-0.029,-0.963,1.402,0.000,-3.670,0.000,-0.009,-0.005,0.025,-0.099,-1.088,1.721
0723_101442_0126.png,0.012,0.162,0.930,-0.054,0.164,0.935,0.130,-0.003,1.129,-0.167,-0.008,1.106,0.197,-0.175,0.932,-0.191,-0.240,0.982,0.261,-0.342,0.738,-0.061,-0.337,0.782,971.849,705.243,0.930,905.014,706.924,0.935,1069.321,537.708,1.129,816.589,533.033,1.106,1161.252,361.786,0.932,774.556,307.163,0.982,1296.114,99.853,0.738,886.101,129.679,0.782,-0.030,-0.971,1.403,0.000,-354.197,0.000,-0.002,0.012,0.027,-0.100,-1.119,1.190
0723_101442_0127.png,0.052,0.158,0.947,-0.015,0.154,0.937,0.164,-0.019,1.094,-0.137,-0.007,1.148,0.307,-0.242,1.116,-0.178,-0.223,0.998,0.368,-0.301,0.868,-0.054,-0.327,0.790,1011.775,698.990,0.947,944.806,695.902,0.937,1102.224,523.412,1.094,846.679,534.615,1.148,1221.409,333.355,1.116,790.396,327.949,0.998,1363.104,210.131,0.868,894.797,145.840,0.790,-0.026,-0.967,1.402,0.000,-9.416,0.000,-0.029,0.036,0.012,0.257,-0.941,1.330
0723_101442_0128.png,0.022,0.157,0.932,-0.046,0.159,0.938,0.147,0.000,1.134,-0.159,-0.003,1.122,0.247,-0.254,1.116,-0.196,-0.256,1.022,0.246,-0.315,0.852,-0.055,-0.332,0.803,982.101,699.637,0.932,913.336,701.523,0.938,1083.333,539.779,1.134,824.834,537.536,1.122,1170.080,323.968,1.116,777.523,301.471,1.022,1234.729,188.526,0.852,894.745,147.203,0.803,-0.037,-0.968,1.403,0.000,-356.622,0.000,-0.033,0.008,-0.032,-0.153,-1.225,1.401
0723_101442_0129.png,0.045,0.170,0.924,-0.020,0.169,0.926,0.172,-0.010,1.087,-0.115,0.004,1.146,0.114,-0.232,0.941,-0.281,-0.196,1.070,0.006,-0.362,0.738,-0.388,-0.327,0.866,1006.054,715.206,0.924,939.108,713.765,0.926,1110.593,531.624,1.087,864.400,543.300,1.146,1074.760,305.586,0.941,709.739,365.451,1.070,968.011,73.204,0.738,534.587,181.588,0.866,-0.039,-0.965,1.402,0.000,-10.719,0.000,0.011,-0.027,-0.001,-0.285,-1.096,1.428
0723_101442_0130.png,0.027,0.158,0.945,-0.038,0.160,0.949,0.144,-0.010,1.132,-0.146,-0.010,1.130,0.288,-0.235,1.113,-0.212,-0.255,1.029,0.361,-0.323,0.868,-0.067,-0.341,0.822,986.823,699.445,0.945,922.281,700.199,0.949,1081.187,531.572,1.132,836.980,531.268,1.130,1206.414,339.214,1.113,763.798,304.157,1.029,1355.732,185.896,0.868,882.731,145.061,0.822,-0.038,-0.962,1.401,0.000,-358.523,0.000,0.022,0.023,-0.032,-0.095,-0.888,1.513
0723_101442_0131.png,0.040,0.147,0.936,-0.023,0.145,0.934,0.157,-0.015,1.101,-0.126,-0.005,1.143,0.297,-0.236,1.076,-0.278,-0.189,1.252,0.356,-0.328,0.839,-0.439,-0.271,1.065,1001.124,689.517,0.936,936.509,687.362,0.934,1095.644,526.898,1.101,854.815,535.466,1.143,1222.723,331.293,1.076,748.812,396.654,1.252,1362.866,168.146,0.839,568.355,298.458,1.065,-0.033,-0.968,1.403,0.000,-7.531,0.000,0.034,0.032,0.008,-0.039,-1.142,1.636
0723_101442_0132.png,0.022,0.172,0.939,-0.045,0.173,0.942,0.136,-0.007,1.134,-0.163,-0.015,1.101,0.247,-0.205,1.279,-0.198,-0.250,0.984,0.333,-0.266,1.045,-0.063,-0.334,0.782,982.090,713.884,0.939,914.863,714.546,0.942,1073.742,533.748,1.134,819.170,526.925,1.101,1143.817,387.482,1.279,768.177,298.596,0.984,1263.157,298.071,1.045,882.929,133.284,0.782,-0.039,-0.965,1.402,0.000,-352.281,0.000,-0.012,0.009,0.031,0.072,-0.746,1.187
0723_101442_0133.png,0.059,0.181,0.938,-0.005,0.178,0.932,0.173,-0.012,1.073,-0.107,0.006,1.149,0.098,-0.219,0.926,-0.132,-0.196,0.980,-0.002,-0.355,0.731,-0.071,-0.345,0.779,1019.516,723.632,0.938,954.534,721.991,0.932,1113.443,529.433,1.073,871.582,544.766,1.149,1060.982,314.875,0.926,832.253,350.122,0.980,957.089,78.947,0.731,873.303,119.275,0.779,-0.035,-0.974,1.404,0.000,-14.577,0.000,0.021,0.009,0.028,-0.015,-0.704,1.413
0723_101442_0134.png,0.032,0.159,0.932,-0.034,0.158,0.933,0.153,-0.006,1.110,-0.141,0.001,1.138,0.110,-0.211,0.932,-0.319,-0.190,1.205,0.012,-0.360,0.730,-0.256,-0.296,0.968,992.215,701.826,0.932,925.341,700.996,0.933,1091.405,535.084,1.110,842.200,540.596,1.138,1071.779,324.333,0.932,708.435,389.907,1.205,976.121,71.619,0.730,708.645,248.901,0.968,-0.030,-0.969,1.403,0.000,-4.416,0.000,0.004,0.006,-0.017,-0.099,-1.100,1.682
0723_101442_0135.png,0.009,0.161,0.942,-0.056,0.163,0.945,0.122,-0.013,1.133,-0.170,-0.019,1.106,0.241,-0.230,1.228,-0.251,-0.271,1.097,0.291,-0.283,0.983,-0.246,-0.322,0.847,968.642,702.797,0.942,903.263,703.665,0.945,1062.094,528.988,1.133,813.477,523.434,1.106,1146.795,362.270,1.228,742.340,305.412,1.097,1241.262,265.988,0.983,683.262,178.476,0.847,-0.026,-0.962,1.401,0.000,-353.458,0.000,0.012,0.023,0.030,0.002,-0.797,1.273
0723_101442_0136.png,0.010,0.171,0.932,-0.054,0.174,0.940,0.125,-0.007,1.136,-0.163,-0.016,1.097,0.160,-0.231,0.999,-0.246,-0.223,1.253,0.056,-0.343,0.792,-0.257,-0.288,1.005,969.994,714.355,0.932,905.422,715.980,0.940,1064.716,534.259,1.136,819.018,526.364,1.097,1111.907,320.111,0.999,773.582,371.072,1.253,1027.585,127.884,0.792,716.566,267.283,1.005,-0.037,-0.962,1.401,0.000,-350.987,0.000,0.022,-0.009,0.028,-0.158,-0.849,1.148
0723_101442_0137.png,0.052,0.161,0.934,-0.013,0.158,0.929,0.168,-0.015,1.090,-0.121,-0.003,1.142,0.143,-0.208,0.909,-0.245,-0.230,1.205,0.068,-0.357,0.712,-0.242,-0.294,0.956,1012.905,703.632,0.934,946.907,701.173,0.929,1106.335,527.116,1.090,859.411,537.769,1.142,1109.255,322.702,0.909,766.952,358.260,1.205,1050.222,63.657,0.712,719.115,247.714,0.956,-0.037,-0.969,1.403,0.000,-9.421,0.000,0.012,0.014,0.026,0.041,-1.096,1.271
0723_101442_0138.png,0.025,0.164,0.927,-0.040,0.164,0.927,0.142,-0.014,1.105,-0.151,-0.010,1.121,0.239,-0.216,1.263,-0.117,-0.182,0.922,0.356,-0.277,1.045,-0.082,-0.349,0.727,985.745,708.313,0.927,918.960,707.930,0.927,1082.469,528.182,1.105,832.136,531.504,1.121,1139.917,377.452,1.263,838.961,352.455,0.922,1283.639,287.688,1.045,852.460,83.892,0.727,-0.027,-0.962,1.401,0.000,-2.068,0.000,0.011,-0.016,0.046,-0.033,-1.083,1.213
0723_101442_0139.png,0.054,0.158,0.929,-0.011,0.154,0.925,0.174,-0.022,1.077,-0.112,-0.005,1.154,0.282,-0.240,1.201,-0.226,-0.250,1.160,0.390,-0.293,0.968,-0.189,-0.307,0.907,1015.757,701.482,0.929,948.696,698.027,0.925,1113.797,520.285,1.077,867.735,536.283,1.154,1183.718,350.207,1.201,774.871,334.836,1.160,1343.293,251.943,0.968,762.380,217.805,0.907,-0.033,-0.959,1.401,0.000,-14.363,0.000,0.000,-0.008,0.012,-0.053,-1.015,1.688
0723_101442_0140.png,0.028,0.199,0.935,-0.038,0.200,0.937,0.146,0.008,1.126,-0.155,0.006,1.118,0.072,-0.174,0.920,-0.138,-0.182,0.910,0.000,-0.351,0.720,-0.122,-0.365,0.708,988.681,742.354,0.935,920.936,742.591,0.937,1083.417,546.406,1.126,828.320,544.933,1.118,1034.253,360.357,0.920,815.759,349.790,0.910,959.959,76.386,0.720,795.871,49.078,0.708,-0.037,-0.970,1.403,0.000,-357.310,0.000,-0.014,-0.039,-0.023,0.003,-0.680,1.298
0723_101442_0141.png,0.013,0.147,0.936,-0.054,0.149,0.942,0.138,-0.007,1.130,-0.165,-0.008,1.127,0.086,-0.183,0.915,-0.272,-0.179,1.300,0.035,-0.353,0.706,-0.278,-0.261,1.045,973.161,689.247,0.936,905.532,690.710,0.942,1076.226,533.692,1.130,820.987,533.268,1.127,1049.220,349.953,0.915,761.024,409.207,1.300,1007.448,64.202,0.706,707.228,302.439,1.045,-0.025,-0.967,1.402,0.000,-358.415,0.000,-0.020,0.028,-0.020,-0.179,-1.225,1.430
0723_101442_0142.png,0.016,0.162,0.937,-0.048,0.164,0.943,0.136,0.000,1.135,-0.156,-0.002,1.126,0.082,-0.180,0.916,-0.227,-0.199,0.938,0.032,-0.357,0.703,-0.241,-0.366,0.718,976.297,704.057,0.937,911.104,705.765,0.943,1074.199,539.775,1.135,828.146,538.005,1.126,1044.596,352.873,0.916,729.762,337.910,0.938,1003.230,57.027,0.703,641.293,55.036,0.718,-0.033,-0.967,1.402,0.000,-356.997,0.000,0.015,0.009,-0.044,-0.174,-1.056,1.498
0723_101442_0143.png,0.045,0.154,0.942,-0.018,0.150,0.935,0.154,-0.021,1.106,-0.131,-0.013,1.139,0.232,-0.231,1.248,-0.224,-0.241,1.036,0.331,-0.286,1.015,-0.102,-0.338,0.830,1005.584,695.288,0.942,941.689,693.032,0.935,1092.290,522.265,1.106,850.769,529.152,1.139,1136.924,364.061,1.248,754.813,319.045,1.036,1270.475,271.844,1.015,843.573,152.774,0.830,-0.033,-0.959,1.401,0.000,-5.654,0.000,0.035,0.017,0.011,0.189,-0.971,1.498
0723_101442_0144.png,0.028,0.166,0.933,-0.038,0.166,0.935,0.150,-0.005,1.123,-0.150,-0.002,1.134,0.229,-0.227,1.266,-0.220,-0.183,0.923,0.343,-0.282,1.025,-0.291,-0.358,0.718,988.540,708.726,0.933,920.906,708.811,0.935,1086.782,535.903,1.123,834.211,538.007,1.134,1132.068,369.767,1.266,732.935,351.905,0.923,1278.492,278.362,1.025,574.941,65.741,0.718,-0.032,-0.961,1.401,0.000,-0.928,0.000,-0.010,-0.018,-0.040,-0.080,-1.059,1.511
0723_101442_0145.png,0.042,0.168,0.941,-0.027,0.167,0.940,0.167,-0.017,1.103,-0.141,-0.008,1.144,0.316,-0.249,1.100,-0.278,-0.205,1.278,0.379,-0.310,0.848,-0.458,-0.251,1.085,1002.187,710.196,0.941,932.583,709.329,0.940,1103.791,524.955,1.103,842.534,533.536,1.144,1232.846,325.120,1.100,753.074,387.774,1.278,1385.198,192.458,0.848,557.988,319.929,1.085,-0.031,-0.958,1.400,0.000,-6.800,0.000,-0.048,-0.002,-0.007,-0.063,-0.771,1.467
0723_101442_0146.png,0.037,0.178,0.939,-0.031,0.177,0.940,0.162,-0.002,1.106,-0.142,0.007,1.143,0.150,-0.272,1.107,-0.269,-0.227,1.198,0.118,-0.318,0.844,-0.301,-0.292,0.939,996.994,719.894,0.939,928.162,719.093,0.940,1099.517,538.657,1.106,841.704,545.898,1.143,1089.198,306.243,1.107,746.368,360.059,1.198,1092.855,182.079,0.844,655.264,243.939,0.939,-0.030,-0.973,1.404,0.000,-6.058,0.000,-0.033,0.007,-0.025,-0.132,-0.940,1.170
0723_101442_0147.png,0.051,0.161,0.932,-0.015,0.157,0.929,0.172,-0.013,1.076,-0.114,0.005,1.154,0.121,-0.248,0.963,-0.176,-0.170,0.958,-0.016,-0.342,0.763,-0.236,-0.340,0.767,1012.040,703.971,0.932,945.140,700.561,0.929,1111.769,528.768,1.076,866.052,544.433,1.154,1079.580,294.717,0.963,785.065,371.374,0.958,939.749,114.306,0.763,667.035,118.180,0.767,-0.030,-0.975,1.404,0.000,-14.612,0.000,0.000,0.025,0.013,-0.121,-1.144,1.343
0723_101442_0148.png,0.028,0.156,0.936,-0.039,0.157,0.938,0.148,-0.001,1.133,-0.156,-0.003,1.127,0.174,-0.264,1.182,-0.327,-0.176,1.245,0.157,-0.302,0.913,-0.298,-0.282,0.994,988.827,697.974,0.936,920.579,698.683,0.938,1084.068,538.889,1.133,828.603,537.730,1.127,1099.675,327.435,1.182,710.205,405.611,1.245,1123.284,225.029,0.913,675.221,270.607,0.994,-0.037,-0.968,1.403,0.000,-357.675,0.000,-0.023,0.014,-0.040,-0.005,-1.144,1.589
0723_101442_0149.png,0.051,0.185,0.940,-0.015,0.181,0.931,0.164,-0.007,1.102,-0.136,0.003,1.145,0.242,-0.229,1.252,-0.203,-0.243,1.033,0.175,-0.287,0.995,-0.070,-0.338,0.818,1011.822,726.812,0.940,944.322,724.750,0.931,1101.773,534.044,1.102,846.876,542.559,1.145,1143.808,366.010,1.252,772.822,316.160,1.033,1127.112,265.373,0.995,878.515,146.683,0.818,-0.031,-0.962,1.401,0.000,-7.265,0.000,-0.023,-0.032,-0.030,0.257,-0.868,1.231
0723_101442_0150.png,0.025,0.155,0.931,-0.040,0.156,0.932,0.137,-0.006,1.130,-0.157,-0.010,1.113,0.270,-0.237,1.092,-0.290,-0.231,1.188,0.231,-0.325,0.849,-0.312,-0.300,0.937,985.783,697.792,0.931,919.165,698.682,0.932,1075.620,534.698,1.130,826.182,531.215,1.113,1195.357,333.912,1.092,727.469,355.000,1.188,1219.024,176.278,0.849,643.049,234.977,0.937,-0.036,-0.965,1.402,0.000,-355.370,0.000,0.008,0.005,0.008,0.068,-1.246,1.246
0723_101442_0151.png,0.025,0.142,0.947,-0.041,0.143,0.949,0.142,-0.019,1.130,-0.153,-0.019,1.129,0.222,-0.268,1.101,-0.200,-0.269,1.052,0.046,-0.305,0.910,-0.155,-0.333,0.799,984.862,682.357,0.947,919.293,682.863,0.949,1079.585,524.315,1.130,831.263,524.109,1.129,1152.183,308.677,1.101,779.518,297.036,1.052,1007.829,220.957,0.910,775.549,143.674,0.799,-0.033,-0.960,1.401,0.000,-358.631,0.000,0.006,0.048,-0.009,-0.037,-0.996,1.510
0723_101442_0152.png,0.058,0.168,0.940,-0.007,0.161,0.927,0.168,-0.013,1.092,-0.122,0.002,1.158,0.157,-0.270,0.985,-0.209,-0.239,1.048,-0.008,-0.349,0.783,-0.059,-0.334,0.847,1018.887,709.716,0.940,953.178,704.871,0.927,1106.587,528.474,1.092,859.763,541.556,1.158,1111.502,279.385,0.985,770.066,323.065,1.048,950.686,116.002,0.783,893.632,164.731,0.847,-0.029,-0.961,1.401,0.000,-11.925,0.000,-0.004,-0.014,-0.039,0.292,-1.095,1.381
0723_101442_0153.png,0.047,0.174,0.922,-0.019,0.171,0.919,0.168,-0.005,1.081,-0.122,0.010,1.147,0.143,-0.266,1.003,-0.230,-0.242,1.180,0.006,-0.345,0.793,-0.203,-0.307,0.926,1008.517,719.775,0.922,940.526,716.662,0.919,1108.082,535.520,1.081,858.991,548.491,1.147,1095.758,287.519,1.003,775.005,345.340,1.180,967.323,125.798,0.793,750.986,224.908,0.926,-0.030,-0.971,1.403,0.000,-12.105,0.000,-0.004,-0.029,0.002,-0.057,-1.108,1.569
0723_101442_0154.png,0.060,0.154,0.929,-0.004,0.148,0.924,0.178,-0.014,1.079,-0.106,0.003,1.155,0.254,-0.271,1.072,-0.181,-0.243,1.075,0.118,-0.325,0.853,-0.140,-0.328,0.830,1021.908,697.410,0.929,955.448,692.659,0.924,1117.250,527.675,1.079,872.882,542.733,1.155,1185.225,299.475,1.072,800.078,325.504,1.075,1091.456,177.775,0.853,799.297,164.078,0.830,-0.039,-0.970,1.403,0.000,-14.037,0.000,0.008,0.012,0.001,-0.003,-1.308,1.445
0723_101442_0155.png,0.010,0.172,0.937,-0.054,0.173,0.938,0.119,-0.003,1.136,-0.172,-0.009,1.109,0.183,-0.233,1.007,-0.329,-0.216,1.184,0.112,-0.350,0.781,-0.275,-0.308,0.941,970.452,714.486,0.937,904.805,715.250,0.938,1059.652,537.497,1.136,812.855,532.177,1.109,1133.218,319.551,1.007,696.081,366.367,1.184,1096.089,113.268,0.781,682.276,229.073,0.941,-0.024,-0.964,1.402,0.000,-353.445,0.000,0.016,-0.007,-0.006,0.102,-0.908,1.255
0723_101442_0156.png,0.029,0.168,0.955,-0.036,0.167,0.954,0.147,-0.012,1.114,-0.145,-0.006,1.143,0.262,-0.248,1.083,-0.320,-0.196,1.195,0.160,-0.323,0.848,-0.285,-0.295,0.949,989.359,707.189,0.955,924.533,706.607,0.954,1085.182,529.523,1.114,838.993,535.356,1.143,1190.345,321.956,1.083,705.637,383.705,1.195,1139.858,177.505,0.848,674.327,243.844,0.949,-0.024,-0.968,1.403,0.000,-4.668,0.000,0.012,0.043,-0.017,-0.037,-0.679,1.312
0723_101442_0157.png,0.033,0.193,0.935,-0.032,0.190,0.928,0.140,0.006,1.114,-0.153,0.009,1.126,0.110,-0.229,0.972,-0.223,-0.259,1.158,0.015,-0.361,0.760,-0.191,-0.322,0.899,993.460,736.330,0.935,927.359,735.230,0.928,1079.868,544.890,1.114,830.540,547.233,1.126,1067.159,315.881,0.972,776.966,327.121,1.158,978.621,88.049,0.760,757.827,199.630,0.899,-0.026,-0.972,1.403,0.000,-1.296,0.000,0.010,-0.035,-0.016,0.282,-0.830,1.400
0723_101442_0158.png,0.045,0.147,0.936,-0.021,0.145,0.935,0.166,-0.023,1.092,-0.123,-0.009,1.152,0.198,-0.245,0.943,-0.111,-0.183,0.936,0.185,-0.359,0.706,-0.100,-0.352,0.726,1005.326,689.754,0.936,938.825,687.340,0.935,1104.901,519.742,1.092,858.822,532.173,1.152,1159.403,292.966,0.943,847.381,354.218,0.936,1209.441,56.447,0.706,829.284,79.282,0.726,-0.031,-0.960,1.401,0.000,-10.852,0.000,0.005,0.020,0.002,-0.118,-1.075,1.585
0723_101442_0159.png,0.000,0.171,0.938,-0.066,0.173,0.943,0.110,-0.007,1.144,-0.183,-0.019,1.089,0.222,-0.224,1.044,-0.286,-0.249,1.001,0.256,-0.325,0.811,-0.245,-0.340,0.766,959.699,713.620,0.938,893.313,714.677,0.943,1051.672,534.563,1.144,800.373,523.174,1.089,1162.712,335.737,1.044,688.468,303.324,1.001,1260.054,158.618,0.811,655.967,117.721,0.766,-0.026,-0.963,1.401,0.000,-347.860,0.000,-0.005,0.006,0.031,0.049,-0.669,1.403
0723_101442_0160.png,0.051,0.163,0.936,-0.012,0.158,0.929,0.165,-0.017,1.080,-0.110,0.001,1.155,0.184,-0.223,1.250,-0.228,-0.221,1.060,0.202,-0.295,0.999,-0.132,-0.337,0.849,1012.134,705.492,0.936,948.050,701.773,0.929,1105.085,525.226,1.080,869.652,540.455,1.155,1099.929,370.416,1.250,755.285,341.623,1.060,1152.642,259.633,0.999,812.527,162.936,0.849,-0.029,-0.967,1.402,0.000,-14.571,0.000,0.040,0.009,0.002,0.013,-0.966,1.628
0723_101442_0161.png,0.011,0.175,0.923,-0.055,0.178,0.926,0.120,0.001,1.140,-0.176,-0.012,1.085,0.186,-0.169,0.941,-0.131,-0.234,0.945,0.248,-0.335,0.746,-0.057,-0.351,0.728,971.844,720.716,0.923,903.429,722.357,0.926,1060.075,540.608,1.140,805.749,529.531,1.085,1148.371,368.831,0.941,828.416,304.655,0.945,1276.442,112.591,0.746,884.971,81.991,0.728,-0.034,-0.964,1.402,0.000,-348.005,0.000,-0.015,-0.035,0.028,0.116,-0.871,1.599
0723_101442_0162.png,-0.004,0.148,0.934,-0.069,0.152,0.941,0.106,-0.011,1.151,-0.182,-0.026,1.086,0.223,-0.238,1.086,-0.181,-0.265,0.977,0.099,-0.314,0.872,-0.098,-0.347,0.749,955.953,690.664,0.934,890.720,693.864,0.941,1047.193,530.892,1.151,800.885,517.260,1.086,1155.424,331.831,1.086,783.466,281.617,0.977,1068.493,197.984,0.872,836.045,100.135,0.749,-0.030,-0.961,1.401,0.000,-345.753,0.000,0.007,0.027,0.029,-0.035,-1.069,1.158
0723_101442_0163.png,0.029,0.169,0.924,-0.038,0.168,0.924,0.152,-0.007,1.093,-0.147,0.001,1.130,0.099,-0.182,0.904,-0.242,-0.186,1.305,0.044,-0.351,0.720,-0.303,-0.260,1.070,989.891,713.555,0.924,921.277,712.495,0.924,1091.895,533.688,1.093,836.237,540.967,1.130,1064.391,348.426,0.904,783.537,404.565,1.305,1018.782,75.631,0.720,691.094,308.916,1.070,-0.024,-0.972,1.403,0.000,-5.989,0.000,-0.014,-0.010,0.042,-0.094,-1.069,1.460
0723_101442_0164.png,0.018,0.170,0.934,-0.046,0.173,0.944,0.146,-0.007,1.124,-0.146,-0.005,1.133,0.280,-0.235,1.196,-0.226,-0.269,1.122,0.392,-0.306,0.962,-0.205,-0.336,0.859,978.425,713.492,0.934,913.874,714.787,0.944,1083.320,533.731,1.124,837.758,535.464,1.133,1182.324,353.549,1.196,768.784,311.698,1.122,1347.872,237.203,0.962,732.796,168.380,0.859,-0.034,-0.959,1.400,0.000,-0.589,0.000,0.018,-0.019,-0.036,-0.368,-0.899,1.423
0723_101442_0165.png,0.055,0.170,0.933,-0.010,0.166,0.925,0.168,-0.015,1.091,-0.124,-0.002,1.144,0.303,-0.252,1.080,-0.118,-0.178,0.931,0.366,-0.328,0.837,-0.112,-0.348,0.723,1015.917,713.644,0.933,949.478,710.862,0.925,1106.299,527.283,1.091,857.114,538.074,1.144,1226.868,318.095,1.080,839.375,358.603,0.931,1376.350,166.805,0.837,812.691,81.567,0.723,-0.035,-0.961,1.401,0.000,-9.468,0.000,0.001,-0.021,0.006,0.174,-0.961,1.480
0723_101442_0166.png,0.045,0.176,0.923,-0.023,0.174,0.924,0.175,-0.011,1.072,-0.123,0.007,1.149,0.222,-0.277,1.033,-0.246,-0.233,1.208,0.077,-0.323,0.822,-0.232,-0.286,0.954,1006.707,721.129,0.923,936.542,719.308,0.924,1115.068,530.002,1.072,857.872,545.381,1.149,1164.188,285.037,1.033,766.591,356.407,1.208,1048.835,166.705,0.822,728.717,254.567,0.954,-0.030,-0.969,1.403,0.000,-13.730,0.000,-0.039,-0.021,0.022,-0.274,-1.026,1.269
0723_101442_0167.png,0.043,0.157,0.942,-0.023,0.155,0.939,0.157,-0.004,1.120,-0.138,0.000,1.139,0.223,-0.259,1.059,-0.179,-0.240,1.013,0.069,-0.327,0.850,-0.156,-0.350,0.765,1003.172,698.942,0.942,937.078,697.427,0.939,1093.174,536.621,1.120,844.769,540.360,1.139,1160.078,307.756,1.059,792.304,314.490,1.013,1037.044,173.923,0.850,766.643,105.563,0.765,-0.038,-0.971,1.403,0.000,-2.648,0.000,0.005,0.030,-0.034,0.112,-1.101,1.526
0723_101442_0168.png,0.019,0.179,0.926,-0.046,0.181,0.932,0.137,0.000,1.129,-0.155,-0.003,1.114,0.265,-0.240,1.085,-0.275,-0.252,1.102,0.237,-0.340,0.839,-0.149,-0.330,0.881,979.474,723.787,0.926,913.533,725.123,0.932,1075.696,540.244,1.129,828.088,537.392,1.114,1192.490,329.421,1.085,722.652,322.301,1.102,1228.252,154.309,0.839,799.641,183.417,0.881,-0.036,-0.962,1.401,0.000,-355.899,0.000,0.016,-0.044,-0.014,-0.159,-1.052,1.110
0723_101442_0169.png,0.033,0.182,0.940,-0.033,0.183,0.943,0.158,-0.002,1.113,-0.137,0.004,1.141,0.074,-0.184,0.907,-0.239,-0.180,1.314,-0.005,-0.362,0.705,-0.302,-0.272,1.065,993.111,724.335,0.940,926.934,724.295,0.943,1094.864,538.070,1.113,845.920,543.382,1.141,1037.475,346.948,0.907,786.933,409.744,1.314,952.837,51.104,0.705,690.413,296.845,1.065,-0.035,-0.967,1.402,0.000,-4.293,0.000,0.003,-0.011,-0.040,-0.230,-0.809,1.288
0723_101442_0170.png,0.002,0.170,0.948,-0.065,0.173,0.955,0.115,-0.002,1.157,-0.181,-0.015,1.099,0.229,-0.238,1.077,-0.278,-0.241,0.979,0.099,-0.320,0.855,-0.249,-0.350,0.732,961.805,710.318,0.948,895.456,712.052,0.955,1054.799,538.427,1.157,803.334,526.788,1.099,1161.800,330.253,1.077,689.603,305.365,0.979,1070.346,184.494,0.855,636.296,84.988,0.732,-0.033,-0.964,1.402,0.000,-347.456,0.000,-0.018,0.023,-0.030,-0.004,-0.686,1.338
0723_101442_0171.png,0.005,0.174,0.918,-0.061,0.178,0.926,0.125,0.008,1.135,-0.172,0.001,1.103,0.252,-0.228,1.213,-0.240,-0.244,0.995,0.138,-0.298,0.983,-0.248,-0.356,0.754,965.226,719.904,0.918,897.784,722.846,0.926,1064.909,547.047,1.135,811.887,540.907,1.103,1157.538,361.186,1.213,730.484,307.059,0.995,1093.371,251.729,0.983,647.395,90.918,0.754,-0.029,-0.968,1.403,0.000,-352.514,0.000,-0.006,-0.044,-0.010,-0.184,-1.189,1.436
0723_101442_0172.png,0.026,0.171,0.941,-0.038,0.172,0.945,0.145,-0.008,1.121,-0.145,-0.006,1.133,0.185,-0.199,1.309,-0.278,-0.202,1.259,0.244,-0.276,1.059,-0.452,-0.274,1.074,985.980,712.505,0.941,921.240,712.744,0.945,1083.250,532.959,1.121,838.729,535.380,1.133,1094.358,395.723,1.309,750.192,387.759,1.259,1178.929,292.042,1.059,559.601,297.597,1.074,-0.032,-0.962,1.401,0.000,-1.294,0.000,0.023,0.001,-0.024,-0.134,-0.764,1.591
0723_101442_0173.png,0.018,0.159,0.935,-0.049,0.160,0.936,0.132,-0.006,1.131,-0.168,-0.012,1.104,0.081,-0.200,0.959,-0.193,-0.244,0.982,-0.023,-0.335,0.764,-0.069,-0.332,0.776,978.671,701.680,0.935,910.684,702.662,0.936,1071.138,535.298,1.131,814.911,529.733,1.104,1040.150,342.199,0.959,772.688,304.155,0.982,931.816,123.498,0.764,875.281,132.501,0.776,-0.032,-0.970,1.403,0.000,-353.464,0.000,-0.017,0.022,0.033,0.089,-1.061,1.235
0723_101442_0174.png,0.015,0.153,0.939,-0.050,0.156,0.944,0.126,-0.005,1.149,-0.164,-0.015,1.110,0.062,-0.178,0.933,-0.137,-0.195,0.895,0.002,-0.348,0.721,-0.113,-0.372,0.686,975.475,694.976,0.939,910.041,697.440,0.944,1064.543,535.460,1.149,819.215,527.480,1.110,1023.130,358.189,0.933,814.401,332.310,0.895,962.589,81.380,0.721,802.718,24.231,0.686,-0.039,-0.961,1.401,0.000,-350.852,0.000,0.012,0.018,-0.032,-0.003,-1.093,1.316
0723_101442_0175.png,0.025,0.175,0.933,-0.041,0.176,0.938,0.151,-0.005,1.113,-0.147,-0.001,1.132,0.199,-0.185,0.907,-0.191,-0.233,0.994,0.246,-0.360,0.707,-0.065,-0.343,0.787,985.316,718.309,0.933,918.130,718.609,0.938,1089.182,535.759,1.113,836.285,539.499,1.132,1168.922,346.513,0.907,777.496,316.931,0.994,1291.575,56.021,0.707,881.429,125.107,0.787,-0.031,-0.965,1.402,0.000,-2.565,0.000,-0.007,-0.015,-0.012,-0.226,-0.879,1.456
0723_101442_0176.png,-0.004,0.162,0.947,-0.070,0.165,0.954,0.110,-0.007,1.154,-0.184,-0.018,1.103,0.224,-0.238,1.218,-0.276,-0.263,1.035,0.266,-0.290,0.959,-0.142,-0.332,0.813,955.681,702.369,0.947,890.005,704.454,0.954,1051.024,534.629,1.154,800.904,524.192,1.103,1134.948,354.026,1.218,706.813,298.480,1.035,1224.112,252.059,0.959,793.932,151.623,0.813,-0.026,-0.962,1.401,0.000,-348.692,0.000,-0.009,0.029,-0.023,-0.068,-0.834,1.107
0723_101442_0177.png,0.032,0.187,0.932,-0.031,0.187,0.931,0.147,-0.005,1.103,-0.139,0.001,1.128,0.164,-0.264,1.027,-0.245,-0.193,1.291,0.000,-0.342,0.845,-0.313,-0.283,1.058,992.923,730.978,0.932,927.963,730.549,0.931,1086.682,535.993,1.103,842.770,540.785,1.128,1112.184,295.187,1.027,779.919,397.733,1.291,960.055,154.700,0.845,678.438,285.445,1.058,-0.031,-0.967,1.402,0.000,-3.806,0.000,0.033,-0.029,0.018,-0.014,-0.755,1.320
0723_101442_0178.png,0.031,0.174,0.937,-0.033,0.172,0.936,0.150,-0.013,1.098,-0.137,-0.003,1.142,0.083,-0.190,0.897,-0.291,-0.212,1.214,0.019,-0.364,0.700,-0.367,-0.297,0.977,991.326,716.149,0.937,925.983,715.180,0.936,1089.636,529.044,1.098,845.891,537.734,1.142,1047.742,338.211,0.897,732.039,374.086,1.214,985.416,45.306,0.700,602.662,251.214,0.977,-0.024,-0.963,1.401,0.000,-7.622,0.000,0.023,-0.008,0.002,-0.109,-0.851,1.310
0723_101442_0179.png,0.028,0.163,0.927,-0.041,0.163,0.927,0.146,-0.005,1.124,-0.163,-0.006,1.120,0.151,-0.264,1.031,-0.282,-0.224,1.245,-0.018,-0.325,0.831,-0.307,-0.281,0.986,988.285,707.413,0.927,918.058,707.431,0.927,1083.546,535.626,1.124,821.836,534.855,1.120,1099.311,296.991,1.031,744.276,368.606,1.245,939.040,168.069,0.831,663.647,268.625,0.986,-0.031,-0.961,1.401,0.000,-358.090,0.000,-0.040,-0.027,-0.007,0.081,-1.227,1.301
0723_101442_0180.png,0.028,0.152,0.939,-0.035,0.152,0.943,0.152,-0.015,1.114,-0.134,-0.008,1.143,0.205,-0.274,1.060,-0.267,-0.231,1.070,0.056,-0.335,0.848,-0.172,-0.337,0.844,988.780,693.868,0.939,924.569,693.794,0.943,1089.502,527.589,1.114,848.664,533.548,1.143,1143.637,294.498,1.060,722.693,334.408,1.070,1022.707,164.679,0.848,766.420,160.629,0.844,-0.032,-0.961,1.401,0.000,-4.880,0.000,0.033,0.019,-0.026,-0.244,-1.044,1.549
0723_101442_0181.png,0.029,0.168,0.933,-0.037,0.169,0.936,0.151,-0.006,1.117,-0.150,-0.005,1.119,0.195,-0.179,0.917,-0.224,-0.251,1.047,0.236,-0.348,0.721,-0.052,-0.317,0.861,990.054,710.827,0.933,922.229,711.218,0.936,1088.628,534.965,1.117,832.501,535.537,1.119,1162.443,353.927,0.917,756.283,312.120,1.047,1270.919,81.176,0.721,902.198,190.152,0.861,-0.037,-0.970,1.403,0.000,-359.386,0.000,-0.014,0.008,0.023,-0.076,-0.882,1.526
0723_101442_0182.png,-0.014,0.166,0.934,-0.081,0.171,0.945,0.108,-0.003,1.153,-0.195,-0.017,1.089,0.172,-0.264,1.183,-0.276,-0.261,0.997,0.124,-0.290,0.924,-0.172,-0.333,0.766,946.148,709.367,0.934,878.390,712.108,0.945,1048.958,537.817,1.153,789.367,524.721,1.089,1098.619,328.110,1.183,696.411,291.473,0.997,1087.646,241.820,0.924,746.624,126.210,0.766,-0.023,-0.963,1.401,0.000,-346.501,0.000,-0.045,0.003,0.000,-0.165,-0.856,1.290
0723_101442_0183.png,-0.002,0.168,0.924,-0.068,0.175,0.935,0.113,0.014,1.156,-0.181,-0.001,1.090,0.163,-0.236,1.043,-0.172,-0.236,0.939,0.007,-0.331,0.844,-0.138,-0.368,0.701,957.886,712.875,0.924,890.842,717.900,0.935,1053.166,551.512,1.156,802.041,538.982,1.090,1109.011,324.795,1.043,785.264,300.562,0.939,967.674,167.088,0.844,772.360,40.796,0.701,-0.036,-0.972,1.404,0.000,-345.875,0.000,-0.018,-0.014,-0.040,-0.143,-1.085,1.665
0723_101442_0184.png,0.047,0.158,0.930,-0.016,0.153,0.923,0.161,-0.014,1.083,-0.116,0.002,1.152,0.207,-0.277,1.130,-0.120,-0.206,0.977,0.213,-0.332,0.873,-0.062,-0.358,0.770,1008.047,701.773,0.930,943.407,697.263,0.923,1101.434,527.627,1.083,864.430,541.386,1.152,1133.957,306.748,1.130,843.090,339.604,0.977,1192.175,177.953,0.873,882.873,98.227,0.770,-0.027,-0.966,1.402,0.000,-13.100,0.000,0.038,-0.003,-0.001,0.036,-1.266,1.411
0723_101442_0185.png,0.043,0.169,0.932,-0.024,0.168,0.936,0.175,-0.015,1.086,-0.120,0.001,1.156,0.203,-0.198,1.287,-0.172,-0.210,0.987,0.351,-0.261,1.072,-0.170,-0.345,0.754,1003.823,712.297,0.932,935.173,711.092,0.936,1113.695,526.933,1.086,860.969,541.018,1.156,1109.649,394.067,1.287,794.089,337.264,0.987,1271.678,308.428,1.072,744.920,105.118,0.754,-0.032,-0.962,1.401,0.000,-12.531,0.000,-0.026,-0.010,-0.018,-0.376,-0.963,1.357
0723_101442_0186.png,0.038,0.162,0.944,-0.030,0.161,0.943,0.161,-0.013,1.110,-0.143,-0.005,1.146,0.297,-0.210,1.232,-0.313,-0.211,1.199,0.218,-0.281,0.984,-0.386,-0.288,0.950,997.832,703.611,0.944,929.456,702.462,0.943,1097.517,528.595,1.110,841.163,535.954,1.146,1189.577,377.744,1.232,711.747,372.838,1.199,1170.783,268.328,0.984,573.965,252.187,0.950,-0.029,-0.962,1.401,0.000,-5.894,0.000,-0.031,0.015,-0.028,-0.045,-0.877,1.552
0723_101442_0187.png,-0.008,0.169,0.931,-0.075,0.173,0.936,0.102,0.007,1.157,-0.196,-0.009,1.090,0.164,-0.261,1.164,-0.332,-0.248,1.071,0.118,-0.305,0.901,-0.267,-0.327,0.821,952.109,712.753,0.931,883.565,715.745,0.936,1043.936,545.369,1.157,788.737,532.323,1.090,1093.999,326.611,1.164,664.919,319.987,1.071,1084.149,217.660,0.901,650.544,160.768,0.821,-0.022,-0.967,1.402,0.000,-345.910,0.000,-0.031,-0.010,-0.029,0.062,-1.002,1.429
0723_101442_0188.png,0.040,0.179,0.931,-0.026,0.178,0.931,0.161,-0.004,1.108,-0.135,0.002,1.134,0.263,-0.254,1.055,-0.237,-0.225,1.018,0.198,-0.339,0.811,-0.182,-0.347,0.788,1001.112,722.475,0.931,933.784,721.857,0.931,1098.167,536.481,1.108,846.653,541.653,1.134,1197.051,310.906,1.055,738.400,330.102,1.018,1192.139,142.007,0.811,740.836,121.237,0.788,-0.038,-0.965,1.402,0.000,-4.057,0.000,-0.002,-0.027,-0.012,-0.067,-0.988,1.206
0723_101442_0189.png,-0.003,0.158,0.932,-0.071,0.162,0.939,0.111,0.004,1.154,-0.190,-0.010,1.093,0.169,-0.259,1.151,-0.272,-0.264,1.047,0.138,-0.303,0.890,-0.259,-0.328,0.788,956.495,700.755,0.932,888.133,704.306,0.939,1051.566,542.948,1.154,795.056,530.944,1.093,1099.771,326.029,1.151,713.260,300.139,1.047,1107.181,216.526,0.890,647.299,144.330,0.788,-0.027,-0.970,1.403,0.000,-347.097,0.000,-0.034,0.016,-0.015,-0.018,-1.183,1.222
0723_101442_0190.png,0.015,0.175,0.926,-0.052,0.179,0.935,0.146,0.008,1.122,-0.158,0.008,1.123,0.202,-0.175,0.917,-0.238,-0.179,1.307,0.257,-0.353,0.718,-0.293,-0.264,1.058,975.162,719.923,0.926,907.076,721.580,0.935,1083.671,546.508,1.122,825.788,546.707,1.123,1169.619,358.706,0.917,786.614,410.009,1.307,1300.212,72.839,0.718,697.044,302.561,1.058,-0.031,-0.976,1.404,0.000,-359.030,0.000,-0.025,-0.012,-0.019,-0.319,-1.070,1.448
0723_101442_0191.png,0.017,0.178,0.921,-0.049,0.180,0.923,0.127,0.014,1.136,-0.168,0.006,1.100,0.198,-0.206,1.293,-0.180,-0.245,0.987,0.328,-0.274,1.071,-0.087,-0.357,0.764,977.479,723.791,0.921,909.708,725.614,0.923,1065.990,551.518,1.136,814.860,544.843,1.100,1105.583,388.733,1.293,786.412,303.883,0.987,1251.109,296.269,1.071,851.312,96.322,0.764,-0.034,-0.975,1.404,0.000,-351.780,0.000,0.001,-0.034,-0.010,0.082,-1.177,1.432
0723_101442_0192.png,0.063,0.169,0.938,-0.001,0.162,0.925,0.172,-0.019,1.076,-0.113,-0.001,1.156,0.306,-0.256,1.086,-0.105,-0.178,0.949,0.341,-0.327,0.836,-0.098,-0.351,0.747,1023.951,711.395,0.938,959.051,707.024,0.925,1111.674,522.915,1.076,866.852,539.304,1.156,1227.734,316.305,1.086,854.390,361.641,0.949,1347.649,167.354,0.836,835.785,93.664,0.747,-0.030,-0.962,1.401,0.000,-14.987,0.000,0.001,-0.008,0.002,0.280,-0.981,1.335
0723_101442_0193.png,0.033,0.150,0.933,-0.032,0.149,0.931,0.148,-0.012,1.107,-0.145,-0.007,1.127,0.129,-0.260,1.028,-0.191,-0.251,1.045,0.086,-0.334,0.789,-0.152,-0.329,0.806,993.629,693.033,0.933,927.386,691.866,0.931,1086.841,529.846,1.107,837.810,533.896,1.127,1079.310,299.320,1.028,786.224,311.463,1.045,1064.120,136.645,0.789,780.868,152.048,0.806,-0.030,-0.971,1.403,0.000,-2.833,0.000,0.012,0.030,0.036,0.052,-1.093,1.669
0723_101442_0194.png,0.016,0.168,0.935,-0.048,0.169,0.936,0.121,0.001,1.139,-0.166,-0.009,1.097,0.190,-0.241,1.053,-0.276,-0.205,1.240,0.048,-0.328,0.856,-0.399,-0.281,1.026,976.740,710.789,0.935,911.421,711.961,0.936,1060.816,540.638,1.139,816.018,532.455,1.097,1131.907,322.113,1.053,748.243,382.561,1.240,1013.316,175.864,0.856,590.068,279.554,1.026,-0.035,-0.972,1.404,0.000,-350.442,0.000,0.023,0.013,0.018,0.163,-0.875,1.551
0723_101442_0195.png,0.024,0.180,0.923,-0.041,0.181,0.922,0.127,0.008,1.134,-0.163,-0.001,1.097,0.186,-0.169,0.930,-0.189,-0.244,0.978,0.243,-0.341,0.732,-0.058,-0.354,0.780,984.440,725.789,0.923,917.664,726.791,0.922,1066.510,546.616,1.134,818.974,539.415,1.097,1149.747,367.648,0.930,776.612,302.467,0.978,1275.640,96.367,0.732,888.962,108.430,0.780,-0.037,-0.970,1.403,0.000,-351.307,0.000,0.016,-0.039,0.006,0.209,-0.968,1.617
0723_101442_0196.png,0.034,0.148,0.939,-0.030,0.147,0.938,0.150,-0.023,1.105,-0.137,-0.015,1.138,0.163,-0.274,1.024,-0.209,-0.180,0.934,-0.016,-0.329,0.848,-0.280,-0.340,0.736,993.945,690.060,0.939,929.133,688.923,0.938,1089.217,520.197,1.105,845.805,527.082,1.138,1111.384,285.606,1.024,747.305,357.012,0.934,942.036,170.933,0.848,598.390,100.656,0.736,-0.029,-0.959,1.401,0.000,-5.537,0.000,0.028,0.026,0.022,-0.054,-1.080,1.232
0723_101442_0197.png,0.019,0.171,0.931,-0.047,0.172,0.934,0.140,-0.011,1.119,-0.158,-0.010,1.121,0.091,-0.186,0.912,-0.193,-0.243,0.988,0.042,-0.356,0.710,-0.057,-0.342,0.787,979.872,715.118,0.931,912.484,715.526,0.934,1079.382,530.857,1.119,825.709,531.375,1.121,1055.137,346.393,0.912,774.561,306.294,0.988,1016.342,63.430,0.710,890.769,126.310,0.787,-0.028,-0.958,1.400,0.000,-359.331,0.000,-0.006,-0.026,0.010,-0.114,-0.968,1.095
0723_101442_0198.png,0.046,0.172,0.948,-0.018,0.170,0.944,0.161,-0.020,1.093,-0.120,-0.007,1.150,0.210,-0.283,1.087,-0.192,-0.175,0.940,0.036,-0.324,0.895,-0.264,-0.339,0.736,1005.900,712.642,0.948,942.057,711.517,0.944,1099.727,522.702,1.093,860.744,534.445,1.150,1143.741,292.001,1.087,765.924,363.331,0.940,998.477,196.143,0.895,618.894,102.464,0.736,-0.030,-0.960,1.401,0.000,-10.656,0.000,0.034,0.010,-0.004,-0.044,-0.684,1.239
0723_101442_0199.png,0.022,0.168,0.946,-0.042,0.168,0.947,0.137,-0.009,1.120,-0.153,-0.008,1.122,0.202,-0.242,1.015,-0.298,-0.213,1.039,0.098,-0.336,0.799,-0.367,-0.330,0.820,982.431,708.717,0.946,917.893,708.831,0.947,1076.064,532.474,1.120,830.206,532.831,1.122,1149.506,313.680,1.015,687.758,345.067,1.039,1076.818,139.542,0.799,534.434,157.306,0.820,-0.029,-0.971,1.403,0.000,-359.187,0.000,0.024,0.036,0.020,-0.011,-0.695,1.467
0723_101442_0200.png,0.006,0.176,0.929,-0.060,0.179,0.937,0.128,-0.002,1.132,-0.171,-0.008,1.106,0.081,-0.178,0.925,-0.284,-0.195,1.274,0.035,-0.350,0.722,-0.418,-0.272,1.060,965.803,720.386,0.929,898.896,721.949,0.937,1067.372,538.628,1.132,813.089,533.446,1.106,1043.608,356.874,0.925,747.932,394.130,1.274,1005.786,79.424,0.722,584.942,296.009,1.060,-0.028,-0.964,1.402,0.000,-353.712,0.000,-0.010,-0.023,0.006,-0.179,-0.793,1.593
0723_101442_0201.png,0.020,0.153,0.922,-0.047,0.156,0.928,0.147,-0.013,1.117,-0.156,-0.012,1.118,0.235,-0.241,1.246,-0.209,-0.259,1.026,0.284,-0.281,0.994,-0.072,-0.331,0.816,980.330,698.099,0.922,911.823,699.506,0.928,1084.979,529.208,1.117,827.682,529.506,1.118,1139.512,355.864,1.246,766.342,299.671,1.026,1231.293,270.855,0.994,876.400,153.919,0.816,-0.033,-0.958,1.400,0.000,-359.111,0.000,-0.019,-0.023,0.024,-0.222,-1.222,1.475
0723_101442_0202.png,0.020,0.166,0.942,-0.043,0.168,0.948,0.141,-0.009,1.120,-0.146,-0.007,1.130,0.290,-0.221,1.057,-0.215,-0.250,1.040,0.378,-0.332,0.834,-0.057,-0.334,0.850,980.561,707.815,0.942,916.746,708.410,0.948,1080.043,532.079,1.120,837.218,534.210,1.130,1220.746,340.864,1.057,762.931,311.126,1.040,1390.810,161.586,0.834,895.926,166.156,0.850,-0.030,-0.966,1.402,0.000,-1.003,0.000,0.032,0.021,-0.006,-0.228,-0.813,1.385
0723_101442_0203.png,0.035,0.167,0.938,-0.028,0.165,0.935,0.149,-0.009,1.105,-0.133,0.000,1.142,0.189,-0.248,0.982,-0.172,-0.183,0.933,0.190,-0.366,0.743,-0.213,-0.362,0.731,995.649,709.699,0.938,931.639,708.107,0.935,1088.397,532.259,1.105,849.432,539.596,1.142,1143.226,299.972,0.982,785.086,353.575,0.933,1202.599,71.351,0.743,683.281,69.642,0.731,-0.028,-0.967,1.402,0.000,-6.502,0.000,0.042,0.005,-0.012,0.003,-0.949,1.490
0723_101442_0204.png,0.040,0.161,0.939,-0.023,0.159,0.933,0.151,-0.016,1.106,-0.137,-0.010,1.133,0.226,-0.217,1.267,-0.291,-0.190,1.012,0.196,-0.283,1.019,-0.397,-0.333,0.824,1001.011,703.586,0.939,936.230,702.005,0.933,1089.539,526.183,1.106,844.904,531.711,1.133,1129.900,377.288,1.267,686.460,361.749,1.012,1142.946,275.873,1.019,501.804,156.012,0.824,-0.032,-0.962,1.401,0.000,-4.318,0.000,0.026,0.008,0.021,0.161,-0.945,1.404
0723_101442_0205.png,0.009,0.176,0.928,-0.056,0.180,0.937,0.132,0.001,1.129,-0.161,-0.001,1.117,0.092,-0.212,0.958,-0.237,-0.254,1.037,-0.014,-0.359,0.761,-0.092,-0.343,0.832,968.949,720.896,0.928,903.524,722.594,0.937,1070.978,540.998,1.129,822.871,538.743,1.117,1051.098,329.334,0.958,743.049,306.800,1.037,942.181,91.405,0.761,855.093,148.012,0.832,-0.029,-0.965,1.402,0.000,-356.503,0.000,0.013,-0.029,-0.018,-0.269,-0.963,1.382
0723_101442_0206.png,0.032,0.163,0.934,-0.035,0.162,0.933,0.151,-0.015,1.102,-0.146,-0.009,1.130,0.227,-0.216,1.263,-0.232,-0.173,0.936,0.398,-0.260,1.072,-0.314,-0.332,0.746,992.267,705.561,0.934,924.825,704.817,0.933,1090.503,527.005,1.102,836.837,532.756,1.130,1130.621,377.670,1.263,723.888,364.643,0.936,1312.526,309.564,1.072,560.487,116.679,0.746,-0.028,-0.966,1.402,0.000,-4.356,0.000,-0.007,0.009,0.038,-0.039,-1.012,1.151
0723_101442_0207.png,0.014,0.169,0.923,-0.053,0.172,0.928,0.133,0.003,1.131,-0.166,-0.002,1.109,0.254,-0.228,1.047,-0.290,-0.199,1.261,0.310,-0.335,0.811,-0.252,-0.285,1.012,973.937,714.331,0.923,906.044,716.200,0.928,1071.683,542.248,1.131,817.628,538.021,1.109,1191.209,332.634,1.047,741.400,389.588,1.261,1324.189,146.531,0.811,723.434,272.331,1.012,-0.031,-0.966,1.402,0.000,-354.571,0.000,-0.009,-0.031,-0.006,-0.090,-1.030,1.736
0723_101442_0208.png,0.037,0.159,0.928,-0.029,0.158,0.927,0.156,-0.019,1.095,-0.140,-0.010,1.133,0.283,-0.240,1.192,-0.234,-0.262,1.147,0.389,-0.290,0.964,-0.208,-0.306,0.898,997.486,703.300,0.928,929.766,702.026,0.927,1095.618,523.349,1.095,842.602,531.199,1.133,1185.897,348.502,1.192,765.907,322.446,1.147,1343.531,253.878,0.964,740.118,216.133,0.898,-0.030,-0.960,1.401,0.000,-6.296,0.000,-0.005,-0.009,0.044,-0.026,-0.990,1.545
0723_101442_0209.png,0.021,0.156,0.935,-0.046,0.157,0.937,0.139,-0.001,1.131,-0.166,-0.005,1.112,0.136,-0.176,0.923,-0.319,-0.225,1.099,0.131,-0.344,0.719,-0.230,-0.306,0.867,981.517,698.760,0.935,912.924,699.801,0.937,1076.582,539.209,1.131,818.278,535.441,1.112,1099.910,359.127,0.923,684.226,345.360,1.099,1132.838,84.755,0.719,707.205,203.996,0.867,-0.033,-0.975,1.404,0.000,-355.142,0.000,-0.027,0.033,0.011,0.037,-1.089,1.511
0723_101442_0210.png,0.022,0.188,0.930,-0.042,0.188,0.932,0.135,-0.001,1.122,-0.155,-0.003,1.112,0.232,-0.216,1.270,-0.313,-0.215,1.054,0.190,-0.293,1.025,-0.376,-0.339,0.833,982.425,732.088,0.930,916.762,732.363,0.932,1074.066,539.072,1.122,827.118,537.213,1.112,1133.654,378.420,1.270,677.859,345.490,1.054,1136.233,268.093,1.025,531.103,153.113,0.833,-0.032,-0.964,1.402,0.000,-356.918,0.000,0.023,-0.039,0.011,0.021,-0.796,1.198
0723_101442_0211.png,0.022,0.168,0.945,-0.045,0.168,0.943,0.131,0.001,1.143,-0.171,-0.006,1.114,0.113,-0.223,0.981,-0.234,-0.261,1.041,-0.017,-0.340,0.773,-0.062,-0.324,0.842,982.494,708.674,0.945,914.695,709.084,0.943,1069.335,540.564,1.143,814.219,534.844,1.114,1069.339,324.197,0.981,746.255,301.792,1.041,939.396,121.532,0.773,890.286,174.405,0.842,-0.032,-0.969,1.403,0.000,-353.160,0.000,-0.023,0.020,-0.033,0.242,-0.928,1.331
0723_101442_0212.png,0.007,0.175,0.932,-0.058,0.179,0.940,0.120,0.001,1.147,-0.171,-0.010,1.100,0.278,-0.223,1.161,-0.302,-0.251,1.113,0.391,-0.309,0.933,-0.318,-0.330,0.856,967.628,718.958,0.932,901.696,721.055,0.940,1059.400,540.955,1.147,811.860,531.675,1.100,1187.721,357.635,1.161,701.871,325.409,1.113,1358.638,224.690,0.933,606.979,173.476,0.856,-0.035,-0.962,1.401,0.000,-349.444,0.000,0.006,-0.023,-0.024,-0.059,-0.922,1.201
0723_101442_0213.png,0.016,0.174,0.938,-0.048,0.176,0.944,0.135,-0.006,1.125,-0.153,-0.007,1.119,0.244,-0.239,1.201,-0.181,-0.251,1.009,0.151,-0.301,0.964,-0.057,-0.347,0.801,975.814,716.055,0.938,911.679,716.950,0.944,1074.091,535.040,1.125,829.663,533.916,1.119,1153.285,350.595,1.201,789.201,303.004,1.009,1109.215,243.012,0.964,892.876,128.394,0.801,-0.031,-0.966,1.402,0.000,-357.681,0.000,0.029,0.002,0.005,-0.205,-0.793,1.289
0723_101442_0214.png,0.052,0.153,0.945,-0.013,0.149,0.938,0.166,-0.016,1.092,-0.120,-0.002,1.154,0.073,-0.188,0.899,-0.118,-0.175,0.935,-0.016,-0.355,0.709,-0.117,-0.343,0.722,1012.272,694.092,0.945,947.138,690.605,0.938,1104.491,526.103,1.092,860.685,538.459,1.154,1037.651,341.068,0.899,839.888,362.434,0.935,939.006,63.310,0.709,805.681,88.617,0.722,-0.031,-0.971,1.403,0.000,-11.219,0.000,0.012,0.048,-0.005,0.075,-1.078,1.365
0723_101442_0215.png,0.051,0.185,0.924,-0.013,0.180,0.915,0.164,-0.007,1.069,-0.118,0.011,1.146,0.272,-0.259,1.059,-0.291,-0.197,1.166,0.227,-0.339,0.819,-0.212,-0.310,0.948,1012.615,730.662,0.924,946.622,727.347,0.915,1105.689,534.104,1.069,861.821,549.113,1.146,1204.672,307.613,1.059,722.588,379.044,1.166,1223.650,145.994,0.819,747.573,229.473,0.948,-0.026,-0.972,1.403,0.000,-14.402,0.000,0.014,-0.037,0.028,0.119,-1.026,1.272
0723_101442_0216.png,0.057,0.182,0.942,-0.009,0.178,0.932,0.171,-0.015,1.079,-0.124,0.002,1.154,0.228,-0.224,1.244,-0.186,-0.202,0.988,0.285,-0.279,0.992,-0.141,-0.340,0.768,1017.470,723.752,0.942,950.399,721.853,0.932,1110.603,526.886,1.079,858.025,541.867,1.154,1134.088,368.414,1.244,780.941,345.292,0.988,1233.053,272.373,0.992,784.984,118.228,0.768,-0.028,-0.965,1.402,0.000,-13.395,0.000,-0.025,-0.009,0.003,0.150,-0.687,1.412
0723_101442_0217.png,0.002,0.159,0.933,-0.061,0.161,0.938,0.110,-0.011,1.139,-0.174,-0.021,1.094,0.126,-0.224,0.987,-0.219,-0.274,1.030,0.024,-0.345,0.787,-0.054,-0.333,0.845,962.181,701.976,0.933,897.850,703.721,0.938,1051.976,530.879,1.139,809.172,521.664,1.094,1081.380,324.521,0.987,757.644,287.213,1.030,989.541,123.794,0.787,898.708,165.480,0.845,-0.027,-0.961,1.401,0.000,-349.729,0.000,0.032,0.006,0.036,0.001,-0.855,1.532
0723_101442_0218.png,0.049,0.169,0.934,-0.014,0.162,0.925,0.161,-0.007,1.088,-0.120,0.008,1.155,0.087,-0.237,0.950,-0.236,-0.171,0.969,-0.020,-0.369,0.738,-0.352,-0.346,0.790,1009.973,711.777,0.934,945.105,707.005,0.925,1100.650,533.478,1.088,861.467,546.599,1.155,1047.219,302.796,0.950,728.409,372.168,0.969,933.890,64.509,0.738,535.837,123.576,0.790,-0.025,-0.968,1.403,0.000,-12.664,0.000,0.027,-0.010,-0.031,0.147,-1.148,1.478
0723_101442_0219.png,0.020,0.155,0.928,-0.048,0.156,0.931,0.145,-0.007,1.117,-0.162,-0.006,1.123,0.072,-0.184,0.926,-0.193,-0.247,1.011,-0.021,-0.343,0.737,-0.164,-0.335,0.768,980.143,699.039,0.928,910.708,699.582,0.931,1083.485,533.718,1.117,823.103,535.053,1.123,1034.205,350.859,0.926,778.954,307.408,1.011,933.183,97.239,0.737,756.911,125.052,0.768,-0.026,-0.967,1.402,0.000,-0.106,0.000,-0.033,0.003,0.013,-0.132,-1.276,1.278
0723_101442_0220.png,0.049,0.170,0.924,-0.018,0.166,0.919,0.168,-0.010,1.076,-0.127,0.006,1.147,0.283,-0.259,1.095,-0.262,-0.230,1.161,0.200,-0.316,0.858,-0.299,-0.301,0.916,1010.238,715.339,0.924,941.523,711.914,0.919,1108.481,530.805,1.076,854.656,544.871,1.147,1205.690,315.148,1.095,745.124,351.312,1.161,1181.220,189.277,0.858,649.524,227.183,0.916,-0.027,-0.970,1.403,0.000,-12.667,0.000,-0.023,-0.018,0.024,0.027,-1.127,1.419
0723_101442_0221.png,-0.007,0.171,0.925,-0.071,0.176,0.936,0.110,0.005,1.141,-0.178,-0.005,1.097,0.153,-0.243,1.036,-0.199,-0.250,0.981,0.144,-0.348,0.795,-0.168,-0.359,0.743,952.647,715.631,0.925,888.114,718.883,0.936,1051.957,543.762,1.141,806.005,535.252,1.097,1100.731,317.127,1.036,767.364,297.381,0.981,1132.053,123.277,0.795,744.486,80.093,0.743,-0.025,-0.969,1.403,0.000,-350.023,0.000,0.018,-0.017,0.000,-0.248,-1.020,1.421
0723_101442_0222.png,0.020,0.166,0.935,-0.047,0.167,0.936,0.136,-0.002,1.132,-0.168,-0.006,1.115,0.058,-0.177,0.932,-0.301,-0.238,1.061,-0.019,-0.346,0.738,-0.320,-0.326,0.812,980.383,708.934,0.935,911.770,709.607,0.936,1074.627,538.343,1.132,817.042,534.992,1.115,1019.592,359.904,0.932,690.438,326.845,1.061,935.994,94.146,0.738,584.795,157.502,0.812,-0.030,-0.967,1.402,0.000,-355.551,0.000,-0.026,0.001,-0.007,0.060,-0.900,1.729
0723_101442_0223.png,0.038,0.182,0.930,-0.029,0.181,0.931,0.162,0.000,1.107,-0.143,0.006,1.130,0.262,-0.253,1.070,-0.278,-0.213,1.231,0.287,-0.325,0.817,-0.381,-0.281,0.997,999.206,725.841,0.930,929.908,725.362,0.931,1098.921,540.162,1.107,839.441,544.719,1.130,1193.127,315.533,1.070,744.999,375.343,1.231,1294.486,162.228,0.817,596.926,271.746,0.997,-0.036,-0.972,1.404,0.000,-3.364,0.000,-0.030,-0.019,0.000,-0.055,-0.911,1.395
0723_101442_0224.png,0.024,0.155,0.932,-0.042,0.157,0.939,0.152,-0.017,1.114,-0.147,-0.014,1.123,0.185,-0.204,0.932,-0.304,-0.213,1.213,0.160,-0.348,0.722,-0.218,-0.281,0.981,984.669,698.244,0.932,917.625,699.255,0.939,1089.898,525.909,1.114,835.071,527.837,1.123,1148.458,331.779,0.932,721.235,372.570,1.213,1171.335,81.639,0.722,749.193,267.820,0.981,-0.036,-0.962,1.401,0.000,-0.654,0.000,-0.010,0.013,0.035,-0.288,-1.014,1.286
0723_101442_0225.png,0.035,0.167,0.933,-0.032,0.167,0.935,0.159,-0.021,1.098,-0.139,-0.013,1.129,0.218,-0.282,1.093,-0.283,-0.221,1.232,0.035,-0.304,0.913,-0.389,-0.278,1.009,995.286,710.140,0.933,927.795,709.990,0.935,1097.308,522.229,1.098,842.940,528.769,1.129,1149.373,294.389,1.093,741.869,369.772,1.232,996.172,223.715,0.913,593.682,278.355,1.009,-0.034,-0.959,1.401,0.000,-4.981,0.000,-0.008,-0.006,0.049,-0.179,-0.838,1.179
0723_101442_0226.png,0.009,0.180,0.928,-0.056,0.182,0.931,0.121,0.007,1.131,-0.172,0.000,1.100,0.096,-0.173,0.926,-0.228,-0.248,1.011,0.071,-0.348,0.726,-0.091,-0.339,0.809,969.464,724.957,0.928,902.800,726.157,0.931,1061.789,545.915,1.131,811.478,539.961,1.100,1058.591,362.783,0.926,745.440,306.526,1.011,1052.902,84.633,0.726,853.137,141.881,0.809,-0.027,-0.974,1.404,0.000,-352.667,0.000,0.007,-0.015,0.015,0.026,-0.950,1.317
0723_101442_0227.png,-0.005,0.189,0.925,-0.070,0.193,0.936,0.106,0.009,1.150,-0.181,-0.007,1.083,0.269,-0.213,1.152,-0.194,-0.234,0.929,0.392,-0.311,0.938,-0.172,-0.372,0.703,954.599,734.162,0.925,889.286,736.301,0.936,1047.290,547.079,1.150,801.361,534.153,1.083,1182.061,364.120,1.152,761.469,300.905,0.929,1357.225,224.600,0.938,727.806,36.462,0.703,-0.031,-0.965,1.402,0.000,-345.476,0.000,0.009,-0.044,-0.008,-0.123,-0.789,1.300
0723_101442_0228.png,0.006,0.160,0.935,-0.059,0.164,0.944,0.133,-0.001,1.133,-0.167,-0.005,1.117,0.166,-0.179,0.920,-0.332,-0.216,1.102,0.198,-0.351,0.712,-0.352,-0.316,0.856,966.474,702.582,0.935,900.161,704.966,0.944,1071.836,538.956,1.133,818.272,535.998,1.117,1131.582,355.093,0.920,672.961,353.107,1.102,1224.425,70.734,0.712,568.734,188.600,0.856,-0.028,-0.971,1.403,0.000,-355.878,0.000,-0.011,0.022,-0.010,-0.290,-1.053,1.406
0723_101442_0229.png,0.047,0.176,0.942,-0.017,0.173,0.936,0.159,-0.008,1.092,-0.126,0.003,1.142,0.296,-0.232,1.056,-0.129,-0.177,0.936,0.369,-0.330,0.827,-0.133,-0.352,0.736,1007.171,717.889,0.942,942.638,716.137,0.936,1098.212,532.812,1.092,855.049,542.819,1.142,1226.638,330.884,1.056,828.603,360.696,0.936,1383.874,160.475,0.827,787.737,84.775,0.736,-0.030,-0.974,1.404,0.000,-9.170,0.000,0.025,0.018,0.014,0.098,-0.792,1.370
