rolosa10/RGSpipe/dataset/synthetic_dataset/Coods3D_unique0722_153208.csv
filename,left_eye,left_eye,left_eye,right_eye,right_eye,right_eye,left_shoulder,left_shoulder,left_shoulder,right_shoulder,right_shoulder,right_shoulder,left_elbow,left_elbow,left_elbow,right_elbow,right_elbow,right_elbow,left_wrist,left_wrist,left_wrist,right_wrist,right_wrist,right_wrist,left_eye_2D,left_eye_2D,left_eye_2D,right_eye_2D,right_eye_2D,right_eye_2D,left_shoulder_2D,left_shoulder_2D,left_shoulder_2D,right_shoulder_2D,right_shoulder_2D,right_shoulder_2D,left_elbow_2D,left_elbow_2D,left_elbow_2D,right_elbow_2D,right_elbow_2D,right_elbow_2D,left_wrist_2D,left_wrist_2D,left_wrist_2D,right_wrist_2D,right_wrist_2D,right_wrist_2D,root_position,root_position,root_position,root_pitch,root_yaw,root_roll,root_scale,root_scale,root_scale,look_at,look_at,look_at
0722_153208_0001.png,0.042,0.172,0.939,-0.022,0.167,0.932,0.154,-0.005,1.099,-0.130,0.006,1.148,0.210,-0.219,1.253,-0.262,-0.169,0.975,0.242,-0.295,0.997,-0.393,-0.340,0.810,1002.284,713.740,0.939,937.752,710.829,0.932,1092.809,535.678,1.099,852.236,545.068,1.148,1119.038,373.451,1.253,704.674,374.954,0.975,1190.341,258.860,0.997,498.252,140.404,0.810,-0.025,-0.971,1.403,0.000,-8.751,0.000,0.030,0.003,-0.025,0.125,-1.074,1.274
0722_153208_0002.png,0.032,0.167,0.928,-0.037,0.167,0.928,0.152,0.004,1.120,-0.156,0.005,1.125,0.297,-0.228,1.091,-0.243,-0.186,1.302,0.354,-0.316,0.844,-0.289,-0.262,1.049,992.464,711.150,0.928,922.405,710.793,0.928,1089.105,543.267,1.120,827.830,544.443,1.125,1219.169,340.748,1.091,782.720,404.433,1.302,1359.111,184.327,0.844,697.741,302.794,1.049,-0.033,-0.973,1.404,0.000,0.002,0.000,-0.039,-0.008,-0.016,0.045,-1.209,1.466
0722_153208_0003.png,0.008,0.162,0.932,-0.058,0.164,0.936,0.120,-0.004,1.140,-0.175,-0.015,1.090,0.050,-0.172,0.942,-0.277,-0.203,1.248,-0.020,-0.334,0.748,-0.433,-0.264,1.050,968.433,704.910,0.932,901.426,706.753,0.936,1059.932,536.922,1.140,807.573,526.780,1.090,1010.775,366.392,0.942,748.739,385.346,1.248,934.326,115.211,0.748,567.632,300.501,1.050,-0.033,-0.969,1.403,0.000,-348.970,0.000,-0.007,0.017,0.039,0.044,-0.849,1.667
0722_153208_0004.png,-0.014,0.176,0.934,-0.079,0.181,0.945,0.106,0.007,1.152,-0.191,-0.005,1.095,0.245,-0.216,1.220,-0.222,-0.276,1.089,0.158,-0.288,0.976,-0.185,-0.328,0.827,946.249,718.708,0.934,880.200,721.586,0.945,1047.148,546.174,1.152,794.504,535.297,1.095,1151.292,371.843,1.220,765.626,299.234,1.089,1113.510,259.777,0.976,747.322,163.440,0.827,-0.022,-0.971,1.403,0.000,-347.828,0.000,-0.016,0.000,-0.025,-0.192,-0.833,1.454
0722_153208_0005.png,0.020,0.141,0.938,-0.045,0.143,0.941,0.133,-0.009,1.144,-0.160,-0.014,1.122,0.061,-0.183,0.927,-0.282,-0.192,1.278,-0.006,-0.354,0.715,-0.440,-0.265,1.075,980.351,682.999,0.938,914.531,684.807,0.941,1070.953,532.158,1.144,824.726,527.871,1.122,1022.460,351.864,0.927,750.341,397.235,1.278,951.476,69.242,0.715,570.329,305.149,1.075,-0.036,-0.959,1.401,0.000,-354.574,0.000,0.010,0.021,-0.041,0.002,-1.210,1.609
0722_153208_0006.png,0.037,0.170,0.944,-0.030,0.169,0.940,0.151,-0.004,1.128,-0.153,-0.004,1.131,0.249,-0.253,1.062,-0.296,-0.236,1.098,0.266,-0.333,0.801,-0.174,-0.318,0.868,997.482,711.322,0.944,929.697,710.577,0.940,1087.300,536.296,1.128,831.723,537.057,1.131,1182.801,313.187,1.062,703.861,335.825,1.098,1275.584,144.738,0.801,768.998,191.816,0.868,-0.035,-0.964,1.402,0.000,0.422,0.000,-0.022,0.002,-0.038,0.190,-0.961,1.258
0722_153208_0007.png,-0.010,0.150,0.932,-0.078,0.155,0.939,0.105,-0.001,1.158,-0.196,-0.017,1.086,0.280,-0.206,1.113,-0.174,-0.255,0.961,0.377,-0.298,0.886,-0.109,-0.344,0.721,949.377,692.846,0.932,880.847,697.087,0.939,1046.342,539.098,1.158,788.282,524.711,1.086,1199.063,364.449,1.113,787.695,287.400,0.961,1364.590,219.455,0.886,816.668,86.295,0.721,-0.025,-0.966,1.402,0.000,-345.195,0.000,-0.044,0.023,-0.004,-0.042,-1.146,1.386
0722_153208_0008.png,0.041,0.149,0.942,-0.022,0.144,0.934,0.152,-0.018,1.099,-0.129,-0.006,1.151,0.217,-0.271,1.051,-0.198,-0.175,0.938,0.064,-0.335,0.846,-0.268,-0.341,0.732,1001.665,690.480,0.942,937.867,686.555,0.934,1091.342,524.699,1.099,853.452,535.351,1.151,1156.344,294.438,1.051,759.410,362.260,0.938,1031.678,162.874,0.846,611.465,96.870,0.732,-0.023,-0.964,1.402,0.000,-9.679,0.000,0.037,0.028,-0.013,0.131,-1.091,1.666
0722_153208_0009.png,0.062,0.159,0.928,-0.005,0.154,0.920,0.178,-0.016,1.074,-0.120,0.002,1.150,0.188,-0.186,1.282,-0.286,-0.205,1.104,0.325,-0.254,1.066,-0.220,-0.305,0.874,1023.175,703.248,0.928,954.479,698.690,0.920,1117.796,526.206,1.074,860.963,541.510,1.150,1099.783,402.049,1.282,713.826,363.783,1.104,1250.094,313.675,1.066,720.252,207.770,0.874,-0.034,-0.970,1.403,0.000,-13.447,0.000,-0.037,0.004,0.030,0.132,-1.182,1.487
0722_153208_0010.png,0.032,0.152,0.945,-0.031,0.149,0.939,0.141,-0.015,1.114,-0.144,-0.009,1.138,0.168,-0.191,0.904,-0.299,-0.186,1.251,0.196,-0.363,0.699,-0.379,-0.283,1.019,992.649,693.026,0.945,928.779,691.030,0.939,1080.647,527.444,1.114,839.530,532.377,1.138,1136.620,338.727,0.904,732.517,398.429,1.251,1226.950,45.762,0.699,605.949,275.780,1.019,-0.024,-0.965,1.402,0.000,-3.819,0.000,0.035,0.035,-0.004,0.174,-1.116,1.236
0722_153208_0011.png,0.024,0.170,0.939,-0.043,0.172,0.946,0.156,-0.008,1.116,-0.148,-0.003,1.139,0.144,-0.261,1.010,-0.269,-0.241,1.187,0.008,-0.338,0.789,-0.287,-0.299,0.924,984.715,711.888,0.939,916.999,712.444,0.946,1093.011,533.234,1.116,836.484,537.733,1.139,1095.193,294.004,1.010,744.006,346.690,1.187,969.565,132.338,0.789,664.805,231.907,0.924,-0.031,-0.964,1.402,0.000,-3.217,0.000,-0.027,0.004,-0.027,-0.312,-0.830,1.488
0722_153208_0012.png,0.045,0.188,0.942,-0.019,0.186,0.937,0.160,-0.002,1.103,-0.130,0.007,1.141,0.196,-0.267,1.045,-0.198,-0.228,1.016,0.030,-0.337,0.849,-0.088,-0.346,0.804,1005.799,730.316,0.942,940.397,729.211,0.937,1097.680,538.616,1.103,851.738,546.019,1.141,1138.641,296.849,1.045,774.403,326.705,1.016,993.261,162.786,0.849,856.009,131.145,0.804,-0.034,-0.971,1.403,0.000,-6.577,0.000,0.016,-0.011,-0.020,0.074,-0.741,1.316
0722_153208_0013.png,0.057,0.174,0.930,-0.009,0.168,0.922,0.172,-0.008,1.074,-0.118,0.010,1.152,0.190,-0.273,1.026,-0.285,-0.204,1.174,0.162,-0.337,0.774,-0.189,-0.294,0.946,1018.430,717.662,0.930,951.150,713.662,0.922,1112.383,532.659,1.074,862.424,547.902,1.152,1136.526,286.410,1.026,729.474,374.805,1.174,1159.625,125.677,0.774,770.460,244.168,0.946,-0.029,-0.974,1.404,0.000,-14.191,0.000,-0.014,-0.005,0.011,0.112,-1.025,1.508
0722_153208_0014.png,0.002,0.167,0.937,-0.065,0.170,0.944,0.120,-0.006,1.146,-0.182,-0.018,1.090,0.183,-0.173,0.942,-0.165,-0.244,0.954,0.241,-0.334,0.743,-0.122,-0.344,0.720,962.028,709.785,0.937,894.250,711.423,0.944,1059.674,535.313,1.146,801.610,523.926,1.090,1144.804,365.845,0.942,795.141,296.188,0.954,1268.598,111.917,0.743,798.460,86.299,0.720,-0.032,-0.965,1.402,0.000,-348.119,0.000,-0.034,0.014,0.025,-0.055,-0.793,1.173
0722_153208_0015.png,0.001,0.167,0.927,-0.065,0.170,0.933,0.116,-0.008,1.138,-0.180,-0.020,1.088,0.187,-0.258,1.227,-0.315,-0.227,1.208,0.164,-0.285,0.974,-0.424,-0.287,0.983,960.618,711.576,0.927,893.351,713.291,0.933,1056.884,532.903,1.138,802.475,522.620,1.088,1105.128,340.058,1.227,711.794,360.896,1.208,1119.742,261.883,0.974,549.183,262.189,0.983,-0.027,-0.960,1.401,0.000,-349.082,0.000,-0.012,-0.018,0.044,-0.053,-0.832,1.475
0722_153208_0016.png,0.037,0.155,0.936,-0.028,0.154,0.938,0.164,-0.011,1.095,-0.124,0.002,1.153,0.278,-0.247,1.130,-0.279,-0.216,1.140,0.321,-0.315,0.876,-0.173,-0.306,0.913,997.898,697.865,0.936,931.700,696.180,0.938,1102.377,530.199,1.095,857.665,541.892,1.153,1193.819,332.013,1.130,727.492,359.689,1.140,1308.926,197.534,0.876,779.622,220.989,0.913,-0.029,-0.971,1.403,0.000,-10.713,0.000,0.009,0.030,-0.019,-0.263,-1.067,1.599
0722_153208_0017.png,0.013,0.150,0.934,-0.055,0.153,0.940,0.139,-0.019,1.126,-0.167,-0.022,1.114,0.292,-0.240,1.109,-0.255,-0.243,1.236,0.274,-0.305,0.863,-0.252,-0.273,0.983,973.077,692.930,0.934,904.621,694.391,0.940,1077.810,523.970,1.126,817.228,521.407,1.114,1210.559,334.082,1.109,763.557,352.807,1.236,1262.424,203.466,0.863,716.374,275.301,0.983,-0.029,-0.957,1.400,0.000,-356.498,0.000,-0.034,0.013,0.034,-0.184,-0.952,1.467
0722_153208_0018.png,0.018,0.167,0.945,-0.050,0.169,0.950,0.140,-0.007,1.137,-0.166,-0.011,1.118,0.165,-0.238,0.995,-0.163,-0.255,0.996,0.147,-0.342,0.748,-0.055,-0.338,0.765,978.022,707.761,0.945,910.123,708.792,0.950,1077.029,534.444,1.137,818.861,530.652,1.118,1117.673,312.079,0.995,804.014,296.971,0.996,1147.285,104.718,0.748,891.200,120.188,0.765,-0.034,-0.964,1.402,0.000,-355.196,0.000,-0.032,0.020,-0.019,-0.077,-0.801,1.298
0722_153208_0019.png,0.004,0.178,0.931,-0.063,0.181,0.940,0.125,-0.001,1.136,-0.175,-0.010,1.099,0.275,-0.209,1.051,-0.160,-0.231,0.950,0.362,-0.320,0.833,-0.106,-0.352,0.726,963.666,721.709,0.931,896.436,723.139,0.940,1064.905,538.924,1.136,808.435,531.676,1.099,1209.165,350.607,1.051,799.807,308.469,0.950,1372.751,174.170,0.833,820.646,79.493,0.726,-0.029,-0.966,1.402,0.000,-351.766,0.000,-0.020,-0.014,0.017,-0.161,-0.746,1.435
0722_153208_0020.png,0.031,0.153,0.936,-0.035,0.154,0.938,0.151,-0.014,1.117,-0.146,-0.013,1.124,0.217,-0.212,1.280,-0.243,-0.196,0.958,0.368,-0.258,1.073,-0.275,-0.344,0.748,991.886,695.563,0.936,925.002,695.775,0.938,1088.932,527.758,1.117,836.540,529.348,1.124,1121.621,382.250,1.280,718.976,345.040,0.958,1286.274,311.259,1.073,610.161,102.361,0.748,-0.037,-0.964,1.402,0.000,-0.359,0.000,-0.002,0.022,0.024,-0.078,-1.114,1.171
0722_153208_0021.png,0.043,0.146,0.937,-0.021,0.142,0.934,0.163,-0.016,1.089,-0.117,0.000,1.161,0.112,-0.241,0.939,-0.206,-0.205,0.998,0.009,-0.367,0.722,-0.201,-0.352,0.771,1003.673,688.296,0.937,938.321,684.186,0.934,1102.714,525.876,1.089,864.383,540.207,1.161,1073.425,295.592,0.939,763.731,344.976,0.998,972.127,56.935,0.722,712.498,105.716,0.771,-0.025,-0.967,1.402,0.000,-13.502,0.000,0.025,0.031,-0.029,-0.127,-1.288,1.487
0722_153208_0022.png,0.014,0.169,0.942,-0.052,0.172,0.951,0.137,-0.005,1.138,-0.160,-0.009,1.121,0.084,-0.182,0.919,-0.302,-0.240,1.121,0.034,-0.355,0.706,-0.152,-0.313,0.909,973.870,710.660,0.942,908.292,712.291,0.951,1074.605,536.056,1.138,824.188,532.710,1.121,1046.529,351.839,0.919,704.282,336.460,1.121,1005.378,61.598,0.706,801.019,212.393,0.909,-0.035,-0.962,1.401,0.000,-355.497,0.000,-0.003,0.006,-0.035,-0.240,-0.864,1.207
0722_153208_0023.png,0.032,0.160,0.937,-0.037,0.160,0.938,0.156,-0.013,1.111,-0.151,-0.008,1.134,0.249,-0.238,0.995,-0.272,-0.183,1.300,0.265,-0.336,0.752,-0.277,-0.258,1.049,992.008,702.250,0.937,922.885,701.844,0.938,1093.470,528.975,1.111,833.672,533.564,1.134,1198.140,312.320,0.995,761.105,406.183,1.300,1295.567,114.676,0.752,708.544,306.128,1.049,-0.030,-0.964,1.402,0.000,-3.166,0.000,-0.035,0.012,0.006,-0.078,-0.964,1.479
0722_153208_0024.png,-0.013,0.178,0.943,-0.077,0.182,0.953,0.096,0.006,1.160,-0.190,-0.009,1.092,0.124,-0.177,0.942,-0.250,-0.260,1.001,0.153,-0.356,0.729,-0.246,-0.358,0.746,947.205,719.306,0.943,882.731,721.535,0.953,1038.947,545.234,1.160,794.969,531.920,1.092,1084.759,361.171,0.942,722.861,292.725,1.001,1159.752,75.166,0.729,647.053,84.374,0.746,-0.026,-0.969,1.403,0.000,-345.079,0.000,0.009,0.012,-0.039,-0.056,-0.657,1.507
0722_153208_0025.png,0.050,0.169,0.949,-0.012,0.165,0.939,0.157,-0.016,1.103,-0.124,-0.006,1.148,0.185,-0.189,1.308,-0.189,-0.243,1.027,0.263,-0.276,1.070,-0.062,-0.347,0.822,1010.376,709.734,0.949,947.460,707.397,0.939,1095.538,526.071,1.103,856.893,535.172,1.148,1094.376,402.618,1.308,785.209,315.161,1.027,1193.946,294.505,1.070,888.321,138.596,0.822,-0.032,-0.960,1.401,0.000,-8.126,0.000,0.039,0.007,-0.021,0.244,-0.795,1.414
0722_153208_0026.png,0.041,0.171,0.937,-0.023,0.169,0.936,0.164,-0.006,1.095,-0.120,0.008,1.154,0.191,-0.272,1.040,-0.270,-0.194,1.246,0.019,-0.340,0.845,-0.432,-0.281,1.048,1001.844,713.749,0.937,936.431,711.831,0.936,1102.135,534.893,1.095,861.199,546.390,1.154,1134.796,291.077,1.040,753.883,391.859,1.246,981.058,157.785,0.845,568.352,284.768,1.048,-0.030,-0.971,1.403,0.000,-10.945,0.000,0.023,0.005,-0.037,-0.188,-0.971,1.479
0722_153208_0027.png,0.023,0.187,0.930,-0.041,0.187,0.933,0.143,-0.001,1.108,-0.147,0.003,1.126,0.198,-0.183,0.914,-0.115,-0.179,0.921,0.252,-0.362,0.725,-0.085,-0.357,0.722,983.494,730.816,0.930,917.797,730.806,0.933,1082.517,538.936,1.108,835.604,542.404,1.126,1165.675,349.001,0.914,840.873,355.266,0.921,1290.177,65.147,0.725,848.220,69.953,0.722,-0.027,-0.969,1.403,0.000,-2.426,0.000,0.021,-0.028,0.008,-0.136,-0.759,1.483
0722_153208_0028.png,0.056,0.155,0.937,-0.008,0.150,0.930,0.169,-0.016,1.085,-0.113,-0.001,1.151,0.142,-0.256,0.975,-0.261,-0.163,0.992,-0.017,-0.342,0.788,-0.406,-0.322,0.838,1016.615,697.056,0.937,951.693,693.109,0.930,1108.237,525.999,1.085,866.388,539.372,1.151,1098.172,290.029,0.975,709.449,383.321,0.992,939.584,127.158,0.788,499.051,174.896,0.838,-0.034,-0.970,1.403,0.000,-12.352,0.000,0.022,0.029,0.013,0.078,-1.105,1.523
0722_153208_0029.png,0.052,0.176,0.936,-0.013,0.171,0.926,0.164,-0.008,1.095,-0.128,0.004,1.146,0.147,-0.271,1.018,-0.269,-0.200,1.263,-0.017,-0.341,0.819,-0.339,-0.284,1.019,1012.884,718.935,0.936,946.778,715.836,0.926,1102.151,533.439,1.095,854.081,543.594,1.146,1097.281,286.503,1.018,757.595,389.744,1.263,940.640,144.028,0.819,643.177,274.852,1.019,-0.031,-0.966,1.402,0.000,-9.151,0.000,0.003,-0.020,-0.016,0.225,-1.039,1.275
0722_153208_0030.png,0.033,0.173,0.943,-0.032,0.174,0.949,0.159,-0.007,1.114,-0.133,0.000,1.143,0.100,-0.197,0.915,-0.230,-0.216,0.999,0.016,-0.367,0.716,-0.211,-0.354,0.765,993.005,714.699,0.943,927.935,714.866,0.949,1095.726,534.278,1.114,849.683,540.014,1.143,1063.956,335.341,0.915,741.402,334.529,0.999,981.136,52.998,0.716,698.172,99.564,0.765,-0.036,-0.967,1.402,0.000,-4.702,0.000,0.013,0.011,-0.036,-0.302,-0.816,1.290
0722_153208_0031.png,0.026,0.165,0.930,-0.039,0.165,0.931,0.143,-0.012,1.112,-0.148,-0.010,1.123,0.229,-0.224,1.262,-0.231,-0.178,0.928,0.388,-0.275,1.066,-0.311,-0.343,0.737,986.143,708.950,0.930,920.267,708.910,0.931,1082.044,529.418,1.112,834.715,531.693,1.123,1132.679,371.203,1.262,723.515,357.336,0.928,1306.388,294.186,1.066,559.305,98.025,0.737,-0.030,-0.961,1.401,0.000,-1.082,0.000,0.021,-0.014,0.026,-0.063,-1.014,1.291
0722_153208_0032.png,0.051,0.159,0.948,-0.013,0.156,0.942,0.166,-0.025,1.088,-0.121,-0.010,1.150,0.154,-0.269,0.989,-0.277,-0.207,1.231,-0.016,-0.332,0.805,-0.307,-0.281,0.986,1011.528,699.842,0.948,946.449,697.935,0.942,1104.883,518.225,1.088,859.851,531.359,1.150,1108.036,281.489,0.989,746.230,379.845,1.231,940.896,147.761,0.805,663.728,268.784,0.986,-0.031,-0.963,1.401,0.000,-11.506,0.000,0.010,0.035,0.021,0.036,-0.832,1.147
0722_153208_0033.png,0.025,0.150,0.931,-0.042,0.151,0.934,0.150,-0.015,1.117,-0.152,-0.012,1.132,0.171,-0.273,1.036,-0.136,-0.237,0.980,-0.011,-0.324,0.849,-0.078,-0.346,0.746,985.830,693.088,0.931,917.738,693.279,0.934,1087.518,527.269,1.117,832.685,530.323,1.132,1116.627,289.270,1.036,827.807,310.541,0.980,947.240,176.617,0.849,860.577,98.584,0.746,-0.030,-0.958,1.400,0.000,-1.742,0.000,-0.016,-0.002,-0.005,-0.135,-1.151,1.547
0722_153208_0034.png,0.014,0.174,0.928,-0.049,0.176,0.936,0.136,-0.005,1.124,-0.152,-0.006,1.121,0.266,-0.243,1.168,-0.264,-0.221,0.998,0.346,-0.320,0.928,-0.325,-0.358,0.779,974.516,717.907,0.928,910.163,719.162,0.936,1074.802,535.482,1.124,831.263,534.965,1.121,1176.515,342.468,1.168,708.079,329.097,0.998,1314.332,211.531,0.928,562.952,103.425,0.779,-0.031,-0.960,1.401,0.000,-358.296,0.000,0.032,-0.033,-0.009,-0.249,-0.866,1.602
0722_153208_0035.png,0.029,0.159,0.949,-0.035,0.156,0.942,0.138,-0.008,1.124,-0.155,-0.005,1.136,0.213,-0.255,1.178,-0.300,-0.220,1.059,0.222,-0.307,0.914,-0.285,-0.334,0.814,989.556,699.098,0.949,924.432,697.410,0.942,1076.683,533.071,1.124,830.056,535.605,1.136,1131.556,334.295,1.178,690.252,342.430,1.059,1190.750,220.299,0.914,626.504,149.087,0.814,-0.023,-0.967,1.402,0.000,-1.387,0.000,0.012,0.033,-0.029,0.246,-1.034,1.317
0722_153208_0036.png,-0.002,0.178,0.927,-0.066,0.181,0.931,0.099,0.006,1.143,-0.181,-0.009,1.079,0.187,-0.199,1.297,-0.193,-0.233,0.941,0.268,-0.274,1.068,-0.176,-0.363,0.723,958.067,722.818,0.927,893.051,724.562,0.931,1042.632,544.890,1.143,800.174,532.340,1.079,1096.876,394.014,1.297,765.080,304.423,0.941,1198.755,296.240,1.068,728.173,62.202,0.723,-0.026,-0.973,1.404,0.000,-345.781,0.000,0.030,-0.009,0.036,0.116,-0.843,1.408
0722_153208_0037.png,0.023,0.180,0.930,-0.044,0.180,0.929,0.137,0.000,1.125,-0.166,-0.003,1.110,0.245,-0.235,1.224,-0.201,-0.255,1.015,0.297,-0.287,0.973,-0.079,-0.337,0.798,983.427,723.979,0.930,914.604,724.193,0.929,1075.555,540.105,1.125,817.487,537.141,1.110,1149.974,357.094,1.224,771.581,300.708,1.015,1250.579,259.109,0.973,866.356,138.474,0.798,-0.030,-0.967,1.402,0.000,-355.908,0.000,-0.022,-0.027,0.011,0.136,-0.948,1.229
0722_153208_0038.png,0.034,0.190,0.932,-0.031,0.189,0.928,0.148,0.000,1.109,-0.146,0.005,1.130,0.196,-0.197,1.304,-0.161,-0.221,0.975,0.223,-0.283,1.053,-0.061,-0.356,0.769,994.612,734.140,0.932,927.838,733.331,0.928,1086.968,539.865,1.109,836.936,544.023,1.130,1102.941,396.389,1.304,802.642,323.962,0.975,1161.218,284.769,1.053,884.262,99.064,0.769,-0.029,-0.966,1.402,0.000,-3.111,0.000,0.006,-0.043,-0.011,0.104,-0.843,1.301
0722_153208_0039.png,0.006,0.172,0.935,-0.062,0.175,0.937,0.111,0.006,1.156,-0.187,-0.009,1.089,0.225,-0.220,1.259,-0.337,-0.239,1.078,0.328,-0.274,1.016,-0.395,-0.322,0.827,965.849,715.346,0.935,897.017,717.355,0.937,1051.614,544.962,1.156,796.570,531.759,1.089,1130.177,373.627,1.259,662.261,328.892,1.078,1266.737,283.196,1.016,505.555,169.513,0.827,-0.032,-0.968,1.403,0.000,-345.802,0.000,-0.032,-0.004,-0.024,0.199,-0.846,1.602
0722_153208_0040.png,0.010,0.173,0.948,-0.054,0.175,0.952,0.119,-0.003,1.145,-0.167,-0.010,1.112,0.230,-0.217,1.014,-0.209,-0.192,0.901,0.293,-0.350,0.786,-0.254,-0.369,0.697,970.250,713.761,0.948,906.384,714.750,0.952,1059.039,537.641,1.145,817.135,531.131,1.112,1175.797,336.225,1.014,739.402,337.778,0.901,1314.086,116.338,0.786,613.695,37.193,0.697,-0.031,-0.965,1.402,0.000,-352.130,0.000,0.029,0.015,-0.030,0.032,-0.671,1.467
0722_153208_0041.png,0.062,0.183,0.944,-0.005,0.178,0.933,0.177,-0.009,1.087,-0.121,0.007,1.158,0.128,-0.219,0.909,-0.243,-0.177,1.321,0.043,-0.364,0.693,-0.305,-0.261,1.069,1022.691,724.339,0.944,955.337,721.554,0.933,1114.411,532.359,1.087,860.748,546.091,1.158,1094.071,310.485,0.909,785.076,412.634,1.321,1018.941,40.206,0.693,688.739,308.175,1.069,-0.032,-0.967,1.402,0.000,-12.460,0.000,-0.030,-0.009,-0.033,0.199,-0.840,1.236
0722_153208_0042.png,0.016,0.164,0.944,-0.049,0.166,0.950,0.138,-0.010,1.132,-0.156,-0.010,1.133,0.235,-0.264,1.128,-0.152,-0.191,0.911,0.072,-0.314,0.920,-0.151,-0.368,0.696,976.455,705.584,0.944,911.406,706.511,0.950,1076.006,531.566,1.132,829.293,531.720,1.133,1157.988,317.292,1.128,801.745,340.511,0.911,1034.138,215.001,0.920,753.077,36.237,0.696,-0.029,-0.958,1.400,0.000,-358.982,0.000,0.010,0.005,-0.045,-0.198,-0.895,1.273
0722_153208_0043.png,0.024,0.159,0.933,-0.045,0.159,0.932,0.144,-0.013,1.118,-0.165,-0.011,1.124,0.292,-0.208,1.242,-0.290,-0.241,1.052,0.233,-0.275,0.997,-0.316,-0.322,0.805,984.604,702.037,0.933,914.557,701.723,0.932,1082.818,529.243,1.118,820.007,530.415,1.124,1183.563,380.525,1.242,697.400,321.608,1.052,1182.428,277.585,0.997,586.837,159.558,0.805,-0.025,-0.960,1.401,0.000,0.082,0.000,-0.044,-0.005,0.012,0.050,-1.045,1.437
0722_153208_0044.png,0.023,0.171,0.929,-0.043,0.173,0.934,0.144,-0.007,1.121,-0.154,-0.007,1.118,0.150,-0.279,1.094,-0.280,-0.235,1.042,0.116,-0.329,0.839,-0.209,-0.336,0.811,983.127,715.079,0.929,915.874,715.842,0.934,1082.322,534.369,1.121,829.126,533.842,1.118,1090.688,297.606,1.094,704.249,325.039,1.042,1091.492,167.387,0.839,715.363,146.163,0.811,-0.034,-0.962,1.401,0.000,-358.309,0.000,-0.004,-0.023,0.007,-0.118,-0.849,1.671
0722_153208_0045.png,-0.010,0.157,0.929,-0.074,0.165,0.943,0.106,0.001,1.154,-0.180,-0.014,1.087,0.170,-0.217,1.009,-0.332,-0.210,1.184,0.111,-0.343,0.785,-0.274,-0.300,0.943,949.357,701.169,0.929,885.608,706.022,0.943,1047.269,541.004,1.154,802.677,527.623,1.087,1119.977,335.003,1.009,693.487,371.040,1.184,1094.343,124.278,0.785,683.974,237.341,0.943,-0.033,-0.968,1.403,0.000,-345.327,0.000,0.011,0.015,-0.001,-0.268,-1.017,1.482
0722_153208_0046.png,0.053,0.176,0.928,-0.014,0.172,0.924,0.174,-0.006,1.086,-0.119,0.009,1.152,0.289,-0.233,1.195,-0.222,-0.212,1.022,0.217,-0.303,0.946,-0.176,-0.344,0.793,1014.061,719.904,0.928,945.912,716.918,0.924,1112.049,534.955,1.086,861.382,547.711,1.152,1190.183,354.883,1.195,753.225,342.834,1.022,1177.823,235.309,0.946,749.436,127.933,0.793,-0.034,-0.968,1.403,0.000,-11.783,0.000,-0.013,-0.025,-0.021,-0.017,-0.977,1.700
0722_153208_0047.png,0.014,0.181,0.921,-0.050,0.182,0.925,0.135,0.002,1.109,-0.156,0.005,1.120,0.247,-0.238,1.191,-0.246,-0.223,1.009,0.124,-0.306,0.972,-0.275,-0.349,0.784,974.456,727.184,0.921,908.094,727.532,0.925,1076.115,542.144,1.109,827.716,544.387,1.120,1157.202,349.782,1.191,727.833,329.646,1.009,1081.312,241.126,0.972,626.586,116.919,0.784,-0.022,-0.971,1.403,0.000,-1.170,0.000,0.018,-0.038,0.016,-0.196,-1.092,1.221
0722_153208_0048.png,-0.006,0.170,0.935,-0.069,0.176,0.949,0.114,0.004,1.150,-0.175,-0.007,1.101,0.222,-0.239,1.191,-0.285,-0.245,1.032,0.276,-0.307,0.936,-0.194,-0.343,0.798,954.203,712.587,0.935,890.538,716.009,0.949,1054.423,543.413,1.150,809.015,533.855,1.101,1137.326,349.093,1.191,697.908,313.958,1.032,1240.560,227.843,0.936,728.441,131.157,0.798,-0.032,-0.969,1.403,0.000,-348.975,0.000,0.012,0.008,-0.025,-0.321,-0.943,1.225
0722_153208_0049.png,0.018,0.178,0.936,-0.046,0.180,0.942,0.136,0.001,1.135,-0.154,-0.003,1.120,0.154,-0.257,1.028,-0.242,-0.190,1.301,-0.011,-0.346,0.839,-0.295,-0.284,1.050,978.710,720.890,0.936,913.910,722.139,0.942,1073.742,540.614,1.135,829.143,537.763,1.120,1102.582,302.685,1.028,783.086,400.775,1.301,947.236,148.381,0.839,693.199,282.769,1.050,-0.036,-0.963,1.402,0.000,-355.859,0.000,0.022,-0.020,-0.040,-0.145,-0.894,1.263
0722_153208_0050.png,0.024,0.169,0.931,-0.042,0.169,0.932,0.138,-0.004,1.125,-0.158,-0.007,1.115,0.217,-0.213,0.973,-0.132,-0.186,0.913,0.251,-0.350,0.752,-0.106,-0.362,0.717,984.211,712.112,0.931,917.193,712.539,0.932,1076.728,536.314,1.125,825.318,534.427,1.115,1172.254,331.410,0.973,822.711,345.883,0.913,1277.720,97.089,0.752,819.246,59.875,0.717,-0.032,-0.965,1.402,0.000,-356.948,0.000,0.002,-0.013,0.006,0.043,-1.088,1.147
0722_153208_0051.png,0.018,0.155,0.924,-0.046,0.159,0.929,0.129,-0.003,1.135,-0.157,-0.010,1.107,0.280,-0.226,1.157,-0.250,-0.246,1.014,0.391,-0.312,0.936,-0.172,-0.354,0.787,978.229,699.906,0.924,913.135,702.271,0.929,1068.162,537.117,1.135,825.220,531.468,1.107,1189.857,353.907,1.157,725.364,309.177,1.014,1357.505,222.413,0.936,752.737,112.459,0.787,-0.038,-0.963,1.401,0.000,-353.043,0.000,0.032,-0.015,0.001,-0.046,-1.176,1.615
0722_153208_0052.png,0.016,0.177,0.938,-0.050,0.179,0.942,0.133,-0.003,1.131,-0.164,-0.006,1.117,0.143,-0.247,1.008,-0.321,-0.227,1.130,-0.015,-0.339,0.815,-0.394,-0.316,0.890,975.842,719.570,0.938,909.505,720.264,0.942,1071.629,537.864,1.131,820.800,535.193,1.117,1094.763,307.231,1.008,690.125,348.756,1.130,942.067,144.828,0.815,539.325,201.829,0.890,-0.029,-0.965,1.402,0.000,-356.146,0.000,0.001,-0.008,-0.013,-0.051,-0.819,1.249
0722_153208_0053.png,0.035,0.186,0.937,-0.029,0.184,0.935,0.149,0.000,1.106,-0.135,0.007,1.139,0.292,-0.228,1.080,-0.210,-0.236,1.033,0.383,-0.338,0.855,-0.088,-0.351,0.828,995.015,728.625,0.937,930.737,727.646,0.935,1087.853,539.604,1.106,847.495,545.823,1.139,1217.168,338.843,1.080,766.877,322.634,1.033,1386.297,163.806,0.855,858.586,137.372,0.828,-0.029,-0.970,1.403,0.000,-5.505,0.000,0.039,-0.018,-0.023,0.000,-0.828,1.334
0722_153208_0054.png,0.038,0.170,0.930,-0.028,0.166,0.924,0.150,-0.009,1.102,-0.148,-0.003,1.129,0.283,-0.236,1.038,-0.187,-0.265,1.076,0.340,-0.331,0.805,-0.132,-0.324,0.831,998.852,713.300,0.930,931.258,711.372,0.924,1089.329,531.985,1.102,834.978,537.434,1.129,1219.327,324.001,1.038,794.590,306.132,1.076,1361.536,149.230,0.805,808.996,169.039,0.831,-0.026,-0.966,1.402,0.000,-4.164,0.000,-0.009,-0.017,0.025,0.214,-0.999,1.521
0722_153208_0055.png,0.021,0.165,0.939,-0.045,0.166,0.938,0.126,0.003,1.143,-0.168,-0.005,1.106,0.162,-0.175,0.928,-0.287,-0.185,1.264,0.199,-0.349,0.717,-0.254,-0.278,1.015,981.373,707.150,0.939,914.774,708.116,0.938,1064.898,542.640,1.143,815.827,535.414,1.106,1126.234,360.356,0.928,743.800,400.904,1.264,1223.294,77.358,0.717,721.469,279.588,1.015,-0.035,-0.972,1.403,0.000,-351.460,0.000,0.002,0.016,-0.017,0.231,-1.020,1.424
0722_153208_0056.png,0.050,0.170,0.933,-0.014,0.165,0.927,0.168,-0.009,1.081,-0.112,0.008,1.155,0.078,-0.189,0.887,-0.267,-0.177,1.270,-0.008,-0.366,0.699,-0.271,-0.284,1.026,1011.341,713.203,0.933,945.835,709.680,0.927,1107.546,532.318,1.081,867.889,546.914,1.155,1043.061,337.264,0.887,760.325,407.146,1.270,949.101,41.880,0.699,708.820,276.510,1.026,-0.029,-0.972,1.403,0.000,-14.128,0.000,0.024,0.001,-0.012,-0.045,-0.993,1.636
0722_153208_0057.png,0.033,0.189,0.931,-0.032,0.191,0.938,0.159,0.000,1.109,-0.134,0.005,1.132,0.270,-0.244,1.178,-0.253,-0.219,1.030,0.344,-0.314,0.931,-0.209,-0.347,0.800,993.220,733.258,0.931,927.270,733.521,0.938,1096.583,540.106,1.109,847.796,544.599,1.132,1178.090,343.023,1.178,726.292,337.461,1.030,1311.331,219.841,0.931,711.264,128.052,0.800,-0.040,-0.968,1.403,0.000,-3.491,0.000,0.010,-0.030,-0.014,-0.296,-0.752,1.397
0722_153208_0058.png,0.012,0.158,0.932,-0.053,0.160,0.938,0.128,-0.007,1.130,-0.162,-0.012,1.110,0.090,-0.179,0.922,-0.279,-0.203,1.255,0.053,-0.347,0.720,-0.452,-0.267,1.075,971.853,701.064,0.932,906.620,702.702,0.938,1067.845,533.777,1.130,820.976,529.846,1.110,1053.104,354.924,0.922,748.566,386.381,1.255,1030.469,81.414,0.720,559.997,303.410,1.075,-0.030,-0.966,1.402,0.000,-354.904,0.000,0.020,0.012,0.020,-0.122,-1.101,1.211
0722_153208_0059.png,0.010,0.196,0.925,-0.054,0.198,0.931,0.131,0.011,1.122,-0.161,0.009,1.113,0.189,-0.245,1.037,-0.323,-0.212,1.103,0.063,-0.345,0.828,-0.425,-0.327,0.888,970.601,741.637,0.925,904.798,742.505,0.931,1070.771,549.545,1.122,822.324,547.939,1.113,1133.320,315.365,1.037,681.496,357.108,1.103,1031.997,143.355,0.828,504.621,190.135,0.888,-0.027,-0.974,1.404,0.000,-357.103,0.000,0.017,-0.044,-0.008,-0.191,-0.794,1.490
0722_153208_0060.png,0.047,0.168,0.935,-0.017,0.165,0.929,0.161,-0.013,1.099,-0.127,-0.002,1.147,0.182,-0.256,1.230,-0.225,-0.232,1.033,0.186,-0.304,0.966,-0.131,-0.346,0.811,1007.955,711.286,0.935,942.127,708.603,0.929,1099.574,528.392,1.099,854.532,538.231,1.147,1100.814,342.259,1.230,752.348,326.007,1.033,1143.099,240.631,0.966,807.034,134.146,0.811,-0.031,-0.959,1.401,0.000,-8.726,0.000,0.014,-0.022,-0.020,0.110,-1.012,1.440
0722_153208_0061.png,0.016,0.166,0.931,-0.049,0.167,0.934,0.130,-0.006,1.133,-0.165,-0.011,1.112,0.142,-0.253,1.019,-0.304,-0.230,1.031,-0.002,-0.341,0.816,-0.360,-0.342,0.798,976.328,709.109,0.931,909.744,710.184,0.934,1068.867,535.082,1.133,819.237,530.875,1.112,1092.796,303.544,1.019,679.400,328.318,1.031,958.099,142.227,0.816,530.595,132.597,0.798,-0.030,-0.960,1.401,0.000,-354.653,0.000,0.006,-0.017,-0.005,0.011,-0.908,1.674
0722_153208_0062.png,0.010,0.175,0.931,-0.054,0.176,0.931,0.111,0.001,1.142,-0.174,-0.009,1.098,0.204,-0.207,1.296,-0.114,-0.191,0.900,0.223,-0.286,1.044,-0.057,-0.370,0.708,970.599,718.423,0.931,905.240,719.566,0.931,1052.777,540.994,1.142,809.643,532.346,1.098,1109.523,388.374,1.296,840.032,338.435,0.900,1163.485,279.510,1.044,883.424,43.798,0.708,-0.028,-0.964,1.402,0.000,-349.897,0.000,0.028,-0.024,-0.004,0.208,-0.938,1.381
0722_153208_0063.png,0.027,0.173,0.921,-0.039,0.174,0.925,0.154,0.001,1.109,-0.145,0.006,1.131,0.269,-0.245,1.176,-0.180,-0.244,1.017,0.328,-0.309,0.923,-0.056,-0.344,0.802,987.851,718.921,0.921,919.535,719.051,0.925,1092.134,540.690,1.109,838.107,544.880,1.131,1177.432,341.761,1.176,791.977,312.182,1.017,1298.272,221.578,0.923,893.703,132.206,0.802,-0.032,-0.967,1.402,0.000,-3.095,0.000,-0.010,-0.040,-0.014,-0.206,-1.113,1.601
0722_153208_0064.png,0.022,0.166,0.924,-0.042,0.168,0.928,0.139,0.002,1.122,-0.151,0.001,1.117,0.251,-0.236,1.197,-0.158,-0.239,0.990,0.311,-0.306,0.950,-0.057,-0.354,0.777,982.683,711.055,0.924,916.800,712.151,0.928,1077.995,541.665,1.122,831.540,540.680,1.117,1159.351,352.830,1.197,808.224,310.280,0.990,1271.169,233.842,0.950,890.542,106.965,0.777,-0.034,-0.971,1.403,0.000,-357.798,0.000,0.023,-0.016,0.001,-0.108,-1.264,1.278
0722_153208_0065.png,0.039,0.155,0.935,-0.025,0.152,0.931,0.154,-0.009,1.102,-0.132,0.000,1.143,0.126,-0.251,0.986,-0.297,-0.204,1.183,0.010,-0.353,0.772,-0.384,-0.299,0.952,999.362,697.298,0.935,934.138,694.749,0.931,1092.845,532.158,1.102,849.997,540.250,1.143,1081.948,297.885,0.986,721.385,376.237,1.183,972.523,105.568,0.772,576.936,241.016,0.952,-0.029,-0.971,1.403,0.000,-7.162,0.000,0.026,0.021,-0.005,0.025,-1.279,1.317
0722_153208_0066.png,0.050,0.153,0.942,-0.014,0.151,0.942,0.172,-0.026,1.080,-0.110,-0.009,1.157,0.251,-0.273,1.107,-0.191,-0.198,0.987,0.247,-0.316,0.853,-0.214,-0.339,0.770,1010.918,694.177,0.942,945.389,692.330,0.942,1111.834,516.676,1.080,869.523,532.708,1.157,1175.617,305.322,1.107,776.417,349.343,0.987,1235.739,187.858,0.853,695.642,121.087,0.770,-0.033,-0.964,1.402,0.000,-14.392,0.000,0.013,0.043,0.017,-0.247,-0.914,1.273
0722_153208_0067.png,0.056,0.169,0.935,-0.010,0.164,0.924,0.167,-0.015,1.090,-0.130,-0.002,1.148,0.141,-0.260,0.974,-0.270,-0.201,1.277,-0.005,-0.343,0.769,-0.331,-0.273,1.030,1016.486,711.945,0.935,949.257,708.267,0.924,1105.965,527.045,1.090,852.064,538.757,1.148,1097.898,286.313,0.974,758.759,390.216,1.277,953.215,115.948,0.769,654.332,288.141,1.030,-0.030,-0.961,1.401,0.000,-10.154,0.000,-0.022,-0.019,-0.002,0.285,-1.069,1.292
0722_153208_0068.png,0.026,0.166,0.941,-0.042,0.167,0.945,0.151,-0.006,1.128,-0.157,-0.007,1.123,0.133,-0.199,0.933,-0.306,-0.234,1.107,0.062,-0.347,0.720,-0.178,-0.304,0.883,986.438,707.244,0.941,917.724,707.972,0.945,1087.073,534.626,1.128,826.728,533.762,1.123,1095.693,337.260,0.933,696.699,338.924,1.107,1042.453,82.393,0.720,767.982,212.299,0.883,-0.036,-0.967,1.402,0.000,-358.001,0.000,-0.038,0.018,-0.010,-0.089,-0.807,1.600
0722_153208_0069.png,0.031,0.156,0.938,-0.032,0.157,0.943,0.157,-0.020,1.106,-0.129,-0.012,1.140,0.207,-0.208,1.289,-0.230,-0.230,1.021,0.338,-0.270,1.073,-0.161,-0.345,0.797,991.766,698.667,0.938,927.421,698.749,0.943,1094.657,522.643,1.106,852.134,529.864,1.140,1113.083,386.722,1.289,745.982,325.850,1.021,1259.762,300.741,1.073,768.037,128.183,0.797,-0.035,-0.959,1.401,0.000,-5.970,0.000,0.030,0.014,0.006,-0.310,-0.889,1.475
0722_153208_0070.png,0.006,0.158,0.939,-0.058,0.162,0.944,0.108,-0.001,1.157,-0.174,-0.014,1.099,0.268,-0.175,1.012,-0.197,-0.257,0.972,0.387,-0.335,0.826,-0.056,-0.358,0.765,966.214,700.064,0.939,901.688,702.789,0.944,1049.052,539.142,1.157,809.140,527.682,1.099,1211.825,375.077,1.012,767.634,288.724,0.972,1405.942,153.884,0.826,890.715,95.225,0.765,-0.034,-0.964,1.402,0.000,-347.057,0.000,0.028,0.017,-0.033,0.106,-1.055,1.243
0722_153208_0071.png,0.001,0.148,0.931,-0.064,0.153,0.940,0.125,-0.008,1.139,-0.174,-0.018,1.098,0.218,-0.250,1.192,-0.330,-0.234,1.075,0.230,-0.287,0.940,-0.294,-0.314,0.835,961.531,691.285,0.931,894.869,694.621,0.940,1064.254,532.982,1.139,808.996,524.623,1.098,1133.728,340.562,1.192,668.190,333.036,1.075,1192.788,250.020,0.940,625.148,182.063,0.835,-0.031,-0.967,1.402,0.000,-350.885,0.000,-0.017,0.027,0.033,-0.217,-1.062,1.528
0722_153208_0072.png,0.056,0.154,0.940,-0.011,0.151,0.937,0.178,-0.019,1.091,-0.120,-0.005,1.154,0.243,-0.276,1.061,-0.150,-0.213,0.982,0.239,-0.323,0.801,-0.072,-0.339,0.761,1017.025,696.029,0.940,948.798,693.435,0.937,1115.141,523.016,1.091,860.729,535.879,1.154,1178.033,292.178,1.061,815.264,334.153,0.982,1243.185,156.842,0.801,870.392,116.878,0.761,-0.037,-0.964,1.402,0.000,-11.055,0.000,-0.028,0.027,-0.004,-0.026,-0.926,1.717
0722_153208_0073.png,0.066,0.163,0.937,0.001,0.158,0.930,0.182,-0.013,1.079,-0.104,0.005,1.159,0.295,-0.256,1.076,-0.131,-0.193,0.971,0.340,-0.325,0.824,-0.105,-0.346,0.753,1027.027,705.784,0.937,960.567,701.580,0.930,1120.702,528.338,1.079,874.478,544.274,1.159,1220.840,314.076,1.076,832.005,351.183,0.971,1352.759,164.939,0.824,827.204,102.974,0.753,-0.039,-0.971,1.403,0.000,-14.860,0.000,-0.004,0.020,-0.011,0.047,-1.063,1.433
0722_153208_0074.png,0.038,0.168,0.943,-0.030,0.167,0.941,0.159,-0.009,1.106,-0.144,-0.001,1.139,0.183,-0.267,1.043,-0.196,-0.228,1.004,-0.011,-0.311,0.866,-0.060,-0.328,0.799,998.116,709.915,0.943,929.932,709.013,0.941,1096.948,532.409,1.106,839.947,539.085,1.139,1126.337,296.215,1.043,773.946,324.190,1.004,948.159,198.114,0.866,888.142,149.775,0.799,-0.030,-0.971,1.403,0.000,-5.326,0.000,-0.027,0.025,0.000,-0.021,-0.762,1.673
0722_153208_0075.png,0.034,0.165,0.925,-0.029,0.162,0.924,0.152,-0.008,1.090,-0.126,0.004,1.142,0.278,-0.228,1.185,-0.109,-0.178,0.937,0.183,-0.315,0.959,-0.094,-0.357,0.738,995.230,709.450,0.925,930.644,707.112,0.924,1092.871,532.801,1.090,855.349,543.116,1.142,1183.300,357.082,1.185,849.688,359.116,0.937,1141.379,227.913,0.959,838.718,79.794,0.738,-0.026,-0.969,1.403,0.000,-9.732,0.000,0.047,-0.012,0.009,-0.119,-1.234,1.330
0722_153208_0076.png,0.015,0.172,0.945,-0.052,0.174,0.950,0.136,-0.002,1.135,-0.167,-0.006,1.120,0.262,-0.230,1.198,-0.212,-0.214,0.944,0.317,-0.291,0.942,-0.208,-0.354,0.713,974.604,713.498,0.945,907.484,714.379,0.950,1073.600,538.017,1.135,818.215,535.100,1.120,1168.034,357.079,1.198,746.447,324.691,0.944,1280.005,246.702,0.942,683.008,67.277,0.713,-0.029,-0.968,1.403,0.000,-355.951,0.000,-0.020,0.019,-0.023,-0.086,-0.752,1.384
0722_153208_0077.png,0.049,0.161,0.942,-0.017,0.157,0.935,0.163,-0.015,1.100,-0.137,-0.006,1.142,0.150,-0.265,1.005,-0.115,-0.180,0.935,0.103,-0.336,0.758,-0.092,-0.348,0.733,1009.698,702.587,0.942,942.424,700.093,0.935,1100.747,526.788,1.100,845.869,535.349,1.142,1102.315,289.621,1.005,842.927,357.455,0.935,1088.962,118.064,0.758,840.426,88.388,0.733,-0.031,-0.966,1.402,0.000,-7.043,0.000,-0.021,0.020,0.007,0.210,-1.026,1.221
0722_153208_0078.png,0.008,0.177,0.929,-0.060,0.180,0.932,0.120,0.004,1.145,-0.183,-0.008,1.092,0.209,-0.257,1.155,-0.322,-0.246,1.065,0.220,-0.306,0.895,-0.248,-0.325,0.823,968.026,721.666,0.929,898.612,723.305,0.932,1059.850,543.219,1.145,800.850,532.721,1.092,1132.017,328.359,1.155,672.709,319.926,1.065,1193.574,214.645,0.895,673.117,165.009,0.823,-0.030,-0.966,1.402,0.000,-348.608,0.000,-0.037,-0.025,-0.002,0.097,-0.868,1.475
0722_153208_0079.png,0.020,0.159,0.942,-0.044,0.160,0.944,0.136,-0.013,1.120,-0.153,-0.013,1.122,0.237,-0.244,1.044,-0.317,-0.215,1.087,0.249,-0.333,0.804,-0.344,-0.321,0.855,980.427,700.767,0.942,915.753,701.113,0.944,1075.913,528.924,1.120,830.216,529.379,1.122,1175.923,317.860,1.044,682.310,351.987,1.087,1254.241,145.666,0.804,577.768,183.048,0.855,-0.029,-0.967,1.402,0.000,-359.279,0.000,0.025,0.032,0.026,-0.077,-0.904,1.219
0722_153208_0080.png,0.052,0.166,0.928,-0.014,0.162,0.924,0.171,-0.005,1.096,-0.126,0.006,1.146,0.174,-0.260,1.198,-0.220,-0.247,1.096,0.167,-0.302,0.934,-0.201,-0.326,0.842,1013.428,709.703,0.928,945.357,706.573,0.924,1108.176,535.246,1.096,855.778,544.966,1.146,1097.911,333.325,1.198,769.469,325.580,1.096,1130.409,231.985,0.934,732.782,171.090,0.842,-0.037,-0.969,1.403,0.000,-8.625,0.000,-0.013,-0.015,-0.016,0.064,-1.224,1.460
0722_153208_0081.png,0.047,0.178,0.942,-0.019,0.174,0.934,0.162,-0.002,1.106,-0.139,0.008,1.146,0.285,-0.228,1.194,-0.243,-0.217,1.017,0.390,-0.293,0.951,-0.201,-0.343,0.779,1007.921,719.937,0.942,940.313,717.568,0.934,1099.218,538.541,1.106,844.689,546.229,1.146,1187.328,358.156,1.194,732.960,337.459,1.017,1349.573,246.563,0.951,714.220,120.798,0.779,-0.030,-0.971,1.403,0.000,-6.604,0.000,-0.023,-0.003,-0.039,0.198,-0.941,1.377
0722_153208_0082.png,0.010,0.189,0.930,-0.053,0.192,0.938,0.126,0.001,1.135,-0.161,-0.006,1.103,0.062,-0.174,0.929,-0.327,-0.214,1.048,0.001,-0.346,0.729,-0.427,-0.340,0.841,970.664,733.740,0.930,906.063,734.806,0.938,1065.788,541.060,1.135,820.800,534.899,1.103,1023.626,361.912,0.929,663.479,345.950,1.048,961.383,88.238,0.729,476.919,155.881,0.841,-0.035,-0.962,1.401,0.000,-352.467,0.000,0.025,-0.043,-0.002,-0.173,-0.744,1.183
0722_153208_0083.png,0.065,0.160,0.941,-0.001,0.154,0.930,0.177,-0.014,1.085,-0.121,0.002,1.153,0.138,-0.246,0.958,-0.203,-0.195,0.988,0.082,-0.342,0.721,-0.228,-0.334,0.765,1025.740,702.108,0.941,958.595,697.606,0.930,1115.191,527.893,1.085,859.798,541.488,1.153,1097.134,295.651,0.958,764.866,351.861,0.988,1067.542,88.558,0.721,677.136,125.005,0.765,-0.035,-0.972,1.404,0.000,-11.976,0.000,-0.032,0.028,0.005,0.266,-1.070,1.435
0722_153208_0084.png,0.007,0.187,0.935,-0.057,0.189,0.941,0.115,0.003,1.141,-0.169,-0.007,1.095,0.189,-0.214,0.998,-0.161,-0.232,0.945,0.220,-0.352,0.777,-0.079,-0.367,0.735,966.671,729.870,0.935,902.450,730.854,0.941,1055.616,542.828,1.141,813.256,533.790,1.095,1140.026,336.209,0.998,797.887,306.387,0.945,1229.635,108.817,0.777,857.617,65.666,0.735,-0.033,-0.968,1.403,0.000,-349.406,0.000,0.031,-0.017,0.005,-0.009,-0.673,1.281
0722_153208_0085.png,0.048,0.165,0.920,-0.020,0.162,0.918,0.173,-0.007,1.081,-0.128,0.008,1.146,0.114,-0.246,0.969,-0.228,-0.201,1.007,-0.016,-0.337,0.761,-0.270,-0.331,0.785,1009.484,711.012,0.920,939.006,707.883,0.918,1112.482,533.656,1.081,853.579,546.303,1.146,1072.122,299.053,0.969,744.393,350.105,1.007,940.281,118.985,0.761,633.067,138.736,0.785,-0.032,-0.970,1.403,0.000,-11.192,0.000,-0.040,-0.023,0.012,-0.075,-1.217,1.621
0722_153208_0086.png,-0.001,0.148,0.938,-0.067,0.153,0.945,0.117,-0.004,1.152,-0.182,-0.014,1.106,0.246,-0.240,1.154,-0.181,-0.249,0.965,0.086,-0.292,0.945,-0.091,-0.351,0.731,959.382,690.373,0.938,892.405,693.852,0.945,1056.625,537.053,1.152,803.479,527.807,1.106,1162.484,342.633,1.154,781.867,294.274,0.965,1046.545,245.511,0.945,842.106,82.701,0.731,-0.028,-0.965,1.402,0.000,-349.830,0.000,-0.020,0.029,-0.028,-0.105,-1.174,1.314
0722_153208_0087.png,0.006,0.168,0.940,-0.059,0.170,0.947,0.132,-0.006,1.128,-0.167,-0.007,1.124,0.223,-0.210,1.274,-0.230,-0.257,1.044,0.391,-0.261,1.075,-0.057,-0.325,0.853,966.367,709.592,0.940,900.370,710.812,0.947,1070.985,535.143,1.128,818.852,534.386,1.124,1126.669,383.557,1.274,750.443,305.535,1.044,1306.133,309.043,1.075,895.936,178.106,0.853,-0.022,-0.967,1.402,0.000,-358.078,0.000,-0.005,0.013,-0.011,-0.259,-0.869,1.320
0722_153208_0088.png,0.053,0.160,0.938,-0.013,0.156,0.934,0.170,-0.017,1.082,-0.118,-0.001,1.150,0.236,-0.230,0.939,-0.210,-0.229,1.055,0.254,-0.351,0.712,-0.052,-0.316,0.867,1013.258,701.720,0.938,947.090,698.972,0.934,1109.175,525.024,1.082,862.521,538.987,1.150,1199.133,307.304,0.939,771.184,333.381,1.055,1299.014,70.676,0.712,903.201,193.667,0.867,-0.032,-0.972,1.403,0.000,-12.619,0.000,0.003,0.034,0.024,-0.022,-1.033,1.232
0722_153208_0089.png,0.027,0.175,0.928,-0.040,0.175,0.930,0.148,-0.008,1.114,-0.152,-0.004,1.128,0.287,-0.244,1.080,-0.283,-0.210,1.004,0.302,-0.332,0.829,-0.354,-0.344,0.786,987.433,719.178,0.928,919.375,719.061,0.930,1086.399,533.544,1.114,832.121,536.340,1.128,1212.376,324.687,1.080,691.468,340.814,1.004,1306.156,159.548,0.829,530.843,124.039,0.786,-0.030,-0.959,1.400,0.000,-1.575,0.000,-0.011,-0.039,-0.006,-0.073,-0.983,1.314
0722_153208_0090.png,0.038,0.155,0.938,-0.029,0.152,0.938,0.163,-0.014,1.095,-0.134,0.000,1.155,0.234,-0.218,1.246,-0.193,-0.233,1.027,0.287,-0.274,0.989,-0.074,-0.331,0.807,998.333,696.643,0.938,930.197,694.336,0.938,1101.800,528.117,1.095,849.793,540.202,1.155,1138.311,373.926,1.246,781.722,323.979,1.027,1236.319,276.719,0.989,873.092,150.123,0.807,-0.024,-0.968,1.403,0.000,-10.647,0.000,-0.022,0.029,-0.021,-0.160,-1.125,1.406
0722_153208_0091.png,0.028,0.161,0.933,-0.036,0.159,0.930,0.140,-0.011,1.107,-0.150,-0.007,1.124,0.209,-0.266,1.090,-0.230,-0.229,1.011,0.037,-0.311,0.907,-0.137,-0.336,0.801,988.538,703.967,0.933,922.949,702.986,0.930,1080.366,530.486,1.107,833.411,533.982,1.124,1142.160,307.841,1.090,743.600,324.608,1.011,998.555,213.409,0.907,796.846,140.684,0.801,-0.025,-0.969,1.403,0.000,-2.320,0.000,0.023,0.013,0.041,0.087,-0.932,1.678
0722_153208_0092.png,0.043,0.146,0.929,-0.020,0.144,0.928,0.161,-0.017,1.099,-0.122,-0.008,1.140,0.254,-0.202,1.270,-0.248,-0.219,1.244,0.319,-0.285,1.034,-0.268,-0.293,0.996,1004.119,689.668,0.929,939.117,687.624,0.928,1099.224,525.018,1.099,858.029,533.464,1.140,1150.046,388.972,1.270,770.177,372.890,1.244,1253.273,277.566,1.034,703.810,260.351,0.996,-0.038,-0.962,1.401,0.000,-7.328,0.000,0.036,0.006,0.014,-0.065,-1.246,1.606
0722_153208_0093.png,0.004,0.148,0.937,-0.060,0.153,0.944,0.110,-0.007,1.155,-0.175,-0.021,1.098,0.196,-0.204,1.310,-0.156,-0.263,0.975,0.289,-0.269,1.068,-0.055,-0.358,0.746,963.997,690.481,0.937,899.150,693.734,0.944,1050.424,533.911,1.155,808.248,522.210,1.098,1102.409,391.541,1.310,808.043,283.730,0.975,1217.783,300.735,1.068,889.876,83.800,0.746,-0.034,-0.960,1.401,0.000,-347.197,0.000,0.020,0.021,-0.019,0.029,-1.089,1.365
0722_153208_0094.png,0.024,0.177,0.939,-0.042,0.178,0.943,0.148,0.005,1.125,-0.150,0.007,1.134,0.235,-0.199,1.279,-0.146,-0.181,0.914,0.366,-0.273,1.052,-0.145,-0.365,0.700,984.417,719.439,0.939,917.935,719.963,0.943,1084.768,544.221,1.125,834.230,545.873,1.134,1134.516,391.947,1.279,808.014,351.494,0.914,1290.786,293.015,1.052,762.517,44.288,0.700,-0.032,-0.973,1.404,0.000,-0.552,0.000,-0.002,0.003,-0.048,-0.166,-0.895,1.506
0722_153208_0095.png,0.018,0.171,0.920,-0.048,0.172,0.924,0.143,0.001,1.106,-0.156,0.004,1.120,0.180,-0.238,0.994,-0.288,-0.229,1.182,0.172,-0.343,0.761,-0.310,-0.298,0.936,978.570,716.735,0.920,910.245,717.094,0.924,1082.819,540.502,1.106,827.110,543.165,1.120,1131.904,312.036,0.994,728.399,355.903,1.182,1175.219,111.564,0.761,644.750,237.380,0.936,-0.025,-0.974,1.404,0.000,-1.510,0.000,-0.009,-0.020,0.031,-0.177,-1.107,1.551
0722_153208_0096.png,0.044,0.176,0.926,-0.019,0.173,0.924,0.162,-0.004,1.087,-0.118,0.009,1.140,0.199,-0.213,1.261,-0.140,-0.176,0.939,0.240,-0.295,1.018,-0.164,-0.358,0.744,1005.229,720.376,0.926,940.333,718.319,0.924,1101.498,536.913,1.087,861.892,547.269,1.140,1109.843,379.726,1.261,817.899,361.537,0.939,1184.259,264.977,1.018,750.658,83.003,0.744,-0.035,-0.974,1.404,0.000,-9.900,0.000,0.041,-0.015,0.013,-0.104,-1.156,1.168
0722_153208_0097.png,0.056,0.176,0.930,-0.007,0.170,0.920,0.167,-0.012,1.077,-0.109,0.005,1.151,0.256,-0.269,1.049,-0.282,-0.180,1.245,0.277,-0.350,0.801,-0.363,-0.295,1.023,1017.652,719.550,0.930,953.231,715.708,0.920,1107.688,529.358,1.077,869.644,544.109,1.151,1192.127,296.292,1.049,744.310,402.852,1.245,1289.217,123.960,0.801,622.111,266.043,1.023,-0.031,-0.965,1.402,0.000,-14.195,0.000,0.034,-0.027,0.003,0.134,-0.975,1.532
0722_153208_0098.png,0.005,0.164,0.923,-0.058,0.169,0.935,0.126,-0.003,1.132,-0.162,-0.011,1.098,0.253,-0.216,1.040,-0.187,-0.249,0.984,0.322,-0.332,0.823,-0.165,-0.354,0.752,964.946,708.513,0.923,900.660,711.578,0.935,1065.826,537.422,1.132,819.429,530.495,1.098,1191.555,342.230,1.040,779.356,299.131,0.984,1332.544,156.426,0.823,751.652,92.120,0.752,-0.035,-0.967,1.402,0.000,-351.850,0.000,0.022,-0.009,0.032,-0.311,-1.040,1.407
0722_153208_0099.png,0.046,0.180,0.932,-0.019,0.178,0.929,0.164,-0.008,1.096,-0.127,0.002,1.140,0.257,-0.227,1.237,-0.124,-0.177,0.928,0.395,-0.287,1.021,-0.122,-0.352,0.721,1007.060,723.749,0.932,940.409,722.338,0.929,1102.217,533.266,1.096,853.686,542.076,1.140,1157.376,365.409,1.237,832.559,358.801,0.928,1327.713,272.661,1.021,799.694,75.817,0.721,-0.035,-0.965,1.402,0.000,-7.754,0.000,0.007,-0.025,-0.001,0.003,-0.912,1.274
0722_153208_0100.png,0.026,0.182,0.931,-0.041,0.183,0.935,0.147,0.001,1.129,-0.156,-0.001,1.119,0.264,-0.230,1.234,-0.201,-0.184,0.911,0.394,-0.286,1.004,-0.245,-0.362,0.709,986.557,725.729,0.931,918.180,726.483,0.935,1083.917,540.823,1.129,827.331,538.923,1.119,1163.326,362.825,1.234,750.134,348.204,0.911,1332.794,268.912,1.004,631.350,54.891,0.709,-0.038,-0.963,1.402,0.000,-356.935,0.000,-0.022,-0.036,-0.025,-0.069,-0.899,1.325
0722_153208_0101.png,-0.003,0.170,0.947,-0.068,0.174,0.956,0.109,-0.001,1.158,-0.181,-0.016,1.094,0.181,-0.256,1.186,-0.338,-0.231,1.105,0.164,-0.301,0.924,-0.303,-0.319,0.854,956.981,710.632,0.947,892.084,712.556,0.956,1049.757,539.013,1.158,802.869,526.171,1.094,1105.435,335.139,1.186,669.079,341.343,1.105,1128.490,229.700,0.924,622.805,184.206,0.854,-0.033,-0.966,1.402,0.000,-346.074,0.000,-0.002,0.028,-0.022,-0.058,-0.639,1.419
0722_153208_0102.png,0.021,0.165,0.926,-0.045,0.167,0.933,0.151,-0.007,1.109,-0.150,-0.004,1.120,0.092,-0.179,0.915,-0.223,-0.175,0.932,0.031,-0.346,0.726,-0.291,-0.342,0.748,981.989,709.359,0.926,914.356,710.315,0.933,1089.186,534.279,1.109,832.901,536.647,1.120,1055.472,353.602,0.915,732.865,361.274,0.932,1001.051,86.513,0.726,590.421,105.262,0.748,-0.033,-0.971,1.403,0.000,-1.142,0.000,-0.012,0.002,0.038,-0.289,-0.984,1.531
0722_153208_0103.png,0.058,0.164,0.942,-0.005,0.157,0.931,0.168,-0.014,1.084,-0.109,0.004,1.160,0.173,-0.264,0.977,-0.172,-0.169,0.944,0.149,-0.367,0.729,-0.236,-0.339,0.734,1018.338,705.335,0.942,954.496,700.479,0.931,1107.301,528.142,1.084,870.578,543.410,1.160,1128.192,283.070,0.977,787.190,369.368,0.944,1154.448,61.590,0.729,654.574,100.933,0.734,-0.028,-0.969,1.403,0.000,-14.732,0.000,0.030,0.019,-0.025,0.156,-1.057,1.407
0722_153208_0104.png,0.035,0.166,0.926,-0.031,0.164,0.926,0.158,-0.006,1.094,-0.133,0.005,1.143,0.278,-0.212,1.228,-0.184,-0.172,0.934,0.262,-0.296,0.978,-0.234,-0.344,0.730,995.616,710.410,0.926,928.428,708.582,0.926,1097.392,534.553,1.094,849.536,544.222,1.143,1175.266,376.161,1.228,772.775,365.279,0.934,1214.966,252.400,0.978,655.126,91.954,0.730,-0.027,-0.969,1.403,0.000,-8.703,0.000,0.006,-0.012,-0.003,-0.150,-1.168,1.470
0722_153208_0105.png,0.053,0.175,0.941,-0.010,0.171,0.932,0.162,-0.008,1.095,-0.117,0.004,1.146,0.191,-0.188,1.294,-0.272,-0.199,1.062,0.296,-0.278,1.073,-0.318,-0.339,0.840,1013.163,716.975,0.941,949.847,714.410,0.932,1100.439,532.972,1.095,862.707,543.172,1.146,1100.266,401.940,1.294,716.205,361.766,1.062,1222.547,293.345,1.073,600.379,156.212,0.840,-0.034,-0.970,1.403,0.000,-9.624,0.000,0.044,0.002,-0.009,0.157,-0.824,1.627
0722_153208_0106.png,0.057,0.182,0.942,-0.006,0.177,0.931,0.166,-0.006,1.090,-0.112,0.009,1.152,0.276,-0.194,1.253,-0.250,-0.184,1.011,0.266,-0.300,1.005,-0.333,-0.348,0.810,1017.694,723.497,0.942,954.142,720.472,0.931,1104.976,534.919,1.090,867.219,547.024,1.152,1169.329,392.608,1.253,724.383,366.572,1.011,1212.169,255.650,1.005,569.048,131.990,0.810,-0.033,-0.970,1.403,0.000,-11.767,0.000,0.037,-0.008,-0.027,0.185,-0.845,1.484
0722_153208_0107.png,0.012,0.166,0.939,-0.054,0.168,0.941,0.120,0.001,1.147,-0.175,-0.011,1.097,0.246,-0.177,0.983,-0.195,-0.260,0.999,0.322,-0.335,0.784,-0.087,-0.342,0.772,972.148,708.498,0.939,905.208,709.986,0.941,1059.225,540.457,1.147,808.293,530.572,1.097,1197.565,368.685,0.983,774.617,292.204,0.999,1350.840,133.106,0.784,852.392,118.711,0.772,-0.034,-0.970,1.403,0.000,-349.006,0.000,-0.007,0.019,-0.001,0.149,-0.848,1.511
0722_153208_0108.png,0.046,0.158,0.931,-0.019,0.155,0.929,0.165,-0.017,1.085,-0.126,-0.004,1.143,0.172,-0.276,1.035,-0.214,-0.166,0.948,-0.013,-0.317,0.862,-0.297,-0.324,0.758,1007.300,700.958,0.931,940.315,698.630,0.929,1104.903,524.960,1.085,855.430,536.709,1.143,1118.288,286.349,1.035,745.838,373.335,0.948,945.235,190.179,0.862,587.331,133.459,0.758,-0.032,-0.968,1.403,0.000,-10.286,0.000,0.000,0.016,0.036,-0.042,-1.093,1.361
0722_153208_0109.png,0.057,0.173,0.940,-0.010,0.169,0.931,0.169,-0.012,1.103,-0.130,-0.002,1.146,0.155,-0.265,0.992,-0.165,-0.218,0.976,-0.017,-0.340,0.799,-0.151,-0.352,0.741,1017.334,714.920,0.940,950.174,712.412,0.931,1106.154,529.762,1.103,852.469,538.384,1.146,1108.279,286.004,0.992,799.181,327.177,0.976,940.159,134.678,0.799,766.059,87.845,0.741,-0.037,-0.960,1.401,0.000,-7.257,0.000,-0.018,-0.019,-0.025,0.235,-0.868,1.580
0722_153208_0110.png,0.046,0.149,0.933,-0.020,0.145,0.930,0.167,-0.020,1.088,-0.123,-0.005,1.155,0.249,-0.244,0.960,-0.212,-0.227,1.028,0.266,-0.355,0.720,-0.097,-0.333,0.813,1006.511,691.695,0.933,939.318,688.195,0.930,1105.774,522.348,1.088,858.523,536.076,1.155,1206.196,298.085,0.960,764.201,329.855,1.028,1311.838,71.398,0.720,846.686,151.264,0.813,-0.028,-0.962,1.401,0.000,-12.191,0.000,-0.004,0.013,-0.006,-0.076,-1.262,1.353
0722_153208_0111.png,0.040,0.171,0.926,-0.028,0.170,0.927,0.165,-0.010,1.086,-0.135,0.003,1.139,0.238,-0.268,1.125,-0.237,-0.209,1.018,0.092,-0.296,0.914,-0.202,-0.328,0.794,1000.739,715.269,0.926,931.460,713.931,0.927,1104.830,531.553,1.086,847.277,542.138,1.139,1160.852,313.405,1.125,738.178,344.698,1.018,1055.501,231.935,0.914,718.050,146.678,0.794,-0.030,-0.971,1.403,0.000,-9.111,0.000,-0.028,-0.005,0.034,-0.160,-1.048,1.265
0722_153208_0112.png,0.021,0.177,0.927,-0.046,0.178,0.928,0.138,-0.001,1.125,-0.167,-0.003,1.113,0.195,-0.264,1.071,-0.137,-0.183,0.910,0.008,-0.315,0.887,-0.106,-0.359,0.713,981.749,721.991,0.927,912.380,722.374,0.928,1076.824,539.574,1.125,817.419,537.246,1.113,1133.378,305.304,1.071,816.683,348.335,0.910,968.243,202.046,0.887,818.369,61.594,0.713,-0.029,-0.965,1.402,0.000,-356.548,0.000,-0.028,-0.035,0.003,0.066,-1.060,1.141
0722_153208_0113.png,0.014,0.187,0.929,-0.053,0.188,0.929,0.123,0.004,1.131,-0.175,-0.004,1.095,0.168,-0.173,0.931,-0.161,-0.218,0.938,0.209,-0.345,0.736,-0.105,-0.355,0.728,974.003,731.819,0.929,906.015,732.322,0.929,1063.464,543.271,1.131,808.391,536.371,1.095,1131.291,363.559,0.931,796.359,318.985,0.938,1229.403,94.674,0.736,822.704,76.921,0.728,-0.027,-0.970,1.403,0.000,-351.925,0.000,-0.010,-0.028,0.029,0.163,-0.745,1.448
0722_153208_0114.png,0.007,0.163,0.934,-0.059,0.166,0.943,0.133,-0.012,1.130,-0.169,-0.017,1.106,0.156,-0.232,0.989,-0.249,-0.232,1.246,0.039,-0.332,0.781,-0.245,-0.275,0.994,966.967,705.740,0.934,900.058,707.427,0.943,1071.916,530.268,1.130,814.801,525.323,1.106,1110.123,316.909,0.989,770.042,362.682,1.246,1007.854,135.814,0.781,725.536,277.254,0.994,-0.030,-0.962,1.401,0.000,-354.173,0.000,-0.020,0.008,0.033,-0.266,-0.882,1.204
0722_153208_0115.png,0.037,0.178,0.925,-0.031,0.175,0.920,0.153,-0.002,1.095,-0.149,0.006,1.134,0.255,-0.244,1.190,-0.249,-0.213,1.012,0.116,-0.291,0.972,-0.288,-0.336,0.786,997.530,723.192,0.925,928.444,721.055,0.920,1092.976,537.848,1.095,835.440,545.444,1.134,1163.558,345.093,1.190,725.735,340.108,1.012,1073.754,255.547,0.972,611.561,133.896,0.786,-0.023,-0.970,1.403,0.000,-6.390,0.000,-0.025,-0.032,0.013,0.123,-0.970,1.685
0722_153208_0116.png,0.008,0.156,0.939,-0.059,0.158,0.942,0.115,-0.006,1.154,-0.181,-0.020,1.094,0.063,-0.176,0.938,-0.309,-0.250,1.146,0.012,-0.342,0.726,-0.316,-0.306,0.886,968.312,698.013,0.939,900.798,700.079,0.942,1054.474,535.000,1.154,802.765,522.772,1.094,1023.872,361.089,0.938,703.582,332.624,1.146,976.142,92.228,0.726,621.261,211.467,0.886,-0.033,-0.961,1.401,0.000,-347.093,0.000,-0.017,0.016,-0.010,0.172,-0.971,1.365
0722_153208_0117.png,0.016,0.160,0.924,-0.052,0.162,0.926,0.130,-0.002,1.136,-0.173,-0.010,1.099,0.147,-0.177,0.929,-0.306,-0.219,1.221,0.161,-0.346,0.726,-0.222,-0.283,0.982,976.007,704.419,0.924,906.722,706.278,0.926,1068.404,538.397,1.136,810.340,530.984,1.099,1110.140,359.236,0.929,721.218,369.314,1.221,1170.440,86.554,0.726,745.238,265.681,0.982,-0.033,-0.964,1.402,0.000,-351.673,0.000,-0.027,-0.018,0.014,0.067,-1.099,1.667
0722_153208_0118.png,0.020,0.171,0.946,-0.048,0.173,0.952,0.145,-0.005,1.132,-0.162,-0.008,1.118,0.075,-0.177,0.925,-0.325,-0.223,1.125,0.006,-0.343,0.723,-0.384,-0.302,0.879,980.072,711.915,0.946,912.216,712.798,0.952,1081.820,535.863,1.132,822.279,533.264,1.118,1037.349,358.286,0.925,685.138,351.476,1.125,967.387,89.171,0.723,544.283,213.172,0.879,-0.035,-0.969,1.403,0.000,-356.330,0.000,-0.035,0.028,-0.005,-0.141,-0.722,1.284
0722_153208_0119.png,0.027,0.155,0.936,-0.038,0.155,0.936,0.138,-0.011,1.126,-0.155,-0.014,1.111,0.061,-0.179,0.930,-0.331,-0.212,1.101,-0.015,-0.341,0.739,-0.430,-0.309,0.886,987.704,697.566,0.936,921.714,697.919,0.936,1076.608,530.652,1.126,827.751,527.778,1.111,1022.683,357.134,0.930,674.364,356.672,1.101,940.989,100.278,0.739,498.665,208.300,0.886,-0.036,-0.966,1.402,0.000,-356.015,0.000,0.013,0.022,0.033,0.111,-1.043,1.328
0722_153208_0120.png,0.016,0.147,0.933,-0.047,0.149,0.936,0.126,-0.011,1.134,-0.158,-0.015,1.117,0.083,-0.186,0.921,-0.249,-0.189,0.925,0.044,-0.358,0.714,-0.340,-0.358,0.738,976.339,689.652,0.933,912.244,690.987,0.936,1065.628,530.809,1.134,825.523,527.419,1.117,1045.554,347.942,0.921,704.143,345.904,0.925,1018.581,63.067,0.714,521.997,78.376,0.738,-0.030,-0.959,1.401,0.000,-355.390,0.000,0.042,0.007,-0.007,-0.002,-1.265,1.324
0722_153208_0121.png,0.045,0.149,0.932,-0.023,0.148,0.936,0.178,-0.022,1.086,-0.122,-0.007,1.152,0.278,-0.269,1.073,-0.297,-0.186,1.254,0.301,-0.315,0.818,-0.238,-0.265,1.012,1006.336,691.669,0.932,937.082,690.347,0.936,1115.900,520.934,1.086,859.096,534.622,1.152,1206.662,301.822,1.073,735.014,398.681,1.254,1310.100,174.148,0.818,736.192,290.949,1.012,-0.036,-0.964,1.402,0.000,-11.609,0.000,-0.037,0.026,0.016,-0.328,-1.085,1.511
0722_153208_0122.png,0.038,0.161,0.941,-0.028,0.161,0.939,0.154,-0.012,1.117,-0.146,-0.010,1.124,0.187,-0.265,1.047,-0.249,-0.183,1.297,0.002,-0.313,0.868,-0.302,-0.259,1.056,998.704,703.010,0.941,931.459,702.644,0.939,1091.285,529.925,1.117,836.724,531.324,1.124,1129.890,299.495,1.047,777.248,406.009,1.297,962.059,197.042,0.868,687.856,306.945,1.056,-0.039,-0.967,1.402,0.000,-0.176,0.000,-0.010,0.024,0.021,0.081,-0.888,1.411
0722_153208_0123.png,0.029,0.192,0.933,-0.036,0.191,0.930,0.146,-0.001,1.107,-0.149,0.006,1.135,0.111,-0.187,0.901,-0.310,-0.219,1.159,0.079,-0.369,0.700,-0.201,-0.316,0.935,989.775,736.017,0.933,922.731,735.283,0.930,1085.607,539.449,1.107,835.264,544.830,1.135,1077.702,342.921,0.901,705.778,360.520,1.159,1067.129,39.034,0.700,755.109,218.753,0.935,-0.023,-0.965,1.402,0.000,-4.362,0.000,0.002,-0.046,-0.020,0.028,-0.755,1.463
0722_153208_0124.png,0.025,0.165,0.940,-0.042,0.164,0.940,0.144,-0.002,1.125,-0.158,0.000,1.135,0.258,-0.227,1.216,-0.310,-0.219,1.070,0.135,-0.286,0.981,-0.291,-0.329,0.820,985.190,706.629,0.940,917.453,706.293,0.940,1082.031,538.195,1.125,827.826,540.179,1.135,1162.119,362.217,1.216,684.876,345.075,1.070,1090.481,263.285,0.981,622.769,159.011,0.820,-0.026,-0.969,1.403,0.000,-0.816,0.000,-0.018,0.013,-0.039,-0.003,-1.138,1.140
0722_153208_0125.png,0.055,0.163,0.940,-0.010,0.160,0.934,0.168,-0.016,1.093,-0.125,-0.005,1.140,0.102,-0.187,0.901,-0.254,-0.186,1.285,0.035,-0.353,0.714,-0.302,-0.264,1.046,1015.702,705.039,0.940,949.583,702.950,0.934,1106.514,526.338,1.093,855.989,535.840,1.140,1067.691,342.621,0.901,771.820,402.403,1.285,1007.203,69.630,0.714,685.182,300.433,1.046,-0.039,-0.969,1.403,0.000,-8.102,0.000,0.000,0.025,0.030,0.146,-0.962,1.205
0722_153208_0126.png,0.011,0.158,0.927,-0.055,0.161,0.933,0.137,-0.002,1.122,-0.163,-0.002,1.123,0.078,-0.181,0.920,-0.283,-0.192,1.276,0.020,-0.354,0.724,-0.425,-0.267,1.065,970.989,702.405,0.927,903.596,703.883,0.933,1075.853,537.913,1.122,822.206,538.203,1.123,1040.227,353.424,0.920,748.977,396.590,1.276,986.279,74.892,0.724,580.169,301.165,1.065,-0.024,-0.968,1.403,0.000,-359.117,0.000,-0.009,-0.004,-0.007,-0.235,-1.223,1.467
0722_153208_0127.png,0.017,0.160,0.932,-0.050,0.163,0.940,0.148,-0.012,1.123,-0.157,-0.010,1.129,0.127,-0.205,0.926,-0.340,-0.213,1.090,0.056,-0.358,0.716,-0.444,-0.314,0.865,977.672,703.397,0.932,909.602,704.710,0.940,1085.363,530.058,1.123,827.802,531.315,1.129,1090.671,329.756,0.926,663.637,354.021,1.090,1033.955,64.726,0.716,471.953,194.246,0.865,-0.030,-0.957,1.400,0.000,-0.026,0.000,-0.027,-0.013,-0.016,-0.289,-1.001,1.495
0722_153208_0128.png,0.018,0.166,0.924,-0.048,0.168,0.926,0.126,-0.005,1.137,-0.167,-0.014,1.096,0.250,-0.210,1.275,-0.185,-0.271,1.010,0.322,-0.282,1.036,-0.149,-0.350,0.766,978.506,710.503,0.924,911.083,712.079,0.926,1065.432,536.191,1.137,814.803,527.881,1.096,1146.613,383.226,1.275,785.846,285.255,1.010,1255.870,281.471,1.036,775.605,105.815,0.766,-0.036,-0.959,1.401,0.000,-350.677,0.000,0.002,-0.032,0.019,0.122,-1.128,1.239
0722_153208_0129.png,0.047,0.164,0.927,-0.015,0.161,0.924,0.165,-0.011,1.086,-0.112,0.003,1.147,0.179,-0.193,1.290,-0.122,-0.174,0.935,0.227,-0.287,1.052,-0.135,-0.349,0.731,1008.625,708.194,0.927,944.116,705.252,0.924,1104.289,530.101,1.086,867.518,542.235,1.147,1092.145,397.935,1.290,835.467,362.618,0.935,1165.322,280.354,1.052,783.682,86.220,0.731,-0.035,-0.967,1.402,0.000,-11.576,0.000,0.046,-0.012,0.005,-0.087,-1.200,1.370
0722_153208_0130.png,0.037,0.169,0.949,-0.031,0.168,0.948,0.158,-0.011,1.114,-0.149,-0.006,1.137,0.147,-0.275,1.077,-0.241,-0.205,0.975,0.097,-0.316,0.820,-0.249,-0.339,0.745,997.451,709.155,0.949,928.906,708.584,0.948,1095.228,530.642,1.114,835.227,535.266,1.137,1090.040,297.295,1.077,725.289,339.759,0.975,1072.604,173.302,0.820,642.614,107.027,0.745,-0.032,-0.967,1.402,0.000,-3.229,0.000,-0.039,0.028,-0.009,0.023,-0.681,1.585
0722_153208_0131.png,0.034,0.183,0.934,-0.031,0.182,0.931,0.146,-0.001,1.121,-0.148,0.000,1.126,0.278,-0.234,1.192,-0.288,-0.238,1.142,0.392,-0.307,0.961,-0.176,-0.320,0.913,994.807,725.947,0.934,928.592,725.460,0.931,1083.592,538.818,1.121,835.301,539.808,1.126,1182.024,353.393,1.192,720.494,342.005,1.142,1347.762,236.132,0.961,776.891,206.510,0.913,-0.034,-0.963,1.401,0.000,0.156,0.000,0.012,-0.035,-0.022,0.137,-0.840,1.494
0722_153208_0132.png,0.025,0.159,0.935,-0.038,0.160,0.935,0.131,-0.006,1.134,-0.152,-0.009,1.117,0.272,-0.214,1.038,-0.223,-0.258,1.033,0.360,-0.344,0.823,-0.074,-0.347,0.835,985.046,701.889,0.935,921.117,702.482,0.935,1069.554,535.265,1.134,830.328,531.931,1.117,1209.426,344.010,1.038,754.976,302.569,1.033,1376.067,142.793,0.823,875.438,144.763,0.835,-0.035,-0.962,1.401,0.000,-355.366,0.000,0.045,-0.001,-0.015,0.110,-1.013,1.641
0722_153208_0133.png,0.049,0.187,0.933,-0.015,0.184,0.926,0.160,-0.002,1.094,-0.128,0.008,1.139,0.284,-0.245,1.128,-0.199,-0.173,0.941,0.351,-0.324,0.886,-0.268,-0.350,0.748,1009.738,730.763,0.933,944.293,728.829,0.926,1099.020,537.964,1.094,853.223,546.653,1.139,1199.888,333.691,1.128,759.166,365.133,0.941,1336.735,192.769,0.886,618.922,95.233,0.748,-0.033,-0.971,1.403,0.000,-7.913,0.000,0.018,-0.027,0.001,0.185,-0.905,1.244
0722_153208_0134.png,0.010,0.179,0.932,-0.055,0.182,0.939,0.129,0.001,1.134,-0.168,-0.006,1.102,0.166,-0.250,1.045,-0.141,-0.185,0.901,-0.011,-0.322,0.864,-0.113,-0.360,0.705,970.648,722.660,0.932,903.934,723.982,0.939,1068.173,541.163,1.134,814.991,534.966,1.102,1110.905,312.341,1.045,811.535,344.500,0.901,947.668,185.565,0.864,808.040,54.758,0.705,-0.033,-0.970,1.403,0.000,-352.633,0.000,-0.006,-0.009,0.013,-0.118,-0.858,1.134
0722_153208_0135.png,0.020,0.172,0.922,-0.046,0.175,0.930,0.147,0.001,1.119,-0.152,0.000,1.114,0.095,-0.176,0.916,-0.234,-0.179,1.307,0.042,-0.347,0.719,-0.302,-0.266,1.072,980.612,717.024,0.922,913.201,718.660,0.930,1085.068,540.718,1.119,830.189,539.828,1.114,1058.365,357.764,0.916,789.453,410.023,1.307,1015.580,80.947,0.719,691.916,303.752,1.072,-0.037,-0.970,1.403,0.000,-357.933,0.000,-0.008,-0.022,0.017,-0.267,-1.041,1.519
0722_153208_0136.png,0.010,0.196,0.930,-0.054,0.199,0.936,0.120,0.009,1.140,-0.168,-0.003,1.092,0.228,-0.226,1.245,-0.229,-0.260,1.018,0.354,-0.293,1.023,-0.088,-0.347,0.814,970.733,740.938,0.930,905.126,741.791,0.936,1060.074,547.157,1.140,813.782,537.803,1.092,1133.936,367.219,1.245,746.174,296.844,1.018,1288.938,267.873,1.023,857.706,134.822,0.814,-0.037,-0.969,1.403,0.000,-349.056,0.000,0.016,-0.041,0.000,0.000,-0.637,1.409
0722_153208_0137.png,0.053,0.174,0.925,-0.013,0.170,0.920,0.171,-0.014,1.067,-0.118,0.005,1.147,0.173,-0.280,1.037,-0.167,-0.207,1.004,-0.015,-0.315,0.865,-0.066,-0.330,0.801,1014.120,718.610,0.925,946.204,715.842,0.920,1112.877,527.740,1.067,862.021,543.953,1.147,1118.623,283.350,1.037,802.055,343.536,1.004,943.955,193.762,0.865,881.784,148.102,0.801,-0.030,-0.972,1.403,0.000,-14.761,0.000,-0.014,-0.010,0.045,-0.040,-1.066,1.119
0722_153208_0138.png,0.055,0.162,0.938,-0.013,0.160,0.935,0.176,-0.027,1.077,-0.120,-0.009,1.154,0.174,-0.269,0.967,-0.239,-0.250,1.165,0.132,-0.341,0.724,-0.209,-0.295,0.911,1015.413,704.685,0.938,946.993,702.834,0.935,1115.512,516.333,1.077,860.964,532.525,1.154,1130.928,275.810,0.967,764.684,336.313,1.165,1134.062,91.233,0.724,742.343,232.646,0.911,-0.032,-0.959,1.400,0.000,-13.790,0.000,-0.033,0.008,0.024,-0.079,-0.828,1.328
0722_153208_0139.png,0.030,0.176,0.931,-0.033,0.178,0.937,0.152,-0.004,1.113,-0.134,0.000,1.128,0.226,-0.255,1.188,-0.287,-0.210,1.199,0.274,-0.317,0.936,-0.219,-0.307,0.965,990.959,719.881,0.931,926.647,720.326,0.937,1089.814,536.853,1.113,847.230,539.854,1.128,1141.170,335.506,1.188,732.155,373.623,1.199,1238.377,217.861,0.936,743.698,236.997,0.965,-0.040,-0.967,1.403,0.000,-1.966,0.000,0.036,-0.014,-0.002,-0.223,-0.826,1.583
0722_153208_0140.png,0.058,0.185,0.937,-0.009,0.182,0.931,0.176,-0.015,1.076,-0.120,0.001,1.148,0.109,-0.229,0.932,-0.092,-0.172,0.945,0.040,-0.350,0.716,-0.060,-0.340,0.746,1018.594,727.472,0.937,950.572,726.412,0.931,1115.351,526.434,1.076,860.337,540.983,1.148,1070.789,306.746,0.932,867.755,366.416,0.945,1013.162,75.220,0.716,883.094,106.484,0.746,-0.034,-0.966,1.402,0.000,-12.831,0.000,-0.027,-0.016,0.027,0.028,-0.667,1.285
0722_153208_0141.png,0.016,0.165,0.935,-0.047,0.167,0.937,0.119,0.000,1.145,-0.165,-0.011,1.101,0.094,-0.182,0.936,-0.127,-0.192,0.895,0.072,-0.361,0.733,-0.092,-0.371,0.696,976.764,707.613,0.935,912.070,709.265,0.937,1058.649,539.674,1.145,817.644,530.826,1.101,1055.258,354.744,0.936,825.572,335.630,0.895,1053.391,71.595,0.733,834.033,33.524,0.696,-0.037,-0.966,1.402,0.000,-349.683,0.000,0.033,0.002,-0.011,0.159,-1.022,1.303
0722_153208_0142.png,0.035,0.177,0.940,-0.031,0.177,0.940,0.152,-0.004,1.123,-0.147,-0.002,1.129,0.228,-0.219,1.274,-0.224,-0.253,1.044,0.380,-0.272,1.058,-0.059,-0.331,0.848,995.429,719.329,0.940,928.423,719.191,0.940,1088.977,536.656,1.123,836.632,537.905,1.129,1130.212,376.434,1.274,755.901,309.759,1.044,1301.082,295.959,1.058,894.275,168.804,0.848,-0.038,-0.964,1.402,0.000,-0.078,0.000,-0.007,-0.010,-0.027,0.027,-0.897,1.104
0722_153208_0143.png,0.048,0.168,0.951,-0.018,0.166,0.950,0.170,-0.015,1.098,-0.125,-0.003,1.149,0.171,-0.276,1.070,-0.300,-0.198,1.095,0.149,-0.326,0.812,-0.329,-0.313,0.859,1008.458,707.569,0.951,942.168,706.647,0.950,1106.850,527.419,1.098,856.586,537.740,1.149,1112.116,294.783,1.070,698.992,367.632,1.095,1134.120,158.728,0.812,595.231,193.013,0.859,-0.036,-0.971,1.403,0.000,-8.966,0.000,-0.008,0.045,-0.003,-0.111,-0.712,1.278
0722_153208_0144.png,0.032,0.152,0.931,-0.034,0.151,0.930,0.149,-0.013,1.113,-0.148,-0.011,1.125,0.264,-0.209,1.258,-0.241,-0.201,0.964,0.308,-0.279,1.013,-0.267,-0.346,0.751,992.970,695.535,0.931,925.667,694.876,0.930,1086.983,528.561,1.113,834.746,531.100,1.125,1159.274,381.678,1.258,722.346,341.827,0.964,1249.228,278.450,1.013,622.331,101.811,0.751,-0.032,-0.963,1.401,0.000,-1.288,0.000,-0.001,0.005,0.023,0.042,-1.105,1.612
0722_153208_0145.png,0.042,0.175,0.929,-0.022,0.174,0.930,0.165,-0.013,1.080,-0.115,0.003,1.146,0.214,-0.267,1.009,-0.238,-0.228,1.212,0.097,-0.348,0.794,-0.234,-0.302,0.965,1002.828,719.070,0.929,937.625,717.737,0.930,1104.897,528.944,1.080,864.952,542.262,1.146,1162.070,288.534,1.009,773.247,361.095,1.212,1076.204,123.353,0.794,729.154,242.110,0.965,-0.032,-0.968,1.403,0.000,-12.566,0.000,0.032,-0.011,0.021,-0.266,-0.890,1.386
0722_153208_0146.png,0.028,0.185,0.928,-0.035,0.186,0.933,0.149,0.001,1.110,-0.136,0.004,1.124,0.103,-0.232,0.982,-0.303,-0.196,1.192,-0.015,-0.358,0.788,-0.303,-0.313,0.958,988.598,729.341,0.928,924.336,729.757,0.933,1087.547,541.020,1.110,845.119,543.660,1.124,1059.520,315.177,0.982,718.624,383.556,1.192,941.485,108.013,0.788,659.631,229.568,0.958,-0.038,-0.972,1.404,0.000,-1.641,0.000,0.040,-0.024,0.009,-0.234,-0.822,1.463
0722_153208_0147.png,0.050,0.185,0.937,-0.013,0.183,0.932,0.166,-0.007,1.078,-0.107,0.009,1.151,0.228,-0.201,1.257,-0.091,-0.170,0.941,0.385,-0.283,1.074,-0.078,-0.346,0.738,1010.364,728.214,0.937,946.600,726.573,0.932,1106.008,533.544,1.078,871.795,547.806,1.151,1132.600,387.655,1.257,868.206,368.717,0.941,1301.102,289.632,1.074,859.458,94.353,0.738,-0.032,-0.973,1.404,0.000,-14.202,0.000,0.049,-0.005,0.001,-0.123,-0.739,1.418
0722_153208_0148.png,0.057,0.168,0.949,-0.008,0.164,0.939,0.168,-0.021,1.078,-0.120,-0.003,1.156,0.297,-0.235,1.163,-0.172,-0.229,1.027,0.387,-0.293,0.924,-0.051,-0.326,0.816,1017.002,708.474,0.949,951.659,706.067,0.939,1108.346,521.647,1.078,861.242,537.692,1.156,1202.921,348.179,1.163,800.814,328.017,1.027,1358.174,238.912,0.924,900.596,159.563,0.816,-0.026,-0.968,1.403,0.000,-14.408,0.000,-0.008,0.033,0.014,0.150,-0.728,1.321
0722_153208_0149.png,0.031,0.152,0.937,-0.035,0.150,0.936,0.151,-0.019,1.099,-0.144,-0.009,1.141,0.227,-0.210,0.929,-0.280,-0.202,1.264,0.247,-0.353,0.712,-0.450,-0.258,1.076,991.132,694.298,0.937,924.186,692.697,0.936,1090.346,523.964,1.099,840.078,532.582,1.141,1192.561,325.239,0.929,749.421,388.196,1.264,1289.529,69.036,0.712,561.808,311.801,1.076,-0.022,-0.964,1.402,0.000,-7.137,0.000,-0.003,0.025,0.018,-0.067,-1.153,1.171
0722_153208_0150.png,0.023,0.180,0.932,-0.041,0.183,0.940,0.148,0.005,1.120,-0.141,0.007,1.131,0.153,-0.255,1.022,-0.299,-0.176,0.999,-0.013,-0.346,0.835,-0.414,-0.342,0.818,983.089,724.129,0.932,918.503,725.104,0.940,1085.851,544.123,1.120,841.326,546.232,1.131,1102.137,303.108,1.022,675.587,372.305,0.999,944.708,146.031,0.835,479.225,142.203,0.818,-0.036,-0.972,1.404,0.000,-1.085,0.000,0.025,-0.013,-0.033,-0.332,-0.957,1.321
0722_153208_0151.png,0.013,0.158,0.934,-0.052,0.161,0.939,0.123,0.002,1.149,-0.169,-0.009,1.101,0.181,-0.255,1.196,-0.238,-0.243,0.980,0.170,-0.303,0.933,-0.150,-0.352,0.752,973.580,700.637,0.934,907.386,703.386,0.939,1061.437,541.405,1.149,814.408,532.036,1.101,1104.291,336.958,1.196,729.090,304.114,0.980,1133.491,231.243,0.933,770.121,94.106,0.752,-0.038,-0.969,1.403,0.000,-349.321,0.000,0.006,0.014,-0.019,0.039,-1.150,1.324
0722_153208_0152.png,0.032,0.158,0.931,-0.033,0.157,0.928,0.143,-0.007,1.118,-0.150,-0.007,1.122,0.244,-0.255,1.092,-0.207,-0.217,0.965,0.116,-0.321,0.875,-0.222,-0.354,0.744,992.333,701.269,0.931,925.920,700.614,0.928,1081.759,533.719,1.118,832.915,534.478,1.122,1172.602,317.819,1.092,756.423,326.460,0.965,1086.483,191.790,0.875,675.950,87.772,0.744,-0.033,-0.966,1.402,0.000,0.413,0.000,0.013,0.000,0.014,0.130,-1.225,1.316
0722_153208_0153.png,0.024,0.162,0.941,-0.039,0.163,0.943,0.140,-0.009,1.117,-0.145,-0.007,1.128,0.079,-0.186,0.918,-0.257,-0.219,1.014,0.022,-0.359,0.724,-0.303,-0.343,0.790,984.421,703.804,0.941,920.618,703.957,0.943,1079.461,531.981,1.117,837.856,534.104,1.128,1042.243,347.154,0.918,718.967,334.579,1.014,988.686,68.043,0.724,594.908,126.526,0.790,-0.031,-0.969,1.403,0.000,-1.005,0.000,0.039,0.029,0.010,-0.110,-0.962,1.186
0722_153208_0154.png,0.052,0.174,0.947,-0.014,0.171,0.942,0.172,-0.017,1.091,-0.119,-0.001,1.161,0.249,-0.218,1.254,-0.278,-0.182,1.285,0.379,-0.277,1.025,-0.270,-0.276,1.029,1012.432,714.383,0.947,945.763,712.383,0.942,1109.468,525.554,1.091,862.191,539.588,1.161,1149.133,374.490,1.254,754.369,405.380,1.285,1311.779,282.847,1.025,710.374,284.948,1.029,-0.029,-0.960,1.401,0.000,-12.686,0.000,-0.009,0.002,-0.040,-0.047,-0.812,1.175
0722_153208_0155.png,0.011,0.170,0.926,-0.056,0.174,0.933,0.132,-0.003,1.139,-0.172,-0.013,1.093,0.062,-0.173,0.935,-0.297,-0.184,1.270,-0.009,-0.337,0.737,-0.375,-0.271,1.037,971.647,714.783,0.926,902.843,716.890,0.933,1070.149,537.690,1.139,810.552,528.407,1.093,1023.437,364.220,0.935,737.877,401.992,1.270,948.483,104.963,0.737,615.682,291.614,1.037,-0.038,-0.962,1.401,0.000,-350.006,0.000,-0.035,-0.023,0.021,-0.089,-0.846,1.650
0722_153208_0156.png,0.030,0.168,0.924,-0.035,0.166,0.923,0.148,-0.009,1.100,-0.138,-0.001,1.135,0.140,-0.191,0.894,-0.206,-0.266,1.112,0.133,-0.371,0.695,-0.167,-0.333,0.861,990.380,712.653,0.924,924.408,711.282,0.923,1088.239,532.391,1.100,844.096,539.570,1.135,1108.856,336.419,0.894,783.686,312.794,1.112,1141.987,33.147,0.695,775.575,172.660,0.861,-0.026,-0.963,1.401,0.000,-6.180,0.000,0.027,-0.032,0.007,-0.091,-1.232,1.206
0722_153208_0157.png,0.046,0.170,0.935,-0.022,0.168,0.932,0.168,-0.012,1.083,-0.133,0.002,1.146,0.179,-0.169,1.298,-0.125,-0.171,0.937,0.228,-0.252,1.058,-0.114,-0.337,0.732,1006.807,713.131,0.935,937.639,711.321,0.932,1107.893,529.236,1.083,849.750,541.863,1.146,1090.834,416.283,1.298,832.877,366.828,0.937,1164.963,313.579,1.058,811.987,101.912,0.732,-0.028,-0.972,1.404,0.000,-10.958,0.000,-0.038,0.014,0.026,-0.055,-0.875,1.455
0722_153208_0158.png,0.044,0.175,0.927,-0.022,0.173,0.925,0.161,-0.010,1.093,-0.131,0.000,1.134,0.231,-0.240,1.228,-0.226,-0.231,1.039,0.319,-0.293,0.991,-0.113,-0.334,0.832,1004.700,719.222,0.927,937.746,717.832,0.925,1100.233,531.668,1.093,850.433,539.977,1.134,1139.126,354.176,1.228,753.237,328.722,1.039,1265.841,259.060,0.991,830.690,158.422,0.832,-0.034,-0.967,1.402,0.000,-7.137,0.000,0.007,-0.022,0.029,0.008,-0.879,1.632
0722_153208_0159.png,0.018,0.164,0.926,-0.048,0.166,0.928,0.130,0.001,1.133,-0.165,-0.004,1.110,0.078,-0.194,0.947,-0.294,-0.239,1.058,-0.016,-0.354,0.755,-0.321,-0.338,0.813,978.486,708.905,0.926,911.314,710.222,0.928,1069.253,540.852,1.133,819.009,536.309,1.110,1038.345,345.174,0.947,695.648,324.974,1.058,940.102,93.885,0.755,584.869,144.402,0.813,-0.032,-0.966,1.402,0.000,-354.218,0.000,0.004,-0.021,-0.007,0.048,-1.193,1.417
0722_153208_0160.png,0.019,0.170,0.938,-0.047,0.173,0.942,0.132,0.000,1.145,-0.165,-0.008,1.110,0.164,-0.254,1.042,-0.277,-0.198,1.268,-0.014,-0.328,0.855,-0.464,-0.262,1.087,979.259,712.805,0.938,912.277,714.232,0.942,1069.467,540.063,1.145,818.311,533.162,1.110,1109.962,307.951,1.042,752.218,391.414,1.268,944.449,174.830,0.855,554.096,310.936,1.087,-0.038,-0.964,1.402,0.000,-351.926,0.000,-0.008,-0.004,-0.032,0.049,-0.855,1.533
0722_153208_0161.png,0.005,0.188,0.934,-0.062,0.190,0.939,0.118,0.008,1.147,-0.180,-0.004,1.092,0.139,-0.264,1.108,-0.280,-0.244,1.187,0.083,-0.321,0.853,-0.324,-0.303,0.930,965.068,731.072,0.934,897.290,732.477,0.939,1057.656,546.747,1.147,803.078,536.139,1.092,1078.947,313.815,1.108,735.768,344.450,1.187,1052.933,182.697,0.853,628.769,230.121,0.930,-0.032,-0.969,1.403,0.000,-348.160,0.000,-0.022,-0.021,-0.013,0.026,-0.798,1.103
0722_153208_0162.png,-0.017,0.165,0.947,-0.081,0.170,0.961,0.099,-0.001,1.161,-0.190,-0.016,1.094,0.080,-0.192,0.960,-0.260,-0.265,1.026,0.017,-0.348,0.748,-0.106,-0.331,0.816,943.107,705.855,0.947,879.436,708.676,0.961,1041.304,539.359,1.161,795.231,525.927,1.094,1039.124,349.414,0.960,718.535,294.033,1.026,981.249,97.491,0.748,835.993,153.921,0.816,-0.026,-0.968,1.402,0.000,-345.433,0.000,0.000,0.040,-0.027,-0.206,-0.708,1.319
0722_153208_0163.png,-0.010,0.167,0.941,-0.073,0.172,0.954,0.103,-0.004,1.157,-0.182,-0.019,1.091,0.091,-0.212,0.981,-0.346,-0.228,1.073,-0.013,-0.348,0.778,-0.431,-0.326,0.842,950.250,708.927,0.941,886.776,711.461,0.954,1044.563,537.123,1.157,801.740,523.645,1.091,1048.177,334.458,0.981,652.842,337.838,1.073,944.403,114.954,0.778,472.506,171.281,0.842,-0.031,-0.962,1.401,0.000,-345.360,0.000,0.015,0.016,-0.015,-0.162,-0.687,1.470
0722_153208_0164.png,0.030,0.155,0.934,-0.037,0.154,0.931,0.145,-0.005,1.115,-0.156,-0.003,1.123,0.179,-0.231,0.982,-0.324,-0.205,1.174,0.087,-0.336,0.764,-0.212,-0.288,0.955,990.373,698.350,0.934,922.441,697.504,0.931,1083.507,535.401,1.115,828.059,537.048,1.123,1133.392,316.089,0.982,697.590,373.704,1.174,1068.068,121.433,0.764,748.782,253.021,0.955,-0.029,-0.974,1.404,0.000,-0.448,0.000,-0.013,0.026,0.023,0.114,-1.242,1.288
0722_153208_0165.png,0.029,0.173,0.937,-0.036,0.172,0.935,0.142,0.000,1.123,-0.154,0.000,1.123,0.177,-0.255,1.035,-0.213,-0.234,0.998,0.013,-0.332,0.841,-0.097,-0.344,0.785,989.855,715.766,0.937,923.174,715.427,0.935,1080.491,540.046,1.123,829.759,540.250,1.123,1122.332,305.508,1.035,757.198,316.824,0.998,974.237,164.906,0.841,842.110,123.486,0.785,-0.032,-0.971,1.403,0.000,-359.035,0.000,0.003,0.000,-0.011,0.118,-0.993,1.297
0722_153208_0166.png,0.021,0.185,0.925,-0.044,0.187,0.930,0.142,0.002,1.117,-0.155,0.000,1.110,0.077,-0.178,0.928,-0.299,-0.217,1.201,0.011,-0.352,0.745,-0.374,-0.296,0.967,981.614,730.486,0.925,914.505,731.139,0.930,1080.648,541.303,1.117,827.450,540.056,1.110,1038.466,358.158,0.928,723.253,367.842,1.201,974.387,91.385,0.745,592.628,249.226,0.967,-0.034,-0.971,1.403,0.000,-357.563,0.000,0.002,-0.031,0.029,-0.129,-0.816,1.442
0722_153208_0167.png,0.022,0.155,0.938,-0.044,0.157,0.942,0.146,-0.016,1.115,-0.153,-0.014,1.123,0.108,-0.213,0.945,-0.207,-0.272,1.112,0.014,-0.342,0.744,-0.153,-0.307,0.865,982.240,697.418,0.938,915.272,697.986,0.942,1084.625,525.943,1.115,830.195,527.739,1.123,1068.211,325.715,0.945,782.919,307.761,1.112,978.398,102.266,0.744,792.242,202.345,0.865,-0.030,-0.964,1.402,0.000,-0.532,0.000,-0.009,0.027,0.035,-0.166,-0.840,1.612
0722_153208_0168.png,0.040,0.177,0.935,-0.026,0.174,0.929,0.155,-0.009,1.104,-0.138,0.000,1.145,0.287,-0.239,1.189,-0.240,-0.222,1.012,0.174,-0.310,0.954,-0.276,-0.352,0.776,1000.435,720.371,0.935,933.673,718.442,0.929,1093.926,532.119,1.104,845.448,540.205,1.145,1189.797,349.173,1.189,734.452,331.147,1.012,1133.182,230.794,0.954,621.828,108.701,0.776,-0.027,-0.959,1.400,0.000,-6.965,0.000,0.002,-0.036,-0.031,0.094,-1.025,1.140
0722_153208_0169.png,0.029,0.178,0.932,-0.040,0.179,0.934,0.151,-0.003,1.120,-0.160,-0.004,1.118,0.189,-0.258,1.035,-0.323,-0.226,1.134,0.162,-0.327,0.785,-0.387,-0.302,0.891,989.527,721.919,0.932,919.424,722.121,0.934,1088.033,537.427,1.120,824.243,536.951,1.118,1133.519,303.071,1.035,689.042,350.133,1.134,1155.941,143.237,0.785,547.232,217.279,0.891,-0.034,-0.966,1.402,0.000,-358.371,0.000,-0.045,-0.019,0.009,0.007,-0.853,1.364
0722_153208_0170.png,0.042,0.168,0.942,-0.026,0.167,0.940,0.162,-0.013,1.100,-0.141,-0.005,1.137,0.251,-0.255,1.033,-0.177,-0.224,0.993,0.250,-0.325,0.784,-0.060,-0.329,0.784,1002.404,709.965,0.942,934.054,709.032,0.940,1100.398,528.658,1.100,842.201,536.197,1.137,1191.597,304.989,1.033,790.921,325.848,0.993,1263.154,145.459,0.784,887.401,140.501,0.784,-0.032,-0.969,1.403,0.000,-6.021,0.000,-0.030,0.022,0.021,0.008,-0.726,1.620
0722_153208_0171.png,0.014,0.166,0.935,-0.054,0.168,0.938,0.134,-0.002,1.132,-0.172,-0.005,1.115,0.200,-0.176,0.929,-0.233,-0.261,1.046,0.262,-0.346,0.731,-0.054,-0.316,0.855,974.248,709.302,0.935,905.240,710.350,0.938,1072.981,538.734,1.132,813.055,535.363,1.115,1164.787,359.743,0.929,747.971,302.864,1.046,1301.516,90.167,0.731,900.310,187.954,0.855,-0.027,-0.968,1.403,0.000,-355.555,0.000,-0.035,0.004,-0.007,-0.031,-1.076,1.161
0722_153208_0172.png,0.021,0.183,0.921,-0.045,0.184,0.923,0.140,0.006,1.120,-0.160,0.004,1.111,0.192,-0.214,1.289,-0.274,-0.209,1.255,0.239,-0.280,1.039,-0.433,-0.278,1.057,981.976,729.275,0.921,913.581,729.947,0.923,1078.605,544.881,1.120,823.290,543.221,1.111,1101.581,381.897,1.289,752.167,381.898,1.255,1178.436,283.846,1.039,570.322,289.836,1.057,-0.032,-0.970,1.403,0.000,-357.131,0.000,-0.009,-0.046,0.007,-0.032,-0.940,1.645
0722_153208_0173.png,0.006,0.188,0.937,-0.058,0.190,0.942,0.122,-0.001,1.128,-0.167,-0.003,1.116,0.146,-0.266,1.057,-0.246,-0.249,1.215,0.109,-0.348,0.807,-0.248,-0.310,0.955,966.256,730.987,0.937,901.546,731.545,0.942,1063.073,539.502,1.128,817.515,537.030,1.116,1091.446,301.129,1.057,767.533,344.762,1.215,1087.966,129.459,0.807,713.011,231.078,0.955,-0.022,-0.964,1.402,0.000,-356.272,0.000,0.024,-0.027,-0.010,-0.118,-0.685,1.271
0722_153208_0174.png,0.001,0.168,0.939,-0.064,0.171,0.948,0.123,-0.004,1.132,-0.171,-0.010,1.110,0.184,-0.243,1.230,-0.312,-0.211,1.211,0.170,-0.285,0.975,-0.428,-0.283,0.989,960.704,710.356,0.939,895.748,711.902,0.948,1063.253,536.287,1.132,813.118,531.809,1.110,1102.290,352.548,1.230,714.913,374.293,1.211,1126.319,261.536,0.975,548.475,267.639,0.989,-0.024,-0.970,1.403,0.000,-354.372,0.000,0.005,0.023,0.013,-0.229,-0.733,1.539
0722_153208_0175.png,0.003,0.153,0.930,-0.064,0.158,0.937,0.118,0.002,1.153,-0.180,-0.013,1.089,0.153,-0.241,1.041,-0.314,-0.237,1.016,-0.012,-0.319,0.844,-0.347,-0.334,0.772,963.420,696.745,0.930,895.533,700.750,0.937,1057.085,541.589,1.153,802.692,528.955,1.089,1099.612,319.998,1.041,666.067,318.148,1.016,946.768,180.560,0.844,531.883,128.639,0.772,-0.036,-0.969,1.403,0.000,-346.504,0.000,-0.027,0.017,-0.004,-0.034,-1.058,1.694
0722_153208_0176.png,0.046,0.164,0.943,-0.019,0.161,0.940,0.163,-0.013,1.097,-0.123,-0.001,1.149,0.187,-0.203,0.902,-0.286,-0.205,1.086,0.161,-0.367,0.693,-0.284,-0.326,0.850,1006.206,705.025,0.943,941.016,703.145,0.940,1101.519,528.634,1.097,858.000,539.155,1.149,1157.618,325.668,0.902,709.765,360.743,1.086,1181.724,35.846,0.693,642.411,175.549,0.850,-0.032,-0.969,1.403,0.000,-9.496,0.000,0.018,0.027,-0.007,-0.037,-0.840,1.639
0722_153208_0177.png,0.006,0.152,0.935,-0.060,0.155,0.942,0.127,-0.008,1.136,-0.171,-0.013,1.117,0.103,-0.225,0.973,-0.297,-0.237,1.032,-0.017,-0.344,0.767,-0.322,-0.336,0.786,965.680,694.047,0.935,899.174,696.243,0.942,1066.577,532.986,1.136,814.376,529.017,1.117,1060.458,320.089,0.973,685.950,321.740,1.032,938.778,114.011,0.767,570.099,133.151,0.786,-0.025,-0.963,1.401,0.000,-354.962,0.000,-0.007,0.017,-0.011,-0.181,-1.140,1.312
0722_153208_0178.png,0.010,0.156,0.933,-0.057,0.159,0.936,0.122,-0.004,1.145,-0.177,-0.014,1.098,0.136,-0.258,1.059,-0.321,-0.189,1.245,0.095,-0.328,0.809,-0.344,-0.278,0.998,970.538,699.134,0.933,902.488,701.308,0.936,1061.455,536.920,1.145,806.855,527.525,1.098,1081.846,308.156,1.059,714.485,395.513,1.245,1071.117,154.766,0.809,632.522,275.082,0.998,-0.032,-0.965,1.402,0.000,-349.752,0.000,-0.020,0.010,0.003,0.078,-1.141,1.252
0722_153208_0179.png,0.002,0.161,0.929,-0.064,0.167,0.942,0.130,-0.002,1.142,-0.172,-0.012,1.099,0.277,-0.222,1.200,-0.304,-0.243,1.147,0.387,-0.282,0.970,-0.172,-0.294,0.926,961.709,704.944,0.929,895.089,708.433,0.942,1067.923,538.332,1.142,810.937,529.822,1.099,1179.455,363.992,1.200,707.810,338.303,1.147,1339.723,263.550,0.970,783.297,237.793,0.926,-0.036,-0.967,1.402,0.000,-350.612,0.000,-0.027,0.006,0.008,-0.332,-1.025,1.340
0722_153208_0180.png,-0.004,0.149,0.932,-0.070,0.153,0.940,0.118,-0.001,1.144,-0.184,-0.011,1.104,0.241,-0.239,1.129,-0.329,-0.235,1.073,0.243,-0.305,0.874,-0.275,-0.317,0.828,956.340,691.596,0.932,888.681,695.067,0.940,1058.282,538.768,1.144,801.432,530.856,1.104,1162.736,338.501,1.129,668.211,331.597,1.073,1224.545,208.490,0.874,643.949,176.008,0.828,-0.023,-0.970,1.403,0.000,-351.145,0.000,-0.027,0.029,-0.002,-0.148,-1.120,1.656
0722_153208_0181.png,0.007,0.158,0.946,-0.060,0.161,0.953,0.126,-0.008,1.150,-0.175,-0.019,1.102,0.205,-0.203,1.305,-0.195,-0.256,0.978,0.322,-0.249,1.074,-0.083,-0.338,0.753,967.440,698.848,0.946,900.417,700.786,0.953,1064.090,533.410,1.150,808.640,523.639,1.102,1109.180,391.812,1.305,770.485,290.957,0.978,1245.375,319.288,1.074,855.508,112.645,0.753,-0.035,-0.965,1.402,0.000,-349.578,0.000,-0.028,0.040,-0.003,-0.055,-0.764,1.455
0722_153208_0182.png,0.048,0.178,0.923,-0.019,0.176,0.920,0.167,-0.007,1.079,-0.127,0.007,1.140,0.145,-0.253,0.978,-0.091,-0.168,0.937,-0.016,-0.334,0.794,-0.053,-0.337,0.739,1009.074,723.731,0.923,940.579,721.515,0.920,1107.579,533.987,1.079,853.759,546.121,1.140,1101.422,294.002,0.978,867.364,369.821,0.937,940.980,139.736,0.794,891.834,106.046,0.739,-0.031,-0.972,1.404,0.000,-10.932,0.000,-0.016,-0.024,0.032,-0.005,-0.891,1.736
0722_153208_0183.png,0.021,0.167,0.927,-0.043,0.166,0.923,0.126,0.000,1.121,-0.164,-0.003,1.108,0.234,-0.226,1.222,-0.226,-0.200,0.944,0.292,-0.292,0.982,-0.224,-0.355,0.740,981.529,711.148,0.927,915.403,710.864,0.923,1066.954,540.351,1.121,819.120,537.788,1.108,1142.328,363.708,1.222,732.298,338.421,0.944,1242.536,256.728,0.982,672.339,83.490,0.740,-0.025,-0.973,1.404,0.000,-356.193,0.000,0.022,-0.007,0.034,0.230,-1.094,1.564
0722_153208_0184.png,0.012,0.156,0.925,-0.054,0.158,0.927,0.119,-0.002,1.140,-0.173,-0.014,1.087,0.075,-0.170,0.936,-0.228,-0.251,0.985,0.029,-0.333,0.737,-0.103,-0.337,0.781,972.067,699.982,0.925,904.694,702.463,0.927,1059.294,538.648,1.140,808.401,527.954,1.087,1036.073,367.261,0.936,740.222,297.401,0.985,997.669,110.317,0.737,835.121,129.816,0.781,-0.034,-0.969,1.403,0.000,-348.317,0.000,-0.001,0.003,0.040,0.111,-1.167,1.464
0722_153208_0185.png,0.011,0.173,0.931,-0.056,0.176,0.935,0.123,0.002,1.144,-0.174,-0.007,1.104,0.248,-0.184,0.978,-0.334,-0.217,1.188,0.322,-0.346,0.772,-0.271,-0.306,0.940,971.139,717.059,0.931,903.432,718.831,0.935,1062.547,541.534,1.144,809.904,533.653,1.104,1201.195,360.783,0.978,692.979,366.057,1.188,1356.943,113.606,0.772,685.444,230.863,0.940,-0.031,-0.962,1.401,0.000,-350.958,0.000,-0.012,-0.028,-0.027,0.036,-0.949,1.470
0722_153208_0186.png,-0.001,0.168,0.918,-0.066,0.174,0.927,0.108,0.009,1.150,-0.179,-0.006,1.085,0.139,-0.251,1.062,-0.197,-0.272,1.012,0.111,-0.344,0.815,-0.054,-0.350,0.801,958.644,714.229,0.918,892.548,718.709,0.927,1049.094,547.181,1.150,803.360,534.605,1.085,1084.436,315.045,1.062,775.256,284.227,1.012,1089.777,138.025,0.815,895.530,125.110,0.801,-0.033,-0.967,1.402,0.000,-345.806,0.000,0.009,-0.036,-0.011,-0.092,-1.184,1.441
0722_153208_0187.png,0.041,0.164,0.947,-0.026,0.161,0.938,0.153,-0.010,1.109,-0.150,-0.003,1.139,0.136,-0.244,0.978,-0.305,-0.211,1.064,-0.007,-0.335,0.774,-0.375,-0.316,0.833,1001.150,705.122,0.947,933.983,702.937,0.938,1090.880,531.372,1.109,835.092,537.378,1.139,1092.312,302.428,0.978,687.197,351.400,1.064,951.746,128.743,0.774,531.804,178.607,0.833,-0.025,-0.970,1.403,0.000,-4.666,0.000,-0.023,0.030,-0.002,0.272,-0.959,1.273
0722_153208_0188.png,0.014,0.188,0.935,-0.050,0.190,0.942,0.135,-0.001,1.122,-0.153,0.000,1.124,0.101,-0.223,0.961,-0.280,-0.205,1.256,-0.013,-0.364,0.765,-0.464,-0.280,1.085,973.860,731.438,0.935,909.659,732.037,0.942,1074.263,539.441,1.122,830.353,539.916,1.124,1060.077,319.714,0.961,748.268,384.464,1.256,944.239,87.983,0.765,553.547,294.577,1.085,-0.027,-0.964,1.402,0.000,-359.324,0.000,0.030,-0.030,-0.019,-0.244,-0.691,1.408
0722_153208_0189.png,0.042,0.172,0.944,-0.022,0.171,0.945,0.165,-0.011,1.092,-0.114,0.003,1.155,0.071,-0.190,0.899,-0.262,-0.166,0.986,-0.017,-0.366,0.712,-0.408,-0.331,0.824,1002.422,713.228,0.944,938.216,712.148,0.945,1104.043,530.149,1.092,866.002,542.747,1.155,1035.107,338.652,0.899,707.642,379.901,0.986,936.875,50.563,0.712,488.621,158.141,0.824,-0.031,-0.970,1.403,0.000,-11.994,0.000,0.033,0.023,-0.022,-0.297,-0.771,1.426
0722_153208_0190.png,0.045,0.174,0.945,-0.021,0.172,0.942,0.165,-0.007,1.092,-0.122,0.008,1.158,0.244,-0.205,1.250,-0.270,-0.164,0.993,0.382,-0.274,1.032,-0.408,-0.331,0.824,1004.881,715.560,0.945,938.897,713.477,0.942,1103.788,533.858,1.092,859.819,546.799,1.158,1145.494,384.432,1.250,701.487,382.644,0.993,1311.898,287.392,1.032,489.226,158.478,0.824,-0.026,-0.973,1.404,0.000,-12.240,0.000,0.006,0.022,-0.038,-0.127,-0.879,1.269
0722_153208_0191.png,0.041,0.181,0.938,-0.025,0.179,0.934,0.152,0.000,1.121,-0.144,0.002,1.128,0.204,-0.222,0.963,-0.306,-0.208,1.061,0.192,-0.362,0.732,-0.361,-0.335,0.829,1001.207,723.056,0.938,934.719,722.334,0.934,1089.208,540.033,1.121,838.999,541.455,1.128,1160.956,320.952,0.963,685.766,353.078,1.061,1208.783,69.993,0.732,545.711,155.839,0.829,-0.039,-0.967,1.403,0.000,-0.285,0.000,0.003,-0.017,-0.025,0.181,-0.954,1.160
0722_153208_0192.png,0.031,0.149,0.940,-0.035,0.150,0.944,0.154,-0.013,1.121,-0.143,-0.011,1.132,0.082,-0.185,0.914,-0.295,-0.230,1.126,0.011,-0.353,0.711,-0.316,-0.312,0.875,991.172,691.072,0.940,924.826,691.647,0.944,1090.621,528.553,1.121,840.036,530.721,1.132,1044.878,347.043,0.914,710.723,345.849,1.126,975.334,68.309,0.711,616.240,201.372,0.875,-0.038,-0.964,1.402,0.000,-0.942,0.000,0.000,0.032,-0.007,-0.177,-1.163,1.176
0722_153208_0193.png,0.036,0.177,0.926,-0.028,0.175,0.922,0.150,-0.005,1.089,-0.133,0.006,1.135,0.267,-0.248,1.082,-0.262,-0.229,1.152,0.214,-0.336,0.847,-0.318,-0.317,0.919,996.560,721.983,0.926,931.335,720.098,0.922,1091.135,535.992,1.089,848.851,545.065,1.135,1194.499,322.266,1.082,743.617,350.786,1.152,1200.138,163.360,0.847,630.612,211.618,0.919,-0.025,-0.973,1.404,0.000,-8.359,0.000,0.035,-0.017,0.031,0.009,-1.017,1.386
0722_153208_0194.png,0.001,0.175,0.918,-0.063,0.179,0.926,0.116,0.008,1.133,-0.172,0.000,1.100,0.054,-0.178,0.944,-0.333,-0.221,1.096,-0.006,-0.361,0.760,-0.431,-0.329,0.878,960.740,721.612,0.918,895.124,724.285,0.926,1057.568,546.334,1.133,811.045,540.015,1.100,1014.313,360.249,0.944,670.660,348.229,1.096,952.385,88.527,0.760,492.810,183.836,0.878,-0.025,-0.969,1.403,0.000,-352.183,0.000,0.021,-0.041,0.002,-0.170,-1.157,1.352
0722_153208_0195.png,0.014,0.162,0.932,-0.054,0.164,0.931,0.121,0.006,1.149,-0.181,-0.005,1.098,0.152,-0.261,1.105,-0.288,-0.254,1.056,0.116,-0.318,0.845,-0.294,-0.329,0.798,974.231,705.461,0.932,904.917,707.375,0.931,1060.045,545.361,1.149,803.170,535.488,1.098,1091.148,315.630,1.105,700.872,311.778,1.056,1090.988,181.772,0.845,609.305,148.508,0.798,-0.032,-0.971,1.403,0.000,-349.024,0.000,-0.032,0.002,-0.021,0.221,-1.139,1.537
0722_153208_0196.png,0.054,0.175,0.941,-0.012,0.172,0.933,0.166,-0.006,1.105,-0.132,0.001,1.138,0.170,-0.246,0.977,-0.196,-0.241,1.034,0.045,-0.345,0.766,-0.055,-0.331,0.828,1014.761,717.175,0.941,948.076,715.252,0.933,1102.951,534.641,1.105,850.032,541.223,1.138,1125.539,300.591,0.977,780.044,318.323,1.034,1015.364,111.482,0.766,897.348,160.017,0.828,-0.039,-0.969,1.403,0.000,-5.406,0.000,-0.009,0.000,-0.006,0.234,-0.880,1.418
0722_153208_0197.png,0.031,0.147,0.940,-0.036,0.146,0.939,0.148,-0.021,1.111,-0.152,-0.016,1.130,0.171,-0.269,1.030,-0.331,-0.214,1.141,-0.018,-0.312,0.856,-0.414,-0.293,0.912,991.135,688.909,0.940,923.550,688.001,0.939,1087.065,522.006,1.111,831.841,526.134,1.130,1118.338,291.672,1.030,684.044,361.352,1.141,940.352,193.060,0.856,528.756,234.433,0.912,-0.027,-0.962,1.401,0.000,-2.680,0.000,-0.015,0.034,0.032,0.046,-1.052,1.324
0722_153208_0198.png,0.000,0.151,0.929,-0.065,0.155,0.933,0.107,-0.005,1.148,-0.181,-0.020,1.084,0.243,-0.214,1.060,-0.327,-0.244,1.075,0.250,-0.324,0.829,-0.371,-0.323,0.835,960.194,694.987,0.929,893.969,698.116,0.933,1048.344,535.671,1.148,800.935,522.716,1.084,1178.044,347.963,1.060,671.052,324.502,1.075,1246.796,168.270,0.829,537.505,171.600,0.835,-0.029,-0.965,1.402,0.000,-346.172,0.000,0.006,0.013,0.030,0.057,-1.110,1.417
0722_153208_0199.png,0.023,0.179,0.936,-0.042,0.178,0.936,0.138,-0.003,1.119,-0.152,0.000,1.133,0.088,-0.185,0.905,-0.177,-0.226,0.971,0.042,-0.364,0.696,-0.089,-0.364,0.756,983.074,721.394,0.936,917.677,721.085,0.936,1077.623,537.071,1.119,832.679,539.670,1.133,1052.222,345.109,0.905,786.386,318.885,0.971,1016.944,42.090,0.696,847.837,82.791,0.756,-0.025,-0.963,1.401,0.000,-1.519,0.000,0.022,-0.025,-0.031,-0.021,-0.901,1.325
0722_153208_0200.png,0.019,0.151,0.933,-0.044,0.154,0.939,0.140,-0.008,1.128,-0.149,-0.009,1.124,0.286,-0.231,1.101,-0.248,-0.183,0.935,0.364,-0.324,0.865,-0.347,-0.353,0.753,979.662,693.747,0.933,914.981,695.460,0.939,1077.969,533.069,1.128,833.713,532.319,1.124,1206.917,340.625,1.101,707.792,353.822,0.935,1359.777,183.565,0.865,522.197,94.451,0.753,-0.035,-0.964,1.402,0.000,-358.068,0.000,0.026,0.014,-0.011,-0.217,-1.212,1.351
0722_153208_0201.png,0.035,0.149,0.939,-0.032,0.149,0.943,0.164,-0.025,1.095,-0.135,-0.014,1.144,0.271,-0.249,1.002,-0.137,-0.227,0.991,0.291,-0.332,0.760,-0.049,-0.331,0.771,995.536,691.267,0.939,927.790,690.691,0.943,1102.088,518.228,1.095,847.774,528.714,1.144,1217.089,303.549,1.002,828.732,322.152,0.991,1324.860,124.349,0.760,899.393,131.470,0.771,-0.030,-0.962,1.401,0.000,-8.568,0.000,-0.020,0.035,0.028,-0.285,-0.966,1.316
0722_153208_0202.png,0.057,0.166,0.936,-0.008,0.161,0.928,0.171,-0.009,1.091,-0.116,0.006,1.154,0.302,-0.245,1.065,-0.192,-0.233,1.038,0.364,-0.336,0.820,-0.060,-0.338,0.833,1017.584,709.158,0.936,951.648,705.084,0.928,1108.924,532.213,1.091,864.110,544.634,1.154,1230.012,321.343,1.065,783.727,326.630,1.038,1382.857,150.764,0.820,892.005,154.310,0.833,-0.034,-0.968,1.403,0.000,-11.579,0.000,0.008,-0.002,-0.028,0.123,-1.085,1.541
0722_153208_0203.png,0.018,0.171,0.926,-0.045,0.172,0.926,0.122,0.006,1.136,-0.163,-0.001,1.105,0.274,-0.181,1.009,-0.139,-0.187,0.896,0.384,-0.343,0.828,-0.118,-0.370,0.693,978.898,715.883,0.926,913.732,717.026,0.926,1061.782,544.759,1.136,819.959,538.939,1.105,1218.042,369.285,1.009,812.924,341.309,0.896,1401.498,146.286,0.828,798.038,32.205,0.693,-0.032,-0.968,1.403,0.000,-352.629,0.000,0.037,-0.028,-0.012,0.160,-1.136,1.465
0722_153208_0204.png,0.047,0.164,0.943,-0.020,0.163,0.940,0.168,-0.024,1.083,-0.128,-0.009,1.150,0.284,-0.256,1.021,-0.173,-0.236,1.025,0.308,-0.328,0.775,-0.047,-0.322,0.812,1007.096,705.819,0.943,939.391,704.593,0.940,1107.274,518.899,1.083,853.781,532.942,1.150,1224.721,301.373,1.021,799.788,321.270,1.025,1338.296,137.698,0.775,904.668,162.853,0.812,-0.028,-0.963,1.401,0.000,-11.974,0.000,-0.024,0.023,0.030,-0.085,-0.693,1.495
0722_153208_0205.png,-0.009,0.171,0.928,-0.075,0.176,0.938,0.109,0.006,1.148,-0.189,-0.007,1.090,0.253,-0.219,1.097,-0.327,-0.228,1.171,0.208,-0.317,0.856,-0.405,-0.298,0.927,950.721,715.240,0.928,883.525,718.338,0.938,1050.241,545.085,1.148,795.125,533.795,1.090,1179.554,350.397,1.097,694.115,355.091,1.171,1190.957,188.095,0.856,544.683,234.895,0.927,-0.024,-0.971,1.403,0.000,-347.596,0.000,-0.023,-0.003,0.000,-0.147,-1.010,1.255
0722_153208_0206.png,0.033,0.191,0.932,-0.032,0.191,0.933,0.151,-0.005,1.109,-0.143,-0.003,1.121,0.204,-0.270,1.064,-0.197,-0.179,0.921,0.053,-0.328,0.862,-0.248,-0.351,0.726,993.695,734.484,0.932,927.168,734.476,0.933,1089.596,535.400,1.109,838.670,537.777,1.121,1142.031,299.045,1.064,756.897,355.407,0.921,1018.528,178.252,0.862,635.637,80.488,0.726,-0.037,-0.964,1.402,0.000,-1.213,0.000,0.009,-0.037,0.024,-0.048,-0.643,1.355
0722_153208_0207.png,0.040,0.144,0.941,-0.027,0.142,0.940,0.160,-0.017,1.110,-0.138,-0.009,1.143,0.305,-0.238,1.076,-0.114,-0.190,0.938,0.368,-0.317,0.832,-0.055,-0.347,0.731,1000.137,685.381,0.941,932.814,683.924,0.940,1097.435,525.736,1.110,844.894,532.378,1.143,1229.651,329.767,1.076,844.874,347.587,0.938,1380.318,177.541,0.832,888.813,87.798,0.731,-0.033,-0.965,1.402,0.000,-5.217,0.000,-0.012,0.042,-0.006,-0.034,-1.208,1.337
0722_153208_0208.png,0.028,0.180,0.939,-0.040,0.178,0.935,0.143,-0.006,1.117,-0.163,-0.003,1.128,0.156,-0.264,1.025,-0.282,-0.229,1.235,-0.002,-0.331,0.819,-0.350,-0.285,0.983,987.870,722.054,0.939,919.209,721.337,0.935,1081.541,535.000,1.117,822.835,537.271,1.128,1104.471,295.066,1.025,742.959,363.635,1.235,958.152,155.757,0.819,621.453,263.951,0.983,-0.023,-0.963,1.401,0.000,-1.033,0.000,-0.030,-0.021,-0.010,0.159,-0.783,1.460
0722_153208_0209.png,0.002,0.170,0.932,-0.063,0.173,0.935,0.110,0.005,1.147,-0.182,-0.008,1.091,0.255,-0.223,1.142,-0.204,-0.264,1.008,0.163,-0.308,0.910,-0.080,-0.342,0.790,962.438,713.716,0.932,895.533,715.834,0.935,1051.003,544.203,1.147,801.050,533.394,1.091,1172.560,354.577,1.142,767.223,291.391,1.008,1130.628,218.405,0.910,863.220,128.698,0.790,-0.027,-0.971,1.403,0.000,-347.887,0.000,-0.002,0.002,0.002,0.100,-1.022,1.219
0722_153208_0210.png,0.028,0.182,0.936,-0.037,0.183,0.939,0.150,-0.008,1.110,-0.147,-0.004,1.125,0.256,-0.231,1.228,-0.208,-0.249,1.032,0.368,-0.286,1.000,-0.066,-0.333,0.830,988.725,724.964,0.936,922.008,725.062,0.939,1088.509,533.537,1.110,836.166,536.528,1.125,1158.162,361.163,1.228,768.574,310.536,1.032,1310.448,267.535,1.000,884.961,158.698,0.830,-0.033,-0.965,1.402,0.000,-1.790,0.000,0.000,-0.015,0.017,-0.128,-0.657,1.487
0722_153208_0211.png,0.041,0.176,0.933,-0.025,0.174,0.929,0.156,0.000,1.114,-0.144,0.004,1.132,0.278,-0.231,1.204,-0.247,-0.223,1.013,0.391,-0.295,0.968,-0.204,-0.347,0.777,1002.062,719.751,0.933,934.051,718.489,0.929,1093.406,539.988,1.114,838.897,543.496,1.132,1179.743,357.661,1.204,728.508,330.479,1.013,1343.892,250.682,0.968,710.574,115.494,0.777,-0.035,-0.968,1.403,0.000,-2.377,0.000,-0.014,-0.022,-0.024,0.135,-0.933,1.689
0722_153208_0212.png,0.031,0.169,0.928,-0.033,0.168,0.925,0.139,-0.007,1.115,-0.149,-0.007,1.117,0.114,-0.225,0.965,-0.185,-0.227,0.973,0.071,-0.359,0.749,-0.099,-0.354,0.768,991.507,713.541,0.928,925.864,712.960,0.925,1078.833,533.994,1.115,832.700,534.396,1.117,1072.066,318.126,0.965,778.833,318.281,0.973,1050.572,84.479,0.749,837.123,101.631,0.768,-0.032,-0.964,1.402,0.000,-359.235,0.000,0.027,-0.023,0.028,0.162,-1.005,1.495
0722_153208_0213.png,0.029,0.173,0.928,-0.039,0.174,0.927,0.143,0.003,1.129,-0.163,-0.001,1.112,0.160,-0.255,1.035,-0.284,-0.190,1.276,-0.008,-0.326,0.838,-0.260,-0.274,1.025,989.340,717.750,0.928,919.686,718.106,0.927,1080.713,542.229,1.129,820.890,539.075,1.112,1106.720,305.906,1.035,748.045,398.269,1.276,950.380,169.736,0.838,718.590,285.688,1.025,-0.035,-0.968,1.403,0.000,-355.713,0.000,-0.032,-0.027,-0.007,0.131,-0.974,1.690
0722_153208_0214.png,0.009,0.185,0.931,-0.056,0.187,0.933,0.111,0.011,1.145,-0.176,-0.002,1.090,0.227,-0.166,0.968,-0.205,-0.273,1.064,0.340,-0.339,0.796,-0.174,-0.343,0.811,968.824,728.600,0.931,902.644,730.062,0.933,1052.530,548.802,1.145,806.449,538.266,1.090,1182.880,376.523,0.968,776.795,296.047,1.064,1366.330,134.669,0.796,756.101,137.465,0.811,-0.032,-0.973,1.404,0.000,-347.766,0.000,0.013,-0.017,-0.004,0.178,-0.900,1.200
0722_153208_0215.png,0.053,0.147,0.932,-0.013,0.144,0.928,0.169,-0.023,1.092,-0.127,-0.012,1.139,0.136,-0.199,0.902,-0.126,-0.221,0.984,0.060,-0.352,0.713,-0.075,-0.335,0.761,1013.683,689.908,0.932,946.199,687.277,0.928,1107.524,520.383,1.092,854.322,530.151,1.139,1103.492,329.878,0.902,838.448,325.868,0.984,1040.461,70.061,0.713,865.860,121.803,0.761,-0.039,-0.962,1.401,0.000,-8.028,0.000,-0.010,0.017,0.041,0.077,-1.211,1.352
0722_153208_0216.png,0.044,0.159,0.935,-0.021,0.157,0.932,0.161,-0.024,1.094,-0.131,-0.015,1.135,0.178,-0.281,1.037,-0.124,-0.183,0.930,-0.009,-0.319,0.865,-0.114,-0.346,0.730,1004.891,701.435,0.935,938.345,700.192,0.932,1100.035,518.926,1.094,849.895,527.677,1.135,1123.059,281.798,1.037,833.100,353.233,0.930,950.351,189.970,0.865,811.372,89.752,0.730,-0.034,-0.958,1.400,0.000,-7.105,0.000,0.005,0.003,0.048,0.014,-0.851,1.545
0722_153208_0217.png,0.007,0.173,0.931,-0.056,0.177,0.939,0.118,0.001,1.143,-0.165,-0.009,1.101,0.107,-0.177,0.926,-0.323,-0.226,1.083,0.099,-0.351,0.714,-0.360,-0.340,0.845,967.209,716.648,0.931,903.345,719.025,0.939,1058.433,540.753,1.143,817.728,532.497,1.101,1069.981,358.456,0.926,675.815,341.871,1.083,1091.838,72.175,0.714,554.954,157.659,0.845,-0.035,-0.964,1.402,0.000,-350.223,0.000,0.035,-0.018,-0.014,-0.137,-1.006,1.090
0722_153208_0218.png,0.057,0.170,0.932,-0.010,0.168,0.930,0.182,-0.014,1.078,-0.110,0.004,1.158,0.221,-0.250,1.208,-0.271,-0.194,1.060,0.252,-0.294,0.947,-0.309,-0.324,0.831,1018.485,713.767,0.932,950.033,711.317,0.930,1120.712,527.438,1.078,869.707,543.433,1.158,1133.759,343.131,1.208,716.939,365.960,1.060,1212.737,245.072,0.947,606.160,169.092,0.831,-0.037,-0.966,1.402,0.000,-14.553,0.000,-0.022,-0.005,-0.009,-0.154,-0.874,1.668
0722_153208_0219.png,0.033,0.153,0.936,-0.032,0.151,0.932,0.142,-0.014,1.115,-0.151,-0.013,1.120,0.196,-0.183,0.916,-0.104,-0.182,0.921,0.248,-0.348,0.722,-0.057,-0.347,0.727,993.612,695.177,0.936,927.723,694.077,0.932,1080.964,528.134,1.115,831.862,529.321,1.120,1163.733,349.957,0.916,852.216,351.925,0.921,1286.080,82.212,0.722,884.966,86.521,0.727,-0.031,-0.966,1.402,0.000,0.012,0.000,0.014,0.023,0.040,0.209,-1.059,1.489
0722_153208_0220.png,0.051,0.188,0.925,-0.015,0.186,0.923,0.173,-0.006,1.076,-0.118,0.009,1.143,0.154,-0.259,0.986,-0.094,-0.169,0.938,-0.007,-0.338,0.800,-0.069,-0.341,0.739,1012.198,733.529,0.925,944.203,732.167,0.923,1113.051,534.483,1.076,861.889,547.527,1.143,1108.543,289.736,0.986,864.482,369.192,0.938,951.652,138.083,0.800,871.403,101.181,0.739,-0.036,-0.971,1.403,0.000,-12.025,0.000,-0.007,-0.033,0.027,-0.130,-0.835,1.376
0722_153208_0221.png,0.045,0.165,0.922,-0.023,0.162,0.919,0.165,-0.012,1.096,-0.138,-0.003,1.135,0.155,-0.263,0.996,-0.125,-0.178,0.929,-0.018,-0.331,0.811,-0.110,-0.347,0.728,1006.032,709.841,0.922,936.466,707.791,0.919,1102.858,529.668,1.096,844.438,537.530,1.135,1108.112,288.826,0.996,831.557,358.079,0.929,939.397,151.675,0.811,816.111,86.582,0.728,-0.034,-0.961,1.401,0.000,-6.360,0.000,-0.028,-0.036,0.020,0.053,-1.101,1.651
0722_153208_0222.png,0.043,0.162,0.945,-0.022,0.160,0.942,0.160,-0.013,1.107,-0.135,-0.006,1.137,0.242,-0.229,1.229,-0.187,-0.237,1.016,0.294,-0.280,0.979,-0.076,-0.334,0.800,1003.376,702.961,0.945,937.302,701.943,0.942,1097.083,528.559,1.107,846.949,534.625,1.137,1147.335,362.627,1.229,785.278,318.077,1.016,1244.994,268.241,0.979,869.280,143.595,0.800,-0.036,-0.969,1.403,0.000,-4.789,0.000,0.002,0.036,0.013,0.035,-0.790,1.590
0722_153208_0223.png,0.028,0.166,0.935,-0.036,0.166,0.937,0.146,-0.016,1.105,-0.141,-0.010,1.130,0.201,-0.189,0.907,-0.280,-0.206,1.249,0.255,-0.358,0.714,-0.454,-0.272,1.074,988.143,708.740,0.935,923.310,708.537,0.937,1085.961,526.176,1.105,841.724,531.230,1.130,1171.038,341.986,0.907,746.890,383.405,1.249,1299.112,63.802,0.714,557.971,298.803,1.074,-0.029,-0.962,1.401,0.000,-3.851,0.000,0.030,0.001,0.029,-0.141,-0.877,1.269
0722_153208_0224.png,0.021,0.158,0.949,-0.044,0.156,0.944,0.128,-0.007,1.135,-0.167,-0.009,1.126,0.256,-0.212,1.237,-0.299,-0.198,1.252,0.395,-0.276,1.018,-0.244,-0.280,1.001,980.940,698.189,0.949,915.462,697.487,0.944,1066.901,534.316,1.135,818.964,532.703,1.126,1156.686,377.244,1.237,733.061,389.285,1.252,1329.093,281.921,1.018,727.821,273.476,1.001,-0.022,-0.967,1.402,0.000,-357.212,0.000,0.008,0.035,-0.027,0.262,-0.982,1.379
0722_153208_0225.png,0.056,0.159,0.938,-0.009,0.154,0.930,0.170,-0.011,1.088,-0.117,0.004,1.153,0.172,-0.164,1.304,-0.284,-0.158,1.002,0.238,-0.261,1.067,-0.447,-0.315,0.855,1016.338,701.075,0.938,950.499,696.986,0.930,1108.518,530.091,1.088,863.094,542.924,1.153,1085.680,420.097,1.304,690.438,390.141,1.002,1172.051,307.424,1.067,462.993,190.034,0.855,-0.033,-0.972,1.404,0.000,-11.846,0.000,0.007,0.027,-0.005,0.103,-1.226,1.220
0722_153208_0226.png,0.037,0.157,0.938,-0.030,0.155,0.935,0.155,-0.012,1.105,-0.145,-0.004,1.139,0.236,-0.266,1.116,-0.170,-0.230,0.997,0.086,-0.300,0.903,-0.087,-0.338,0.771,997.471,699.656,0.938,929.486,697.873,0.935,1093.681,529.427,1.105,838.603,536.345,1.139,1161.078,313.194,1.116,797.949,320.304,0.997,1050.167,223.979,0.903,853.129,123.179,0.771,-0.027,-0.968,1.402,0.000,-5.522,0.000,-0.020,0.021,0.006,0.054,-1.142,1.223
0722_153208_0227.png,0.016,0.175,0.940,-0.048,0.178,0.948,0.136,-0.002,1.136,-0.157,-0.008,1.112,0.082,-0.181,0.931,-0.255,-0.254,1.056,0.030,-0.356,0.731,-0.113,-0.328,0.845,976.686,717.089,0.940,911.583,718.401,0.948,1074.164,538.011,1.136,825.572,533.240,1.112,1043.592,354.783,0.931,730.361,311.583,1.056,998.766,76.882,0.731,832.780,170.593,0.845,-0.039,-0.967,1.402,0.000,-354.022,0.000,0.008,0.006,-0.010,-0.173,-0.710,1.431
0722_153208_0228.png,0.026,0.180,0.919,-0.039,0.179,0.918,0.143,0.005,1.108,-0.153,0.007,1.119,0.182,-0.221,1.271,-0.282,-0.192,1.263,0.205,-0.287,1.021,-0.412,-0.281,1.057,987.326,725.886,0.919,919.527,725.448,0.918,1082.422,544.407,1.108,830.266,546.375,1.119,1096.423,374.839,1.271,747.925,395.334,1.263,1151.236,272.401,1.021,589.281,287.419,1.057,-0.028,-0.973,1.404,0.000,-0.871,0.000,0.005,-0.041,0.018,0.021,-1.218,1.247
