rolosa10/RGSpipe/dataset/synthetic_dataset/Coods3D_unique0722_171852.csv
filename,left_eye,left_eye,left_eye,right_eye,right_eye,right_eye,left_shoulder,left_shoulder,left_shoulder,right_shoulder,right_shoulder,right_shoulder,left_elbow,left_elbow,left_elbow,right_elbow,right_elbow,right_elbow,left_wrist,left_wrist,left_wrist,right_wrist,right_wrist,right_wrist,left_eye_2D,left_eye_2D,left_eye_2D,right_eye_2D,right_eye_2D,right_eye_2D,left_shoulder_2D,left_shoulder_2D,left_shoulder_2D,right_shoulder_2D,right_shoulder_2D,right_shoulder_2D,left_elbow_2D,left_elbow_2D,left_elbow_2D,right_elbow_2D,right_elbow_2D,right_elbow_2D,left_wrist_2D,left_wrist_2D,left_wrist_2D,right_wrist_2D,right_wrist_2D,right_wrist_2D,root_position,root_position,root_position,root_pitch,root_yaw,root_roll,root_scale,root_scale,root_scale,look_at,look_at,look_at
0722_171852_0001.png,0.040,0.168,0.924,-0.026,0.165,0.921,0.159,-0.005,1.099,-0.137,0.004,1.137,0.235,-0.267,1.066,-0.194,-0.250,1.054,0.086,-0.328,0.856,-0.161,-0.337,0.806,1001.675,712.757,0.924,933.509,710.542,0.921,1097.838,536.055,1.099,845.311,543.677,1.137,1169.747,301.821,1.066,784.708,314.603,1.054,1055.672,176.150,0.856,769.754,142.713,0.806,-0.031,-0.967,1.402,0.000,-6.509,0.000,-0.007,-0.027,-0.001,0.033,-1.149,1.624
0722_171852_0002.png,0.055,0.168,0.940,-0.012,0.163,0.929,0.169,-0.019,1.082,-0.132,-0.002,1.156,0.182,-0.286,1.031,-0.305,-0.206,1.223,-0.015,-0.315,0.851,-0.424,-0.275,0.996,1015.793,710.498,0.940,947.553,706.931,0.929,1108.780,523.235,1.082,851.469,538.268,1.156,1128.081,276.182,1.031,722.631,379.710,1.223,943.367,188.157,0.851,555.404,277.653,0.996,-0.023,-0.961,1.401,0.000,-12.950,0.000,-0.046,-0.006,-0.004,0.224,-0.932,1.369
0722_171852_0003.png,0.053,0.181,0.935,-0.013,0.179,0.934,0.177,-0.016,1.079,-0.110,0.002,1.156,0.188,-0.178,1.302,-0.271,-0.162,0.999,0.225,-0.274,1.056,-0.429,-0.322,0.846,1013.575,723.628,0.935,946.433,722.300,0.934,1115.840,526.026,1.079,869.419,541.592,1.156,1097.694,409.944,1.302,701.771,385.726,0.999,1162.665,293.587,1.056,478.455,178.081,0.846,-0.035,-0.961,1.401,0.000,-14.302,0.000,-0.003,-0.022,-0.010,-0.232,-0.774,1.276
0722_171852_0004.png,0.053,0.179,0.925,-0.011,0.174,0.917,0.165,0.000,1.088,-0.123,0.012,1.140,0.136,-0.255,0.996,-0.144,-0.175,0.942,0.005,-0.352,0.789,-0.165,-0.357,0.750,1014.777,724.278,0.925,948.517,720.843,0.917,1104.553,539.706,1.088,857.611,549.749,1.140,1089.709,295.995,0.996,814.527,363.671,0.942,966.540,116.294,0.789,750.539,87.327,0.750,-0.035,-0.973,1.404,0.000,-9.382,0.000,0.013,-0.031,0.004,0.179,-1.089,1.562
0722_171852_0005.png,0.047,0.180,0.932,-0.021,0.179,0.928,0.165,-0.008,1.095,-0.139,0.001,1.132,0.227,-0.231,1.244,-0.294,-0.223,1.114,0.282,-0.276,0.996,-0.182,-0.305,0.894,1007.719,724.128,0.932,938.634,723.012,0.928,1103.173,533.322,1.095,843.065,540.545,1.132,1133.886,363.748,1.244,708.989,349.924,1.114,1229.808,276.732,0.996,766.128,215.798,0.894,-0.035,-0.969,1.403,0.000,-5.810,0.000,-0.032,-0.017,0.030,0.096,-0.800,1.482
0722_171852_0006.png,0.031,0.172,0.940,-0.035,0.170,0.934,0.143,-0.009,1.111,-0.157,-0.004,1.130,0.166,-0.276,1.146,-0.296,-0.225,1.059,0.140,-0.309,0.887,-0.248,-0.326,0.822,991.816,714.154,0.940,924.446,712.850,0.934,1082.698,532.418,1.111,827.784,536.266,1.130,1097.438,310.802,1.146,694.085,337.667,1.059,1110.046,208.827,0.887,673.523,162.607,0.822,-0.022,-0.966,1.402,0.000,-2.585,0.000,-0.014,-0.001,0.008,0.215,-0.831,1.509
0722_171852_0007.png,-0.013,0.152,0.922,-0.079,0.158,0.932,0.106,-0.005,1.146,-0.192,-0.020,1.082,0.246,-0.227,1.096,-0.304,-0.254,1.165,0.158,-0.310,0.867,-0.313,-0.296,0.913,946.612,697.157,0.922,879.286,701.316,0.932,1047.870,535.581,1.146,791.558,522.411,1.082,1173.807,343.058,1.096,712.048,332.980,1.165,1133.440,200.509,0.867,633.718,231.706,0.913,-0.023,-0.963,1.401,0.000,-346.401,0.000,-0.026,-0.003,0.037,-0.163,-1.087,1.566
0722_171852_0008.png,0.039,0.175,0.917,-0.026,0.173,0.918,0.162,-0.007,1.077,-0.123,0.007,1.140,0.217,-0.256,1.190,-0.262,-0.194,1.038,0.245,-0.308,0.941,-0.304,-0.333,0.829,1000.325,720.922,0.917,933.153,718.875,0.918,1103.516,533.679,1.077,857.308,546.155,1.140,1133.042,335.641,1.190,720.067,362.558,1.038,1207.505,228.711,0.941,611.482,158.470,0.829,-0.029,-0.971,1.403,0.000,-11.630,0.000,0.014,-0.031,0.036,-0.213,-1.198,1.230
0722_171852_0009.png,0.050,0.151,0.932,-0.017,0.149,0.933,0.178,-0.028,1.074,-0.116,-0.009,1.155,0.226,-0.238,1.230,-0.250,-0.227,1.084,0.289,-0.275,0.981,-0.111,-0.305,0.874,1011.437,694.261,0.932,942.596,692.212,0.933,1117.831,515.282,1.074,864.406,532.353,1.155,1135.091,356.212,1.230,740.752,340.751,1.084,1240.238,273.493,0.981,839.382,208.210,0.874,-0.033,-0.960,1.401,0.000,-14.609,0.000,-0.030,0.018,0.030,-0.272,-1.025,1.401
0722_171852_0010.png,0.045,0.187,0.934,-0.020,0.185,0.931,0.163,-0.009,1.085,-0.126,0.004,1.140,0.138,-0.249,0.973,-0.287,-0.159,0.997,-0.014,-0.343,0.787,-0.442,-0.318,0.858,1005.733,729.955,0.934,939.377,729.057,0.931,1102.908,532.473,1.085,855.018,543.336,1.140,1095.135,296.237,0.973,686.604,388.427,0.997,943.618,125.575,0.787,469.667,187.279,0.858,-0.032,-0.970,1.403,0.000,-9.837,0.000,0.009,-0.016,0.026,-0.058,-0.756,1.167
0722_171852_0011.png,0.014,0.172,0.924,-0.049,0.176,0.934,0.132,-0.001,1.128,-0.153,-0.008,1.100,0.264,-0.182,0.988,-0.169,-0.265,1.030,0.351,-0.341,0.806,-0.116,-0.346,0.794,974.283,716.878,0.924,910.287,718.970,0.934,1071.320,538.946,1.128,827.560,533.374,1.100,1214.536,364.920,0.988,804.412,295.046,1.030,1373.902,138.045,0.806,821.253,125.779,0.794,-0.040,-0.969,1.403,0.000,-353.094,0.000,0.034,-0.014,0.033,-0.249,-0.951,1.343
0722_171852_0012.png,0.025,0.164,0.949,-0.039,0.165,0.951,0.143,-0.015,1.116,-0.145,-0.012,1.132,0.205,-0.238,0.985,-0.314,-0.191,1.220,0.161,-0.351,0.754,-0.324,-0.291,0.979,985.422,704.889,0.949,921.438,704.971,0.951,1082.094,527.101,1.116,838.272,530.284,1.132,1157.790,310.073,0.985,715.408,391.121,1.220,1162.873,97.152,0.754,645.448,257.599,0.979,-0.030,-0.965,1.402,0.000,-2.002,0.000,0.028,0.035,0.010,-0.124,-0.692,1.350
0722_171852_0013.png,0.046,0.186,0.933,-0.020,0.185,0.932,0.170,-0.013,1.078,-0.118,0.004,1.153,0.177,-0.183,1.297,-0.218,-0.164,0.954,0.243,-0.274,1.058,-0.315,-0.328,0.761,1007.041,729.644,0.933,939.647,728.582,0.932,1110.338,528.598,1.078,862.843,543.572,1.153,1090.078,405.874,1.297,742.926,376.846,0.954,1178.561,293.688,1.058,566.173,130.238,0.761,-0.029,-0.964,1.402,0.000,-13.795,0.000,-0.005,-0.029,-0.004,-0.229,-0.720,1.331
0722_171852_0014.png,0.032,0.163,0.937,-0.036,0.163,0.938,0.156,-0.003,1.120,-0.152,0.001,1.135,0.244,-0.251,1.043,-0.182,-0.194,0.937,0.132,-0.326,0.809,-0.157,-0.351,0.716,992.187,705.330,0.937,923.054,705.065,0.938,1092.229,537.543,1.120,833.073,540.577,1.135,1182.437,311.676,1.043,774.861,343.048,0.937,1115.248,156.292,0.809,751.310,73.177,0.716,-0.032,-0.970,1.403,0.000,-1.807,0.000,-0.036,0.013,-0.029,-0.057,-1.046,1.526
0722_171852_0015.png,0.018,0.161,0.930,-0.051,0.163,0.935,0.140,-0.006,1.131,-0.168,-0.011,1.109,0.204,-0.263,1.078,-0.336,-0.225,1.079,0.010,-0.302,0.897,-0.410,-0.312,0.843,978.013,704.415,0.930,908.501,705.864,0.935,1077.668,534.997,1.131,815.896,530.695,1.109,1139.638,308.440,1.078,663.903,341.327,1.079,970.753,219.373,0.897,497.469,188.025,0.843,-0.033,-0.964,1.402,0.000,-354.761,0.000,-0.040,-0.002,0.012,-0.063,-1.068,1.352
0722_171852_0016.png,0.030,0.176,0.933,-0.038,0.176,0.930,0.140,0.008,1.135,-0.164,0.003,1.116,0.269,-0.234,1.177,-0.315,-0.225,1.072,0.339,-0.304,0.923,-0.290,-0.330,0.822,990.158,719.731,0.933,921.215,719.781,0.930,1077.633,546.385,1.135,820.202,542.977,1.116,1177.002,351.153,1.177,680.317,340.564,1.072,1309.572,227.242,0.923,624.798,158.335,0.822,-0.034,-0.971,1.403,0.000,-355.367,0.000,-0.027,-0.018,-0.035,0.229,-1.072,1.389
0722_171852_0017.png,0.009,0.163,0.946,-0.056,0.166,0.954,0.125,-0.005,1.146,-0.166,-0.013,1.110,0.273,-0.221,1.085,-0.284,-0.209,1.239,0.304,-0.326,0.840,-0.395,-0.280,1.008,968.934,703.729,0.946,904.451,705.596,0.954,1063.445,536.137,1.146,817.527,529.117,1.110,1198.960,346.317,1.085,741.631,379.741,1.239,1304.463,170.478,0.840,587.430,275.395,1.008,-0.034,-0.967,1.402,0.000,-351.783,0.000,0.012,0.034,-0.020,-0.114,-0.829,1.259
0722_171852_0018.png,0.047,0.179,0.940,-0.019,0.177,0.935,0.165,-0.019,1.083,-0.127,-0.004,1.147,0.262,-0.250,0.985,-0.252,-0.230,1.233,0.286,-0.346,0.746,-0.253,-0.286,0.980,1007.272,721.103,0.940,940.394,720.175,0.935,1104.693,523.387,1.083,854.599,536.576,1.147,1213.513,298.824,0.985,765.632,362.260,1.233,1324.584,98.586,0.746,715.034,262.157,0.980,-0.028,-0.962,1.401,0.000,-11.573,0.000,-0.008,-0.010,0.022,-0.026,-0.663,1.277
0722_171852_0019.png,0.045,0.183,0.938,-0.019,0.180,0.933,0.158,-0.003,1.106,-0.128,0.006,1.141,0.083,-0.185,0.900,-0.203,-0.192,0.958,0.013,-0.364,0.700,-0.230,-0.365,0.749,1005.703,725.351,0.938,940.862,723.843,0.933,1096.005,537.677,1.106,853.414,544.585,1.141,1047.306,344.611,0.900,758.753,349.781,0.958,977.168,44.566,0.700,668.123,76.515,0.749,-0.035,-0.967,1.402,0.000,-6.125,0.000,0.029,-0.021,-0.029,0.086,-0.870,1.389
0722_171852_0020.png,0.017,0.171,0.931,-0.047,0.173,0.932,0.116,0.005,1.143,-0.167,-0.007,1.091,0.248,-0.217,1.077,-0.228,-0.256,1.173,0.316,-0.330,0.853,-0.201,-0.313,0.920,977.246,714.920,0.931,912.122,716.373,0.932,1056.300,544.246,1.143,814.329,534.148,1.091,1179.220,348.111,1.077,774.752,332.176,1.173,1312.086,172.021,0.853,751.925,216.846,0.920,-0.037,-0.973,1.404,0.000,-348.263,0.000,0.031,0.002,0.013,0.250,-1.002,1.303
0722_171852_0021.png,0.016,0.182,0.935,-0.048,0.183,0.936,0.121,-0.002,1.133,-0.164,-0.010,1.098,0.250,-0.209,1.027,-0.198,-0.242,0.972,0.332,-0.338,0.821,-0.090,-0.355,0.768,976.322,725.555,0.935,911.632,726.060,0.936,1061.629,538.428,1.133,818.157,531.349,1.098,1191.431,346.904,1.027,766.247,303.013,0.972,1344.778,148.407,0.821,848.877,100.324,0.768,-0.033,-0.966,1.402,0.000,-351.580,0.000,0.033,-0.016,0.025,0.139,-0.701,1.311
0722_171852_0022.png,0.049,0.181,0.935,-0.017,0.177,0.929,0.166,-0.009,1.081,-0.122,0.008,1.152,0.157,-0.268,0.998,-0.171,-0.168,0.941,-0.017,-0.338,0.811,-0.218,-0.340,0.735,1009.584,723.900,0.935,942.734,721.582,0.929,1106.175,532.418,1.081,858.988,546.388,1.152,1109.584,284.554,0.998,787.365,369.896,0.941,940.317,142.940,0.811,677.710,100.045,0.735,-0.026,-0.970,1.403,0.000,-13.033,0.000,-0.003,-0.011,-0.006,0.003,-0.790,1.603
0722_171852_0023.png,-0.001,0.158,0.931,-0.066,0.163,0.940,0.117,-0.003,1.149,-0.178,-0.018,1.083,0.166,-0.243,1.054,-0.289,-0.223,0.954,-0.018,-0.308,0.875,-0.328,-0.342,0.729,959.451,701.170,0.931,892.964,704.517,0.940,1056.793,537.604,1.149,803.448,524.232,1.083,1109.758,320.499,1.054,672.305,317.182,0.954,940.727,204.946,0.875,531.640,94.026,0.729,-0.036,-0.969,1.403,0.000,-345.996,0.000,-0.020,0.023,0.031,-0.143,-1.008,1.222
0722_171852_0024.png,0.059,0.194,0.937,-0.009,0.190,0.928,0.174,-0.005,1.072,-0.123,0.014,1.155,0.164,-0.267,0.997,-0.306,-0.189,1.123,-0.015,-0.327,0.809,-0.414,-0.298,0.908,1019.368,737.262,0.937,951.019,735.265,0.928,1114.590,535.859,1.072,858.572,551.884,1.155,1116.853,285.121,0.997,700.626,380.001,1.123,942.209,155.586,0.809,526.273,227.587,0.908,-0.026,-0.975,1.404,0.000,-14.828,0.000,-0.042,-0.018,-0.003,0.132,-0.743,1.215
0722_171852_0025.png,0.034,0.164,0.947,-0.033,0.163,0.943,0.148,-0.008,1.126,-0.156,-0.007,1.128,0.115,-0.256,1.023,-0.285,-0.221,1.018,0.051,-0.334,0.776,-0.322,-0.334,0.778,994.272,704.908,0.947,926.471,704.253,0.943,1084.948,533.452,1.126,828.109,533.862,1.128,1066.782,302.213,1.023,693.223,333.797,1.018,1022.656,130.641,0.776,566.053,132.248,0.778,-0.033,-0.967,1.402,0.000,-359.225,0.000,-0.025,0.024,-0.015,0.185,-0.894,1.371
0722_171852_0026.png,0.017,0.189,0.935,-0.048,0.191,0.941,0.136,0.006,1.131,-0.158,0.003,1.119,0.161,-0.182,0.919,-0.204,-0.205,0.937,0.189,-0.366,0.713,-0.200,-0.371,0.718,976.875,731.856,0.935,911.197,732.758,0.941,1073.964,544.799,1.131,825.769,542.475,1.119,1126.818,351.592,0.919,752.524,331.768,0.937,1211.854,52.110,0.713,694.702,49.290,0.718,-0.033,-0.968,1.403,0.000,-356.391,0.000,0.011,-0.027,-0.034,-0.151,-0.844,1.132
0722_171852_0027.png,0.009,0.175,0.933,-0.059,0.178,0.942,0.135,-0.007,1.133,-0.172,-0.014,1.101,0.174,-0.258,1.051,-0.234,-0.179,1.308,-0.021,-0.309,0.875,-0.301,-0.255,1.070,968.841,718.157,0.933,900.585,719.362,0.942,1072.999,534.254,1.133,811.597,527.775,1.101,1117.160,306.172,1.051,789.627,409.872,1.308,936.804,203.844,0.875,692.662,313.305,1.070,-0.033,-0.962,1.401,0.000,-352.750,0.000,-0.038,-0.011,0.027,-0.189,-0.695,1.449
0722_171852_0028.png,0.058,0.173,0.927,-0.007,0.169,0.923,0.179,-0.010,1.081,-0.106,0.007,1.155,0.188,-0.279,1.016,-0.096,-0.178,0.944,0.159,-0.356,0.760,-0.087,-0.359,0.739,1019.471,717.577,0.927,952.495,714.171,0.923,1117.254,531.569,1.081,872.760,546.128,1.155,1135.898,279.126,1.016,863.478,361.054,0.944,1158.238,94.480,0.760,847.583,78.112,0.739,-0.039,-0.965,1.402,0.000,-13.779,0.000,0.008,-0.030,-0.019,-0.082,-1.180,1.231
0722_171852_0029.png,0.059,0.172,0.923,-0.006,0.167,0.916,0.174,-0.010,1.077,-0.114,0.006,1.145,0.133,-0.262,0.989,-0.273,-0.214,1.137,0.013,-0.348,0.777,-0.313,-0.312,0.902,1020.458,717.278,0.923,953.383,713.559,0.916,1113.875,531.109,1.077,865.409,544.776,1.145,1088.184,288.068,0.989,731.552,360.968,1.137,975.793,114.598,0.777,629.652,211.231,0.902,-0.037,-0.968,1.403,0.000,-12.602,0.000,0.001,-0.029,0.021,0.092,-1.061,1.627
0722_171852_0030.png,0.034,0.161,0.947,-0.032,0.160,0.944,0.148,-0.012,1.125,-0.154,-0.011,1.128,0.287,-0.229,1.192,-0.205,-0.199,0.936,0.388,-0.286,0.954,-0.199,-0.352,0.717,994.567,701.792,0.947,927.372,701.233,0.944,1085.112,530.023,1.125,830.299,530.505,1.128,1189.109,357.176,1.192,751.440,337.524,0.936,1347.129,254.539,0.954,696.189,73.735,0.717,-0.034,-0.964,1.402,0.000,-359.291,0.000,-0.017,0.026,-0.006,0.168,-0.894,1.279
0722_171852_0031.png,0.033,0.178,0.938,-0.033,0.178,0.942,0.162,-0.003,1.104,-0.135,0.007,1.147,0.160,-0.271,1.047,-0.268,-0.207,1.033,0.131,-0.343,0.786,-0.323,-0.337,0.799,993.827,720.461,0.938,926.512,719.976,0.942,1099.824,537.697,1.104,848.222,546.161,1.147,1105.232,293.464,1.047,712.855,349.599,1.033,1118.338,124.495,0.786,575.588,138.595,0.799,-0.030,-0.971,1.403,0.000,-7.462,0.000,-0.012,0.001,-0.036,-0.302,-0.928,1.196
0722_171852_0032.png,0.035,0.160,0.942,-0.030,0.158,0.939,0.148,-0.010,1.115,-0.144,-0.006,1.134,0.290,-0.235,1.088,-0.295,-0.200,1.233,0.322,-0.325,0.842,-0.444,-0.277,1.029,995.098,701.590,0.942,929.555,700.403,0.939,1086.140,531.272,1.115,839.125,535.183,1.134,1213.289,334.984,1.088,732.157,385.630,1.233,1324.130,172.350,0.842,549.778,284.309,1.029,-0.030,-0.967,1.402,0.000,-2.751,0.000,0.014,0.023,-0.006,0.098,-0.975,1.459
0722_171852_0033.png,0.033,0.180,0.932,-0.035,0.181,0.934,0.158,-0.006,1.111,-0.149,-0.003,1.123,0.258,-0.229,0.995,-0.217,-0.264,1.088,0.290,-0.336,0.761,-0.178,-0.317,0.836,993.987,723.764,0.932,924.540,723.828,0.934,1095.232,534.831,1.111,833.677,537.351,1.123,1206.297,321.135,0.995,770.056,308.793,1.088,1322.940,119.666,0.761,757.953,178.849,0.836,-0.037,-0.966,1.402,0.000,-1.248,0.000,-0.036,-0.021,0.017,-0.100,-0.869,1.135
0722_171852_0034.png,0.038,0.174,0.947,-0.027,0.175,0.951,0.162,-0.009,1.110,-0.126,0.000,1.148,0.246,-0.262,1.060,-0.259,-0.203,1.014,0.249,-0.344,0.801,-0.340,-0.345,0.795,997.903,715.106,0.947,933.358,714.884,0.951,1098.598,532.076,1.110,855.241,539.604,1.148,1180.878,305.131,1.060,717.019,349.621,1.014,1255.533,131.025,0.801,553.574,127.016,0.795,-0.036,-0.966,1.402,0.000,-6.565,0.000,0.021,0.015,-0.038,-0.258,-0.718,1.364
0722_171852_0035.png,0.000,0.160,0.917,-0.066,0.165,0.924,0.115,0.003,1.144,-0.182,-0.011,1.083,0.147,-0.191,0.964,-0.329,-0.244,1.097,0.115,-0.343,0.756,-0.247,-0.317,0.863,959.920,705.685,0.917,891.672,709.959,0.924,1055.874,542.701,1.144,800.408,530.497,1.083,1105.010,351.482,0.964,675.213,328.468,1.097,1105.202,107.928,0.756,688.248,190.520,0.863,-0.032,-0.967,1.402,0.000,-346.889,0.000,-0.023,-0.025,0.022,-0.094,-1.252,1.444
0722_171852_0036.png,0.006,0.151,0.937,-0.060,0.156,0.946,0.126,-0.008,1.147,-0.171,-0.020,1.098,0.077,-0.178,0.935,-0.296,-0.254,1.101,0.029,-0.342,0.728,-0.127,-0.303,0.906,965.685,693.642,0.937,899.686,696.830,0.946,1064.404,532.958,1.147,812.261,522.941,1.098,1038.539,358.939,0.935,704.169,320.287,1.101,997.364,92.883,0.728,826.942,222.331,0.906,-0.038,-0.964,1.402,0.000,-349.252,0.000,-0.013,0.029,0.008,-0.177,-0.937,1.506
0722_171852_0037.png,0.051,0.161,0.941,-0.013,0.156,0.935,0.167,-0.014,1.085,-0.110,0.003,1.160,0.128,-0.253,0.959,-0.247,-0.181,1.287,-0.019,-0.358,0.761,-0.310,-0.278,1.043,1011.677,702.824,0.941,947.261,699.095,0.935,1106.237,527.919,1.085,869.861,542.710,1.160,1086.691,289.484,0.959,777.336,406.047,1.287,936.284,92.503,0.761,677.898,286.775,1.043,-0.029,-0.970,1.403,0.000,-14.242,0.000,0.033,0.026,-0.023,-0.043,-1.081,1.324
0722_171852_0038.png,0.008,0.177,0.929,-0.058,0.178,0.929,0.113,-0.001,1.140,-0.180,-0.011,1.095,0.087,-0.176,0.928,-0.279,-0.215,1.258,0.061,-0.347,0.722,-0.428,-0.280,1.053,968.197,721.273,0.929,900.996,722.230,0.929,1054.196,538.952,1.140,803.856,530.057,1.095,1049.161,359.672,0.928,749.437,377.227,1.258,1040.584,83.267,0.722,572.943,286.818,1.053,-0.025,-0.961,1.401,0.000,-349.989,0.000,0.002,-0.036,0.008,0.188,-0.830,1.554
0722_171852_0039.png,0.008,0.166,0.926,-0.058,0.168,0.927,0.117,-0.003,1.139,-0.180,-0.015,1.088,0.186,-0.206,1.311,-0.283,-0.200,0.927,0.235,-0.263,1.067,-0.327,-0.351,0.724,968.621,710.844,0.926,900.456,712.429,0.927,1057.375,537.279,1.139,803.124,527.104,1.088,1094.766,390.917,1.311,669.193,335.006,0.927,1169.188,306.097,1.067,531.054,78.376,0.724,-0.028,-0.964,1.402,0.000,-348.990,0.000,-0.012,-0.017,0.036,0.140,-0.994,1.429
0722_171852_0040.png,0.029,0.163,0.930,-0.035,0.164,0.935,0.156,-0.003,1.110,-0.134,0.004,1.140,0.200,-0.191,1.300,-0.218,-0.173,0.934,0.221,-0.279,1.047,-0.302,-0.345,0.734,989.841,706.471,0.930,924.178,706.617,0.935,1093.991,537.188,1.110,848.447,542.971,1.140,1105.962,400.133,1.300,738.232,364.000,0.934,1161.075,286.882,1.047,568.593,93.325,0.734,-0.035,-0.969,1.403,0.000,-4.840,0.000,0.018,-0.001,-0.025,-0.308,-1.176,1.420
0722_171852_0041.png,0.044,0.156,0.930,-0.019,0.154,0.930,0.166,-0.026,1.076,-0.109,-0.008,1.152,0.198,-0.278,0.996,-0.216,-0.175,0.968,0.063,-0.347,0.790,-0.320,-0.338,0.789,1005.420,699.812,0.930,940.520,697.604,0.930,1106.764,516.972,1.076,869.807,533.022,1.152,1149.443,274.547,0.996,748.015,367.813,0.968,1035.777,121.779,0.790,574.516,132.233,0.789,-0.030,-0.959,1.400,0.000,-14.756,0.000,0.036,0.000,0.027,-0.245,-0.987,1.495
0722_171852_0042.png,0.020,0.183,0.935,-0.047,0.183,0.935,0.131,-0.005,1.134,-0.171,-0.012,1.102,0.080,-0.180,0.928,-0.183,-0.275,1.031,0.028,-0.350,0.727,-0.129,-0.337,0.783,980.236,725.934,0.935,911.839,726.270,0.935,1069.781,536.196,1.134,812.755,529.769,1.102,1041.754,355.905,0.928,790.936,286.230,1.031,996.207,82.762,0.727,803.620,130.761,0.783,-0.032,-0.960,1.401,0.000,-352.642,0.000,-0.022,-0.032,0.012,0.180,-0.726,1.269
0722_171852_0043.png,0.041,0.163,0.932,-0.026,0.161,0.928,0.156,-0.012,1.097,-0.142,-0.004,1.130,0.193,-0.207,1.275,-0.143,-0.176,0.931,0.238,-0.265,1.032,-0.139,-0.342,0.735,1001.549,706.654,0.932,933.808,705.026,0.928,1095.645,529.877,1.097,840.490,536.639,1.130,1104.158,385.508,1.275,814.260,360.324,0.931,1178.850,295.962,1.032,779.630,97.650,0.735,-0.030,-0.971,1.403,0.000,-5.382,0.000,-0.012,0.012,0.046,0.103,-1.007,1.433
0722_171852_0044.png,0.013,0.174,0.936,-0.051,0.177,0.945,0.136,-0.007,1.127,-0.155,-0.009,1.119,0.121,-0.185,0.913,-0.259,-0.239,1.022,0.107,-0.358,0.705,-0.176,-0.345,0.796,973.377,717.203,0.936,908.879,718.323,0.945,1074.734,534.091,1.127,828.079,532.568,1.119,1085.571,347.700,0.913,718.823,317.513,1.022,1104.095,56.767,0.705,749.536,127.463,0.796,-0.032,-0.962,1.401,0.000,-357.295,0.000,0.019,-0.009,-0.002,-0.266,-0.740,1.443
0722_171852_0045.png,0.025,0.171,0.929,-0.038,0.172,0.935,0.151,-0.007,1.101,-0.135,0.000,1.135,0.225,-0.246,1.206,-0.117,-0.180,0.929,0.243,-0.304,0.952,-0.099,-0.356,0.728,986.024,714.611,0.929,921.013,714.638,0.935,1090.695,533.527,1.101,846.610,540.300,1.135,1137.347,345.665,1.206,840.517,356.145,0.929,1202.456,236.298,0.952,830.251,75.551,0.728,-0.030,-0.969,1.403,0.000,-5.801,0.000,0.028,-0.005,0.012,-0.313,-0.910,1.535
0722_171852_0046.png,-0.002,0.154,0.923,-0.068,0.160,0.931,0.110,0.000,1.149,-0.183,-0.014,1.089,0.172,-0.202,0.980,-0.292,-0.257,1.034,0.164,-0.347,0.759,-0.184,-0.334,0.807,957.473,698.853,0.923,890.331,703.152,0.931,1051.269,540.149,1.149,800.071,528.015,1.089,1126.809,343.648,0.980,691.277,303.632,1.034,1165.777,105.828,0.759,743.548,146.670,0.807,-0.029,-0.964,1.402,0.000,-346.884,0.000,-0.010,-0.010,0.002,-0.076,-1.247,1.406
0722_171852_0047.png,0.035,0.162,0.928,-0.033,0.164,0.935,0.169,-0.013,1.097,-0.135,-0.004,1.137,0.238,-0.244,0.981,-0.179,-0.226,0.997,0.220,-0.339,0.741,-0.056,-0.329,0.789,995.620,706.261,0.928,926.372,706.418,0.935,1106.809,528.553,1.097,846.690,536.534,1.137,1190.914,303.053,0.981,788.861,324.553,0.997,1241.977,105.399,0.741,892.641,143.390,0.789,-0.037,-0.966,1.402,0.000,-6.392,0.000,-0.036,-0.001,0.022,-0.368,-1.028,1.407
0722_171852_0048.png,0.011,0.176,0.931,-0.054,0.178,0.931,0.110,0.005,1.150,-0.178,-0.010,1.087,0.160,-0.189,0.963,-0.286,-0.212,1.239,0.162,-0.355,0.754,-0.355,-0.291,0.996,971.341,719.810,0.931,904.491,721.386,0.931,1050.821,543.793,1.150,804.115,531.283,1.087,1118.267,353.264,0.963,740.313,376.943,1.239,1164.438,93.042,0.754,621.376,262.252,0.996,-0.034,-0.966,1.402,0.000,-346.117,0.000,0.006,-0.021,-0.005,0.270,-0.883,1.473
0722_171852_0049.png,0.027,0.148,0.925,-0.038,0.149,0.926,0.140,-0.014,1.121,-0.153,-0.016,1.110,0.080,-0.184,0.927,-0.152,-0.188,0.912,0.019,-0.349,0.739,-0.150,-0.355,0.719,988.064,692.549,0.925,921.238,693.211,0.926,1079.025,528.232,1.121,829.053,525.875,1.110,1041.869,351.256,0.927,801.164,343.747,0.912,984.118,90.265,0.739,762.158,70.164,0.719,-0.037,-0.960,1.401,0.000,-356.552,0.000,0.012,-0.007,0.043,0.047,-1.211,1.540
0722_171852_0050.png,0.045,0.155,0.938,-0.020,0.152,0.932,0.157,-0.011,1.111,-0.136,-0.005,1.139,0.238,-0.215,1.264,-0.259,-0.178,1.302,0.398,-0.269,1.062,-0.288,-0.270,1.053,1005.771,697.302,0.938,939.783,694.804,0.932,1094.256,530.188,1.111,846.212,535.917,1.139,1138.811,378.259,1.264,771.079,409.668,1.302,1316.593,299.279,1.062,699.880,296.514,1.053,-0.034,-0.964,1.402,0.000,-4.542,0.000,0.008,0.012,-0.013,0.191,-1.188,1.376
0722_171852_0051.png,0.033,0.164,0.939,-0.031,0.162,0.935,0.143,-0.006,1.112,-0.143,-0.002,1.132,0.169,-0.258,1.028,-0.144,-0.183,0.925,0.008,-0.336,0.839,-0.147,-0.360,0.725,992.917,706.106,0.939,928.596,704.807,0.935,1082.141,534.501,1.112,839.788,538.445,1.132,1116.525,300.812,1.028,811.792,352.130,0.925,969.603,158.792,0.839,766.835,68.050,0.725,-0.028,-0.972,1.403,0.000,-2.918,0.000,0.035,0.021,0.006,0.115,-0.954,1.550
0722_171852_0052.png,0.028,0.171,0.925,-0.038,0.171,0.925,0.147,-0.008,1.107,-0.152,-0.004,1.123,0.241,-0.253,1.041,-0.242,-0.263,1.124,0.148,-0.332,0.814,-0.226,-0.317,0.873,988.998,716.120,0.925,920.806,715.602,0.925,1085.998,533.103,1.107,831.131,536.376,1.123,1180.327,308.894,1.041,754.958,317.782,1.124,1133.382,152.423,0.814,714.188,195.100,0.873,-0.028,-0.964,1.402,0.000,-2.032,0.000,-0.008,-0.029,0.028,0.006,-0.984,1.505
0722_171852_0053.png,0.048,0.167,0.945,-0.018,0.165,0.944,0.171,-0.007,1.098,-0.122,0.006,1.154,0.195,-0.232,0.942,-0.265,-0.214,1.087,0.181,-0.360,0.702,-0.166,-0.318,0.859,1008.329,708.177,0.945,941.688,706.469,0.944,1108.309,534.020,1.098,859.845,545.064,1.154,1156.429,305.565,0.942,728.097,352.320,1.087,1205.240,53.036,0.702,776.743,187.378,0.859,-0.035,-0.975,1.404,0.000,-10.083,0.000,-0.005,0.038,-0.031,-0.165,-1.007,1.108
0722_171852_0054.png,0.032,0.178,0.926,-0.035,0.177,0.923,0.152,0.000,1.104,-0.151,0.006,1.133,0.197,-0.202,1.291,-0.265,-0.227,1.041,0.334,-0.266,1.071,-0.293,-0.333,0.800,993.221,723.248,0.926,923.715,721.854,0.923,1091.285,539.673,1.104,832.869,545.396,1.133,1105.025,390.994,1.291,717.943,333.138,1.041,1256.616,304.126,1.071,612.344,144.431,0.800,-0.025,-0.969,1.403,0.000,-4.541,0.000,-0.028,-0.034,-0.005,0.041,-1.065,1.431
0722_171852_0055.png,0.027,0.165,0.945,-0.040,0.165,0.946,0.145,-0.007,1.131,-0.155,-0.006,1.132,0.224,-0.257,1.184,-0.321,-0.221,1.104,0.254,-0.305,0.918,-0.292,-0.322,0.852,986.918,705.876,0.945,919.952,706.019,0.946,1081.998,534.471,1.131,829.375,534.694,1.132,1139.842,333.203,1.184,683.302,349.746,1.104,1222.841,223.907,0.918,633.602,180.039,0.852,-0.032,-0.964,1.402,0.000,-359.048,0.000,-0.012,0.015,-0.040,0.001,-0.900,1.392
0722_171852_0056.png,0.010,0.183,0.932,-0.053,0.185,0.936,0.116,0.003,1.136,-0.166,-0.005,1.100,0.065,-0.171,0.930,-0.317,-0.227,1.083,0.016,-0.343,0.730,-0.326,-0.339,0.847,970.277,726.554,0.932,906.072,727.553,0.936,1057.271,542.701,1.136,816.167,535.588,1.100,1026.051,364.672,0.930,681.547,340.736,1.083,980.989,92.481,0.730,593.694,158.859,0.847,-0.030,-0.968,1.403,0.000,-351.330,0.000,0.040,-0.019,0.006,0.052,-0.720,1.599
0722_171852_0057.png,0.048,0.167,0.926,-0.016,0.164,0.922,0.164,-0.013,1.072,-0.114,0.004,1.146,0.192,-0.276,1.040,-0.242,-0.194,1.274,0.022,-0.329,0.859,-0.279,-0.279,1.037,1008.923,711.841,0.926,943.664,708.727,0.922,1105.296,528.400,1.072,865.600,543.445,1.146,1135.896,287.494,1.040,779.555,395.220,1.274,984.485,175.437,0.859,704.076,284.441,1.037,-0.029,-0.973,1.404,0.000,-14.317,0.000,0.030,0.001,0.039,-0.047,-0.949,1.736
0722_171852_0058.png,0.022,0.166,0.921,-0.042,0.167,0.921,0.134,0.003,1.120,-0.155,0.002,1.115,0.165,-0.231,0.987,-0.306,-0.223,1.138,0.155,-0.357,0.759,-0.232,-0.321,0.908,982.629,711.476,0.921,916.346,711.879,0.921,1074.131,542.661,1.120,827.561,541.686,1.115,1119.003,317.925,0.987,703.864,353.764,1.138,1153.823,93.064,0.759,717.013,203.348,0.908,-0.030,-0.971,1.403,0.000,-357.805,0.000,0.024,-0.026,0.009,0.029,-1.237,1.570
0722_171852_0059.png,0.044,0.156,0.944,-0.021,0.152,0.937,0.153,-0.014,1.106,-0.142,-0.007,1.135,0.185,-0.185,1.300,-0.241,-0.233,1.042,0.276,-0.255,1.068,-0.119,-0.324,0.831,1003.883,697.009,0.944,938.229,694.720,0.937,1091.308,528.087,1.106,841.111,533.908,1.135,1095.707,404.900,1.300,740.026,327.169,1.042,1205.867,312.590,1.068,823.988,169.959,0.831,-0.030,-0.970,1.403,0.000,-4.530,0.000,0.003,0.040,0.021,0.249,-0.930,1.599
0722_171852_0060.png,0.060,0.171,0.934,-0.006,0.166,0.925,0.173,-0.012,1.087,-0.120,0.002,1.149,0.106,-0.190,0.890,-0.244,-0.179,1.313,0.039,-0.363,0.698,-0.299,-0.264,1.070,1020.968,713.763,0.934,954.101,710.343,0.925,1111.458,529.129,1.087,860.280,541.534,1.149,1072.884,336.802,0.890,783.610,410.323,1.313,1013.291,45.454,0.698,693.904,305.356,1.070,-0.035,-0.965,1.402,0.000,-11.079,0.000,-0.012,-0.012,0.000,0.191,-0.957,1.569
0722_171852_0061.png,0.045,0.157,0.945,-0.020,0.156,0.945,0.168,-0.028,1.081,-0.114,-0.010,1.159,0.247,-0.248,1.197,-0.237,-0.199,1.014,0.144,-0.289,0.962,-0.306,-0.333,0.800,1005.769,698.132,0.945,940.357,696.749,0.945,1107.888,515.489,1.081,866.359,531.898,1.159,1155.790,343.138,1.197,737.992,353.152,1.014,1102.440,253.930,0.962,596.789,144.282,0.800,-0.028,-0.961,1.401,0.000,-14.712,0.000,0.012,0.036,0.010,-0.276,-0.769,1.373
0722_171852_0062.png,0.004,0.169,0.930,-0.061,0.174,0.941,0.129,-0.003,1.142,-0.169,-0.009,1.114,0.142,-0.248,1.007,-0.303,-0.251,1.135,-0.013,-0.345,0.809,-0.317,-0.324,0.872,964.552,713.108,0.930,898.377,715.707,0.941,1067.057,537.734,1.142,815.490,532.160,1.114,1094.172,305.643,1.007,706.094,329.500,1.135,944.167,134.495,0.809,614.179,186.255,0.872,-0.031,-0.957,1.400,0.000,-353.295,0.000,-0.008,-0.030,-0.039,-0.253,-0.895,1.635
0722_171852_0063.png,0.020,0.176,0.936,-0.045,0.178,0.943,0.145,-0.008,1.122,-0.151,-0.009,1.121,0.078,-0.184,0.925,-0.260,-0.185,1.298,0.012,-0.355,0.734,-0.285,-0.273,1.052,980.577,718.421,0.936,914.765,719.248,0.943,1082.925,532.843,1.122,831.957,532.659,1.121,1039.760,351.026,0.925,769.383,404.335,1.298,975.241,80.264,0.734,701.971,293.247,1.052,-0.035,-0.962,1.401,0.000,-358.647,0.000,0.003,-0.011,0.005,-0.246,-0.710,1.474
0722_171852_0064.png,0.033,0.160,0.938,-0.031,0.160,0.938,0.148,-0.001,1.125,-0.142,0.001,1.134,0.068,-0.180,0.916,-0.314,-0.188,1.043,-0.006,-0.356,0.711,-0.446,-0.328,0.853,993.451,701.966,0.938,928.296,701.681,0.938,1085.344,539.355,1.125,841.324,541.170,1.134,1030.737,353.210,0.916,674.074,368.149,1.043,952.028,64.132,0.711,463.053,174.007,0.853,-0.036,-0.971,1.403,0.000,-0.731,0.000,0.023,0.018,-0.039,-0.004,-1.171,1.403
0722_171852_0065.png,0.026,0.153,0.937,-0.041,0.155,0.942,0.151,-0.005,1.126,-0.153,-0.004,1.130,0.160,-0.259,1.034,-0.287,-0.209,1.005,-0.017,-0.320,0.840,-0.348,-0.335,0.775,986.331,695.328,0.937,918.220,696.211,0.942,1087.532,535.847,1.126,830.910,536.546,1.130,1106.917,301.578,1.034,688.336,342.617,1.005,941.159,177.343,0.840,532.785,129.196,0.775,-0.035,-0.970,1.403,0.000,-359.512,0.000,-0.025,0.029,-0.022,-0.150,-1.216,1.269
0722_171852_0066.png,0.058,0.173,0.932,-0.008,0.169,0.924,0.174,-0.013,1.084,-0.122,0.002,1.151,0.204,-0.275,1.007,-0.112,-0.177,0.940,0.053,-0.335,0.798,-0.100,-0.350,0.735,1019.416,717.032,0.932,951.335,713.815,0.924,1113.036,528.339,1.084,859.022,541.772,1.151,1153.069,280.406,1.007,846.941,361.349,0.940,1022.664,140.318,0.798,830.369,86.725,0.735,-0.033,-0.963,1.401,0.000,-11.908,0.000,-0.025,-0.025,-0.003,0.136,-0.947,1.543
0722_171852_0067.png,0.014,0.176,0.926,-0.051,0.178,0.928,0.130,0.005,1.127,-0.167,0.001,1.112,0.216,-0.232,1.242,-0.282,-0.220,1.230,0.241,-0.292,0.985,-0.385,-0.292,0.997,974.854,721.128,0.926,907.255,722.076,0.928,1069.919,544.152,1.127,817.128,541.184,1.112,1125.440,361.966,1.242,742.053,369.588,1.230,1193.243,257.644,0.985,592.462,261.947,0.997,-0.027,-0.970,1.403,0.000,-355.787,0.000,-0.003,-0.027,-0.004,-0.012,-1.152,1.151
0722_171852_0068.png,0.013,0.165,0.936,-0.051,0.166,0.940,0.133,-0.008,1.118,-0.158,-0.007,1.122,0.091,-0.184,0.913,-0.242,-0.183,1.304,0.050,-0.354,0.714,-0.306,-0.267,1.068,973.220,707.676,0.936,908.192,708.289,0.940,1072.956,532.797,1.118,826.372,533.695,1.122,1054.716,348.777,0.913,783.505,406.185,1.304,1027.140,67.632,0.714,686.994,301.868,1.068,-0.023,-0.968,1.402,0.000,0.268,0.000,0.021,0.014,0.018,-0.181,-0.972,1.170
0722_171852_0069.png,0.006,0.168,0.925,-0.061,0.174,0.933,0.122,0.009,1.151,-0.178,-0.004,1.097,0.235,-0.243,1.175,-0.337,-0.209,1.191,0.245,-0.308,0.910,-0.230,-0.299,0.956,965.828,713.132,0.925,897.642,716.852,0.933,1060.457,547.332,1.151,806.058,536.835,1.097,1150.158,342.982,1.175,690.744,372.710,1.191,1216.093,218.557,0.910,731.115,242.860,0.956,-0.036,-0.967,1.403,0.000,-348.238,0.000,-0.025,-0.023,-0.035,-0.080,-1.121,1.482
0722_171852_0070.png,0.003,0.175,0.938,-0.060,0.177,0.944,0.101,0.000,1.151,-0.174,-0.015,1.085,0.158,-0.258,1.109,-0.259,-0.257,1.017,0.138,-0.333,0.861,-0.263,-0.354,0.775,962.663,716.897,0.938,899.481,718.335,0.944,1043.283,540.412,1.151,807.598,527.203,1.085,1095.418,319.080,1.109,717.816,299.483,1.017,1112.949,172.007,0.861,637.638,106.277,0.775,-0.034,-0.968,1.403,0.000,-345.039,0.000,0.048,0.010,0.011,0.138,-0.705,1.352
0722_171852_0071.png,0.040,0.173,0.938,-0.026,0.172,0.937,0.164,-0.014,1.095,-0.132,-0.002,1.147,0.287,-0.244,1.173,-0.149,-0.178,0.932,0.154,-0.297,0.950,-0.166,-0.350,0.722,1000.951,715.434,0.938,933.235,714.337,0.937,1102.466,527.998,1.095,850.149,538.481,1.147,1192.956,342.232,1.173,807.459,358.207,0.932,1114.180,242.191,0.950,742.006,79.444,0.722,-0.029,-0.963,1.401,0.000,-9.060,0.000,-0.015,-0.006,-0.006,-0.142,-0.864,1.243
0722_171852_0072.png,0.000,0.174,0.921,-0.065,0.176,0.924,0.101,0.004,1.141,-0.184,-0.009,1.083,0.198,-0.235,1.064,-0.275,-0.229,1.228,0.086,-0.332,0.854,-0.309,-0.299,0.983,959.539,719.575,0.921,893.154,721.571,0.924,1044.377,543.344,1.141,798.392,531.855,1.083,1137.158,330.371,1.064,747.155,363.073,1.228,1055.907,170.361,0.854,661.371,250.648,0.983,-0.023,-0.967,1.402,0.000,-347.081,0.000,0.018,-0.032,0.026,0.138,-0.918,1.693
0722_171852_0073.png,0.006,0.146,0.935,-0.060,0.150,0.942,0.127,-0.008,1.140,-0.173,-0.016,1.107,0.083,-0.179,0.928,-0.217,-0.254,0.994,0.037,-0.344,0.721,-0.061,-0.329,0.796,966.416,688.910,0.935,899.390,691.717,0.942,1066.197,532.937,1.140,811.657,526.183,1.107,1044.577,356.810,0.928,752.714,297.434,0.994,1009.389,86.857,0.721,886.961,147.077,0.796,-0.030,-0.966,1.402,0.000,-352.362,0.000,-0.017,0.031,0.009,-0.148,-1.153,1.362
0722_171852_0074.png,0.001,0.161,0.925,-0.066,0.165,0.930,0.114,0.001,1.141,-0.185,-0.011,1.092,0.255,-0.218,1.224,-0.278,-0.241,1.203,0.141,-0.279,0.996,-0.313,-0.290,0.950,960.735,705.888,0.925,892.347,708.445,0.930,1055.397,540.462,1.141,799.192,530.593,1.092,1158.487,370.610,1.224,740.526,349.173,1.203,1094.677,273.622,0.996,646.377,249.354,0.950,-0.025,-0.968,1.403,0.000,-349.209,0.000,-0.022,-0.006,0.021,0.010,-1.012,1.705
0722_171852_0075.png,0.027,0.168,0.938,-0.037,0.168,0.939,0.143,-0.014,1.115,-0.144,-0.009,1.134,0.096,-0.228,0.952,-0.262,-0.243,1.063,-0.016,-0.362,0.752,-0.144,-0.338,0.848,987.125,710.182,0.938,922.405,709.825,0.939,1082.093,528.350,1.115,838.984,532.310,1.134,1055.847,312.165,0.952,725.746,322.618,1.063,940.092,82.695,0.752,798.421,160.886,0.848,-0.028,-0.958,1.400,0.000,-2.813,0.000,0.030,-0.010,-0.008,-0.050,-0.779,1.666
0722_171852_0076.png,0.053,0.161,0.942,-0.015,0.161,0.944,0.182,-0.022,1.086,-0.117,-0.006,1.155,0.219,-0.258,0.964,-0.296,-0.172,1.275,0.203,-0.344,0.716,-0.359,-0.262,1.037,1013.288,702.739,0.942,944.601,701.748,0.944,1119.554,520.654,1.086,863.451,534.872,1.155,1176.020,285.327,0.964,739.158,411.904,1.275,1230.130,83.166,0.716,630.515,299.837,1.037,-0.039,-0.963,1.402,0.000,-12.137,0.000,-0.036,0.027,0.004,-0.301,-0.848,1.237
0722_171852_0077.png,0.057,0.163,0.937,-0.010,0.158,0.930,0.174,-0.015,1.082,-0.123,0.002,1.153,0.176,-0.169,1.298,-0.191,-0.167,0.947,0.271,-0.251,1.066,-0.256,-0.331,0.744,1017.984,704.930,0.937,949.971,701.374,0.930,1112.907,526.913,1.082,858.301,541.336,1.153,1088.781,416.516,1.298,767.699,371.799,0.947,1202.103,315.826,1.066,633.440,116.741,0.744,-0.031,-0.970,1.403,0.000,-12.752,0.000,-0.031,0.021,0.008,0.099,-0.978,1.545
0722_171852_0078.png,0.023,0.171,0.934,-0.044,0.171,0.933,0.141,-0.011,1.116,-0.162,-0.011,1.117,0.236,-0.235,1.241,-0.266,-0.231,1.008,0.284,-0.278,0.993,-0.230,-0.335,0.778,983.725,714.648,0.934,915.333,714.590,0.933,1079.884,530.556,1.116,821.934,530.780,1.117,1140.519,359.727,1.241,709.083,322.298,1.008,1232.437,273.563,0.993,678.201,129.781,0.778,-0.027,-0.962,1.401,0.000,-359.042,0.000,-0.020,-0.012,0.033,0.050,-0.800,1.473
0722_171852_0079.png,0.027,0.170,0.939,-0.038,0.169,0.935,0.132,0.004,1.137,-0.162,0.000,1.116,0.278,-0.198,1.237,-0.314,-0.214,1.178,0.237,-0.293,0.987,-0.394,-0.303,0.936,987.514,712.307,0.939,921.256,712.228,0.935,1070.330,543.668,1.137,821.678,539.687,1.116,1174.125,387.611,1.237,706.201,367.527,1.178,1188.155,257.411,0.987,559.939,232.501,0.936,-0.033,-0.971,1.403,0.000,-354.702,0.000,0.006,0.005,-0.030,0.280,-1.012,1.468
0722_171852_0080.png,0.023,0.154,0.938,-0.044,0.154,0.941,0.147,-0.010,1.123,-0.153,-0.006,1.139,0.160,-0.268,1.030,-0.180,-0.194,0.930,-0.015,-0.331,0.833,-0.166,-0.362,0.712,983.154,695.657,0.938,915.756,695.727,0.941,1084.624,531.794,1.123,832.096,535.138,1.139,1107.421,292.164,1.030,776.297,341.901,0.930,942.482,162.574,0.833,737.747,56.842,0.712,-0.026,-0.962,1.401,0.000,-2.113,0.000,-0.013,0.012,-0.039,-0.142,-1.128,1.468
0722_171852_0081.png,0.000,0.185,0.935,-0.065,0.188,0.942,0.115,0.010,1.146,-0.179,0.000,1.102,0.261,-0.197,1.036,-0.284,-0.193,0.932,0.365,-0.334,0.826,-0.335,-0.361,0.724,960.320,728.092,0.935,894.314,729.939,0.942,1055.260,548.643,1.146,805.935,540.313,1.102,1199.938,359.297,1.036,670.600,343.188,0.932,1380.179,154.955,0.826,519.904,65.610,0.724,-0.027,-0.972,1.404,0.000,-350.129,0.000,0.001,-0.013,-0.031,-0.082,-0.815,1.351
0722_171852_0082.png,0.040,0.163,0.922,-0.025,0.161,0.924,0.167,-0.018,1.077,-0.118,-0.002,1.145,0.099,-0.193,0.891,-0.282,-0.182,1.040,0.031,-0.363,0.711,-0.392,-0.322,0.856,1001.268,707.720,0.922,934.367,706.001,0.924,1107.168,524.472,1.077,861.805,538.355,1.145,1065.174,334.410,0.891,702.040,373.873,1.040,1001.048,53.949,0.711,525.107,181.882,0.856,-0.032,-0.964,1.402,0.000,-12.573,0.000,0.012,-0.017,0.034,-0.306,-1.121,1.391
0722_171852_0083.png,0.043,0.169,0.927,-0.023,0.166,0.925,0.166,-0.018,1.075,-0.120,-0.001,1.153,0.125,-0.290,1.084,-0.277,-0.217,1.112,0.069,-0.331,0.831,-0.194,-0.318,0.886,1004.100,713.336,0.927,936.710,710.912,0.925,1106.951,523.646,1.075,861.378,539.552,1.153,1069.284,285.909,1.084,722.838,354.392,1.112,1039.327,161.741,0.831,752.084,198.310,0.886,-0.025,-0.961,1.401,0.000,-14.495,0.000,0.001,-0.024,0.011,-0.181,-0.981,1.461
0722_171852_0084.png,0.006,0.166,0.925,-0.059,0.170,0.935,0.126,0.001,1.140,-0.167,-0.006,1.110,0.152,-0.181,0.921,-0.248,-0.244,1.227,0.180,-0.359,0.709,-0.251,-0.306,0.963,965.800,710.166,0.925,900.248,713.219,0.935,1064.757,540.643,1.140,817.305,534.809,1.110,1116.818,353.298,0.921,767.927,350.512,1.227,1201.428,58.657,0.709,711.941,237.779,0.963,-0.032,-0.962,1.401,0.000,-352.868,0.000,0.011,-0.029,-0.029,-0.217,-1.045,1.633
0722_171852_0085.png,0.056,0.170,0.937,-0.010,0.165,0.930,0.174,-0.005,1.089,-0.118,0.011,1.156,0.139,-0.265,1.012,-0.241,-0.226,1.200,-0.017,-0.339,0.803,-0.239,-0.300,0.939,1017.183,712.441,0.937,950.144,708.651,0.930,1111.532,536.005,1.089,863.095,548.867,1.156,1090.392,290.965,1.012,769.120,360.724,1.200,939.930,138.826,0.803,717.629,236.655,0.939,-0.033,-0.974,1.404,0.000,-12.068,0.000,-0.008,0.009,-0.031,0.063,-1.067,1.498
0722_171852_0086.png,0.049,0.171,0.916,-0.016,0.168,0.916,0.176,-0.011,1.071,-0.107,0.007,1.149,0.152,-0.270,0.991,-0.171,-0.171,0.952,-0.017,-0.345,0.809,-0.234,-0.346,0.761,1011.062,717.335,0.916,943.587,714.451,0.916,1115.901,530.499,1.071,871.708,546.142,1.149,1105.737,280.559,0.991,788.833,368.829,0.952,939.539,134.258,0.809,667.717,106.998,0.761,-0.036,-0.967,1.402,0.000,-14.825,0.000,0.011,-0.040,0.016,-0.261,-1.189,1.471
0722_171852_0087.png,-0.001,0.141,0.945,-0.067,0.143,0.947,0.104,-0.014,1.158,-0.188,-0.029,1.092,0.216,-0.251,1.164,-0.311,-0.217,1.222,0.233,-0.299,0.908,-0.370,-0.277,0.974,959.331,681.706,0.945,892.843,683.979,0.947,1045.125,528.153,1.158,796.121,514.406,1.092,1136.889,334.583,1.164,717.921,370.839,1.222,1204.117,226.598,0.908,598.802,269.952,0.974,-0.026,-0.959,1.400,0.000,-345.925,0.000,-0.009,0.049,0.005,0.194,-1.009,1.294
0722_171852_0088.png,0.013,0.178,0.927,-0.053,0.182,0.935,0.137,0.002,1.135,-0.166,-0.005,1.102,0.228,-0.237,1.241,-0.195,-0.270,1.042,0.299,-0.283,0.992,-0.158,-0.336,0.790,973.832,723.079,0.927,905.729,724.920,0.935,1074.863,542.057,1.135,816.783,535.668,1.102,1134.316,358.593,1.241,781.707,293.278,1.042,1246.816,268.582,0.992,769.782,136.178,0.790,-0.038,-0.967,1.402,0.000,-352.543,0.000,-0.027,-0.025,0.004,-0.175,-0.870,1.439
0722_171852_0089.png,0.008,0.149,0.932,-0.060,0.152,0.935,0.126,-0.003,1.143,-0.182,-0.012,1.106,0.271,-0.218,1.219,-0.207,-0.277,1.123,0.388,-0.273,0.987,-0.156,-0.304,0.865,968.488,692.007,0.932,898.815,694.291,0.935,1064.442,537.511,1.143,803.596,530.066,1.106,1171.618,369.719,1.219,784.474,305.002,1.123,1334.167,276.761,0.987,788.726,205.348,0.865,-0.027,-0.966,1.402,0.000,-351.742,0.000,-0.043,0.016,-0.008,0.033,-1.281,1.355
0722_171852_0090.png,0.045,0.169,0.937,-0.023,0.167,0.934,0.163,-0.006,1.104,-0.143,0.000,1.133,0.212,-0.267,1.072,-0.327,-0.196,1.098,0.020,-0.301,0.892,-0.434,-0.299,0.883,1005.654,711.085,0.937,936.529,709.698,0.934,1100.715,534.566,1.104,839.824,540.311,1.133,1147.895,303.476,1.072,676.384,369.833,1.098,980.844,219.653,0.892,492.586,218.186,0.883,-0.035,-0.973,1.404,0.000,-4.383,0.000,-0.037,0.017,0.016,0.109,-0.976,1.325
0722_171852_0091.png,0.024,0.161,0.943,-0.043,0.161,0.943,0.142,-0.016,1.120,-0.158,-0.013,1.130,0.279,-0.242,1.069,-0.126,-0.186,0.921,0.332,-0.323,0.824,-0.094,-0.353,0.716,983.793,702.199,0.943,916.666,701.936,0.943,1080.462,526.565,1.120,826.833,528.800,1.130,1208.413,324.509,1.069,829.838,348.263,0.921,1342.507,166.851,0.824,835.337,71.430,0.716,-0.024,-0.960,1.401,0.000,-0.961,0.000,-0.011,0.014,0.001,0.008,-0.820,1.500
0722_171852_0092.png,0.056,0.182,0.929,-0.009,0.180,0.925,0.176,-0.008,1.081,-0.110,0.008,1.149,0.250,-0.203,1.264,-0.243,-0.205,1.261,0.332,-0.287,1.028,-0.265,-0.288,1.012,1017.529,726.569,0.929,950.782,724.530,0.925,1115.003,532.880,1.081,869.046,546.224,1.149,1147.941,386.979,1.264,776.921,385.219,1.261,1266.769,274.182,1.028,711.127,269.075,1.012,-0.039,-0.968,1.403,0.000,-12.523,0.000,0.008,-0.028,0.000,-0.080,-0.892,1.425
0722_171852_0093.png,0.058,0.173,0.943,-0.005,0.169,0.935,0.169,-0.018,1.078,-0.108,-0.001,1.151,0.169,-0.279,1.029,-0.272,-0.189,1.237,-0.012,-0.331,0.854,-0.458,-0.269,1.078,1018.394,713.965,0.943,954.737,711.865,0.935,1108.897,524.234,1.078,870.641,539.111,1.151,1116.364,282.433,1.029,750.795,394.390,1.237,946.985,170.916,0.854,556.130,302.500,1.078,-0.034,-0.968,1.403,0.000,-13.981,0.000,0.034,0.017,0.020,0.071,-0.779,1.225
0722_171852_0094.png,0.065,0.176,0.935,0.002,0.170,0.922,0.171,-0.012,1.080,-0.109,0.004,1.148,0.149,-0.260,0.976,-0.203,-0.229,1.050,-0.003,-0.351,0.786,-0.072,-0.336,0.855,1026.117,719.143,0.935,962.413,715.263,0.922,1110.913,529.795,1.080,869.636,543.343,1.148,1105.099,287.005,0.976,775.879,333.093,1.050,956.870,115.226,0.786,879.812,166.878,0.855,-0.037,-0.968,1.403,0.000,-12.796,0.000,0.027,-0.016,0.012,0.300,-0.942,1.490
0722_171852_0095.png,0.054,0.162,0.932,-0.013,0.159,0.928,0.174,-0.019,1.085,-0.124,-0.005,1.148,0.255,-0.258,1.187,-0.275,-0.211,1.062,0.113,-0.284,0.970,-0.243,-0.321,0.829,1015.109,705.098,0.932,946.575,702.536,0.928,1112.415,523.144,1.085,857.153,536.059,1.148,1164.566,333.480,1.187,713.939,351.439,1.062,1070.554,261.135,0.970,680.807,172.297,0.829,-0.035,-0.962,1.401,0.000,-11.064,0.000,-0.027,-0.004,0.019,0.021,-0.914,1.719
0722_171852_0096.png,0.016,0.172,0.936,-0.048,0.174,0.942,0.136,-0.005,1.126,-0.156,-0.007,1.117,0.121,-0.233,0.983,-0.220,-0.183,0.914,-0.016,-0.345,0.790,-0.283,-0.355,0.717,976.695,714.519,0.936,911.396,715.499,0.942,1075.204,535.774,1.126,827.117,534.091,1.117,1077.445,314.685,0.983,731.235,349.419,0.914,940.772,125.219,0.790,584.892,68.727,0.717,-0.032,-0.966,1.402,0.000,-357.132,0.000,0.014,0.001,0.004,-0.161,-0.793,1.502
0722_171852_0097.png,0.030,0.164,0.935,-0.036,0.165,0.939,0.157,-0.010,1.114,-0.139,-0.004,1.140,0.114,-0.242,0.968,-0.146,-0.185,0.921,0.020,-0.360,0.744,-0.156,-0.361,0.708,990.359,706.951,0.935,923.826,707.052,0.939,1093.777,531.048,1.114,844.348,536.421,1.140,1072.202,301.882,0.968,808.772,349.473,0.921,985.390,79.302,0.744,750.398,55.357,0.708,-0.034,-0.960,1.401,0.000,-4.174,0.000,0.001,-0.008,-0.028,-0.269,-1.070,1.226
0722_171852_0098.png,0.056,0.153,0.940,-0.010,0.150,0.935,0.174,-0.022,1.086,-0.115,-0.006,1.155,0.086,-0.248,0.970,-0.278,-0.188,1.264,0.004,-0.346,0.741,-0.429,-0.263,1.062,1016.276,695.284,0.940,949.602,692.205,0.935,1112.726,520.747,1.086,865.097,534.988,1.155,1044.654,297.160,0.970,750.726,398.882,1.264,964.595,95.299,0.741,575.515,304.841,1.062,-0.035,-0.963,1.401,0.000,-12.598,0.000,-0.005,0.025,0.001,-0.035,-1.133,1.139
0722_171852_0099.png,0.025,0.169,0.929,-0.038,0.169,0.928,0.129,-0.002,1.129,-0.154,-0.006,1.108,0.169,-0.215,0.971,-0.203,-0.274,1.103,0.143,-0.363,0.758,-0.161,-0.338,0.853,985.771,712.795,0.929,921.399,713.297,0.928,1068.516,538.700,1.129,827.888,534.422,1.108,1125.735,329.210,0.971,784.707,303.740,1.103,1140.117,84.453,0.758,780.433,163.715,0.853,-0.036,-0.966,1.402,0.000,-354.356,0.000,0.045,-0.016,0.012,0.175,-1.072,1.328
0722_171852_0100.png,0.035,0.156,0.942,-0.028,0.154,0.937,0.139,-0.015,1.125,-0.149,-0.016,1.118,0.081,-0.183,0.920,-0.316,-0.214,1.168,0.024,-0.347,0.721,-0.216,-0.303,0.948,995.651,697.052,0.942,931.134,696.327,0.937,1077.839,527.704,1.125,833.160,526.226,1.118,1043.577,351.300,0.920,702.277,365.757,1.168,991.876,82.762,0.721,743.723,236.599,0.948,-0.036,-0.962,1.401,0.000,-357.371,0.000,0.028,0.021,0.023,0.285,-0.949,1.436
0722_171852_0101.png,0.009,0.182,0.929,-0.058,0.187,0.938,0.133,0.009,1.140,-0.170,0.001,1.105,0.077,-0.172,0.928,-0.284,-0.183,1.278,0.022,-0.349,0.721,-0.408,-0.271,1.055,969.362,726.903,0.929,901.633,729.100,0.938,1070.838,547.346,1.140,814.052,540.759,1.105,1038.764,363.336,0.928,748.755,403.712,1.278,989.231,80.136,0.721,592.273,295.832,1.055,-0.036,-0.970,1.403,0.000,-352.158,0.000,-0.026,-0.025,-0.024,-0.213,-0.952,1.235
0722_171852_0102.png,0.016,0.185,0.933,-0.048,0.187,0.941,0.142,0.008,1.121,-0.150,0.010,1.130,0.266,-0.234,1.146,-0.284,-0.215,1.046,0.334,-0.322,0.899,-0.275,-0.346,0.806,976.215,728.279,0.933,911.177,729.181,0.941,1080.351,546.526,1.121,833.630,548.294,1.130,1180.791,346.257,1.146,701.834,344.470,1.046,1313.404,199.446,0.899,636.227,132.467,0.806,-0.029,-0.975,1.404,0.000,-0.722,0.000,0.016,-0.011,-0.035,-0.316,-0.879,1.385
0722_171852_0103.png,0.010,0.158,0.936,-0.055,0.160,0.939,0.115,-0.008,1.146,-0.174,-0.022,1.088,0.253,-0.226,1.090,-0.220,-0.239,0.946,0.204,-0.318,0.856,-0.210,-0.353,0.717,969.947,700.446,0.936,903.949,702.100,0.939,1055.014,533.106,1.146,807.932,521.067,1.088,1180.714,342.545,1.090,738.730,299.986,0.946,1187.122,186.433,0.856,682.055,72.417,0.717,-0.035,-0.964,1.402,0.000,-347.155,0.000,0.008,0.019,0.031,0.146,-0.808,1.639
0722_171852_0104.png,0.010,0.161,0.937,-0.055,0.163,0.939,0.120,0.002,1.138,-0.171,-0.004,1.110,0.181,-0.173,0.928,-0.238,-0.169,1.306,0.243,-0.343,0.724,-0.307,-0.264,1.068,970.108,703.661,0.937,904.381,705.016,0.939,1060.080,541.857,1.138,813.102,536.358,1.110,1145.684,363.194,0.928,786.462,416.604,1.306,1278.934,89.602,0.724,686.483,305.051,1.068,-0.026,-0.974,1.404,0.000,-353.160,0.000,0.014,0.024,-0.010,0.066,-1.043,1.489
0722_171852_0105.png,0.018,0.159,0.941,-0.050,0.159,0.938,0.127,-0.004,1.141,-0.177,-0.010,1.114,0.092,-0.181,0.924,-0.129,-0.225,0.949,0.057,-0.352,0.713,-0.056,-0.350,0.722,977.831,700.905,0.941,909.477,701.166,0.938,1065.539,536.677,1.141,808.914,531.333,1.114,1054.150,354.287,0.924,830.810,314.106,0.949,1036.142,70.783,0.713,885.894,78.337,0.722,-0.025,-0.965,1.402,0.000,-353.647,0.000,-0.026,0.015,-0.020,0.245,-1.007,1.508
0722_171852_0106.png,0.013,0.170,0.941,-0.054,0.171,0.940,0.118,0.000,1.151,-0.181,-0.011,1.102,0.191,-0.202,1.318,-0.285,-0.244,0.996,0.277,-0.263,1.069,-0.260,-0.350,0.747,973.158,711.930,0.941,905.190,712.994,0.940,1057.661,539.969,1.151,804.186,530.233,1.102,1098.075,394.341,1.318,687.619,307.434,0.996,1206.864,306.313,1.069,628.781,94.780,0.747,-0.030,-0.963,1.401,0.000,-349.260,0.000,-0.021,-0.004,-0.031,0.255,-0.858,1.487
0722_171852_0107.png,0.032,0.162,0.932,-0.032,0.162,0.935,0.157,-0.016,1.093,-0.127,-0.004,1.145,0.238,-0.216,1.254,-0.212,-0.172,0.944,0.398,-0.276,1.060,-0.296,-0.335,0.749,992.544,705.214,0.932,927.358,704.338,0.935,1096.810,525.948,1.093,854.761,536.650,1.145,1140.454,376.096,1.254,746.580,367.269,0.944,1317.045,292.570,1.060,584.451,114.735,0.749,-0.028,-0.964,1.402,0.000,-9.611,0.000,0.027,0.004,0.009,-0.313,-1.010,1.352
0722_171852_0108.png,0.028,0.163,0.942,-0.039,0.162,0.942,0.149,-0.005,1.116,-0.154,-0.002,1.130,0.241,-0.198,1.269,-0.296,-0.209,1.033,0.179,-0.264,1.022,-0.356,-0.324,0.804,988.725,704.215,0.942,921.015,703.879,0.942,1086.626,535.333,1.116,830.722,538.119,1.130,1140.792,391.726,1.269,687.506,347.686,1.033,1126.814,294.361,1.022,539.058,156.560,0.804,-0.029,-0.974,1.404,0.000,-1.569,0.000,-0.019,0.037,0.002,-0.023,-1.022,1.164
0722_171852_0109.png,0.014,0.164,0.939,-0.051,0.165,0.938,0.116,0.000,1.144,-0.174,-0.010,1.100,0.204,-0.224,1.023,-0.239,-0.240,0.978,0.229,-0.339,0.788,-0.160,-0.350,0.753,973.755,705.825,0.939,907.937,706.788,0.938,1056.203,539.764,1.144,809.666,531.171,1.100,1149.813,332.205,1.023,727.458,306.755,0.978,1235.962,131.173,0.788,757.788,97.332,0.753,-0.029,-0.970,1.403,0.000,-350.123,0.000,0.013,0.021,0.002,0.249,-0.906,1.548
0722_171852_0110.png,0.018,0.144,0.934,-0.049,0.145,0.938,0.144,-0.014,1.116,-0.160,-0.011,1.127,0.086,-0.182,0.915,-0.306,-0.205,1.233,0.026,-0.345,0.719,-0.434,-0.265,1.015,978.258,686.157,0.934,910.014,686.751,0.938,1082.940,528.354,1.116,825.434,530.793,1.127,1049.256,350.384,0.915,723.805,381.902,1.233,994.687,83.242,0.719,553.367,291.339,1.015,-0.025,-0.968,1.402,0.000,-1.140,0.000,-0.024,0.037,0.022,-0.173,-1.153,1.573
0722_171852_0111.png,0.019,0.172,0.940,-0.046,0.173,0.942,0.134,-0.006,1.131,-0.159,-0.008,1.123,0.169,-0.209,0.944,-0.315,-0.229,1.094,0.143,-0.365,0.724,-0.287,-0.334,0.847,979.541,714.171,0.940,914.002,714.581,0.942,1072.387,534.662,1.131,825.430,533.179,1.123,1130.198,329.250,0.944,685.822,341.343,1.094,1147.836,59.706,0.724,637.403,165.347,0.847,-0.029,-0.960,1.401,0.000,-357.334,0.000,0.014,-0.010,-0.026,0.003,-0.850,1.338
0722_171852_0112.png,0.028,0.171,0.932,-0.039,0.171,0.932,0.144,0.001,1.129,-0.158,0.000,1.126,0.204,-0.251,1.023,-0.271,-0.240,1.042,0.094,-0.345,0.792,-0.293,-0.342,0.788,988.578,714.195,0.932,920.237,714.265,0.932,1081.583,540.632,1.129,826.721,539.974,1.126,1150.121,306.908,1.023,712.419,320.506,1.042,1073.389,125.300,0.792,606.974,126.996,0.788,-0.033,-0.964,1.402,0.000,-358.166,0.000,-0.018,-0.024,-0.040,0.068,-1.103,1.396
0722_171852_0113.png,0.027,0.170,0.933,-0.042,0.169,0.930,0.139,-0.001,1.130,-0.171,-0.005,1.110,0.221,-0.215,1.281,-0.210,-0.247,0.995,0.387,-0.253,1.075,-0.057,-0.328,0.793,987.311,713.262,0.933,917.022,713.221,0.930,1077.064,539.515,1.130,813.467,535.592,1.110,1123.790,380.651,1.281,759.413,303.574,0.995,1301.985,316.025,1.075,891.473,146.016,0.793,-0.031,-0.968,1.403,0.000,-355.063,0.000,-0.047,-0.010,0.003,0.257,-1.062,1.284
0722_171852_0114.png,0.055,0.165,0.939,-0.012,0.160,0.929,0.169,-0.016,1.098,-0.137,-0.005,1.146,0.128,-0.249,0.964,-0.269,-0.239,1.094,0.080,-0.348,0.722,-0.097,-0.305,0.896,1016.020,706.762,0.939,947.449,703.565,0.929,1106.134,526.498,1.098,845.993,536.169,1.146,1086.534,294.478,0.964,725.892,332.208,1.094,1064.819,82.387,0.722,856.866,215.938,0.896,-0.032,-0.960,1.401,0.000,-7.923,0.000,-0.044,-0.007,-0.007,0.279,-0.970,1.533
0722_171852_0115.png,0.039,0.184,0.933,-0.025,0.180,0.926,0.150,0.007,1.108,-0.140,0.015,1.139,0.152,-0.268,1.142,-0.153,-0.215,0.978,0.111,-0.331,0.878,-0.091,-0.365,0.759,999.922,727.526,0.933,934.070,725.089,0.926,1088.818,546.329,1.108,843.044,552.213,1.139,1086.689,316.380,1.142,811.545,331.102,0.978,1080.083,181.581,0.878,846.530,82.533,0.759,-0.027,-0.975,1.404,0.000,-5.199,0.000,0.017,-0.025,-0.039,0.203,-1.150,1.223
0722_171852_0116.png,0.048,0.160,0.934,-0.017,0.159,0.937,0.178,-0.016,1.088,-0.110,0.000,1.155,0.113,-0.237,0.942,-0.230,-0.229,1.073,0.052,-0.363,0.714,-0.084,-0.322,0.873,1008.909,702.592,0.934,942.275,701.195,0.937,1115.317,526.353,1.088,869.562,539.898,1.155,1073.662,300.642,0.942,755.846,336.914,1.073,1028.795,56.562,0.714,868.092,189.164,0.873,-0.039,-0.965,1.402,0.000,-12.351,0.000,0.004,0.012,-0.013,-0.353,-1.017,1.493
0722_171852_0117.png,0.040,0.138,0.942,-0.025,0.136,0.937,0.153,-0.024,1.111,-0.142,-0.018,1.135,0.169,-0.262,1.001,-0.233,-0.181,0.941,0.009,-0.327,0.809,-0.321,-0.339,0.751,1000.568,679.585,0.942,934.304,677.655,0.937,1091.129,519.610,1.111,840.735,524.730,1.135,1120.800,291.412,1.001,724.160,357.070,0.941,970.461,155.410,0.809,553.721,110.526,0.751,-0.032,-0.960,1.401,0.000,-3.657,0.000,0.001,0.042,0.024,0.142,-1.106,1.567
0722_171852_0118.png,0.023,0.168,0.944,-0.042,0.168,0.943,0.136,-0.006,1.134,-0.158,-0.007,1.130,0.197,-0.251,1.016,-0.308,-0.228,1.062,0.094,-0.352,0.784,-0.298,-0.341,0.812,982.999,709.399,0.944,917.211,709.457,0.943,1074.094,534.664,1.134,826.690,533.886,1.130,1144.813,304.584,1.016,684.413,336.316,1.062,1074.314,112.492,0.784,610.815,139.877,0.812,-0.029,-0.960,1.401,0.000,-358.044,0.000,0.008,-0.003,-0.046,0.066,-0.812,1.673
0722_171852_0119.png,0.020,0.187,0.936,-0.048,0.189,0.941,0.142,0.008,1.136,-0.166,0.002,1.110,0.265,-0.221,1.229,-0.287,-0.247,1.105,0.391,-0.278,0.997,-0.140,-0.308,0.886,980.651,729.901,0.936,911.503,730.900,0.941,1078.511,546.600,1.136,817.600,541.620,1.110,1165.367,369.407,1.229,713.104,327.816,1.105,1333.230,275.086,0.997,809.721,209.553,0.886,-0.038,-0.972,1.404,0.000,-353.858,0.000,-0.041,-0.014,-0.024,-0.039,-0.758,1.422
0722_171852_0120.png,0.036,0.181,0.940,-0.030,0.179,0.937,0.149,0.001,1.119,-0.147,0.004,1.130,0.182,-0.235,1.250,-0.279,-0.211,1.231,0.183,-0.290,0.987,-0.389,-0.289,0.999,996.118,722.648,0.940,929.568,722.010,0.937,1087.027,540.787,1.119,836.342,542.948,1.130,1098.209,361.166,1.250,744.669,376.888,1.231,1136.016,260.332,0.987,589.997,265.041,0.999,-0.034,-0.971,1.403,0.000,-1.050,0.000,0.001,-0.005,-0.022,0.112,-0.789,1.589
0722_171852_0121.png,0.020,0.170,0.941,-0.046,0.172,0.945,0.146,-0.006,1.120,-0.154,-0.002,1.136,0.238,-0.251,1.038,-0.255,-0.225,1.006,0.138,-0.336,0.802,-0.223,-0.347,0.766,980.659,712.265,0.941,913.619,712.590,0.945,1084.071,534.896,1.120,830.887,538.023,1.136,1178.387,310.024,1.038,719.039,327.704,1.006,1123.410,141.378,0.802,683.158,109.468,0.766,-0.026,-0.965,1.402,0.000,-1.933,0.000,-0.013,0.005,-0.031,-0.187,-0.799,1.611
0722_171852_0122.png,0.028,0.150,0.933,-0.038,0.149,0.934,0.151,-0.015,1.100,-0.146,-0.006,1.136,0.271,-0.234,1.012,-0.143,-0.195,0.951,0.312,-0.331,0.778,-0.082,-0.343,0.748,988.947,693.057,0.933,921.515,691.971,0.934,1090.528,527.314,1.100,838.171,534.717,1.136,1214.536,320.250,1.012,817.352,345.065,0.951,1341.198,135.622,0.778,855.664,104.381,0.748,-0.024,-0.970,1.403,0.000,-6.004,0.000,-0.007,0.030,0.030,-0.112,-1.069,1.642
0722_171852_0123.png,0.053,0.176,0.940,-0.011,0.172,0.931,0.165,-0.007,1.102,-0.121,0.004,1.149,0.171,-0.275,1.029,-0.141,-0.213,0.971,-0.005,-0.346,0.838,-0.066,-0.363,0.759,1013.876,718.039,0.940,948.998,715.352,0.931,1102.327,533.812,1.102,859.509,542.964,1.149,1118.477,285.842,1.029,821.681,331.832,0.971,954.727,147.969,0.838,877.035,85.669,0.759,-0.036,-0.964,1.402,0.000,-8.345,0.000,0.022,-0.017,-0.037,0.175,-1.045,1.133
0722_171852_0124.png,0.016,0.174,0.948,-0.050,0.175,0.951,0.132,-0.005,1.135,-0.164,-0.010,1.116,0.277,-0.214,1.044,-0.178,-0.262,1.022,0.359,-0.328,0.818,-0.127,-0.341,0.773,976.156,714.145,0.948,910.316,714.767,0.951,1070.851,535.520,1.135,820.027,531.622,1.116,1212.802,344.642,1.044,794.086,295.944,1.022,1377.325,158.477,0.818,803.954,120.380,0.773,-0.031,-0.967,1.402,0.000,-354.968,0.000,-0.001,0.020,-0.009,-0.018,-0.628,1.471
0722_171852_0125.png,-0.019,0.158,0.943,-0.083,0.164,0.957,0.102,-0.007,1.156,-0.188,-0.021,1.096,0.122,-0.236,1.012,-0.193,-0.248,0.947,0.005,-0.339,0.797,-0.156,-0.359,0.708,940.898,699.365,0.943,877.734,702.735,0.957,1043.593,534.191,1.156,796.743,522.042,1.096,1074.531,318.024,1.012,765.960,291.519,0.947,966.528,135.562,0.797,750.777,57.844,0.708,-0.023,-0.962,1.401,0.000,-346.959,0.000,0.002,0.031,-0.013,-0.324,-0.814,1.289
0722_171852_0126.png,0.024,0.180,0.927,-0.042,0.180,0.925,0.132,-0.002,1.129,-0.165,-0.008,1.099,0.223,-0.252,1.072,-0.207,-0.267,1.027,0.087,-0.323,0.862,-0.054,-0.333,0.829,985.008,725.090,0.927,916.908,725.456,0.925,1071.399,538.497,1.129,816.895,532.672,1.099,1157.330,316.513,1.072,768.093,292.691,1.027,1055.462,183.504,0.862,898.110,157.586,0.829,-0.034,-0.963,1.401,0.000,-353.100,0.000,-0.008,-0.040,0.027,0.222,-0.891,1.353
0722_171852_0127.png,0.024,0.166,0.932,-0.040,0.165,0.931,0.141,-0.009,1.106,-0.146,-0.002,1.136,0.167,-0.279,1.090,-0.280,-0.228,1.076,0.134,-0.338,0.835,-0.203,-0.335,0.849,984.478,709.271,0.932,919.106,708.238,0.931,1081.655,532.602,1.106,838.163,538.617,1.136,1105.798,296.636,1.090,712.785,338.475,1.076,1112.929,155.005,0.835,732.916,164.266,0.849,-0.021,-0.965,1.402,0.000,-4.999,0.000,0.028,-0.009,-0.002,-0.063,-0.982,1.630
0722_171852_0128.png,0.034,0.157,0.933,-0.032,0.156,0.934,0.156,-0.017,1.103,-0.138,-0.009,1.139,0.079,-0.189,0.905,-0.300,-0.211,1.214,0.003,-0.356,0.711,-0.220,-0.290,0.977,994.621,700.088,0.933,927.694,699.093,0.934,1094.567,525.319,1.103,844.802,532.767,1.139,1042.890,341.542,0.905,724.962,374.363,1.214,964.226,64.089,0.711,745.439,258.105,0.977,-0.030,-0.960,1.401,0.000,-6.064,0.000,0.002,0.001,0.008,-0.130,-1.146,1.173
0722_171852_0129.png,0.040,0.176,0.936,-0.025,0.175,0.935,0.162,-0.007,1.096,-0.130,0.005,1.145,0.266,-0.233,1.202,-0.195,-0.245,1.057,0.354,-0.297,0.960,-0.174,-0.337,0.809,1001.021,719.232,0.936,934.179,717.994,0.935,1100.636,534.293,1.096,851.741,543.804,1.145,1170.687,355.434,1.202,784.662,319.652,1.057,1310.321,246.211,0.960,756.031,143.615,0.809,-0.031,-0.970,1.403,0.000,-8.495,0.000,0.001,-0.003,-0.008,-0.112,-0.859,1.465
0722_171852_0130.png,0.044,0.173,0.936,-0.024,0.172,0.936,0.170,-0.007,1.093,-0.131,0.006,1.147,0.209,-0.196,1.279,-0.309,-0.193,1.088,0.371,-0.254,1.072,-0.381,-0.311,0.861,1004.576,715.772,0.936,935.631,714.434,0.936,1108.127,534.257,1.093,851.317,544.891,1.147,1115.396,394.140,1.279,689.951,371.148,1.088,1288.887,314.791,1.072,539.428,196.786,0.861,-0.032,-0.973,1.404,0.000,-9.320,0.000,-0.032,0.010,-0.007,-0.174,-0.995,1.153
0722_171852_0131.png,0.045,0.152,0.948,-0.020,0.150,0.947,0.165,-0.025,1.096,-0.122,-0.012,1.154,0.092,-0.234,0.940,-0.169,-0.219,0.988,0.016,-0.357,0.718,-0.081,-0.343,0.773,1004.840,692.489,0.948,939.632,690.916,0.947,1103.111,518.050,1.096,859.466,530.229,1.154,1052.904,303.470,0.940,796.927,329.039,0.988,981.703,67.360,0.718,860.625,117.549,0.773,-0.031,-0.960,1.401,0.000,-10.637,0.000,0.013,0.042,-0.003,-0.141,-0.873,1.348
0722_171852_0132.png,-0.016,0.145,0.934,-0.080,0.152,0.948,0.102,-0.007,1.158,-0.186,-0.023,1.089,0.124,-0.181,0.946,-0.300,-0.213,1.232,0.145,-0.349,0.739,-0.363,-0.280,0.985,944.198,687.566,0.934,880.226,692.884,0.948,1044.071,533.923,1.158,797.436,519.694,1.089,1084.312,358.493,0.946,728.327,375.633,1.232,1146.362,90.997,0.739,609.904,269.357,0.985,-0.029,-0.961,1.401,0.000,-345.047,0.000,-0.001,0.029,-0.004,-0.289,-1.106,1.305
0722_171852_0133.png,0.019,0.165,0.928,-0.045,0.166,0.931,0.138,-0.007,1.111,-0.152,-0.005,1.120,0.152,-0.275,1.137,-0.314,-0.213,1.165,0.110,-0.317,0.888,-0.260,-0.307,0.934,979.670,709.417,0.928,914.103,709.758,0.931,1077.970,534.008,1.111,831.257,535.733,1.120,1087.320,310.153,1.137,703.309,366.262,1.165,1077.875,200.725,0.888,695.750,227.039,0.934,-0.027,-0.969,1.403,0.000,-0.575,0.000,0.025,-0.003,0.033,-0.141,-1.119,1.168
0722_171852_0134.png,0.059,0.167,0.933,-0.007,0.162,0.924,0.172,-0.017,1.072,-0.121,0.000,1.149,0.303,-0.254,1.086,-0.248,-0.189,1.295,0.356,-0.312,0.841,-0.285,-0.258,1.054,1020.143,710.630,0.933,952.871,707.173,0.924,1113.022,524.562,1.072,859.771,540.306,1.149,1225.103,317.724,1.086,777.658,401.217,1.295,1362.717,187.216,0.841,702.747,307.129,1.054,-0.030,-0.969,1.403,0.000,-13.952,0.000,-0.024,0.006,0.040,0.164,-0.975,1.385
0722_171852_0135.png,0.049,0.171,0.937,-0.019,0.166,0.931,0.168,-0.004,1.092,-0.134,0.010,1.153,0.157,-0.269,1.029,-0.274,-0.191,1.271,-0.016,-0.322,0.828,-0.338,-0.267,1.020,1009.992,713.032,0.937,940.972,709.691,0.931,1106.656,536.632,1.092,849.523,548.342,1.153,1105.131,291.903,1.029,754.896,397.216,1.271,941.938,170.097,0.828,644.742,291.338,1.020,-0.026,-0.975,1.404,0.000,-10.493,0.000,-0.040,0.011,-0.026,0.085,-1.043,1.492
0722_171852_0136.png,0.045,0.150,0.932,-0.020,0.147,0.927,0.156,-0.016,1.105,-0.139,-0.012,1.125,0.191,-0.268,1.039,-0.313,-0.206,1.082,0.031,-0.318,0.847,-0.371,-0.314,0.862,1005.991,692.714,0.932,939.313,690.830,0.927,1094.306,525.901,1.105,842.718,530.044,1.125,1134.913,294.984,1.039,684.934,358.580,1.082,994.872,182.639,0.847,550.469,194.162,0.862,-0.038,-0.965,1.402,0.000,-2.817,0.000,0.005,0.015,0.047,0.200,-1.201,1.416
0722_171852_0137.png,0.030,0.165,0.929,-0.035,0.166,0.929,0.141,-0.006,1.119,-0.151,-0.008,1.109,0.111,-0.238,1.001,-0.274,-0.240,1.169,-0.019,-0.335,0.806,-0.320,-0.303,0.929,990.241,709.352,0.929,923.769,709.563,0.929,1080.209,535.048,1.119,830.147,533.218,1.109,1065.860,313.824,1.001,737.310,345.175,1.169,938.031,144.598,0.806,632.719,229.295,0.929,-0.037,-0.970,1.403,0.000,-357.005,0.000,0.013,0.001,0.044,0.091,-1.012,1.385
0722_171852_0138.png,0.034,0.174,0.937,-0.032,0.174,0.938,0.155,-0.004,1.110,-0.143,0.000,1.128,0.097,-0.180,0.912,-0.199,-0.239,1.022,0.039,-0.351,0.719,-0.186,-0.338,0.782,994.813,716.770,0.937,927.790,716.573,0.938,1092.768,536.384,1.110,839.773,540.025,1.128,1061.174,352.265,0.912,775.174,317.949,1.022,1012.192,75.955,0.719,733.803,128.724,0.782,-0.035,-0.973,1.404,0.000,-2.475,0.000,-0.004,0.011,0.014,-0.083,-0.910,1.150
0722_171852_0139.png,0.044,0.180,0.925,-0.023,0.179,0.926,0.172,-0.010,1.070,-0.121,0.008,1.150,0.185,-0.277,1.132,-0.216,-0.243,1.119,0.166,-0.309,0.876,-0.190,-0.311,0.870,1005.363,725.589,0.925,936.282,724.063,0.926,1113.147,531.303,1.070,860.002,547.013,1.150,1115.734,307.683,1.132,776.632,333.667,1.119,1139.847,204.091,0.876,752.018,200.080,0.870,-0.029,-0.972,1.404,0.000,-14.370,0.000,-0.025,-0.017,0.024,-0.297,-0.910,1.314
0722_171852_0140.png,0.033,0.176,0.929,-0.032,0.174,0.928,0.153,0.005,1.108,-0.138,0.013,1.142,0.150,-0.261,1.022,-0.275,-0.202,1.242,-0.015,-0.347,0.826,-0.420,-0.289,1.029,993.932,720.002,0.929,927.239,718.491,0.928,1091.458,544.005,1.108,844.798,550.484,1.142,1099.671,296.955,1.022,749.481,385.051,1.242,942.304,140.690,0.826,572.360,272.776,1.029,-0.028,-0.973,1.404,0.000,-5.749,0.000,0.011,-0.021,-0.042,-0.052,-1.035,1.743
0722_171852_0141.png,0.011,0.149,0.936,-0.054,0.151,0.939,0.122,-0.009,1.136,-0.168,-0.015,1.108,0.125,-0.231,0.990,-0.225,-0.264,1.037,-0.005,-0.339,0.794,-0.055,-0.326,0.853,970.879,691.670,0.936,905.709,693.222,0.939,1061.870,532.281,1.136,816.217,526.708,1.108,1080.200,317.955,0.990,753.426,298.286,1.037,954.462,133.208,0.794,898.862,176.270,0.853,-0.028,-0.966,1.402,0.000,-353.298,0.000,0.021,0.029,0.015,0.018,-1.047,1.534
0722_171852_0142.png,0.022,0.169,0.936,-0.045,0.170,0.939,0.144,0.001,1.129,-0.162,0.000,1.125,0.208,-0.258,1.067,-0.291,-0.238,1.081,0.049,-0.318,0.857,-0.157,-0.319,0.860,982.528,711.516,0.936,913.953,712.158,0.939,1081.047,540.619,1.129,823.365,539.793,1.125,1145.706,309.750,1.067,703.757,330.510,1.081,1014.261,187.532,0.857,785.912,187.788,0.860,-0.031,-0.969,1.403,0.000,-358.006,0.000,-0.028,0.002,-0.029,-0.053,-1.068,1.263
0722_171852_0143.png,-0.001,0.151,0.931,-0.065,0.157,0.941,0.116,0.001,1.150,-0.173,-0.008,1.107,0.238,-0.212,1.255,-0.254,-0.262,1.050,0.389,-0.279,1.041,-0.089,-0.334,0.849,958.916,694.033,0.931,894.183,698.602,0.941,1056.105,541.230,1.150,811.074,532.832,1.107,1140.079,379.124,1.255,730.348,302.887,1.050,1314.948,285.562,1.041,860.240,166.321,0.849,-0.031,-0.967,1.402,0.000,-350.208,0.000,0.014,0.011,-0.037,-0.220,-1.219,1.521
0722_171852_0144.png,0.061,0.179,0.935,-0.006,0.174,0.925,0.174,-0.006,1.088,-0.128,0.007,1.144,0.223,-0.250,0.981,-0.222,-0.245,1.105,0.158,-0.342,0.744,-0.196,-0.314,0.852,1021.887,721.811,0.935,953.829,718.742,0.925,1111.867,534.957,1.088,853.663,546.009,1.144,1175.895,297.391,0.981,769.062,329.189,1.105,1162.137,102.626,0.744,741.366,189.961,0.852,-0.035,-0.972,1.404,0.000,-9.718,0.000,-0.035,-0.011,0.006,0.266,-0.928,1.492
0722_171852_0145.png,0.009,0.172,0.926,-0.056,0.174,0.929,0.124,0.002,1.127,-0.167,-0.001,1.115,0.053,-0.181,0.934,-0.214,-0.219,0.956,-0.014,-0.361,0.748,-0.223,-0.366,0.734,969.137,716.907,0.926,903.156,717.938,0.929,1064.779,541.564,1.127,817.845,539.392,1.115,1014.230,355.276,0.934,747.106,322.462,0.956,941.820,80.111,0.748,671.420,65.727,0.734,-0.022,-0.967,1.402,0.000,-356.571,0.000,0.020,-0.028,-0.008,-0.060,-1.008,1.632
0722_171852_0146.png,0.012,0.156,0.939,-0.053,0.157,0.937,0.112,-0.009,1.146,-0.176,-0.020,1.095,0.217,-0.252,1.166,-0.272,-0.258,1.023,0.246,-0.307,0.914,-0.170,-0.338,0.799,972.232,698.411,0.939,906.316,699.470,0.937,1053.170,532.896,1.146,806.811,522.536,1.095,1137.321,334.183,1.166,706.950,300.295,1.023,1215.810,220.645,0.914,757.369,137.545,0.799,-0.029,-0.962,1.401,0.000,-348.696,0.000,0.012,0.016,0.016,0.294,-0.967,1.370
0722_171852_0147.png,0.005,0.174,0.940,-0.060,0.177,0.948,0.120,0.002,1.147,-0.172,-0.006,1.110,0.275,-0.218,1.176,-0.301,-0.236,1.165,0.392,-0.304,0.946,-0.187,-0.309,0.929,965.104,715.757,0.940,900.005,717.678,0.948,1059.580,542.044,1.147,812.930,534.770,1.110,1182.331,363.867,1.176,713.916,347.468,1.165,1354.393,234.644,0.946,768.092,223.926,0.929,-0.031,-0.967,1.402,0.000,-351.357,0.000,0.009,0.003,-0.039,-0.103,-0.830,1.351
0722_171852_0148.png,0.050,0.161,0.930,-0.014,0.155,0.924,0.169,-0.013,1.084,-0.110,0.005,1.161,0.283,-0.253,1.020,-0.253,-0.228,1.167,0.325,-0.356,0.774,-0.301,-0.321,0.915,1011.213,704.393,0.930,945.280,699.637,0.924,1108.531,529.026,1.084,870.019,544.317,1.161,1224.162,304.453,1.020,753.529,354.080,1.167,1359.824,102.021,0.774,647.310,206.330,0.915,-0.029,-0.963,1.401,0.000,-14.703,0.000,0.023,-0.016,-0.038,-0.054,-1.199,1.618
0722_171852_0149.png,0.038,0.175,0.946,-0.026,0.173,0.941,0.147,-0.012,1.113,-0.138,-0.008,1.132,0.161,-0.191,0.902,-0.222,-0.259,1.085,0.177,-0.366,0.697,-0.207,-0.338,0.835,997.789,715.664,0.946,934.176,714.956,0.941,1085.616,529.526,1.113,844.285,533.454,1.132,1129.499,338.421,0.902,765.385,313.188,1.085,1200.822,40.185,0.697,724.755,154.818,0.835,-0.033,-0.962,1.401,0.000,-2.831,0.000,0.039,0.003,0.002,0.133,-0.681,1.422
0722_171852_0150.png,0.031,0.164,0.946,-0.036,0.162,0.943,0.146,-0.016,1.114,-0.153,-0.011,1.133,0.267,-0.249,1.063,-0.249,-0.239,1.230,0.294,-0.326,0.815,-0.232,-0.283,0.973,990.833,704.526,0.946,924.123,703.769,0.943,1084.865,526.645,1.114,831.993,530.652,1.133,1199.229,317.517,1.063,767.107,355.406,1.230,1302.676,159.915,0.815,733.173,263.820,0.973,-0.026,-0.963,1.401,0.000,-2.676,0.000,-0.008,0.023,0.009,0.084,-0.761,1.475
0722_171852_0151.png,0.021,0.194,0.933,-0.044,0.194,0.933,0.137,0.006,1.119,-0.160,0.007,1.123,0.226,-0.243,1.037,-0.283,-0.228,1.203,0.247,-0.346,0.791,-0.312,-0.307,0.948,981.734,737.535,0.933,914.697,737.439,0.933,1076.482,545.228,1.119,824.906,546.023,1.123,1167.583,317.618,1.037,735.920,359.395,1.203,1257.406,123.374,0.791,646.450,232.462,0.948,-0.025,-0.971,1.403,0.000,0.344,0.000,0.001,-0.036,-0.018,0.032,-0.756,1.452
0722_171852_0152.png,0.036,0.158,0.956,-0.029,0.156,0.950,0.146,-0.018,1.118,-0.145,-0.013,1.141,0.086,-0.192,0.910,-0.323,-0.209,1.122,0.030,-0.362,0.706,-0.422,-0.310,0.895,995.691,697.397,0.956,931.371,695.992,0.950,1084.140,524.648,1.118,839.024,529.408,1.141,1049.873,338.935,0.910,685.731,363.001,1.122,1000.106,51.892,0.706,511.970,211.053,0.895,-0.027,-0.961,1.401,0.000,-3.510,0.000,0.016,0.041,-0.016,0.190,-0.823,1.236
0722_171852_0153.png,0.039,0.179,0.944,-0.027,0.177,0.940,0.157,-0.004,1.101,-0.139,0.006,1.144,0.159,-0.252,0.992,-0.308,-0.179,1.034,0.001,-0.337,0.794,-0.435,-0.320,0.845,999.401,720.419,0.944,932.649,719.159,0.940,1095.538,536.598,1.101,844.540,544.824,1.144,1112.135,298.272,0.992,676.497,375.502,1.034,961.671,136.178,0.794,471.208,179.591,0.845,-0.027,-0.974,1.404,0.000,-7.191,0.000,-0.007,0.016,-0.013,0.016,-0.770,1.405
0722_171852_0154.png,0.005,0.157,0.930,-0.059,0.162,0.938,0.114,-0.005,1.148,-0.171,-0.020,1.085,0.175,-0.188,0.966,-0.269,-0.253,1.171,0.189,-0.346,0.762,-0.283,-0.305,0.920,965.131,700.937,0.930,900.106,703.981,0.938,1054.305,535.742,1.148,809.860,522.761,1.085,1132.271,354.572,0.966,741.567,334.594,1.171,1195.655,108.346,0.762,667.227,224.478,0.920,-0.038,-0.965,1.402,0.000,-346.016,0.000,0.015,0.012,0.027,-0.041,-1.020,1.244
0722_171852_0155.png,0.032,0.171,0.924,-0.033,0.170,0.921,0.147,-0.001,1.112,-0.148,0.003,1.129,0.121,-0.244,0.985,-0.282,-0.222,1.047,0.012,-0.358,0.771,-0.261,-0.344,0.810,992.946,716.249,0.924,925.678,715.002,0.921,1085.400,539.428,1.112,835.668,542.795,1.129,1076.802,304.401,0.985,703.689,338.683,1.047,974.329,98.414,0.771,654.195,136.834,0.810,-0.029,-0.966,1.402,0.000,-2.289,0.000,0.007,-0.039,-0.012,0.084,-1.166,1.537
0722_171852_0156.png,0.049,0.184,0.934,-0.018,0.181,0.926,0.162,-0.006,1.096,-0.142,0.001,1.130,0.246,-0.266,1.124,-0.188,-0.237,1.021,0.245,-0.308,0.870,-0.074,-0.328,0.806,1010.115,726.852,0.934,941.684,725.406,0.926,1100.610,534.417,1.096,840.520,541.251,1.130,1168.374,315.175,1.124,784.468,319.526,1.021,1228.119,203.824,0.870,872.840,152.452,0.806,-0.033,-0.970,1.403,0.000,-5.461,0.000,-0.031,-0.019,0.031,0.265,-0.818,1.342
0722_171852_0157.png,0.020,0.162,0.943,-0.046,0.162,0.945,0.138,-0.016,1.121,-0.160,-0.016,1.121,0.157,-0.262,1.028,-0.277,-0.215,1.253,-0.007,-0.323,0.836,-0.306,-0.274,1.005,979.804,703.122,0.943,913.333,703.348,0.945,1076.911,526.375,1.121,824.225,526.439,1.121,1105.254,297.299,1.028,749.956,376.903,1.253,952.147,172.340,0.836,670.343,280.282,1.005,-0.027,-0.962,1.401,0.000,-358.890,0.000,-0.003,0.023,0.026,-0.030,-0.698,1.613
0722_171852_0158.png,0.005,0.177,0.933,-0.059,0.181,0.944,0.129,0.000,1.133,-0.163,-0.003,1.120,0.194,-0.209,1.300,-0.232,-0.185,0.912,0.252,-0.284,1.046,-0.303,-0.363,0.711,964.631,720.447,0.933,900.315,722.229,0.944,1067.936,540.172,1.133,821.941,537.738,1.120,1101.939,387.383,1.300,717.774,346.993,0.912,1189.268,281.903,1.046,554.166,53.830,0.711,-0.027,-0.964,1.402,0.000,-356.308,0.000,0.018,-0.020,-0.033,-0.322,-0.853,1.429
0722_171852_0159.png,0.027,0.160,0.936,-0.041,0.160,0.935,0.142,-0.008,1.131,-0.166,-0.012,1.113,0.246,-0.248,1.066,-0.211,-0.274,1.075,0.246,-0.320,0.814,-0.163,-0.318,0.821,987.205,702.749,0.936,917.794,703.060,0.935,1079.138,533.654,1.131,818.356,530.009,1.113,1179.065,318.434,1.066,773.280,297.251,1.075,1246.831,166.261,0.814,770.746,171.436,0.821,-0.034,-0.964,1.402,0.000,-355.383,0.000,-0.038,0.006,0.007,0.144,-0.941,1.630
0722_171852_0160.png,0.041,0.171,0.928,-0.023,0.170,0.929,0.165,-0.011,1.084,-0.117,0.003,1.145,0.175,-0.179,1.298,-0.275,-0.162,0.995,0.245,-0.275,1.067,-0.430,-0.323,0.850,1002.107,715.200,0.928,936.466,713.713,0.929,1104.455,530.141,1.084,862.579,542.454,1.145,1088.196,408.638,1.298,696.854,385.558,0.995,1178.126,294.715,1.067,479.112,179.226,0.850,-0.033,-0.969,1.403,0.000,-11.493,0.000,0.027,-0.009,0.015,-0.257,-1.002,1.358
0722_171852_0161.png,0.050,0.163,0.932,-0.015,0.160,0.929,0.169,-0.019,1.080,-0.117,-0.004,1.147,0.303,-0.251,1.105,-0.274,-0.200,1.242,0.367,-0.317,0.865,-0.430,-0.271,1.051,1010.898,706.498,0.932,944.434,704.290,0.929,1109.059,522.971,1.080,862.839,536.686,1.147,1220.926,323.829,1.105,750.101,386.659,1.242,1364.057,191.891,0.865,570.883,294.921,1.051,-0.034,-0.965,1.402,0.000,-12.279,0.000,0.008,0.003,0.031,-0.098,-1.056,1.158
0722_171852_0162.png,0.037,0.184,0.936,-0.032,0.182,0.930,0.151,0.002,1.112,-0.158,0.005,1.124,0.247,-0.252,1.080,-0.299,-0.230,1.104,0.099,-0.310,0.867,-0.172,-0.306,0.883,997.270,726.855,0.936,927.570,725.867,0.930,1089.516,541.749,1.112,826.226,544.086,1.124,1177.315,318.036,1.080,702.582,341.824,1.104,1068.519,199.460,0.867,774.353,210.829,0.883,-0.029,-0.974,1.404,0.000,-1.126,0.000,-0.044,-0.012,0.005,0.236,-0.926,1.196
0722_171852_0163.png,0.027,0.188,0.933,-0.038,0.188,0.934,0.144,0.000,1.115,-0.151,0.001,1.118,0.117,-0.234,0.985,-0.255,-0.250,1.152,0.011,-0.348,0.777,-0.262,-0.314,0.900,987.915,731.507,0.933,921.237,731.562,0.934,1082.958,539.870,1.115,831.323,540.497,1.118,1072.688,314.379,0.985,749.048,333.369,1.152,974.029,113.873,0.777,683.311,207.883,0.900,-0.033,-0.970,1.403,0.000,-359.465,0.000,0.005,-0.021,0.016,-0.009,-0.714,1.377
0722_171852_0164.png,0.021,0.161,0.934,-0.048,0.162,0.938,0.149,-0.009,1.118,-0.160,-0.006,1.130,0.084,-0.218,0.954,-0.219,-0.254,1.035,-0.019,-0.342,0.741,-0.069,-0.324,0.824,981.111,703.868,0.934,911.824,704.341,0.938,1086.515,532.317,1.118,825.799,534.748,1.130,1043.943,322.427,0.954,759.235,306.459,1.035,935.908,100.647,0.741,880.530,165.911,0.824,-0.027,-0.964,1.402,0.000,-1.143,0.000,-0.039,0.002,-0.009,-0.160,-0.931,1.715
0722_171852_0165.png,0.030,0.167,0.924,-0.039,0.168,0.927,0.156,0.001,1.118,-0.153,0.002,1.122,0.217,-0.184,0.924,-0.128,-0.208,0.949,0.234,-0.351,0.717,-0.054,-0.345,0.733,990.406,711.643,0.924,920.110,712.319,0.927,1092.833,541.105,1.118,830.348,541.990,1.122,1183.048,351.132,0.924,831.499,332.009,0.949,1269.713,74.456,0.717,890.227,92.117,0.733,-0.037,-0.970,1.403,0.000,0.304,0.000,-0.041,-0.020,-0.004,-0.112,-1.114,1.676
0722_171852_0166.png,0.003,0.163,0.940,-0.063,0.166,0.946,0.122,0.000,1.144,-0.177,-0.006,1.118,0.154,-0.181,0.920,-0.323,-0.229,1.151,0.187,-0.358,0.703,-0.186,-0.305,0.928,963.264,704.692,0.940,896.740,706.641,0.946,1061.293,540.047,1.144,809.826,535.125,1.118,1118.735,352.663,0.920,692.813,350.405,1.151,1213.080,55.710,0.703,769.709,227.440,0.928,-0.023,-0.967,1.402,0.000,-353.877,0.000,-0.009,0.014,-0.044,-0.105,-1.039,1.307
0722_171852_0167.png,0.030,0.188,0.926,-0.033,0.189,0.929,0.149,0.007,1.114,-0.139,0.009,1.125,0.153,-0.184,0.912,-0.271,-0.224,1.072,0.159,-0.372,0.718,-0.201,-0.344,0.845,991.305,733.276,0.926,925.870,733.475,0.929,1087.435,545.839,1.114,842.633,547.890,1.125,1119.190,348.084,0.912,719.347,340.860,1.072,1170.139,47.450,0.718,734.293,152.968,0.845,-0.038,-0.973,1.404,0.000,-1.038,0.000,0.029,-0.037,-0.013,-0.139,-1.000,1.215
0722_171852_0168.png,0.029,0.181,0.937,-0.037,0.180,0.935,0.139,0.001,1.132,-0.160,-0.004,1.113,0.195,-0.207,1.305,-0.240,-0.224,0.971,0.306,-0.268,1.070,-0.213,-0.355,0.740,989.860,723.541,0.937,922.402,723.636,0.935,1076.575,540.542,1.132,823.138,536.766,1.113,1102.129,389.269,1.305,724.658,320.298,0.971,1231.849,301.692,1.070,686.504,83.950,0.740,-0.036,-0.966,1.402,0.000,-355.042,0.000,-0.009,-0.020,-0.012,0.214,-0.822,1.408
0722_171852_0169.png,0.016,0.167,0.923,-0.048,0.169,0.925,0.118,0.002,1.143,-0.167,-0.010,1.091,0.253,-0.226,1.208,-0.246,-0.234,1.234,0.367,-0.301,0.984,-0.258,-0.303,0.981,976.718,711.748,0.923,910.674,714.011,0.925,1057.904,541.880,1.143,814.275,531.558,1.091,1159.438,361.749,1.208,770.566,359.563,1.234,1314.442,248.999,0.984,709.620,246.643,0.981,-0.038,-0.964,1.402,0.000,-348.224,0.000,0.024,-0.029,0.005,0.163,-1.166,1.333
0722_171852_0170.png,0.042,0.153,0.938,-0.025,0.150,0.934,0.160,-0.019,1.096,-0.139,-0.009,1.142,0.184,-0.264,0.999,-0.144,-0.228,0.995,0.025,-0.325,0.802,-0.094,-0.333,0.764,1002.599,695.073,0.938,934.742,692.936,0.934,1099.135,523.115,1.096,844.386,532.686,1.142,1134.934,288.798,0.999,822.206,322.360,0.995,989.853,155.373,0.802,843.027,126.008,0.764,-0.028,-0.965,1.402,0.000,-7.879,0.000,-0.020,0.027,0.025,0.044,-0.996,1.539
0722_171852_0171.png,0.033,0.171,0.947,-0.032,0.170,0.943,0.144,-0.009,1.125,-0.148,-0.007,1.131,0.063,-0.186,0.921,-0.239,-0.245,1.031,-0.012,-0.359,0.723,-0.116,-0.341,0.814,992.769,711.429,0.947,927.710,710.892,0.943,1081.404,532.596,1.125,835.263,533.847,1.131,1025.390,348.334,0.921,739.393,314.339,1.031,943.813,67.418,0.723,824.581,141.722,0.814,-0.032,-0.962,1.401,0.000,-0.088,0.000,0.017,0.007,-0.023,0.134,-0.746,1.558
0722_171852_0172.png,0.058,0.151,0.933,-0.007,0.146,0.927,0.173,-0.017,1.088,-0.111,-0.002,1.154,0.209,-0.200,1.282,-0.237,-0.172,0.976,0.356,-0.268,1.075,-0.362,-0.337,0.804,1018.935,693.857,0.933,953.219,689.305,0.927,1111.593,524.725,1.088,868.698,538.147,1.154,1115.236,391.749,1.282,728.975,372.741,0.976,1274.601,303.330,1.075,532.085,141.528,0.804,-0.037,-0.963,1.402,0.000,-12.280,0.000,0.016,0.008,-0.011,0.063,-1.294,1.406
0722_171852_0173.png,0.011,0.176,0.928,-0.055,0.178,0.935,0.133,-0.004,1.132,-0.168,-0.010,1.107,0.124,-0.253,1.022,-0.280,-0.225,1.243,0.081,-0.342,0.778,-0.375,-0.285,1.004,971.526,719.855,0.928,903.765,721.226,0.935,1071.759,536.502,1.132,815.530,531.478,1.107,1075.719,304.556,1.022,745.479,367.862,1.243,1058.771,122.401,0.778,604.897,270.282,1.004,-0.032,-0.960,1.401,0.000,-353.951,0.000,-0.018,-0.032,0.006,-0.130,-0.774,1.674
0722_171852_0174.png,0.038,0.146,0.940,-0.030,0.144,0.938,0.160,-0.020,1.103,-0.141,-0.010,1.146,0.101,-0.244,0.965,-0.326,-0.201,1.191,-0.017,-0.340,0.749,-0.224,-0.286,0.961,998.142,688.217,0.940,930.035,686.357,0.938,1097.525,522.568,1.103,842.947,531.385,1.146,1059.490,300.031,0.965,699.387,379.308,1.191,938.389,108.342,0.749,738.377,257.110,0.961,-0.027,-0.962,1.401,0.000,-7.146,0.000,-0.023,0.030,-0.001,-0.040,-1.106,1.475
0722_171852_0175.png,0.037,0.177,0.938,-0.027,0.176,0.936,0.154,-0.016,1.093,-0.130,-0.005,1.140,0.296,-0.242,1.134,-0.115,-0.183,0.937,0.386,-0.317,0.904,-0.100,-0.358,0.740,997.357,719.688,0.938,932.463,718.949,0.936,1094.128,526.296,1.093,851.406,535.955,1.140,1207.959,337.106,1.134,843.542,354.079,0.937,1365.806,206.518,0.904,831.309,80.221,0.740,-0.028,-0.962,1.401,0.000,-8.539,0.000,0.028,-0.011,0.018,-0.087,-0.701,1.376
0722_171852_0176.png,0.005,0.153,0.942,-0.060,0.156,0.948,0.118,-0.006,1.147,-0.173,-0.014,1.110,0.151,-0.265,1.090,-0.329,-0.228,1.100,0.118,-0.330,0.833,-0.297,-0.323,0.851,965.033,694.109,0.942,900.040,696.411,0.948,1058.036,535.123,1.147,812.101,527.737,1.110,1091.335,308.419,1.090,675.229,342.871,1.100,1095.113,163.795,0.833,627.760,179.277,0.851,-0.029,-0.966,1.402,0.000,-351.452,0.000,0.012,0.035,-0.018,-0.050,-0.959,1.518
0722_171852_0177.png,0.031,0.160,0.930,-0.035,0.158,0.925,0.142,-0.015,1.108,-0.155,-0.012,1.121,0.073,-0.183,0.914,-0.320,-0.223,1.098,0.002,-0.346,0.726,-0.307,-0.316,0.864,991.958,703.507,0.930,924.510,702.157,0.925,1082.171,526.870,1.108,828.194,529.747,1.121,1035.984,349.197,0.914,683.201,346.702,1.098,963.030,86.677,0.726,622.567,192.639,0.864,-0.025,-0.961,1.401,0.000,-1.577,0.000,-0.004,-0.010,0.045,0.202,-1.019,1.539
0722_171852_0178.png,0.020,0.160,0.935,-0.042,0.162,0.943,0.146,-0.011,1.113,-0.138,-0.006,1.133,0.114,-0.240,0.976,-0.295,-0.209,1.192,0.012,-0.359,0.767,-0.377,-0.302,0.961,980.773,702.279,0.935,917.656,703.234,0.943,1084.496,530.732,1.113,844.434,534.690,1.133,1071.588,306.300,0.976,724.423,373.097,1.192,974.675,94.881,0.767,586.411,241.250,0.961,-0.032,-0.966,1.402,0.000,-2.904,0.000,0.043,0.017,0.003,-0.367,-0.951,1.497
0722_171852_0179.png,0.034,0.185,0.930,-0.031,0.184,0.928,0.153,-0.010,1.092,-0.139,0.000,1.138,0.237,-0.207,0.927,-0.282,-0.200,1.267,0.266,-0.363,0.719,-0.421,-0.279,1.061,995.069,729.425,0.930,928.146,728.481,0.928,1093.083,530.935,1.092,844.049,540.081,1.138,1203.564,328.067,0.927,748.523,390.085,1.267,1311.914,60.271,0.719,582.594,290.337,1.061,-0.024,-0.962,1.401,0.000,-7.969,0.000,0.005,-0.041,0.014,-0.037,-0.804,1.278
0722_171852_0180.png,0.035,0.161,0.932,-0.030,0.162,0.936,0.162,-0.016,1.097,-0.127,-0.005,1.144,0.240,-0.247,0.983,-0.139,-0.181,0.930,0.251,-0.354,0.743,-0.152,-0.353,0.723,995.518,704.723,0.932,929.444,704.245,0.936,1100.851,526.199,1.097,854.365,535.669,1.144,1191.985,300.742,0.983,817.530,354.915,0.930,1281.573,87.412,0.743,760.206,76.049,0.723,-0.034,-0.962,1.401,0.000,-8.210,0.000,0.012,0.000,0.004,-0.315,-0.974,1.469
0722_171852_0181.png,-0.004,0.177,0.931,-0.070,0.179,0.936,0.108,0.001,1.141,-0.187,-0.013,1.081,0.169,-0.165,0.944,-0.258,-0.269,1.059,0.224,-0.326,0.750,-0.074,-0.308,0.884,956.185,720.749,0.931,888.849,722.047,0.936,1050.370,540.932,1.141,795.517,528.911,1.081,1130.200,373.565,0.944,728.852,298.138,1.059,1243.886,125.800,0.750,880.762,208.625,0.884,-0.024,-0.972,1.403,0.000,-347.110,0.000,-0.016,0.002,0.047,0.027,-0.778,1.209
0722_171852_0182.png,0.018,0.172,0.927,-0.047,0.174,0.932,0.137,0.000,1.125,-0.159,-0.003,1.110,0.228,-0.228,1.015,-0.273,-0.245,1.068,0.249,-0.341,0.782,-0.136,-0.325,0.861,978.443,716.148,0.927,911.570,717.440,0.932,1076.125,540.275,1.125,824.183,537.454,1.110,1173.451,326.554,1.015,716.869,322.115,1.068,1263.093,125.639,0.782,809.472,180.944,0.861,-0.034,-0.970,1.403,0.000,-355.979,0.000,0.002,-0.013,0.014,-0.122,-1.050,1.277
0722_171852_0183.png,0.040,0.164,0.935,-0.025,0.161,0.930,0.149,-0.009,1.110,-0.142,-0.005,1.126,0.111,-0.226,0.962,-0.318,-0.202,1.088,-0.009,-0.349,0.768,-0.429,-0.315,0.884,1000.257,706.672,0.935,934.689,705.190,0.930,1087.309,532.146,1.110,839.843,535.394,1.126,1069.752,316.298,0.962,682.069,363.352,1.088,949.241,108.508,0.768,498.171,201.329,0.884,-0.034,-0.967,1.402,0.000,-2.090,0.000,0.018,0.004,0.021,0.209,-1.021,1.447
0722_171852_0184.png,0.026,0.162,0.933,-0.037,0.161,0.930,0.133,-0.008,1.120,-0.152,-0.009,1.118,0.060,-0.182,0.923,-0.282,-0.220,1.221,-0.010,-0.351,0.732,-0.389,-0.295,1.000,986.909,704.617,0.933,922.262,704.127,0.930,1073.343,532.832,1.120,830.369,532.522,1.118,1022.107,352.881,0.923,740.817,368.698,1.221,946.947,83.422,0.732,589.684,259.286,1.000,-0.029,-0.965,1.402,0.000,-358.513,0.000,0.037,0.000,0.019,0.162,-1.033,1.490
0722_171852_0185.png,0.038,0.180,0.938,-0.026,0.178,0.933,0.148,-0.005,1.115,-0.141,-0.001,1.132,0.246,-0.242,1.217,-0.116,-0.186,0.924,0.302,-0.306,0.964,-0.093,-0.368,0.721,998.624,722.058,0.938,933.559,721.028,0.933,1086.465,535.318,1.115,841.652,538.844,1.132,1152.442,351.270,1.217,841.050,348.354,0.924,1258.144,237.537,0.964,836.979,55.296,0.721,-0.033,-0.963,1.401,0.000,-2.460,0.000,0.024,-0.024,-0.018,0.163,-0.812,1.511
0722_171852_0186.png,0.006,0.172,0.934,-0.059,0.174,0.938,0.115,0.001,1.140,-0.173,-0.008,1.104,0.049,-0.180,0.945,-0.156,-0.228,0.944,-0.013,-0.357,0.755,-0.100,-0.368,0.724,965.659,715.139,0.934,900.439,716.683,0.938,1056.230,540.651,1.140,811.041,533.527,1.104,1009.717,358.968,0.945,802.328,309.984,0.944,943.226,90.062,0.755,829.276,57.173,0.724,-0.027,-0.967,1.402,0.000,-351.507,0.000,0.021,-0.006,-0.008,0.010,-0.879,1.470
0722_171852_0187.png,0.064,0.170,0.934,-0.002,0.167,0.929,0.183,-0.018,1.070,-0.109,0.001,1.152,0.261,-0.272,1.099,-0.264,-0.206,1.093,0.120,-0.303,0.887,-0.175,-0.309,0.872,1025.229,712.894,0.934,957.504,710.573,0.929,1122.439,524.337,1.070,870.244,541.028,1.152,1186.013,304.921,1.099,730.167,360.584,1.093,1088.370,215.644,0.887,768.781,203.235,0.872,-0.039,-0.970,1.403,0.000,-14.950,0.000,-0.022,0.012,0.034,-0.024,-0.793,1.600
0722_171852_0188.png,0.010,0.161,0.925,-0.057,0.163,0.929,0.128,-0.002,1.136,-0.173,-0.009,1.106,0.228,-0.223,1.270,-0.273,-0.194,0.930,0.383,-0.269,1.060,-0.316,-0.356,0.722,970.371,705.105,0.925,901.913,707.273,0.929,1067.048,538.111,1.136,811.115,532.197,1.106,1130.474,373.409,1.270,681.031,341.675,0.930,1303.895,298.770,1.060,544.570,71.907,0.722,-0.029,-0.962,1.401,0.000,-353.052,0.000,-0.019,-0.023,-0.003,-0.053,-1.213,1.379
0722_171852_0189.png,0.011,0.179,0.932,-0.056,0.180,0.936,0.127,0.000,1.140,-0.177,-0.009,1.101,0.235,-0.215,1.280,-0.246,-0.188,1.301,0.367,-0.267,1.055,-0.313,-0.266,1.056,971.480,722.253,0.932,902.585,723.411,0.936,1065.729,539.598,1.140,807.150,531.811,1.101,1134.448,380.280,1.280,780.225,402.523,1.301,1290.871,299.106,1.055,678.317,300.707,1.056,-0.030,-0.962,1.401,0.000,-351.292,0.000,-0.032,-0.027,-0.005,0.045,-0.863,1.228
0722_171852_0190.png,0.030,0.175,0.947,-0.035,0.173,0.942,0.143,-0.006,1.116,-0.150,0.000,1.141,0.159,-0.263,1.019,-0.278,-0.219,1.231,-0.015,-0.339,0.829,-0.360,-0.294,0.984,990.023,715.886,0.947,924.495,714.676,0.942,1081.724,535.138,1.116,834.728,539.952,1.141,1108.288,294.695,1.019,745.407,371.108,1.231,942.954,151.283,0.829,611.679,256.080,0.984,-0.022,-0.966,1.402,0.000,-3.745,0.000,0.009,0.006,-0.035,0.120,-0.818,1.380
0722_171852_0191.png,0.028,0.176,0.934,-0.038,0.175,0.929,0.139,-0.007,1.115,-0.159,-0.005,1.123,0.086,-0.184,0.912,-0.279,-0.214,1.256,0.034,-0.357,0.714,-0.415,-0.278,1.041,988.780,719.576,0.934,921.520,718.693,0.929,1078.641,534.372,1.115,825.415,536.101,1.123,1049.948,347.988,0.912,748.665,377.596,1.256,1004.944,64.683,0.714,580.502,286.430,1.041,-0.024,-0.963,1.401,0.000,-0.537,0.000,-0.004,-0.024,0.010,0.202,-0.831,1.591
0722_171852_0192.png,0.042,0.188,0.935,-0.023,0.185,0.927,0.154,-0.003,1.094,-0.139,0.007,1.135,0.224,-0.213,1.258,-0.224,-0.165,0.939,0.389,-0.274,1.065,-0.306,-0.332,0.749,1002.593,731.577,0.935,936.289,730.136,0.927,1093.585,537.600,1.094,843.546,545.480,1.135,1129.324,378.970,1.258,733.175,373.090,0.939,1307.654,295.764,1.065,571.354,118.116,0.749,-0.027,-0.972,1.404,0.000,-6.902,0.000,0.005,-0.020,0.017,0.189,-0.837,1.199
0722_171852_0193.png,0.035,0.173,0.943,-0.028,0.172,0.941,0.146,-0.008,1.117,-0.138,-0.006,1.128,0.239,-0.255,1.071,-0.186,-0.186,0.929,0.249,-0.341,0.822,-0.236,-0.362,0.737,995.357,714.255,0.943,931.727,713.932,0.941,1084.567,532.881,1.117,843.772,534.988,1.128,1172.479,313.539,1.071,769.357,349.451,0.929,1248.190,145.556,0.822,655.506,72.068,0.737,-0.037,-0.966,1.402,0.000,-1.006,0.000,0.042,0.009,0.002,0.048,-0.826,1.177
0722_171852_0194.png,0.016,0.142,0.937,-0.049,0.144,0.939,0.126,-0.014,1.138,-0.166,-0.020,1.112,0.190,-0.203,1.313,-0.253,-0.197,0.926,0.260,-0.264,1.068,-0.291,-0.357,0.720,976.526,684.320,0.937,910.705,685.623,0.939,1065.476,527.945,1.138,818.411,522.553,1.112,1097.881,393.197,1.313,700.088,338.178,0.926,1191.395,305.068,1.068,576.077,68.386,0.720,-0.031,-0.959,1.400,0.000,-353.606,0.000,0.013,0.024,0.004,0.081,-1.190,1.367
0722_171852_0195.png,0.018,0.183,0.929,-0.047,0.183,0.930,0.131,-0.003,1.129,-0.165,-0.007,1.109,0.259,-0.248,1.141,-0.207,-0.278,1.069,0.120,-0.315,0.929,-0.176,-0.342,0.815,978.635,726.979,0.929,911.493,727.474,0.930,1069.978,537.808,1.129,818.516,533.938,1.109,1176.235,333.436,1.141,776.097,292.475,1.069,1082.440,217.021,0.929,755.168,141.165,0.815,-0.030,-0.960,1.401,0.000,-354.966,0.000,0.002,-0.045,0.002,0.073,-0.894,1.174
0722_171852_0196.png,0.015,0.173,0.921,-0.050,0.176,0.929,0.137,-0.002,1.122,-0.156,-0.005,1.110,0.183,-0.263,1.211,-0.194,-0.239,0.982,0.179,-0.304,0.954,-0.174,-0.354,0.751,975.302,718.395,0.921,908.983,720.034,0.929,1076.310,538.258,1.122,825.915,535.775,1.110,1103.629,333.858,1.211,772.064,308.675,0.982,1138.061,236.755,0.954,739.259,91.930,0.751,-0.034,-0.964,1.402,0.000,-356.326,0.000,0.010,-0.036,0.018,-0.211,-0.936,1.670
0722_171852_0197.png,0.060,0.157,0.942,-0.006,0.151,0.931,0.171,-0.016,1.085,-0.126,0.000,1.153,0.089,-0.226,0.943,-0.310,-0.182,1.079,0.006,-0.341,0.723,-0.434,-0.301,0.881,1021.018,698.687,0.942,954.274,694.040,0.931,1110.287,526.332,1.085,856.197,540.057,1.153,1049.458,311.607,0.943,686.310,379.167,1.079,968.440,90.829,0.723,491.207,215.423,0.881,-0.029,-0.972,1.403,0.000,-12.065,0.000,-0.028,0.036,0.010,0.270,-1.042,1.538
0722_171852_0198.png,-0.004,0.171,0.922,-0.067,0.177,0.934,0.115,0.010,1.140,-0.174,0.001,1.102,0.253,-0.220,1.195,-0.326,-0.225,1.091,0.360,-0.305,0.965,-0.340,-0.335,0.848,956.036,716.840,0.922,891.294,720.544,0.934,1056.115,547.994,1.140,810.123,540.697,1.102,1161.486,364.768,1.195,675.954,344.007,1.091,1315.014,239.164,0.965,578.874,163.586,0.848,-0.027,-0.972,1.403,0.000,-351.103,0.000,0.018,-0.022,-0.017,-0.278,-1.137,1.420
0722_171852_0199.png,0.044,0.164,0.950,-0.021,0.160,0.941,0.155,-0.017,1.095,-0.138,-0.005,1.147,0.250,-0.262,1.099,-0.114,-0.179,0.940,0.247,-0.315,0.845,-0.089,-0.346,0.738,1004.392,704.004,0.950,939.032,701.661,0.941,1094.369,524.924,1.095,845.312,535.489,1.147,1176.465,313.177,1.099,844.804,359.331,0.940,1238.392,185.670,0.845,844.866,93.455,0.738,-0.022,-0.968,1.403,0.000,-9.122,0.000,-0.003,0.038,0.012,0.218,-0.781,1.434
0722_171852_0200.png,0.041,0.153,0.939,-0.023,0.152,0.939,0.159,-0.012,1.113,-0.131,-0.006,1.139,0.280,-0.229,1.202,-0.169,-0.182,0.924,0.392,-0.293,0.972,-0.210,-0.354,0.715,1001.718,694.927,0.939,936.473,694.000,0.939,1095.650,529.886,1.113,850.997,535.018,1.139,1181.779,359.222,1.202,785.544,352.456,0.924,1343.215,253.301,0.972,681.064,68.940,0.715,-0.039,-0.966,1.402,0.000,-4.007,0.000,0.022,0.025,-0.012,-0.035,-0.999,1.726
0722_171852_0201.png,0.007,0.179,0.944,-0.056,0.181,0.947,0.117,0.002,1.137,-0.167,-0.003,1.116,0.121,-0.194,0.938,-0.293,-0.237,1.076,0.091,-0.368,0.731,-0.206,-0.340,0.843,967.482,720.492,0.944,903.907,721.242,0.947,1058.232,541.718,1.137,817.328,537.643,1.116,1082.273,343.746,0.938,700.625,330.607,1.076,1078.248,61.968,0.731,727.544,156.232,0.843,-0.024,-0.970,1.403,0.000,-354.508,0.000,0.038,0.008,-0.027,0.002,-0.691,1.520
0722_171852_0202.png,0.038,0.180,0.934,-0.029,0.178,0.930,0.155,-0.010,1.100,-0.146,-0.003,1.133,0.209,-0.213,1.280,-0.236,-0.192,0.965,0.361,-0.265,1.071,-0.261,-0.344,0.757,998.401,723.513,0.934,930.189,722.552,0.930,1094.033,531.094,1.100,837.700,537.758,1.133,1115.250,381.576,1.280,727.853,351.272,0.965,1280.611,304.660,1.071,631.374,107.126,0.757,-0.028,-0.964,1.402,0.000,-5.291,0.000,-0.019,-0.025,0.020,0.082,-0.809,1.330
0722_171852_0203.png,0.049,0.155,0.935,-0.015,0.149,0.927,0.163,-0.015,1.094,-0.122,-0.001,1.156,0.260,-0.244,0.980,-0.245,-0.239,1.203,0.293,-0.362,0.739,-0.247,-0.309,0.942,1009.741,697.710,0.935,944.195,692.916,0.927,1101.343,526.850,1.094,859.342,539.266,1.156,1212.437,302.868,0.980,766.123,351.384,1.203,1337.868,74.180,0.739,710.819,227.864,0.942,-0.027,-0.960,1.401,0.000,-11.403,0.000,0.017,-0.005,-0.033,0.126,-1.232,1.530
0722_171852_0204.png,0.030,0.183,0.932,-0.037,0.183,0.933,0.153,-0.001,1.107,-0.150,0.003,1.127,0.249,-0.242,1.196,-0.251,-0.230,1.036,0.140,-0.289,0.962,-0.155,-0.330,0.814,990.850,726.333,0.932,922.236,726.075,0.933,1091.297,538.902,1.107,833.437,542.860,1.127,1158.254,347.338,1.196,729.230,328.583,1.036,1098.298,254.510,0.962,778.777,154.150,0.814,-0.030,-0.972,1.403,0.000,-2.763,0.000,-0.023,-0.014,0.011,-0.081,-0.902,1.147
0722_171852_0205.png,0.012,0.172,0.932,-0.055,0.174,0.934,0.121,0.004,1.142,-0.176,-0.006,1.101,0.278,-0.219,1.169,-0.247,-0.241,0.982,0.389,-0.300,0.940,-0.171,-0.351,0.751,971.989,715.506,0.932,904.411,716.977,0.934,1060.705,543.019,1.142,808.437,535.013,1.101,1185.799,361.944,1.169,720.718,306.374,0.982,1353.014,236.958,0.940,743.835,95.889,0.751,-0.030,-0.968,1.403,0.000,-350.769,0.000,-0.009,-0.011,-0.012,0.129,-1.066,1.152
0722_171852_0206.png,0.022,0.168,0.931,-0.045,0.169,0.933,0.140,-0.003,1.122,-0.164,-0.007,1.107,0.224,-0.212,1.269,-0.235,-0.255,1.049,0.391,-0.254,1.075,-0.054,-0.310,0.870,982.569,711.319,0.931,913.962,711.927,0.933,1078.248,537.287,1.122,819.399,534.220,1.107,1127.556,380.785,1.269,747.109,308.623,1.049,1305.569,315.624,1.075,900.970,201.752,0.870,-0.032,-0.973,1.404,0.000,-355.856,0.000,-0.023,0.010,0.041,0.033,-1.015,1.188
0722_171852_0207.png,0.023,0.176,0.930,-0.046,0.177,0.933,0.145,0.000,1.125,-0.165,-0.003,1.114,0.170,-0.257,1.039,-0.248,-0.219,1.264,-0.019,-0.316,0.857,-0.254,-0.272,1.007,983.052,720.046,0.930,913.107,720.699,0.933,1082.134,539.660,1.125,819.265,537.412,1.114,1116.118,304.760,1.039,773.371,375.381,1.264,938.646,189.591,0.857,719.735,282.672,1.007,-0.033,-0.967,1.402,0.000,-356.654,0.000,-0.043,-0.019,0.004,-0.019,-0.850,1.612
0722_171852_0208.png,0.014,0.178,0.933,-0.051,0.179,0.932,0.117,0.007,1.141,-0.172,0.000,1.108,0.105,-0.175,0.921,-0.304,-0.231,1.044,0.097,-0.355,0.709,-0.363,-0.347,0.808,973.864,721.759,0.933,908.251,722.567,0.932,1057.182,546.247,1.141,812.721,540.006,1.108,1068.238,359.149,0.921,683.540,329.691,1.044,1089.860,63.843,0.709,533.355,131.189,0.808,-0.027,-0.969,1.403,0.000,-352.210,0.000,0.023,-0.021,-0.030,0.220,-1.037,1.257
0722_171852_0209.png,0.008,0.179,0.927,-0.056,0.181,0.930,0.116,0.001,1.136,-0.171,-0.008,1.097,0.072,-0.177,0.932,-0.311,-0.240,1.139,0.029,-0.352,0.734,-0.182,-0.320,0.927,968.659,723.557,0.927,903.007,724.905,0.930,1057.277,541.139,1.136,811.775,533.393,1.097,1033.298,359.253,0.932,700.304,339.462,1.139,997.652,83.478,0.734,773.727,212.030,0.927,-0.029,-0.965,1.402,0.000,-350.879,0.000,0.023,-0.033,0.010,0.048,-0.920,1.299
0722_171852_0210.png,0.031,0.174,0.933,-0.033,0.175,0.936,0.150,0.002,1.119,-0.139,0.004,1.129,0.199,-0.262,1.064,-0.202,-0.236,1.010,0.031,-0.334,0.872,-0.087,-0.350,0.798,991.224,717.201,0.933,926.082,717.516,0.936,1087.296,541.340,1.119,842.864,543.307,1.129,1137.448,305.451,1.064,769.481,318.076,1.010,994.348,175.324,0.872,856.900,122.533,0.798,-0.038,-0.971,1.403,0.000,-0.907,0.000,0.026,-0.008,-0.024,-0.120,-0.914,1.669
0722_171852_0211.png,0.009,0.160,0.928,-0.055,0.162,0.929,0.111,0.000,1.144,-0.174,-0.009,1.105,0.214,-0.209,1.288,-0.281,-0.212,1.256,0.215,-0.291,1.032,-0.422,-0.288,1.048,968.873,703.939,0.928,903.489,705.661,0.929,1052.031,539.835,1.144,809.856,532.213,1.105,1118.032,386.030,1.288,747.627,379.477,1.256,1158.196,271.843,1.032,576.811,278.589,1.048,-0.025,-0.962,1.401,0.000,-350.939,0.000,0.030,-0.022,-0.022,0.165,-1.225,1.411
0722_171852_0212.png,0.000,0.176,0.921,-0.064,0.181,0.932,0.115,0.006,1.146,-0.175,-0.007,1.088,0.073,-0.170,0.934,-0.272,-0.241,0.986,0.032,-0.342,0.729,-0.252,-0.357,0.750,960.033,721.438,0.921,894.235,724.793,0.932,1055.793,545.298,1.146,807.459,534.027,1.088,1034.546,367.486,0.934,697.494,307.628,0.986,1002.036,94.402,0.729,641.176,87.169,0.750,-0.035,-0.966,1.402,0.000,-347.324,0.000,0.003,-0.034,-0.002,-0.180,-0.966,1.479
0722_171852_0213.png,0.010,0.170,0.933,-0.055,0.171,0.933,0.117,-0.001,1.141,-0.176,-0.009,1.104,0.180,-0.231,1.008,-0.268,-0.250,1.016,0.186,-0.350,0.769,-0.190,-0.350,0.781,970.127,713.448,0.933,903.561,714.568,0.933,1057.135,539.438,1.141,808.642,532.263,1.104,1130.050,321.695,1.008,709.099,305.510,1.016,1189.404,107.733,0.769,728.822,114.230,0.781,-0.025,-0.963,1.401,0.000,-351.593,0.000,0.008,-0.017,-0.011,0.157,-1.028,1.253
0722_171852_0214.png,0.015,0.173,0.930,-0.051,0.175,0.935,0.136,-0.003,1.124,-0.161,-0.004,1.118,0.151,-0.256,1.026,-0.331,-0.218,1.117,-0.006,-0.336,0.830,-0.425,-0.314,0.891,974.913,716.883,0.930,908.075,717.838,0.935,1074.836,537.605,1.124,822.826,536.417,1.118,1100.057,302.339,1.026,678.153,354.617,1.117,953.043,155.178,0.830,505.982,204.165,0.891,-0.028,-0.965,1.402,0.000,-357.638,0.000,0.000,-0.019,0.001,-0.143,-0.936,1.432
0722_171852_0215.png,0.043,0.164,0.936,-0.019,0.163,0.937,0.165,-0.013,1.095,-0.112,-0.001,1.149,0.182,-0.279,1.051,-0.132,-0.202,0.964,0.007,-0.338,0.866,-0.089,-0.362,0.756,1004.167,706.343,0.936,940.341,705.052,0.937,1103.553,528.395,1.095,867.123,539.231,1.149,1125.066,287.279,1.051,829.359,340.550,0.964,967.550,168.656,0.866,847.580,84.295,0.756,-0.037,-0.965,1.402,0.000,-10.140,0.000,0.047,0.008,-0.011,-0.238,-0.941,1.549
0722_171852_0216.png,0.040,0.176,0.926,-0.025,0.175,0.925,0.157,-0.009,1.102,-0.136,-0.003,1.124,0.226,-0.214,1.274,-0.289,-0.194,1.249,0.194,-0.284,1.031,-0.394,-0.284,1.034,1000.869,720.581,0.926,934.069,719.958,0.925,1095.183,532.578,1.102,845.064,537.104,1.124,1128.963,380.287,1.274,739.934,392.069,1.249,1138.738,278.498,1.031,598.033,279.071,1.034,-0.038,-0.965,1.402,0.000,-3.345,0.000,0.012,-0.030,0.036,0.000,-0.996,1.203
0722_171852_0217.png,0.041,0.168,0.947,-0.027,0.167,0.944,0.156,-0.008,1.122,-0.148,-0.006,1.129,0.136,-0.251,1.006,-0.304,-0.207,1.214,0.010,-0.333,0.788,-0.373,-0.280,0.969,1000.946,708.715,0.947,933.238,708.137,0.944,1092.410,533.180,1.122,835.299,534.612,1.129,1088.746,303.112,1.006,721.659,378.201,1.214,971.586,137.819,0.788,593.955,265.635,0.969,-0.039,-0.968,1.403,0.000,-0.214,0.000,-0.025,0.025,-0.006,0.151,-0.830,1.281
0722_171852_0218.png,0.000,0.184,0.922,-0.064,0.187,0.927,0.105,0.010,1.143,-0.181,-0.004,1.080,0.246,-0.200,1.248,-0.316,-0.240,1.056,0.314,-0.289,1.015,-0.370,-0.336,0.822,960.287,729.714,0.922,893.944,731.763,0.927,1047.251,548.606,1.143,800.458,536.468,1.080,1147.748,387.471,1.248,675.370,324.076,1.056,1253.930,269.243,1.015,531.808,150.891,0.822,-0.028,-0.973,1.404,0.000,-346.201,0.000,0.013,-0.030,0.022,0.079,-0.995,1.092
0722_171852_0219.png,0.018,0.161,0.939,-0.049,0.161,0.937,0.122,-0.008,1.145,-0.175,-0.019,1.098,0.172,-0.235,1.011,-0.248,-0.217,1.264,0.051,-0.333,0.799,-0.259,-0.275,1.009,978.112,702.912,0.939,910.553,703.715,0.937,1060.943,533.533,1.145,808.253,523.832,1.098,1121.563,318.883,1.011,773.847,376.764,1.264,1020.263,143.605,0.799,716.105,280.876,1.009,-0.033,-0.961,1.401,0.000,-349.535,0.000,-0.013,0.006,0.007,0.307,-0.946,1.313
0722_171852_0220.png,0.044,0.167,0.919,-0.019,0.164,0.917,0.165,-0.011,1.071,-0.111,0.006,1.148,0.156,-0.252,0.955,-0.236,-0.165,0.979,0.128,-0.367,0.728,-0.358,-0.332,0.816,1005.660,712.930,0.919,939.779,709.581,0.917,1106.784,529.892,1.071,867.995,545.235,1.148,1115.490,288.933,0.955,730.783,379.987,0.979,1127.024,60.860,0.728,543.078,152.683,0.816,-0.030,-0.970,1.403,0.000,-14.790,0.000,0.032,-0.023,0.027,-0.179,-1.188,1.506
0722_171852_0221.png,0.043,0.155,0.934,-0.023,0.152,0.929,0.157,-0.011,1.106,-0.138,-0.004,1.137,0.073,-0.184,0.911,-0.247,-0.178,1.310,-0.007,-0.353,0.721,-0.298,-0.264,1.067,1003.431,697.850,0.934,936.711,695.435,0.929,1094.547,530.555,1.106,844.492,536.855,1.137,1036.699,347.436,0.911,781.067,410.660,1.310,950.226,73.693,0.721,694.737,304.915,1.067,-0.032,-0.966,1.402,0.000,-5.074,0.000,0.002,0.010,0.002,0.142,-1.252,1.317
0722_171852_0222.png,0.039,0.180,0.914,-0.027,0.179,0.915,0.164,0.001,1.083,-0.126,0.013,1.137,0.111,-0.246,0.985,-0.297,-0.200,1.163,-0.017,-0.348,0.785,-0.257,-0.311,0.933,1000.483,727.557,0.914,932.413,725.774,0.915,1104.058,540.965,1.083,854.271,551.274,1.137,1066.820,302.820,0.985,716.953,376.761,1.163,939.276,118.369,0.785,698.374,222.956,0.933,-0.033,-0.975,1.404,0.000,-9.600,0.000,0.004,-0.045,0.021,-0.190,-1.182,1.448
0722_171852_0223.png,-0.008,0.178,0.930,-0.073,0.182,0.939,0.103,0.005,1.153,-0.187,-0.009,1.093,0.152,-0.245,1.042,-0.280,-0.204,1.267,-0.012,-0.335,0.852,-0.464,-0.270,1.086,951.705,721.580,0.930,885.639,724.215,0.939,1045.330,544.136,1.153,797.020,532.507,1.093,1098.852,316.202,1.042,749.847,386.585,1.267,946.545,166.090,0.852,554.095,303.220,1.086,-0.025,-0.963,1.401,0.000,-347.011,0.000,-0.001,-0.027,-0.027,-0.079,-0.905,1.301
0722_171852_0224.png,0.014,0.163,0.936,-0.051,0.164,0.937,0.125,-0.002,1.132,-0.168,-0.008,1.108,0.060,-0.174,0.929,-0.279,-0.198,1.256,-0.005,-0.340,0.732,-0.453,-0.262,1.074,974.553,705.511,0.936,908.347,706.365,0.937,1064.976,538.035,1.132,815.472,533.157,1.108,1020.892,362.485,0.929,748.844,390.127,1.256,953.853,98.191,0.732,558.441,307.884,1.074,-0.028,-0.972,1.403,0.000,-353.928,0.000,0.008,0.021,0.016,0.087,-0.938,1.520
0722_171852_0225.png,0.017,0.168,0.934,-0.047,0.168,0.937,0.138,-0.008,1.114,-0.151,-0.003,1.132,0.200,-0.203,1.292,-0.160,-0.228,0.978,0.326,-0.275,1.072,-0.090,-0.360,0.759,977.514,710.675,0.934,912.444,710.716,0.937,1077.427,533.570,1.114,833.182,537.252,1.132,1107.232,390.353,1.292,804.041,318.445,0.978,1248.786,296.156,1.072,847.707,88.971,0.759,-0.022,-0.965,1.402,0.000,-2.598,0.000,0.026,-0.006,-0.008,-0.185,-1.064,1.163
0722_171852_0226.png,0.015,0.171,0.934,-0.050,0.172,0.939,0.138,-0.010,1.109,-0.153,-0.006,1.126,0.225,-0.189,0.933,-0.198,-0.230,0.993,0.264,-0.353,0.737,-0.086,-0.341,0.790,974.957,714.254,0.934,909.515,714.656,0.939,1078.774,531.848,1.109,830.578,535.281,1.126,1189.084,347.309,0.933,770.813,319.601,0.993,1300.737,84.121,0.737,856.652,129.160,0.790,-0.023,-0.968,1.402,0.000,-2.260,0.000,0.016,0.003,0.027,-0.274,-0.888,1.172
0722_171852_0227.png,0.005,0.165,0.932,-0.061,0.167,0.933,0.107,0.002,1.153,-0.186,-0.013,1.084,0.100,-0.226,1.009,-0.336,-0.207,1.200,-0.019,-0.335,0.800,-0.288,-0.293,0.957,965.302,707.953,0.932,897.446,710.140,0.933,1048.143,541.908,1.153,797.195,528.275,1.084,1054.481,326.868,1.009,693.909,375.919,1.200,937.061,142.377,0.800,673.605,249.004,0.957,-0.030,-0.967,1.402,0.000,-345.366,0.000,-0.013,0.001,0.004,0.238,-0.984,1.483
0722_171852_0228.png,0.021,0.185,0.931,-0.047,0.185,0.930,0.136,0.001,1.121,-0.167,-0.001,1.112,0.169,-0.270,1.155,-0.265,-0.253,1.171,0.144,-0.308,0.898,-0.273,-0.304,0.915,981.000,729.392,0.931,912.279,729.469,0.930,1075.307,541.249,1.121,816.928,539.552,1.112,1098.943,317.569,1.155,744.778,334.669,1.171,1112.439,214.168,0.898,676.441,224.239,0.915,-0.026,-0.969,1.403,0.000,-357.144,0.000,-0.022,-0.027,0.014,0.095,-0.752,1.579
0722_171852_0229.png,0.052,0.175,0.934,-0.012,0.172,0.929,0.167,-0.019,1.080,-0.115,-0.004,1.143,0.155,-0.273,1.002,-0.156,-0.173,0.940,-0.017,-0.337,0.826,-0.194,-0.337,0.742,1013.008,717.775,0.934,947.825,716.408,0.929,1107.435,523.493,1.080,864.345,536.503,1.143,1106.641,281.381,1.002,802.605,365.266,0.940,940.702,152.034,0.826,711.435,107.682,0.742,-0.036,-0.964,1.402,0.000,-11.777,0.000,0.024,-0.010,0.039,-0.016,-0.729,1.517
