rolosa10/RGSpipe/dataset/synthetic_dataset/Coods3D_unique0723_092514.csv
filename,left_eye,left_eye,left_eye,right_eye,right_eye,right_eye,left_shoulder,left_shoulder,left_shoulder,right_shoulder,right_shoulder,right_shoulder,left_elbow,left_elbow,left_elbow,right_elbow,right_elbow,right_elbow,left_wrist,left_wrist,left_wrist,right_wrist,right_wrist,right_wrist,left_eye_2D,left_eye_2D,left_eye_2D,right_eye_2D,right_eye_2D,right_eye_2D,left_shoulder_2D,left_shoulder_2D,left_shoulder_2D,right_shoulder_2D,right_shoulder_2D,right_shoulder_2D,left_elbow_2D,left_elbow_2D,left_elbow_2D,right_elbow_2D,right_elbow_2D,right_elbow_2D,left_wrist_2D,left_wrist_2D,left_wrist_2D,right_wrist_2D,right_wrist_2D,right_wrist_2D,root_position,root_position,root_position,root_pitch,root_yaw,root_roll,root_scale,root_scale,root_scale,look_at,look_at,look_at
0723_092514_0001.png,0.031,0.187,0.928,-0.034,0.186,0.926,0.145,0.008,1.118,-0.152,0.009,1.122,0.217,-0.245,1.032,-0.316,-0.195,1.209,0.226,-0.347,0.784,-0.305,-0.303,0.964,992.222,731.501,0.928,924.680,731.074,0.926,1083.510,546.933,1.118,831.224,547.769,1.122,1159.799,314.512,1.032,711.219,386.368,1.209,1233.822,119.198,0.784,658.799,240.954,0.964,-0.032,-0.973,1.404,0.000,0.297,0.000,-0.001,-0.035,-0.016,0.107,-0.936,1.539
0723_092514_0002.png,-0.007,0.156,0.932,-0.072,0.163,0.946,0.110,-0.001,1.160,-0.181,-0.016,1.095,0.206,-0.211,1.302,-0.303,-0.255,1.043,0.339,-0.267,1.071,-0.207,-0.339,0.802,952.598,698.787,0.932,887.607,703.800,0.946,1050.197,538.780,1.160,802.943,525.740,1.095,1110.833,385.800,1.302,683.649,307.322,1.043,1261.082,302.716,1.071,714.852,137.817,0.802,-0.034,-0.960,1.401,0.000,-345.921,0.000,-0.005,0.001,-0.038,-0.249,-1.076,1.378
0723_092514_0003.png,0.045,0.164,0.939,-0.020,0.162,0.936,0.164,-0.008,1.097,-0.123,0.004,1.151,0.153,-0.257,0.986,-0.212,-0.167,0.943,-0.004,-0.345,0.788,-0.301,-0.333,0.741,1005.349,706.640,0.939,939.386,704.325,0.936,1102.614,532.847,1.097,858.020,543.606,1.151,1107.676,291.738,0.986,746.047,372.010,0.943,955.721,122.995,0.788,573.783,112.413,0.741,-0.031,-0.971,1.403,0.000,-9.896,0.000,0.012,0.018,-0.023,-0.074,-1.034,1.450
0723_092514_0004.png,0.014,0.168,0.932,-0.051,0.171,0.938,0.127,0.001,1.143,-0.162,-0.007,1.111,0.221,-0.179,0.945,-0.272,-0.254,1.158,0.316,-0.355,0.755,-0.303,-0.326,0.898,973.962,711.550,0.932,908.648,713.728,0.938,1065.780,540.450,1.143,820.972,534.137,1.111,1182.472,359.768,0.945,736.709,331.628,1.158,1357.795,93.127,0.755,638.519,195.129,0.898,-0.036,-0.962,1.401,0.000,-352.327,0.000,0.019,-0.018,-0.034,-0.068,-0.917,1.705
0723_092514_0005.png,0.029,0.156,0.938,-0.037,0.156,0.938,0.150,-0.013,1.108,-0.147,-0.006,1.138,0.200,-0.187,1.303,-0.316,-0.199,1.053,0.220,-0.263,1.053,-0.424,-0.318,0.845,989.507,698.599,0.938,922.427,697.729,0.938,1088.858,528.525,1.108,837.346,534.581,1.138,1105.570,403.868,1.303,674.750,360.675,1.053,1158.696,302.545,1.053,483.122,181.552,0.845,-0.025,-0.966,1.402,0.000,-4.739,0.000,-0.005,0.021,0.002,-0.067,-0.919,1.742
0723_092514_0006.png,0.017,0.176,0.935,-0.051,0.177,0.934,0.131,0.000,1.132,-0.176,-0.006,1.107,0.188,-0.255,1.062,-0.208,-0.248,0.992,-0.001,-0.310,0.880,-0.057,-0.331,0.791,977.460,719.278,0.935,908.133,719.664,0.934,1069.970,539.756,1.132,809.236,534.929,1.107,1128.706,311.173,1.062,760.476,302.253,0.992,958.672,204.685,0.880,891.960,142.074,0.791,-0.026,-0.968,1.403,0.000,-354.151,0.000,-0.036,-0.009,0.007,0.164,-0.890,1.268
0723_092514_0007.png,0.006,0.148,0.942,-0.059,0.152,0.949,0.124,-0.010,1.148,-0.171,-0.019,1.112,0.289,-0.218,1.097,-0.265,-0.216,0.945,0.384,-0.316,0.864,-0.300,-0.356,0.717,966.377,689.358,0.942,900.641,692.064,0.949,1062.811,531.456,1.148,813.323,524.080,1.112,1210.743,350.592,1.097,693.795,322.159,0.945,1381.933,192.852,0.864,562.480,67.051,0.717,-0.032,-0.960,1.401,0.000,-351.685,0.000,-0.004,0.031,-0.024,-0.125,-1.052,1.308
0723_092514_0008.png,0.046,0.159,0.922,-0.022,0.155,0.921,0.173,-0.016,1.074,-0.126,0.002,1.154,0.197,-0.195,1.279,-0.303,-0.199,1.104,0.350,-0.257,1.067,-0.329,-0.308,0.869,1007.472,703.842,0.922,937.106,700.234,0.921,1113.014,525.695,1.074,856.189,541.925,1.154,1106.137,394.955,1.279,698.854,368.528,1.104,1272.209,311.127,1.067,600.072,203.090,0.869,-0.026,-0.965,1.402,0.000,-14.275,0.000,-0.044,-0.013,0.013,-0.150,-1.278,1.375
0723_092514_0009.png,0.026,0.171,0.938,-0.037,0.169,0.932,0.131,-0.009,1.118,-0.156,-0.008,1.122,0.196,-0.212,1.288,-0.280,-0.212,1.250,0.252,-0.282,1.044,-0.426,-0.283,1.049,986.454,713.199,0.938,921.897,712.237,0.932,1071.591,532.268,1.118,827.603,533.111,1.122,1104.907,383.743,1.288,747.380,378.737,1.250,1189.987,282.645,1.044,573.936,283.473,1.049,-0.023,-0.963,1.401,0.000,0.318,0.000,0.032,-0.010,0.012,0.260,-0.890,1.410
0723_092514_0010.png,0.007,0.173,0.929,-0.060,0.176,0.935,0.128,-0.001,1.133,-0.175,-0.009,1.095,0.286,-0.208,1.216,-0.313,-0.222,1.198,0.201,-0.280,0.984,-0.381,-0.284,0.958,967.411,717.244,0.929,899.051,718.764,0.935,1067.075,539.412,1.133,807.746,531.839,1.095,1183.261,377.726,1.216,711.647,363.955,1.198,1154.246,269.378,0.984,582.158,258.313,0.958,-0.030,-0.970,1.403,0.000,-351.523,0.000,-0.028,-0.004,0.037,-0.082,-0.810,1.546
0723_092514_0011.png,0.007,0.167,0.934,-0.056,0.170,0.942,0.121,-0.001,1.137,-0.164,-0.009,1.101,0.053,-0.177,0.939,-0.292,-0.235,1.156,-0.012,-0.348,0.747,-0.314,-0.312,0.910,967.609,709.844,0.934,903.614,711.838,0.942,1061.263,538.857,1.137,818.035,531.830,1.101,1014.086,361.151,0.939,719.578,346.439,1.156,945.146,96.886,0.747,631.540,214.354,0.910,-0.033,-0.971,1.403,0.000,-351.610,0.000,0.031,0.015,0.017,-0.137,-0.982,1.091
0723_092514_0012.png,0.027,0.182,0.925,-0.038,0.183,0.927,0.142,-0.001,1.116,-0.150,-0.002,1.112,0.192,-0.224,0.979,-0.122,-0.184,0.917,0.158,-0.354,0.760,-0.093,-0.361,0.728,987.879,727.139,0.925,921.388,727.464,0.927,1081.121,538.998,1.116,831.654,538.083,1.112,1146.250,322.343,0.979,833.845,349.408,0.917,1157.920,96.803,0.760,838.524,68.405,0.728,-0.036,-0.967,1.402,0.000,-357.896,0.000,0.016,-0.035,0.027,-0.009,-0.882,1.396
0723_092514_0013.png,0.048,0.168,0.933,-0.016,0.165,0.927,0.161,-0.019,1.087,-0.125,-0.007,1.139,0.093,-0.191,0.895,-0.169,-0.204,0.972,0.025,-0.359,0.708,-0.130,-0.348,0.766,1009.305,711.345,0.933,943.909,709.336,0.927,1101.050,523.772,1.087,855.780,534.539,1.139,1058.820,337.251,0.895,795.107,340.324,0.972,993.903,58.369,0.708,798.353,107.186,0.766,-0.032,-0.962,1.401,0.000,-9.444,0.000,0.020,-0.009,0.037,0.101,-0.940,1.270
0723_092514_0014.png,0.043,0.159,0.936,-0.023,0.158,0.937,0.170,-0.020,1.087,-0.119,-0.004,1.155,0.166,-0.252,0.946,-0.292,-0.203,1.210,0.129,-0.359,0.707,-0.371,-0.288,0.972,1003.943,701.857,0.936,936.898,700.135,0.937,1108.707,522.806,1.087,861.748,536.871,1.155,1126.942,287.141,0.946,730.208,380.365,1.210,1134.049,56.517,0.707,597.120,257.903,0.972,-0.030,-0.962,1.401,0.000,-12.570,0.000,-0.003,0.010,-0.006,-0.274,-0.990,1.403
0723_092514_0015.png,0.006,0.183,0.943,-0.060,0.184,0.945,0.114,0.008,1.149,-0.182,-0.001,1.107,0.237,-0.193,1.282,-0.194,-0.246,0.974,0.341,-0.276,1.042,-0.064,-0.354,0.759,965.877,724.402,0.943,899.224,725.415,0.945,1054.215,546.883,1.149,804.016,538.872,1.107,1135.802,396.819,1.282,770.202,299.455,0.974,1270.647,287.846,1.042,879.176,96.440,0.759,-0.025,-0.971,1.403,0.000,-350.546,0.000,-0.005,-0.001,-0.044,0.145,-0.740,1.466
0723_092514_0016.png,0.044,0.156,0.935,-0.020,0.154,0.933,0.160,-0.007,1.103,-0.123,0.003,1.144,0.146,-0.237,0.961,-0.298,-0.185,1.066,0.030,-0.358,0.755,-0.430,-0.321,0.881,1004.329,698.847,0.935,939.624,696.696,0.933,1098.262,534.246,1.103,857.490,542.282,1.144,1104.359,304.914,0.961,694.149,375.208,1.066,997.650,88.679,0.755,495.909,193.748,0.881,-0.036,-0.973,1.404,0.000,-7.259,0.000,0.034,0.024,-0.012,-0.037,-1.185,1.514
0723_092514_0017.png,0.031,0.177,0.945,-0.033,0.176,0.945,0.151,-0.010,1.101,-0.135,-0.001,1.144,0.229,-0.265,1.123,-0.256,-0.204,1.011,0.067,-0.314,0.922,-0.327,-0.343,0.796,991.169,717.803,0.945,926.651,717.260,0.945,1090.213,530.982,1.101,847.817,539.417,1.144,1154.011,315.428,1.123,719.113,348.533,1.011,1029.208,216.397,0.922,569.803,130.247,0.796,-0.025,-0.968,1.403,0.000,-7.485,0.000,0.027,0.013,-0.007,-0.174,-0.718,1.252
0723_092514_0018.png,0.044,0.166,0.934,-0.024,0.163,0.931,0.166,-0.006,1.101,-0.137,0.005,1.148,0.300,-0.243,1.067,-0.180,-0.239,1.026,0.354,-0.326,0.815,-0.153,-0.340,0.776,1004.401,708.574,0.934,935.398,706.163,0.931,1102.973,535.179,1.101,846.783,544.336,1.148,1227.291,323.722,1.067,792.930,318.635,1.026,1373.392,159.682,0.815,772.738,123.084,0.776,-0.030,-0.969,1.403,0.000,-7.907,0.000,-0.031,0.000,-0.031,0.001,-1.156,1.376
0723_092514_0019.png,0.015,0.171,0.927,-0.052,0.172,0.932,0.142,-0.004,1.114,-0.160,0.000,1.128,0.107,-0.210,0.937,-0.257,-0.237,1.030,0.015,-0.355,0.733,-0.168,-0.338,0.801,975.167,715.100,0.927,906.954,715.616,0.932,1081.477,536.707,1.114,825.527,539.582,1.128,1068.073,327.028,0.937,722.835,321.484,1.030,979.441,79.734,0.733,760.408,139.217,0.801,-0.022,-0.965,1.402,0.000,-1.674,0.000,-0.018,-0.023,-0.005,-0.218,-0.976,1.611
0723_092514_0020.png,-0.008,0.174,0.935,-0.075,0.179,0.945,0.108,0.010,1.155,-0.188,-0.005,1.091,0.058,-0.172,0.947,-0.225,-0.241,0.955,0.009,-0.348,0.744,-0.204,-0.355,0.711,951.483,716.970,0.935,884.841,720.141,0.945,1048.988,548.013,1.155,796.042,535.738,1.091,1017.860,367.768,0.947,736.124,300.054,0.955,971.448,95.420,0.744,686.754,64.962,0.711,-0.028,-0.974,1.404,0.000,-346.400,0.000,-0.022,0.009,-0.026,-0.138,-0.967,1.115
0723_092514_0021.png,0.041,0.178,0.928,-0.024,0.177,0.929,0.166,-0.017,1.085,-0.121,-0.003,1.144,0.228,-0.232,1.253,-0.266,-0.169,0.986,0.345,-0.290,1.028,-0.406,-0.331,0.832,1001.920,722.303,0.928,935.484,721.538,0.929,1105.233,525.142,1.085,859.687,537.131,1.144,1132.872,363.549,1.253,703.784,376.961,0.986,1279.391,271.740,1.028,495.568,161.541,0.832,-0.034,-0.958,1.400,0.000,-10.717,0.000,0.014,-0.038,0.016,-0.244,-0.760,1.567
0723_092514_0022.png,0.005,0.164,0.922,-0.061,0.167,0.926,0.121,0.000,1.130,-0.176,-0.007,1.098,0.165,-0.248,1.043,-0.238,-0.190,1.292,-0.006,-0.322,0.861,-0.289,-0.269,1.054,964.848,709.473,0.922,897.104,711.495,0.926,1061.502,540.066,1.130,807.271,533.768,1.098,1110.660,313.755,1.043,785.039,400.195,1.292,953.571,184.531,0.861,698.831,297.335,1.054,-0.024,-0.969,1.403,0.000,-352.586,0.000,-0.006,-0.016,0.033,-0.052,-1.205,1.287
0723_092514_0023.png,0.000,0.164,0.935,-0.065,0.168,0.943,0.119,0.001,1.142,-0.176,-0.006,1.112,0.185,-0.262,1.127,-0.278,-0.244,1.025,0.167,-0.324,0.864,-0.303,-0.347,0.776,959.870,707.311,0.935,894.089,709.732,0.943,1058.679,540.990,1.142,809.414,535.187,1.112,1116.045,318.622,1.127,702.185,313.579,1.025,1144.378,183.638,0.864,588.021,114.585,0.776,-0.024,-0.967,1.402,0.000,-352.929,0.000,0.002,0.005,-0.030,-0.156,-0.986,1.506
0723_092514_0024.png,0.021,0.172,0.938,-0.044,0.174,0.944,0.146,-0.002,1.115,-0.150,0.001,1.128,0.254,-0.238,1.052,-0.247,-0.224,1.019,0.192,-0.330,0.814,-0.184,-0.338,0.791,981.316,714.424,0.938,915.359,714.976,0.944,1084.428,538.535,1.115,833.821,541.086,1.128,1189.338,324.704,1.052,729.421,331.253,1.019,1183.914,154.859,0.814,738.690,133.516,0.791,-0.030,-0.975,1.404,0.000,-1.426,0.000,0.004,0.022,0.003,-0.253,-0.904,1.230
0723_092514_0025.png,0.048,0.167,0.928,-0.015,0.164,0.926,0.169,-0.016,1.079,-0.109,0.000,1.150,0.175,-0.264,1.194,-0.281,-0.205,1.148,0.171,-0.312,0.938,-0.195,-0.315,0.931,1009.664,710.976,0.928,944.338,708.576,0.926,1108.855,525.922,1.079,869.704,540.262,1.150,1099.710,329.859,1.194,727.265,370.495,1.148,1132.775,223.930,0.938,760.608,217.945,0.931,-0.034,-0.965,1.402,0.000,-13.487,0.000,0.032,-0.012,0.014,-0.177,-1.054,1.339
0723_092514_0026.png,0.038,0.176,0.927,-0.027,0.174,0.924,0.155,-0.014,1.088,-0.133,-0.002,1.138,0.147,-0.265,0.993,-0.237,-0.251,1.192,-0.017,-0.342,0.811,-0.214,-0.306,0.941,998.698,720.322,0.927,932.208,718.773,0.924,1095.715,528.151,1.088,849.000,538.329,1.138,1100.960,285.892,0.993,770.839,339.689,1.192,939.885,138.363,0.811,743.985,230.628,0.941,-0.026,-0.962,1.401,0.000,-8.981,0.000,0.014,-0.033,0.027,-0.027,-0.965,1.255
0723_092514_0027.png,0.004,0.165,0.937,-0.060,0.169,0.946,0.123,0.004,1.141,-0.166,-0.001,1.118,0.061,-0.176,0.927,-0.243,-0.167,1.313,0.004,-0.354,0.718,-0.299,-0.270,1.067,964.253,707.557,0.937,899.996,710.100,0.946,1062.879,543.649,1.141,818.511,539.299,1.118,1022.748,359.220,0.927,784.263,419.018,1.313,965.894,71.436,0.718,693.166,299.354,1.067,-0.028,-0.972,1.403,0.000,-354.246,0.000,0.021,0.016,-0.041,-0.233,-1.078,1.283
0723_092514_0028.png,0.044,0.161,0.939,-0.022,0.157,0.935,0.162,-0.019,1.083,-0.130,-0.003,1.150,0.296,-0.247,1.101,-0.267,-0.205,1.044,0.274,-0.313,0.853,-0.316,-0.322,0.819,1004.701,702.755,0.939,937.779,700.271,0.935,1101.977,523.496,1.083,852.391,537.190,1.150,1215.775,326.304,1.101,717.006,353.524,1.044,1265.671,191.429,0.853,593.694,166.614,0.819,-0.023,-0.968,1.403,0.000,-12.086,0.000,-0.010,0.027,0.022,-0.003,-0.919,1.423
0723_092514_0029.png,0.035,0.169,0.930,-0.032,0.168,0.929,0.156,0.000,1.110,-0.145,0.006,1.137,0.226,-0.207,1.275,-0.242,-0.179,1.314,0.388,-0.265,1.068,-0.307,-0.264,1.067,996.271,712.968,0.930,927.690,711.793,0.929,1094.018,539.738,1.110,838.770,544.821,1.137,1128.732,385.277,1.275,785.206,410.399,1.314,1305.395,303.734,1.068,686.505,304.720,1.067,-0.031,-0.970,1.403,0.000,-3.964,0.000,-0.019,-0.011,-0.023,-0.009,-1.084,1.600
0723_092514_0030.png,0.026,0.161,0.930,-0.042,0.161,0.930,0.147,-0.001,1.117,-0.161,0.001,1.122,0.225,-0.245,1.197,-0.306,-0.227,1.095,0.265,-0.286,0.943,-0.196,-0.307,0.870,986.930,705.055,0.930,917.084,704.845,0.930,1085.203,539.363,1.117,823.460,540.465,1.122,1139.061,345.701,1.197,693.824,343.188,1.095,1227.746,251.911,0.943,745.974,204.855,0.870,-0.028,-0.975,1.404,0.000,0.097,0.000,-0.038,0.011,0.011,0.024,-1.128,1.569
0723_092514_0031.png,0.043,0.169,0.928,-0.022,0.166,0.925,0.161,-0.016,1.079,-0.124,-0.002,1.141,0.220,-0.278,1.103,-0.197,-0.227,1.028,0.049,-0.309,0.917,-0.201,-0.336,0.802,1003.899,712.710,0.928,937.673,710.800,0.925,1101.868,525.522,1.079,856.303,538.211,1.141,1149.694,300.005,1.103,778.014,330.229,1.028,1010.817,219.229,0.917,721.826,140.923,0.802,-0.029,-0.967,1.402,0.000,-11.423,0.000,0.015,-0.006,0.046,-0.074,-0.992,1.270
0723_092514_0032.png,0.043,0.155,0.936,-0.021,0.153,0.935,0.163,-0.019,1.088,-0.118,-0.005,1.150,0.148,-0.275,1.015,-0.281,-0.188,1.249,0.114,-0.351,0.768,-0.253,-0.285,1.009,1003.750,697.923,0.936,938.863,695.788,0.935,1102.319,522.966,1.088,862.330,535.600,1.150,1098.578,282.443,1.015,746.364,396.999,1.249,1100.908,105.254,0.768,721.765,271.930,1.009,-0.031,-0.965,1.402,0.000,-11.522,0.000,0.030,0.021,0.011,-0.165,-1.088,1.260
0723_092514_0033.png,0.060,0.159,0.938,-0.004,0.153,0.930,0.173,-0.014,1.089,-0.111,0.001,1.152,0.193,-0.265,0.996,-0.182,-0.231,1.033,0.054,-0.345,0.786,-0.058,-0.336,0.828,1021.088,700.971,0.938,956.190,696.941,0.930,1110.890,527.902,1.089,868.454,540.602,1.152,1144.419,286.751,0.996,792.136,327.582,1.033,1025.421,122.979,0.786,893.369,154.257,0.828,-0.038,-0.969,1.403,0.000,-11.754,0.000,0.020,0.019,-0.004,0.129,-1.116,1.439
0723_092514_0034.png,0.005,0.175,0.930,-0.058,0.179,0.939,0.113,0.005,1.150,-0.169,-0.008,1.092,0.148,-0.266,1.120,-0.254,-0.250,0.999,0.106,-0.332,0.865,-0.270,-0.362,0.757,965.558,719.031,0.930,901.086,721.751,0.939,1053.824,544.094,1.150,812.502,532.862,1.092,1085.591,314.013,1.120,718.057,301.978,0.999,1076.744,174.667,0.865,620.230,85.789,0.757,-0.038,-0.966,1.402,0.000,-347.104,0.000,0.027,-0.017,-0.015,-0.067,-0.931,1.298
0723_092514_0035.png,0.021,0.142,0.926,-0.043,0.143,0.928,0.137,-0.018,1.118,-0.154,-0.019,1.115,0.202,-0.222,1.283,-0.104,-0.188,0.922,0.253,-0.275,1.041,-0.055,-0.353,0.733,981.729,685.786,0.926,915.740,686.468,0.928,1076.341,524.387,1.118,828.962,523.830,1.115,1109.998,375.778,1.283,852.200,345.627,0.922,1191.570,288.725,1.041,888.715,81.833,0.733,-0.031,-0.958,1.400,0.000,-358.293,0.000,0.022,0.001,0.044,-0.042,-1.216,1.611
0723_092514_0036.png,0.017,0.166,0.941,-0.048,0.167,0.943,0.130,-0.001,1.136,-0.163,-0.005,1.120,0.191,-0.180,0.923,-0.185,-0.239,0.977,0.253,-0.355,0.716,-0.059,-0.352,0.768,977.231,708.131,0.941,911.600,708.939,0.943,1068.765,539.250,1.136,821.631,536.094,1.120,1156.444,354.320,0.923,779.445,307.335,0.977,1295.340,68.537,0.716,886.796,103.896,0.768,-0.029,-0.968,1.403,0.000,-355.595,0.000,0.012,0.013,-0.029,0.029,-0.921,1.506
0723_092514_0037.png,0.047,0.175,0.944,-0.018,0.172,0.939,0.162,-0.013,1.105,-0.127,-0.003,1.146,0.094,-0.192,0.896,-0.227,-0.235,1.036,0.030,-0.368,0.692,-0.121,-0.343,0.817,1007.617,716.020,0.944,942.198,714.653,0.939,1099.856,529.070,1.105,854.209,537.280,1.146,1059.949,336.016,0.896,751.234,324.558,1.036,1001.145,34.165,0.692,819.590,140.452,0.817,-0.035,-0.961,1.401,0.000,-7.083,0.000,0.013,-0.007,-0.023,0.056,-0.806,1.312
0723_092514_0038.png,0.016,0.148,0.943,-0.050,0.148,0.940,0.122,-0.008,1.135,-0.174,-0.013,1.112,0.158,-0.250,1.037,-0.249,-0.186,0.919,-0.012,-0.318,0.849,-0.299,-0.349,0.719,975.878,689.244,0.943,909.202,689.302,0.940,1062.532,533.612,1.135,810.868,528.984,1.112,1104.995,310.896,1.037,702.015,347.504,0.919,946.786,183.785,0.849,565.297,77.953,0.719,-0.023,-0.970,1.403,0.000,-354.305,0.000,-0.003,0.048,0.011,0.255,-1.130,1.373
0723_092514_0039.png,0.044,0.173,0.951,-0.020,0.171,0.944,0.157,-0.013,1.093,-0.131,0.000,1.147,0.213,-0.260,1.017,-0.219,-0.248,1.144,0.212,-0.341,0.769,-0.181,-0.307,0.894,1004.265,713.263,0.951,939.431,711.846,0.944,1096.865,528.829,1.093,851.518,539.731,1.147,1159.468,296.872,1.017,777.757,333.674,1.144,1222.345,117.876,0.769,767.667,213.046,0.894,-0.025,-0.973,1.404,0.000,-9.801,0.000,0.011,0.037,0.008,0.077,-0.656,1.395
0723_092514_0040.png,0.008,0.174,0.933,-0.056,0.176,0.937,0.112,0.003,1.145,-0.173,-0.009,1.093,0.230,-0.239,1.134,-0.305,-0.239,1.050,0.248,-0.321,0.885,-0.259,-0.341,0.812,968.607,716.813,0.933,903.471,718.444,0.937,1052.682,542.613,1.145,809.598,532.388,1.093,1152.842,339.684,1.134,684.081,323.747,1.050,1226.522,194.878,0.885,657.005,140.799,0.812,-0.032,-0.969,1.403,0.000,-348.252,0.000,0.025,-0.003,0.003,0.136,-0.924,1.239
0723_092514_0041.png,0.043,0.151,0.931,-0.023,0.150,0.934,0.173,-0.024,1.082,-0.119,-0.008,1.152,0.266,-0.275,1.079,-0.170,-0.175,0.943,0.131,-0.314,0.861,-0.217,-0.338,0.738,1004.114,694.130,0.931,936.205,692.641,0.934,1112.304,518.687,1.082,861.759,533.308,1.152,1194.597,297.429,1.079,788.726,363.205,0.943,1105.145,192.874,0.861,679.929,105.067,0.738,-0.033,-0.961,1.401,0.000,-12.680,0.000,-0.014,0.014,0.018,-0.340,-1.065,1.463
0723_092514_0042.png,0.053,0.179,0.935,-0.011,0.175,0.925,0.165,-0.015,1.074,-0.116,0.004,1.153,0.219,-0.273,1.010,-0.295,-0.198,1.169,0.116,-0.349,0.782,-0.265,-0.309,0.934,1014.390,722.389,0.935,949.127,719.613,0.925,1106.327,527.075,1.074,864.169,542.981,1.153,1166.048,282.858,1.010,719.591,378.843,1.169,1100.567,115.119,0.782,690.479,225.751,0.934,-0.026,-0.966,1.402,0.000,-14.943,0.000,0.013,-0.018,0.009,0.113,-0.767,1.625
0723_092514_0043.png,0.021,0.176,0.929,-0.045,0.177,0.932,0.144,-0.003,1.106,-0.154,0.000,1.120,0.135,-0.179,0.912,-0.174,-0.231,0.997,0.123,-0.350,0.722,-0.083,-0.337,0.785,981.264,720.272,0.929,913.984,720.471,0.932,1083.608,537.123,1.106,829.584,539.925,1.120,1100.616,352.769,0.912,794.216,319.801,0.997,1122.107,78.440,0.722,860.002,131.476,0.785,-0.027,-0.974,1.404,0.000,-1.627,0.000,-0.002,-0.001,0.042,-0.180,-0.970,1.093
0723_092514_0044.png,0.046,0.157,0.927,-0.019,0.153,0.924,0.168,-0.016,1.079,-0.117,0.002,1.154,0.233,-0.241,0.946,-0.124,-0.173,0.939,0.239,-0.362,0.712,-0.131,-0.343,0.729,1007.265,701.307,0.927,940.257,697.577,0.924,1107.728,526.195,1.079,863.399,541.317,1.154,1194.429,297.325,0.946,834.079,364.792,0.939,1279.284,56.837,0.712,788.498,92.184,0.729,-0.028,-0.965,1.402,0.000,-13.970,0.000,0.006,-0.003,0.001,-0.110,-1.162,1.622
0723_092514_0045.png,0.039,0.172,0.921,-0.025,0.170,0.920,0.160,-0.007,1.085,-0.125,0.005,1.137,0.265,-0.258,1.080,-0.274,-0.218,1.121,0.180,-0.333,0.851,-0.315,-0.319,0.890,1000.745,717.802,0.921,934.400,715.941,0.920,1100.069,533.898,1.085,855.269,544.237,1.137,1193.016,313.141,1.080,727.505,355.067,1.121,1161.217,168.263,0.851,623.012,198.900,0.890,-0.031,-0.971,1.403,0.000,-9.497,0.000,0.024,-0.024,0.033,-0.122,-1.120,1.421
0723_092514_0046.png,0.012,0.185,0.932,-0.052,0.187,0.939,0.130,0.006,1.131,-0.160,0.002,1.109,0.124,-0.230,0.997,-0.263,-0.235,1.024,-0.014,-0.346,0.807,-0.289,-0.347,0.786,972.261,728.360,0.932,907.209,729.678,0.939,1069.447,545.441,1.131,822.469,541.297,1.109,1078.691,320.186,0.997,715.654,321.972,1.024,943.146,132.141,0.807,610.663,119.826,0.786,-0.033,-0.973,1.404,0.000,-354.470,0.000,0.019,-0.013,-0.004,-0.182,-0.875,1.152
0723_092514_0047.png,0.041,0.164,0.948,-0.023,0.161,0.940,0.150,-0.008,1.117,-0.143,-0.003,1.138,0.209,-0.227,0.965,-0.319,-0.204,1.116,0.198,-0.358,0.729,-0.422,-0.312,0.893,1001.618,704.486,0.948,936.656,702.507,0.940,1087.591,533.157,1.117,840.815,537.418,1.138,1166.342,315.920,0.965,688.190,366.427,1.116,1217.580,72.669,0.729,510.482,208.225,0.893,-0.031,-0.968,1.403,0.000,-3.145,0.000,0.012,0.026,-0.022,0.257,-0.918,1.486
0723_092514_0048.png,0.033,0.165,0.940,-0.032,0.163,0.936,0.143,-0.006,1.121,-0.151,-0.005,1.124,0.215,-0.261,1.083,-0.311,-0.210,1.185,0.068,-0.318,0.874,-0.419,-0.295,0.961,993.366,706.948,0.940,927.487,706.129,0.936,1081.059,535.225,1.121,832.327,535.986,1.124,1148.440,311.070,1.083,710.660,371.469,1.185,1033.583,193.849,0.874,545.629,248.497,0.961,-0.032,-0.969,1.403,0.000,0.405,0.000,0.011,0.015,0.003,0.196,-1.027,1.276
0723_092514_0049.png,0.015,0.155,0.933,-0.053,0.158,0.938,0.140,-0.002,1.135,-0.169,-0.007,1.117,0.291,-0.200,1.243,-0.223,-0.225,0.960,0.230,-0.275,0.993,-0.218,-0.346,0.721,975.563,697.844,0.933,906.345,699.793,0.938,1076.966,538.025,1.135,816.284,534.332,1.117,1182.323,386.725,1.243,738.704,316.937,0.960,1180.387,276.333,0.993,672.534,83.324,0.721,-0.032,-0.968,1.403,0.000,-355.268,0.000,-0.041,0.013,-0.017,-0.103,-1.055,1.731
0723_092514_0050.png,0.030,0.154,0.932,-0.037,0.153,0.932,0.152,-0.011,1.105,-0.147,-0.004,1.135,0.201,-0.216,0.939,-0.282,-0.233,1.107,0.204,-0.349,0.716,-0.125,-0.303,0.908,990.720,696.740,0.932,922.681,695.629,0.932,1090.773,530.535,1.105,836.449,536.640,1.135,1163.428,321.787,0.939,717.514,339.388,1.107,1231.390,76.019,0.716,829.174,222.447,0.908,-0.026,-0.969,1.403,0.000,-4.775,0.000,-0.014,0.018,0.016,-0.065,-1.154,1.511
0723_092514_0051.png,0.011,0.178,0.930,-0.056,0.180,0.933,0.121,-0.002,1.140,-0.176,-0.012,1.096,0.078,-0.177,0.930,-0.197,-0.256,0.978,0.035,-0.348,0.726,-0.066,-0.347,0.769,971.089,722.026,0.930,903.228,723.065,0.933,1060.752,538.348,1.140,807.031,529.650,1.096,1039.781,358.953,0.930,768.417,291.370,0.978,1005.893,84.788,0.726,877.983,110.933,0.769,-0.030,-0.960,1.401,0.000,-350.322,0.000,-0.012,-0.033,0.007,0.114,-0.807,1.444
0723_092514_0052.png,0.029,0.159,0.933,-0.036,0.159,0.935,0.152,-0.005,1.105,-0.138,0.002,1.136,0.090,-0.184,0.911,-0.248,-0.176,0.965,0.030,-0.358,0.722,-0.324,-0.342,0.775,989.593,701.792,0.933,923.743,701.350,0.935,1090.973,535.889,1.105,844.272,541.910,1.136,1053.971,348.078,0.911,715.194,366.725,0.965,999.637,67.806,0.722,562.704,120.307,0.775,-0.030,-0.976,1.404,0.000,-5.020,0.000,0.016,0.027,0.007,-0.195,-1.112,1.519
0723_092514_0053.png,0.013,0.160,0.938,-0.056,0.161,0.939,0.128,0.001,1.138,-0.179,-0.006,1.107,0.133,-0.238,1.016,-0.236,-0.244,0.996,0.097,-0.330,0.772,-0.101,-0.327,0.785,972.784,702.210,0.938,903.670,703.322,0.939,1066.709,540.476,1.138,806.581,534.557,1.107,1084.333,317.354,1.016,734.750,307.492,0.996,1079.041,133.601,0.772,837.525,143.619,0.785,-0.026,-0.974,1.404,0.000,-353.078,0.000,-0.037,0.030,0.002,0.112,-1.140,1.155
0723_092514_0054.png,0.043,0.171,0.944,-0.023,0.169,0.939,0.156,-0.013,1.106,-0.140,-0.008,1.131,0.287,-0.243,1.142,-0.281,-0.215,1.224,0.346,-0.303,0.899,-0.379,-0.281,0.995,1002.944,712.139,0.944,936.735,711.239,0.939,1093.824,528.610,1.106,842.073,533.620,1.131,1198.780,337.507,1.142,741.943,372.747,1.224,1326.276,218.904,0.899,597.664,271.183,0.995,-0.034,-0.967,1.402,0.000,-3.712,0.000,0.000,0.016,0.025,0.149,-0.750,1.325
0723_092514_0055.png,0.009,0.178,0.930,-0.057,0.180,0.933,0.121,0.003,1.142,-0.176,-0.006,1.103,0.145,-0.248,1.027,-0.270,-0.217,1.260,-0.004,-0.340,0.824,-0.308,-0.289,1.003,969.700,722.534,0.930,902.065,723.971,0.933,1060.479,542.558,1.142,808.182,535.003,1.103,1093.952,310.022,1.027,755.876,376.195,1.260,955.592,147.086,0.824,668.081,265.730,1.003,-0.028,-0.963,1.401,0.000,-351.228,0.000,-0.009,-0.036,-0.022,0.066,-0.958,1.306
0723_092514_0056.png,0.020,0.187,0.925,-0.047,0.189,0.932,0.148,0.009,1.118,-0.154,0.010,1.122,0.240,-0.253,1.128,-0.256,-0.248,1.129,0.246,-0.321,0.869,-0.273,-0.323,0.872,980.249,732.247,0.925,912.312,733.265,0.932,1086.045,547.869,1.118,829.865,548.671,1.122,1162.053,326.787,1.128,744.343,331.120,1.129,1229.521,188.954,0.869,661.861,188.085,0.872,-0.033,-0.974,1.404,0.000,0.342,0.000,-0.016,-0.032,-0.017,-0.293,-1.033,1.190
0723_092514_0057.png,-0.011,0.159,0.937,-0.079,0.163,0.944,0.104,-0.002,1.156,-0.196,-0.018,1.085,0.105,-0.236,1.027,-0.318,-0.254,1.036,0.044,-0.324,0.785,-0.324,-0.324,0.784,948.539,701.310,0.937,880.553,704.260,0.944,1045.696,538.267,1.156,787.997,523.894,1.085,1056.781,321.120,1.027,668.135,307.257,1.036,1012.759,148.208,0.785,566.278,147.096,0.784,-0.024,-0.967,1.402,0.000,-345.236,0.000,-0.041,0.027,0.008,-0.030,-0.977,1.146
0723_092514_0058.png,-0.008,0.156,0.941,-0.072,0.162,0.954,0.110,-0.005,1.154,-0.177,-0.019,1.090,0.266,-0.193,1.045,-0.233,-0.159,1.303,0.377,-0.319,0.843,-0.302,-0.256,1.070,951.954,697.644,0.941,888.684,701.208,0.954,1050.714,536.097,1.154,805.411,523.005,1.090,1202.455,364.585,1.045,790.135,424.161,1.303,1385.102,180.338,0.843,691.985,312.834,1.070,-0.035,-0.968,1.403,0.000,-345.925,0.000,0.007,0.044,0.006,-0.270,-0.851,1.312
0723_092514_0059.png,0.029,0.184,0.940,-0.037,0.183,0.941,0.155,-0.004,1.104,-0.141,0.006,1.149,0.220,-0.232,0.956,-0.274,-0.186,1.294,0.221,-0.365,0.715,-0.276,-0.279,1.035,989.767,726.122,0.940,922.544,725.372,0.941,1093.217,536.465,1.104,842.987,545.252,1.149,1179.212,308.766,0.956,758.571,403.651,1.294,1253.517,53.980,0.715,706.764,284.146,1.035,-0.022,-0.966,1.402,0.000,-7.784,0.000,-0.009,-0.017,-0.045,-0.181,-0.731,1.556
0723_092514_0060.png,0.012,0.166,0.930,-0.050,0.169,0.938,0.131,-0.007,1.126,-0.153,-0.009,1.116,0.177,-0.204,0.946,-0.184,-0.273,1.059,0.171,-0.367,0.738,-0.136,-0.349,0.812,972.770,710.224,0.930,909.426,711.766,0.938,1070.266,534.044,1.126,829.960,532.122,1.116,1138.411,334.894,0.946,794.909,294.905,1.059,1180.792,67.086,0.738,800.353,131.456,0.812,-0.032,-0.962,1.401,0.000,-356.845,0.000,0.045,-0.013,0.004,-0.230,-0.940,1.464
0723_092514_0061.png,0.005,0.168,0.937,-0.060,0.172,0.948,0.129,-0.002,1.144,-0.170,-0.011,1.106,0.161,-0.179,0.928,-0.193,-0.271,1.032,0.193,-0.350,0.717,-0.155,-0.341,0.777,965.420,710.567,0.937,899.436,713.027,0.948,1067.181,538.461,1.144,814.081,530.838,1.106,1125.388,356.928,0.928,782.405,290.216,1.032,1216.187,74.881,0.717,770.797,122.829,0.777,-0.036,-0.965,1.402,0.000,-351.332,0.000,-0.014,0.007,-0.015,-0.253,-0.868,1.313
0723_092514_0062.png,0.033,0.144,0.935,-0.034,0.142,0.934,0.156,-0.019,1.107,-0.146,-0.010,1.144,0.076,-0.229,0.952,-0.241,-0.248,1.058,-0.008,-0.347,0.729,-0.068,-0.316,0.866,993.593,686.719,0.935,925.183,684.948,0.934,1093.640,523.849,1.107,838.961,531.527,1.144,1035.818,311.643,0.952,743.164,316.741,1.058,950.196,87.030,0.729,885.252,193.235,0.866,-0.025,-0.959,1.401,0.000,-6.097,0.000,-0.022,0.015,-0.007,-0.048,-1.218,1.521
0723_092514_0063.png,0.011,0.181,0.940,-0.052,0.182,0.941,0.114,0.004,1.139,-0.167,-0.004,1.105,0.258,-0.173,0.992,-0.244,-0.185,0.909,0.372,-0.342,0.820,-0.323,-0.362,0.720,971.362,723.290,0.940,907.846,723.995,0.941,1055.109,542.954,1.139,816.121,536.314,1.105,1207.450,373.700,0.992,704.418,346.139,0.909,1391.430,143.728,0.820,533.748,61.732,0.720,-0.028,-0.971,1.403,0.000,-351.746,0.000,0.046,0.000,-0.008,0.158,-0.799,1.176
0723_092514_0064.png,0.009,0.152,0.931,-0.056,0.156,0.941,0.137,-0.011,1.132,-0.162,-0.014,1.119,0.236,-0.250,1.051,-0.286,-0.236,1.210,0.252,-0.334,0.800,-0.351,-0.294,0.960,969.576,694.923,0.931,903.315,697.503,0.941,1074.885,530.822,1.132,822.327,528.180,1.119,1173.595,313.601,1.051,735.124,354.379,1.210,1259.671,142.934,0.800,612.469,248.375,0.960,-0.031,-0.959,1.401,0.000,-356.276,0.000,-0.007,0.002,-0.006,-0.307,-1.106,1.467
0723_092514_0065.png,0.051,0.189,0.940,-0.015,0.186,0.934,0.167,-0.007,1.093,-0.126,0.005,1.146,0.226,-0.257,0.995,-0.245,-0.237,1.208,0.166,-0.354,0.753,-0.243,-0.302,0.949,1011.490,730.766,0.940,944.657,729.545,0.934,1105.585,533.541,1.093,855.070,543.907,1.146,1175.709,294.059,0.995,767.266,353.721,1.208,1169.504,93.433,0.753,716.731,237.652,0.949,-0.033,-0.966,1.402,0.000,-9.275,0.000,-0.006,-0.024,-0.013,0.066,-0.676,1.451
0723_092514_0066.png,0.037,0.160,0.924,-0.029,0.160,0.926,0.157,-0.011,1.106,-0.141,-0.007,1.121,0.234,-0.259,1.184,-0.292,-0.226,1.088,0.242,-0.296,0.933,-0.204,-0.316,0.868,997.837,704.526,0.924,929.859,704.328,0.926,1095.285,530.874,1.106,840.651,533.937,1.121,1148.228,331.620,1.184,705.074,342.645,1.088,1206.806,238.416,0.933,736.801,193.886,0.868,-0.040,-0.966,1.402,0.000,-1.801,0.000,-0.005,-0.007,0.045,-0.060,-1.139,1.413
0723_092514_0067.png,0.031,0.159,0.942,-0.036,0.158,0.941,0.150,-0.012,1.115,-0.151,-0.006,1.138,0.292,-0.240,1.104,-0.313,-0.185,1.255,0.277,-0.316,0.849,-0.356,-0.275,1.008,990.938,700.527,0.942,923.414,699.616,0.941,1087.794,530.020,1.115,833.748,534.604,1.138,1211.430,333.307,1.104,722.812,399.639,1.255,1270.283,185.790,0.849,623.702,280.397,1.008,-0.026,-0.965,1.402,0.000,-3.278,0.000,-0.016,0.023,-0.012,0.011,-1.002,1.336
0723_092514_0068.png,0.039,0.182,0.936,-0.027,0.180,0.932,0.153,-0.005,1.112,-0.143,0.000,1.132,0.101,-0.186,0.903,-0.100,-0.181,0.922,0.052,-0.362,0.700,-0.059,-0.358,0.718,999.135,724.566,0.936,932.271,723.752,0.932,1091.042,535.791,1.112,839.909,539.775,1.132,1066.833,344.601,0.903,856.525,353.395,0.922,1030.190,48.028,0.700,881.311,66.510,0.718,-0.033,-0.964,1.402,0.000,-2.840,0.000,0.000,-0.027,-0.011,0.100,-0.758,1.635
0723_092514_0069.png,0.007,0.162,0.936,-0.058,0.164,0.943,0.128,-0.011,1.125,-0.164,-0.013,1.117,0.263,-0.232,1.063,-0.233,-0.265,1.066,0.257,-0.331,0.823,-0.223,-0.335,0.816,966.761,704.515,0.936,901.786,705.743,0.943,1068.048,530.743,1.125,820.235,529.159,1.117,1195.172,332.209,1.063,752.308,303.222,1.066,1256.461,157.970,0.823,699.986,149.960,0.816,-0.023,-0.963,1.401,0.000,-357.265,0.000,0.016,0.011,0.016,-0.203,-0.827,1.578
0723_092514_0070.png,0.024,0.161,0.936,-0.044,0.163,0.941,0.148,-0.002,1.134,-0.161,-0.006,1.118,0.267,-0.240,1.076,-0.222,-0.244,1.001,0.293,-0.318,0.822,-0.211,-0.338,0.751,984.466,703.364,0.936,915.152,704.813,0.941,1084.555,538.262,1.134,823.098,535.261,1.118,1196.205,327.627,1.076,748.746,308.165,1.001,1298.778,171.982,0.822,693.143,111.571,0.751,-0.039,-0.969,1.403,0.000,-355.936,0.000,-0.044,0.016,-0.016,-0.101,-1.141,1.149
0723_092514_0071.png,-0.001,0.159,0.932,-0.066,0.164,0.940,0.110,0.003,1.153,-0.180,-0.012,1.087,0.062,-0.180,0.957,-0.267,-0.260,1.035,-0.003,-0.345,0.760,-0.129,-0.329,0.823,958.700,702.240,0.932,892.839,705.947,0.940,1050.524,542.226,1.153,802.736,529.146,1.087,1021.335,360.847,0.957,714.685,301.363,1.035,956.367,107.727,0.760,811.429,159.192,0.823,-0.034,-0.971,1.403,0.000,-345.715,0.000,-0.001,0.021,0.003,-0.060,-1.058,1.336
0723_092514_0072.png,0.013,0.174,0.925,-0.054,0.175,0.923,0.115,0.004,1.143,-0.182,-0.010,1.080,0.133,-0.218,1.001,-0.238,-0.273,1.042,0.009,-0.331,0.801,-0.059,-0.319,0.858,973.408,718.509,0.925,904.234,719.977,0.923,1055.478,543.634,1.143,799.787,531.057,1.080,1086.056,332.617,1.001,742.891,290.393,1.042,970.911,146.460,0.801,894.092,186.603,0.858,-0.032,-0.969,1.403,0.000,-346.501,0.000,-0.023,-0.023,0.031,0.312,-1.005,1.403
0723_092514_0073.png,0.019,0.178,0.938,-0.049,0.179,0.938,0.135,0.005,1.136,-0.172,-0.001,1.110,0.123,-0.244,1.024,-0.264,-0.244,1.024,0.078,-0.335,0.777,-0.135,-0.328,0.804,979.765,720.698,0.938,910.611,721.371,0.938,1072.889,543.948,1.136,812.841,538.871,1.110,1074.201,313.508,1.024,715.114,313.018,1.024,1054.984,129.630,0.777,799.786,151.888,0.804,-0.031,-0.972,1.404,0.000,-353.805,0.000,-0.037,-0.001,-0.013,0.108,-0.812,1.546
0723_092514_0074.png,0.030,0.157,0.940,-0.037,0.155,0.936,0.143,-0.015,1.114,-0.160,-0.012,1.124,0.241,-0.216,1.256,-0.251,-0.204,1.283,0.395,-0.258,1.051,-0.280,-0.261,1.035,990.153,698.574,0.940,922.303,697.549,0.936,1081.973,527.549,1.114,824.881,529.586,1.124,1142.627,376.641,1.256,773.695,388.865,1.283,1317.546,306.276,1.051,702.956,300.520,1.035,-0.025,-0.966,1.402,0.000,-0.755,0.000,-0.020,0.025,0.032,0.179,-0.881,1.644
0723_092514_0075.png,0.030,0.169,0.934,-0.039,0.168,0.937,0.159,-0.009,1.098,-0.145,0.002,1.145,0.176,-0.177,1.308,-0.123,-0.176,0.936,0.260,-0.254,1.067,-0.101,-0.348,0.731,990.152,711.756,0.934,920.895,710.933,0.937,1097.651,532.168,1.098,839.426,541.457,1.145,1088.317,411.341,1.308,834.508,361.244,0.936,1191.620,313.645,1.067,829.182,87.706,0.731,-0.023,-0.969,1.403,0.000,-7.835,0.000,-0.037,0.005,-0.006,-0.237,-0.990,1.294
0723_092514_0076.png,0.023,0.177,0.927,-0.040,0.177,0.929,0.136,0.002,1.117,-0.150,0.001,1.114,0.266,-0.203,1.007,-0.274,-0.211,1.230,0.359,-0.343,0.811,-0.393,-0.294,1.018,983.797,721.081,0.927,918.982,721.439,0.929,1075.702,541.437,1.117,832.402,540.944,1.114,1211.295,348.508,1.007,748.456,377.053,1.230,1381.254,137.673,0.811,593.050,265.165,1.018,-0.032,-0.973,1.404,0.000,-358.305,0.000,0.039,-0.015,0.020,-0.023,-1.068,1.158
0723_092514_0077.png,0.041,0.166,0.936,-0.024,0.165,0.936,0.163,-0.013,1.096,-0.125,-0.001,1.147,0.114,-0.241,0.958,-0.297,-0.200,1.198,-0.017,-0.353,0.757,-0.431,-0.291,0.989,1001.694,708.795,0.936,935.732,707.491,0.936,1101.773,528.984,1.096,856.522,539.272,1.147,1072.734,300.888,0.958,724.093,381.320,1.198,938.198,97.247,0.757,545.837,260.529,0.989,-0.032,-0.966,1.402,0.000,-9.201,0.000,0.014,0.007,-0.005,-0.160,-0.890,1.570
0723_092514_0078.png,-0.002,0.188,0.918,-0.066,0.193,0.929,0.112,0.013,1.141,-0.175,0.000,1.085,0.225,-0.179,0.986,-0.327,-0.227,1.135,0.292,-0.347,0.794,-0.414,-0.321,0.906,958.094,734.762,0.918,892.670,737.450,0.929,1053.271,550.628,1.141,806.395,539.886,1.085,1176.991,367.667,0.986,685.767,349.622,1.135,1309.842,124.315,0.794,525.945,203.381,0.906,-0.032,-0.972,1.404,0.000,-347.502,0.000,0.013,-0.046,0.007,-0.175,-0.908,1.423
0723_092514_0079.png,0.020,0.137,0.932,-0.046,0.138,0.931,0.131,-0.017,1.128,-0.166,-0.022,1.109,0.197,-0.271,1.116,-0.211,-0.281,1.120,0.190,-0.310,0.867,-0.161,-0.306,0.874,979.938,680.142,0.932,912.601,680.768,0.931,1070.304,525.472,1.128,817.521,521.504,1.109,1128.133,308.961,1.116,780.673,301.900,1.120,1168.366,199.311,0.867,785.174,206.682,0.874,-0.029,-0.961,1.401,0.000,-355.098,0.000,-0.002,0.024,0.044,0.120,-1.220,1.590
0723_092514_0080.png,0.043,0.179,0.939,-0.021,0.178,0.939,0.167,-0.016,1.093,-0.118,-0.002,1.154,0.168,-0.269,0.980,-0.198,-0.240,1.037,0.021,-0.359,0.772,-0.067,-0.345,0.831,1003.845,721.202,0.939,938.268,720.253,0.939,1104.927,526.500,1.093,862.603,538.759,1.154,1122.641,278.710,0.980,778.354,319.469,1.037,986.123,98.484,0.772,882.958,144.880,0.831,-0.032,-0.957,1.400,0.000,-11.218,0.000,0.018,-0.024,-0.030,-0.224,-0.722,1.429
0723_092514_0081.png,0.003,0.169,0.920,-0.059,0.174,0.931,0.126,-0.003,1.127,-0.162,-0.007,1.105,0.243,-0.179,0.964,-0.154,-0.224,0.949,0.338,-0.348,0.789,-0.076,-0.363,0.746,963.528,714.849,0.920,899.311,717.395,0.931,1065.945,537.880,1.127,820.816,533.623,1.105,1199.673,363.086,0.964,805.288,315.141,0.949,1367.616,121.154,0.789,863.423,77.035,0.746,-0.030,-0.964,1.402,0.000,-354.473,0.000,0.030,-0.032,0.022,-0.329,-1.036,1.457
0723_092514_0082.png,0.017,0.157,0.927,-0.051,0.158,0.929,0.137,-0.003,1.131,-0.172,-0.006,1.115,0.239,-0.231,1.246,-0.188,-0.253,1.000,0.288,-0.277,0.988,-0.091,-0.339,0.766,977.678,700.979,0.927,907.409,702.023,0.929,1075.354,537.822,1.131,813.218,534.783,1.115,1142.302,363.893,1.246,781.202,299.143,1.000,1236.964,273.903,0.988,847.135,119.251,0.766,-0.027,-0.964,1.402,0.000,-355.910,0.000,-0.043,-0.012,-0.009,0.018,-1.159,1.679
0723_092514_0083.png,0.044,0.158,0.928,-0.023,0.156,0.929,0.170,-0.024,1.084,-0.126,-0.010,1.145,0.134,-0.260,0.969,-0.292,-0.210,1.230,0.006,-0.339,0.762,-0.356,-0.278,0.993,1005.417,701.686,0.928,936.894,700.185,0.929,1109.420,518.828,1.084,855.613,531.601,1.145,1091.262,285.247,0.969,734.499,378.001,1.230,967.598,116.915,0.762,619.114,273.630,0.993,-0.034,-0.957,1.400,0.000,-10.771,0.000,-0.019,-0.009,0.035,-0.198,-1.049,1.326
0723_092514_0084.png,0.026,0.165,0.933,-0.041,0.166,0.932,0.139,-0.005,1.128,-0.163,-0.010,1.107,0.175,-0.221,0.980,-0.227,-0.265,1.163,0.105,-0.338,0.761,-0.187,-0.297,0.911,986.916,708.637,0.933,918.493,709.090,0.932,1077.567,535.755,1.128,820.362,531.586,1.107,1129.421,325.308,0.980,774.295,322.866,1.163,1090.758,117.676,0.761,764.991,229.531,0.911,-0.035,-0.968,1.403,0.000,-354.801,0.000,-0.019,0.002,0.028,0.148,-1.066,1.142
0723_092514_0085.png,0.036,0.179,0.935,-0.031,0.178,0.933,0.149,-0.002,1.123,-0.150,-0.003,1.119,0.235,-0.221,1.266,-0.130,-0.184,0.911,0.398,-0.271,1.062,-0.111,-0.361,0.709,996.276,721.854,0.935,928.757,721.720,0.933,1086.058,538.602,1.123,832.299,537.776,1.119,1136.835,373.804,1.266,823.970,347.942,0.911,1316.192,297.258,1.062,811.528,55.906,0.709,-0.039,-0.966,1.402,0.000,-358.001,0.000,-0.008,-0.020,-0.005,0.141,-0.955,1.123
0723_092514_0086.png,0.001,0.136,0.929,-0.064,0.139,0.935,0.115,-0.014,1.140,-0.178,-0.024,1.098,0.049,-0.178,0.937,-0.170,-0.202,0.905,-0.017,-0.336,0.738,-0.114,-0.356,0.708,961.030,678.651,0.929,894.560,681.781,0.935,1056.164,528.014,1.140,805.522,519.276,1.098,1010.016,359.325,0.937,781.054,327.918,0.905,937.817,107.215,0.738,806.987,62.100,0.708,-0.025,-0.961,1.401,0.000,-350.555,0.000,0.001,0.025,0.037,-0.059,-1.311,1.378
0723_092514_0087.png,0.035,0.193,0.931,-0.031,0.193,0.930,0.153,0.001,1.113,-0.144,0.004,1.125,0.284,-0.240,1.074,-0.266,-0.213,1.256,0.309,-0.337,0.827,-0.308,-0.292,1.006,995.691,737.131,0.931,928.342,736.950,0.930,1090.552,540.622,1.113,838.102,542.983,1.125,1211.585,327.413,1.074,758.495,379.106,1.256,1315.626,152.678,0.827,668.508,263.680,1.006,-0.036,-0.965,1.402,0.000,-1.238,0.000,-0.001,-0.048,-0.008,0.000,-0.783,1.292
0723_092514_0088.png,0.029,0.177,0.920,-0.037,0.177,0.923,0.154,0.003,1.102,-0.140,0.010,1.133,0.203,-0.183,0.901,-0.213,-0.241,1.047,0.251,-0.364,0.705,-0.056,-0.335,0.856,989.831,723.258,0.920,922.286,722.662,0.923,1092.681,542.203,1.102,842.448,548.238,1.133,1173.947,347.076,0.901,766.619,320.894,1.047,1298.241,49.375,0.705,897.504,167.335,0.856,-0.030,-0.971,1.403,0.000,-5.127,0.000,0.004,-0.038,-0.007,-0.201,-1.214,1.291
0723_092514_0089.png,0.042,0.168,0.947,-0.023,0.165,0.941,0.157,-0.021,1.097,-0.136,-0.010,1.145,0.092,-0.219,0.927,-0.275,-0.202,1.270,-0.017,-0.351,0.729,-0.334,-0.272,1.026,1002.224,708.329,0.947,936.281,706.988,0.941,1095.896,521.789,1.097,846.739,531.780,1.145,1054.562,315.300,0.927,754.170,388.443,1.270,937.189,81.502,0.729,650.288,287.624,1.026,-0.026,-0.960,1.401,0.000,-8.431,0.000,-0.001,0.014,0.011,0.087,-0.765,1.149
0723_092514_0090.png,0.001,0.153,0.937,-0.064,0.156,0.945,0.120,-0.008,1.139,-0.174,-0.017,1.101,0.082,-0.223,0.992,-0.164,-0.216,0.928,0.016,-0.334,0.770,-0.105,-0.352,0.718,961.357,694.879,0.937,895.958,697.280,0.945,1060.138,533.168,1.139,809.834,525.416,1.101,1038.515,326.283,0.992,791.753,318.760,0.928,980.179,126.738,0.770,820.414,74.038,0.718,-0.028,-0.969,1.403,0.000,-351.295,0.000,0.002,0.040,0.028,-0.146,-0.891,1.577
0723_092514_0091.png,0.006,0.173,0.928,-0.058,0.177,0.934,0.115,0.004,1.139,-0.171,-0.005,1.098,0.098,-0.172,0.927,-0.237,-0.248,1.000,0.084,-0.346,0.722,-0.125,-0.351,0.786,965.779,717.688,0.928,900.857,719.686,0.934,1056.041,543.364,1.139,812.294,535.385,1.098,1060.960,363.059,0.927,734.727,304.174,1.000,1070.134,84.583,0.722,808.288,115.623,0.786,-0.030,-0.970,1.403,0.000,-350.504,0.000,0.028,-0.011,0.005,-0.029,-1.009,1.247
0723_092514_0092.png,0.048,0.163,0.930,-0.015,0.158,0.923,0.162,-0.018,1.074,-0.116,-0.001,1.148,0.281,-0.225,1.196,-0.281,-0.201,1.208,0.232,-0.301,0.958,-0.362,-0.290,0.985,1009.597,706.408,0.930,944.532,702.940,0.923,1103.849,524.340,1.074,863.724,539.525,1.148,1183.743,360.914,1.196,738.896,382.109,1.208,1190.362,241.257,0.958,610.155,259.744,0.985,-0.027,-0.968,1.403,0.000,-14.160,0.000,0.027,0.004,0.036,0.021,-0.987,1.630
0723_092514_0093.png,0.015,0.170,0.930,-0.051,0.172,0.934,0.133,-0.003,1.132,-0.164,-0.008,1.112,0.268,-0.241,1.139,-0.308,-0.223,1.204,0.328,-0.317,0.891,-0.379,-0.298,0.959,975.355,713.468,0.930,908.426,714.835,0.934,1071.417,537.338,1.132,819.929,533.447,1.112,1184.074,338.411,1.139,716.732,363.786,1.204,1309.662,201.662,0.891,584.598,244.404,0.959,-0.031,-0.962,1.401,0.000,-354.954,0.000,-0.001,-0.022,-0.007,-0.082,-1.051,1.228
0723_092514_0094.png,0.020,0.183,0.936,-0.044,0.183,0.938,0.133,-0.003,1.124,-0.158,-0.005,1.114,0.188,-0.242,1.012,-0.301,-0.225,1.055,0.094,-0.347,0.793,-0.291,-0.338,0.820,980.404,725.457,0.936,914.975,725.739,0.938,1072.750,537.515,1.124,825.467,535.629,1.114,1136.643,312.660,1.012,688.970,336.779,1.055,1072.902,123.407,0.793,621.838,147.868,0.820,-0.030,-0.966,1.402,0.000,-356.906,0.000,0.020,-0.015,0.011,0.017,-0.747,1.248
0723_092514_0095.png,-0.008,0.175,0.925,-0.071,0.180,0.936,0.107,0.005,1.143,-0.179,-0.007,1.087,0.045,-0.174,0.951,-0.302,-0.180,1.258,-0.015,-0.350,0.764,-0.363,-0.287,1.030,952.190,720.350,0.925,887.920,723.253,0.936,1048.777,544.522,1.143,803.780,533.437,1.087,1005.184,365.605,0.951,731.912,404.013,1.258,941.535,104.436,0.764,625.280,275.202,1.030,-0.028,-0.971,1.403,0.000,-347.382,0.000,0.020,-0.014,0.017,-0.199,-0.868,1.517
0723_092514_0096.png,0.041,0.176,0.929,-0.025,0.174,0.923,0.152,-0.004,1.112,-0.146,0.000,1.129,0.275,-0.219,1.243,-0.141,-0.182,0.918,0.278,-0.297,0.989,-0.136,-0.360,0.713,1001.828,720.637,0.929,934.335,719.033,0.923,1089.958,536.348,1.112,837.175,539.715,1.129,1170.662,372.770,1.243,814.074,351.210,0.918,1227.567,254.538,0.989,778.471,59.696,0.713,-0.033,-0.962,1.401,0.000,-2.201,0.000,-0.004,-0.043,-0.008,0.241,-1.108,1.251
0723_092514_0097.png,0.030,0.161,0.935,-0.036,0.159,0.934,0.147,-0.013,1.113,-0.147,-0.007,1.137,0.142,-0.257,0.989,-0.188,-0.192,0.935,-0.016,-0.346,0.795,-0.202,-0.361,0.727,990.246,703.353,0.935,923.792,702.236,0.934,1085.393,528.862,1.113,837.147,533.813,1.137,1096.715,292.806,0.989,768.923,344.968,0.935,940.775,126.640,0.795,696.075,66.886,0.727,-0.026,-0.959,1.400,0.000,-3.725,0.000,0.008,-0.008,-0.014,0.011,-1.110,1.271
0723_092514_0098.png,0.035,0.160,0.949,-0.032,0.159,0.946,0.152,-0.018,1.118,-0.150,-0.014,1.135,0.251,-0.265,1.121,-0.290,-0.229,1.054,0.246,-0.310,0.862,-0.220,-0.324,0.818,994.584,700.593,0.949,927.433,699.923,0.946,1088.975,525.096,1.118,834.230,528.650,1.135,1172.866,315.482,1.121,698.181,333.033,1.054,1231.304,197.678,0.862,704.263,163.275,0.818,-0.030,-0.960,1.401,0.000,-2.192,0.000,-0.018,0.027,-0.001,0.075,-0.851,1.174
0723_092514_0099.png,0.048,0.172,0.931,-0.019,0.169,0.930,0.175,-0.011,1.082,-0.116,0.007,1.162,0.112,-0.219,0.902,-0.280,-0.207,1.095,0.007,-0.367,0.696,-0.238,-0.326,0.853,1009.313,715.691,0.931,940.698,712.892,0.930,1114.131,530.369,1.082,864.937,546.119,1.162,1078.107,309.339,0.902,716.926,359.777,1.095,970.182,38.411,0.696,694.216,176.254,0.853,-0.029,-0.964,1.402,0.000,-14.596,0.000,-0.020,-0.018,-0.038,-0.218,-1.042,1.409
0723_092514_0100.png,0.044,0.183,0.924,-0.022,0.183,0.926,0.172,-0.011,1.082,-0.120,0.004,1.146,0.193,-0.202,1.289,-0.159,-0.173,0.936,0.323,-0.275,1.070,-0.196,-0.345,0.732,1005.381,728.703,0.924,937.127,727.665,0.926,1111.419,530.494,1.082,860.428,543.264,1.146,1102.510,391.199,1.289,798.713,364.715,0.936,1246.738,295.997,1.070,705.959,91.729,0.732,-0.035,-0.962,1.401,0.000,-11.526,0.000,-0.009,-0.047,0.004,-0.266,-0.831,1.523
0723_092514_0101.png,0.062,0.168,0.945,-0.003,0.165,0.940,0.179,-0.020,1.080,-0.104,-0.002,1.158,0.245,-0.253,1.183,-0.209,-0.172,0.971,0.133,-0.296,0.949,-0.313,-0.337,0.788,1022.650,708.879,0.945,957.402,706.760,0.940,1117.470,522.606,1.080,874.980,538.584,1.158,1156.739,336.529,1.183,755.073,371.717,0.971,1093.747,243.740,0.949,582.465,133.090,0.788,-0.038,-0.966,1.402,0.000,-14.741,0.000,0.011,0.026,-0.001,-0.060,-0.794,1.245
0723_092514_0102.png,0.015,0.155,0.932,-0.051,0.158,0.938,0.138,-0.011,1.126,-0.160,-0.015,1.109,0.186,-0.243,1.248,-0.221,-0.260,1.034,0.182,-0.274,0.996,-0.065,-0.321,0.839,975.537,698.211,0.932,908.733,699.887,0.938,1076.846,530.290,1.126,822.550,526.870,1.109,1102.017,355.271,1.248,756.413,300.736,1.034,1133.951,278.051,0.996,886.358,176.405,0.839,-0.034,-0.965,1.402,0.000,-355.561,0.000,-0.007,0.017,0.039,-0.168,-0.893,1.711
0723_092514_0103.png,0.029,0.172,0.925,-0.034,0.171,0.924,0.144,0.006,1.111,-0.142,0.011,1.130,0.186,-0.188,1.302,-0.292,-0.165,0.980,0.231,-0.286,1.057,-0.440,-0.336,0.837,990.173,717.202,0.925,924.761,716.240,0.924,1083.645,545.415,1.111,840.854,549.119,1.130,1096.034,402.695,1.302,677.026,380.309,0.980,1168.054,283.170,1.057,459.722,158.307,0.837,-0.030,-0.976,1.404,0.000,-2.856,0.000,0.034,-0.020,-0.017,-0.009,-1.154,1.659
0723_092514_0104.png,0.048,0.170,0.922,-0.015,0.167,0.919,0.164,-0.006,1.088,-0.116,0.006,1.140,0.242,-0.267,1.076,-0.291,-0.179,1.228,0.247,-0.345,0.827,-0.322,-0.302,1.001,1009.292,715.515,0.922,944.048,712.873,0.919,1103.607,534.923,1.088,863.104,545.080,1.140,1174.134,303.587,1.076,734.668,401.724,1.228,1244.216,143.576,0.827,654.304,253.057,1.001,-0.038,-0.969,1.403,0.000,-9.553,0.000,0.039,-0.027,0.013,-0.028,-1.201,1.426
0723_092514_0105.png,0.034,0.183,0.935,-0.033,0.182,0.932,0.148,-0.003,1.115,-0.158,-0.003,1.113,0.182,-0.188,0.931,-0.299,-0.233,1.088,0.159,-0.344,0.729,-0.180,-0.309,0.873,994.888,725.786,0.935,925.916,725.480,0.932,1086.336,537.526,1.115,825.145,537.111,1.113,1145.526,348.063,0.931,698.498,336.024,1.088,1167.805,91.377,0.729,763.322,203.055,0.873,-0.034,-0.971,1.403,0.000,-358.426,0.000,-0.030,-0.010,0.037,0.204,-0.766,1.283
0723_092514_0106.png,0.003,0.182,0.934,-0.062,0.186,0.942,0.115,0.005,1.150,-0.176,-0.006,1.100,0.239,-0.243,1.155,-0.323,-0.229,1.168,0.095,-0.312,0.940,-0.407,-0.314,0.925,963.254,725.683,0.934,897.351,727.654,0.942,1055.383,544.301,1.150,807.777,534.426,1.100,1157.118,340.263,1.155,696.993,353.380,1.168,1056.214,224.363,0.940,541.706,217.409,0.925,-0.032,-0.963,1.402,0.000,-348.709,0.000,0.003,-0.028,-0.037,-0.061,-0.827,1.268
0723_092514_0107.png,0.051,0.162,0.921,-0.017,0.159,0.921,0.178,-0.014,1.078,-0.121,0.003,1.150,0.116,-0.253,0.970,-0.295,-0.203,1.209,-0.015,-0.337,0.760,-0.370,-0.282,0.972,1012.385,707.119,0.921,942.255,704.088,0.921,1116.785,527.987,1.078,859.791,542.442,1.150,1073.716,292.253,0.970,727.703,379.949,1.209,940.923,118.009,0.760,597.937,264.064,0.972,-0.034,-0.966,1.402,0.000,-12.731,0.000,-0.037,-0.020,0.013,-0.147,-1.236,1.441
0723_092514_0108.png,0.033,0.150,0.929,-0.030,0.149,0.928,0.148,-0.011,1.108,-0.135,-0.006,1.131,0.076,-0.187,0.913,-0.212,-0.244,1.038,0.006,-0.359,0.724,-0.070,-0.337,0.846,993.870,694.048,0.929,929.223,693.075,0.928,1087.326,530.253,1.108,846.117,534.845,1.131,1038.767,345.472,0.913,765.442,316.621,1.038,968.195,68.400,0.724,881.012,160.671,0.846,-0.033,-0.966,1.402,0.000,-3.529,0.000,0.041,0.007,0.016,-0.035,-1.196,1.645
0723_092514_0109.png,0.020,0.175,0.942,-0.043,0.175,0.941,0.127,-0.004,1.128,-0.156,-0.007,1.117,0.211,-0.209,1.279,-0.274,-0.240,1.066,0.354,-0.278,1.073,-0.172,-0.340,0.846,980.469,716.505,0.942,917.021,716.602,0.941,1067.201,536.443,1.128,827.303,534.399,1.117,1116.729,384.192,1.279,715.020,325.366,1.066,1273.921,293.268,1.073,767.081,157.801,0.846,-0.029,-0.967,1.402,0.000,-356.693,0.000,0.046,0.004,-0.001,0.110,-0.712,1.595
0723_092514_0110.png,0.031,0.156,0.944,-0.035,0.154,0.940,0.147,-0.017,1.107,-0.148,-0.010,1.141,0.168,-0.272,1.032,-0.294,-0.203,1.249,-0.010,-0.323,0.845,-0.448,-0.267,1.046,991.416,697.040,0.944,924.998,695.447,0.940,1086.561,525.079,1.107,836.634,532.032,1.141,1114.653,289.175,1.032,735.806,385.709,1.249,948.803,176.025,0.845,552.533,297.678,1.046,-0.021,-0.963,1.401,0.000,-5.562,0.000,-0.001,0.028,0.004,0.054,-1.061,1.096
0723_092514_0111.png,0.044,0.178,0.929,-0.022,0.176,0.927,0.163,-0.011,1.092,-0.132,-0.001,1.134,0.250,-0.262,1.041,-0.170,-0.175,0.931,0.153,-0.332,0.814,-0.205,-0.344,0.734,1004.665,722.032,0.929,937.204,721.046,0.927,1101.808,530.384,1.092,849.577,538.835,1.134,1187.984,300.515,1.041,786.658,361.582,0.931,1138.889,152.004,0.814,694.943,94.642,0.734,-0.035,-0.965,1.402,0.000,-7.153,0.000,-0.002,-0.023,0.032,-0.021,-0.772,1.647
0723_092514_0112.png,0.045,0.176,0.942,-0.022,0.173,0.935,0.160,-0.018,1.092,-0.137,-0.006,1.144,0.250,-0.261,1.016,-0.095,-0.179,0.940,0.251,-0.339,0.767,-0.052,-0.347,0.742,1005.038,717.754,0.942,937.856,716.423,0.935,1099.140,524.730,1.092,845.699,535.266,1.144,1193.495,295.368,1.016,863.775,358.929,0.940,1270.969,119.789,0.767,893.277,95.033,0.742,-0.026,-0.961,1.401,0.000,-8.917,0.000,-0.017,-0.009,0.013,0.121,-0.706,1.378
0723_092514_0113.png,0.030,0.159,0.930,-0.036,0.159,0.933,0.155,-0.014,1.098,-0.138,-0.005,1.138,0.241,-0.227,1.239,-0.300,-0.181,1.263,0.173,-0.284,0.995,-0.359,-0.277,1.030,990.424,702.395,0.930,923.505,701.645,0.933,1093.877,527.814,1.098,844.327,535.972,1.138,1144.801,365.502,1.239,734.073,403.708,1.263,1124.967,268.904,0.995,628.526,284.136,1.030,-0.027,-0.965,1.402,0.000,-6.850,0.000,0.003,0.004,0.017,-0.191,-0.970,1.706
0723_092514_0114.png,0.032,0.159,0.927,-0.031,0.158,0.926,0.147,-0.009,1.107,-0.136,-0.003,1.132,0.269,-0.249,1.120,-0.261,-0.217,1.029,0.325,-0.331,0.878,-0.253,-0.349,0.803,993.182,703.235,0.927,928.527,702.015,0.926,1086.192,532.676,1.107,845.763,537.671,1.132,1188.610,328.841,1.120,719.125,339.605,1.029,1311.861,181.247,0.878,660.847,126.267,0.803,-0.031,-0.965,1.402,0.000,-4.017,0.000,0.043,-0.013,0.005,-0.017,-1.197,1.523
0723_092514_0115.png,0.009,0.170,0.926,-0.055,0.173,0.935,0.133,-0.004,1.124,-0.160,-0.006,1.114,0.064,-0.177,0.922,-0.256,-0.202,1.280,-0.004,-0.347,0.726,-0.306,-0.282,1.036,969.731,714.759,0.926,904.261,716.467,0.935,1072.456,537.006,1.124,823.703,534.968,1.114,1025.684,357.382,0.922,769.886,389.543,1.280,955.194,85.753,0.726,679.285,281.238,1.036,-0.029,-0.965,1.402,0.000,-356.769,0.000,0.014,-0.020,0.010,-0.278,-0.993,1.384
0723_092514_0116.png,-0.010,0.160,0.947,-0.074,0.163,0.955,0.099,-0.004,1.158,-0.187,-0.018,1.097,0.122,-0.229,1.005,-0.242,-0.257,1.183,-0.013,-0.338,0.805,-0.229,-0.303,0.921,950.364,700.282,0.947,886.245,702.617,0.955,1041.035,536.333,1.158,797.859,524.074,1.097,1075.081,323.048,1.005,765.751,333.223,1.183,944.943,140.672,0.805,723.920,226.893,0.921,-0.024,-0.966,1.402,0.000,-346.567,0.000,0.015,0.041,-0.019,-0.011,-0.783,1.335
0723_092514_0117.png,-0.004,0.147,0.929,-0.066,0.152,0.937,0.110,-0.005,1.138,-0.171,-0.013,1.107,0.057,-0.177,0.929,-0.292,-0.220,0.993,0.009,-0.345,0.725,-0.356,-0.353,0.778,956.370,690.810,0.929,893.316,694.199,0.937,1051.632,535.461,1.138,812.807,529.203,1.107,1018.683,359.062,0.929,680.420,329.243,0.993,971.780,87.445,0.725,525.080,107.999,0.778,-0.022,-0.965,1.402,0.000,-352.359,0.000,0.047,0.014,0.004,-0.190,-1.240,1.460
0723_092514_0118.png,0.011,0.158,0.927,-0.052,0.161,0.932,0.123,-0.004,1.133,-0.161,-0.010,1.107,0.064,-0.178,0.929,-0.143,-0.190,0.900,0.008,-0.350,0.732,-0.128,-0.367,0.699,971.654,702.264,0.927,907.373,704.346,0.932,1063.022,536.910,1.133,821.729,531.761,1.107,1025.052,357.716,0.929,808.871,339.131,0.900,970.021,85.661,0.732,786.516,40.543,0.699,-0.031,-0.965,1.402,0.000,-353.514,0.000,0.040,-0.005,0.009,-0.076,-1.185,1.346
0723_092514_0119.png,0.042,0.155,0.939,-0.022,0.152,0.938,0.164,-0.022,1.087,-0.120,-0.006,1.156,0.180,-0.283,1.033,-0.284,-0.164,1.006,-0.003,-0.328,0.850,-0.445,-0.318,0.860,1002.969,696.467,0.939,937.206,694.153,0.938,1103.837,520.847,1.087,861.709,535.217,1.156,1126.182,279.444,1.033,691.668,384.652,1.006,956.977,172.634,0.850,468.173,187.982,0.860,-0.027,-0.963,1.401,0.000,-13.013,0.000,0.014,0.024,-0.003,-0.198,-1.042,1.290
0723_092514_0120.png,0.020,0.163,0.943,-0.045,0.165,0.949,0.146,-0.010,1.124,-0.148,-0.006,1.140,0.205,-0.269,1.059,-0.279,-0.238,1.074,0.052,-0.331,0.845,-0.163,-0.332,0.847,979.767,704.474,0.943,914.560,705.160,0.949,1083.268,531.564,1.124,836.181,534.812,1.140,1144.158,298.204,1.059,713.300,329.408,1.074,1018.246,167.218,0.845,777.408,167.346,0.847,-0.028,-0.961,1.401,0.000,-2.086,0.000,0.008,0.012,-0.043,-0.265,-0.847,1.574
0723_092514_0121.png,-0.005,0.168,0.920,-0.072,0.172,0.924,0.101,0.008,1.151,-0.194,-0.008,1.080,0.201,-0.208,1.294,-0.257,-0.267,1.015,0.332,-0.265,1.073,-0.252,-0.345,0.763,954.698,714.002,0.920,885.911,717.423,0.924,1043.212,546.772,1.151,789.316,533.026,1.080,1107.471,387.248,1.294,719.372,289.437,1.015,1254.326,305.226,1.073,646.173,109.828,0.763,-0.023,-0.968,1.403,0.000,-345.102,0.000,-0.021,-0.030,0.003,0.108,-1.186,1.385
0723_092514_0122.png,0.048,0.161,0.946,-0.018,0.158,0.939,0.162,-0.019,1.095,-0.136,-0.008,1.143,0.151,-0.258,0.986,-0.125,-0.191,0.950,-0.017,-0.326,0.800,-0.064,-0.339,0.746,1007.959,702.119,0.946,941.308,700.187,0.939,1100.313,523.311,1.095,847.013,533.169,1.143,1106.101,291.176,0.986,834.788,349.181,0.950,940.267,152.812,0.800,877.965,107.525,0.746,-0.029,-0.967,1.402,0.000,-8.214,0.000,-0.015,0.034,0.026,0.154,-0.834,1.343
0723_092514_0123.png,0.043,0.180,0.933,-0.022,0.177,0.928,0.159,-0.007,1.101,-0.132,0.003,1.146,0.236,-0.266,1.032,-0.306,-0.210,1.169,0.251,-0.355,0.776,-0.214,-0.315,0.939,1003.706,723.095,0.933,936.983,721.060,0.928,1097.790,533.796,1.101,850.167,542.739,1.146,1177.508,294.692,1.032,710.830,369.384,1.169,1267.236,104.809,0.776,742.867,221.013,0.939,-0.029,-0.961,1.401,0.000,-7.937,0.000,0.005,-0.038,-0.031,0.063,-1.014,1.210
0723_092514_0124.png,0.004,0.152,0.930,-0.061,0.157,0.935,0.111,0.003,1.153,-0.178,-0.010,1.100,0.225,-0.244,1.121,-0.193,-0.230,0.930,0.099,-0.318,0.897,-0.174,-0.371,0.698,964.507,695.705,0.930,898.396,699.369,0.935,1051.566,542.143,1.153,806.458,531.780,1.100,1151.069,333.280,1.121,762.660,305.207,0.930,1065.013,202.894,0.897,722.925,34.023,0.698,-0.031,-0.965,1.402,0.000,-348.220,0.000,0.011,0.002,-0.034,0.036,-1.233,1.552
0723_092514_0125.png,0.044,0.166,0.936,-0.019,0.163,0.928,0.153,-0.013,1.104,-0.132,-0.005,1.138,0.232,-0.220,1.264,-0.210,-0.246,1.042,0.398,-0.279,1.074,-0.062,-0.340,0.850,1005.196,708.908,0.936,940.832,706.467,0.928,1091.979,528.912,1.104,850.015,535.947,1.138,1134.412,374.429,1.264,768.154,315.480,1.042,1312.536,293.219,1.074,890.377,160.294,0.850,-0.032,-0.961,1.401,0.000,-5.990,0.000,0.033,-0.013,-0.001,0.220,-1.094,1.209
0723_092514_0126.png,0.019,0.153,0.933,-0.045,0.155,0.938,0.137,-0.003,1.132,-0.151,-0.004,1.128,0.276,-0.227,1.061,-0.165,-0.232,0.968,0.324,-0.342,0.818,-0.145,-0.370,0.732,979.131,695.597,0.933,914.346,697.100,0.938,1075.367,537.176,1.132,832.288,536.470,1.128,1207.191,336.895,1.061,797.818,311.711,0.968,1336.984,142.638,0.818,771.992,59.791,0.732,-0.033,-0.965,1.402,0.000,-358.095,0.000,0.027,0.007,-0.038,-0.151,-1.220,1.523
0723_092514_0127.png,0.062,0.174,0.934,-0.001,0.169,0.924,0.171,-0.010,1.078,-0.110,0.006,1.147,0.222,-0.268,1.032,-0.293,-0.173,1.220,0.217,-0.344,0.786,-0.297,-0.293,0.993,1022.812,717.620,0.934,958.543,714.128,0.924,1110.768,531.338,1.078,869.075,544.999,1.147,1164.701,292.797,1.032,731.802,405.108,1.220,1222.915,124.136,0.786,675.374,258.806,0.993,-0.036,-0.974,1.404,0.000,-12.983,0.000,0.026,0.002,0.023,0.205,-1.017,1.243
0723_092514_0128.png,0.008,0.168,0.939,-0.057,0.169,0.941,0.117,-0.005,1.138,-0.176,-0.012,1.105,0.265,-0.217,1.205,-0.251,-0.229,0.966,0.392,-0.287,0.988,-0.226,-0.353,0.738,967.927,709.743,0.939,902.045,710.583,0.941,1057.389,535.983,1.138,808.920,529.443,1.105,1169.105,368.665,1.205,713.070,314.841,0.966,1337.383,263.727,0.988,669.253,84.735,0.738,-0.024,-0.966,1.402,0.000,-352.320,0.000,0.010,0.010,0.009,0.118,-0.884,1.232
0723_092514_0129.png,0.005,0.189,0.928,-0.060,0.191,0.932,0.109,0.012,1.148,-0.179,-0.003,1.083,0.091,-0.177,0.952,-0.295,-0.251,1.074,0.064,-0.355,0.755,-0.170,-0.332,0.856,965.476,733.297,0.928,898.901,734.933,0.932,1049.997,550.101,1.148,803.084,537.638,1.083,1051.307,362.679,0.952,698.873,317.412,1.074,1040.272,92.741,0.755,770.960,171.071,0.856,-0.033,-0.973,1.404,0.000,-345.808,0.000,0.007,-0.027,-0.001,0.134,-0.792,1.404
0723_092514_0130.png,0.022,0.185,0.936,-0.044,0.187,0.940,0.143,0.006,1.128,-0.156,0.004,1.122,0.275,-0.234,1.096,-0.302,-0.229,1.115,0.245,-0.329,0.843,-0.198,-0.320,0.883,982.087,727.990,0.936,915.023,728.743,0.940,1080.672,544.742,1.128,827.529,543.533,1.122,1198.178,336.573,1.096,702.402,344.881,1.115,1236.270,168.726,0.843,746.691,195.194,0.883,-0.034,-0.971,1.403,0.000,-357.581,0.000,-0.009,-0.016,-0.031,-0.121,-0.823,1.372
0723_092514_0131.png,0.014,0.158,0.924,-0.054,0.159,0.926,0.133,-0.002,1.122,-0.174,-0.005,1.110,0.123,-0.239,1.003,-0.326,-0.226,1.161,0.010,-0.329,0.788,-0.399,-0.293,0.923,974.222,702.937,0.924,904.253,703.763,0.926,1073.050,538.194,1.122,811.185,535.797,1.110,1077.033,313.576,1.003,692.919,354.973,1.161,971.485,143.080,0.788,549.059,238.611,0.923,-0.023,-0.971,1.403,0.000,-356.517,0.000,-0.035,-0.004,0.029,0.008,-1.215,1.520
0723_092514_0132.png,0.043,0.173,0.925,-0.021,0.171,0.925,0.166,-0.009,1.082,-0.115,0.006,1.146,0.245,-0.269,1.075,-0.264,-0.217,1.176,0.247,-0.341,0.824,-0.347,-0.310,0.947,1004.427,717.598,0.925,938.776,715.651,0.925,1105.795,532.311,1.082,864.991,545.011,1.146,1176.482,302.138,1.075,746.796,364.521,1.176,1245.218,146.883,0.824,611.541,228.451,0.947,-0.033,-0.970,1.403,0.000,-12.078,0.000,0.030,-0.016,0.011,-0.238,-1.121,1.199
0723_092514_0133.png,0.007,0.169,0.930,-0.060,0.171,0.933,0.122,0.001,1.135,-0.179,-0.009,1.091,0.231,-0.236,1.201,-0.333,-0.230,1.079,0.237,-0.282,0.952,-0.313,-0.313,0.840,967.423,712.914,0.930,898.964,714.462,0.933,1062.292,540.783,1.135,804.100,532.046,1.091,1142.846,353.522,1.201,666.281,337.056,1.079,1197.216,258.129,0.952,605.624,186.211,0.840,-0.028,-0.974,1.404,0.000,-350.339,0.000,-0.025,0.010,0.041,0.038,-0.997,1.157
0723_092514_0134.png,0.028,0.190,0.928,-0.038,0.190,0.929,0.149,-0.003,1.102,-0.146,0.003,1.127,0.293,-0.232,1.061,-0.129,-0.176,0.921,0.374,-0.331,0.836,-0.111,-0.351,0.721,988.664,734.926,0.928,921.432,734.721,0.929,1088.938,537.665,1.102,837.064,542.561,1.127,1222.966,332.448,1.061,826.904,358.124,0.921,1385.705,162.851,0.836,813.147,76.817,0.721,-0.028,-0.967,1.402,0.000,-3.792,0.000,0.002,-0.041,0.018,-0.118,-0.750,1.418
0723_092514_0135.png,-0.013,0.178,0.925,-0.076,0.183,0.938,0.103,0.001,1.150,-0.184,-0.013,1.088,0.176,-0.174,0.943,-0.251,-0.280,1.047,0.247,-0.344,0.742,-0.077,-0.338,0.854,947.021,722.924,0.925,882.466,725.758,0.938,1044.997,540.604,1.150,798.773,528.210,1.088,1137.068,364.905,0.943,732.333,285.607,1.047,1276.907,98.731,0.742,873.890,163.790,0.854,-0.026,-0.958,1.400,0.000,-346.366,0.000,0.009,-0.043,-0.009,-0.229,-0.795,1.547
0723_092514_0136.png,-0.004,0.170,0.933,-0.069,0.173,0.937,0.100,0.003,1.152,-0.188,-0.011,1.087,0.221,-0.223,1.065,-0.237,-0.260,0.993,0.249,-0.331,0.825,-0.228,-0.354,0.745,956.041,713.201,0.933,889.756,715.526,0.937,1042.908,542.840,1.152,795.882,530.053,1.087,1157.123,340.541,1.065,732.785,290.502,0.993,1246.971,158.505,0.825,669.299,88.583,0.745,-0.025,-0.968,1.402,0.000,-345.899,0.000,0.004,-0.001,-0.004,0.110,-0.966,1.235
0723_092514_0137.png,0.036,0.172,0.946,-0.030,0.172,0.947,0.155,-0.011,1.111,-0.141,-0.006,1.133,0.248,-0.260,1.104,-0.270,-0.231,1.192,0.247,-0.316,0.850,-0.304,-0.293,0.942,995.875,712.687,0.946,929.558,712.469,0.947,1093.133,530.337,1.111,841.239,534.829,1.133,1173.279,315.927,1.104,744.223,355.977,1.192,1235.908,186.504,0.850,653.445,244.011,0.942,-0.034,-0.968,1.403,0.000,-3.234,0.000,-0.003,0.025,0.012,-0.060,-0.666,1.400
0723_092514_0138.png,0.017,0.149,0.923,-0.047,0.152,0.930,0.139,-0.012,1.123,-0.153,-0.014,1.113,0.237,-0.240,1.235,-0.198,-0.257,1.013,0.288,-0.290,0.987,-0.075,-0.341,0.804,977.704,693.183,0.923,911.794,695.360,0.930,1077.863,529.975,1.123,829.268,527.897,1.113,1142.853,355.530,1.235,774.119,298.439,1.013,1237.262,260.906,0.987,871.380,136.077,0.804,-0.036,-0.960,1.401,0.000,-356.794,0.000,0.015,-0.009,0.027,-0.219,-1.223,1.536
0723_092514_0139.png,0.009,0.181,0.936,-0.058,0.183,0.941,0.128,-0.001,1.134,-0.174,-0.009,1.098,0.083,-0.173,0.929,-0.281,-0.193,0.935,0.035,-0.339,0.729,-0.326,-0.345,0.730,969.015,723.697,0.936,901.138,724.524,0.941,1067.202,539.117,1.134,808.955,532.059,1.098,1044.658,362.921,0.929,674.242,343.228,0.935,1006.092,97.652,0.729,535.340,90.433,0.730,-0.030,-0.969,1.403,0.000,-351.989,0.000,-0.025,-0.002,0.028,-0.053,-0.712,1.196
0723_092514_0140.png,0.021,0.149,0.938,-0.047,0.150,0.941,0.143,-0.013,1.135,-0.166,-0.016,1.121,0.221,-0.224,1.280,-0.311,-0.212,1.239,0.267,-0.264,1.021,-0.433,-0.270,1.006,981.641,690.683,0.938,912.316,691.781,0.941,1079.889,529.342,1.135,819.148,526.517,1.121,1124.070,373.425,1.280,721.159,377.441,1.239,1208.771,293.975,1.021,551.039,284.767,1.006,-0.033,-0.958,1.400,0.000,-356.203,0.000,-0.043,0.015,-0.016,-0.022,-1.067,1.527
0723_092514_0141.png,0.001,0.162,0.938,-0.064,0.166,0.950,0.124,-0.008,1.143,-0.172,-0.018,1.099,0.239,-0.205,1.280,-0.156,-0.228,0.934,0.351,-0.264,1.054,-0.108,-0.354,0.713,960.834,704.252,0.938,895.758,706.580,0.950,1063.034,533.033,1.143,811.304,524.105,1.099,1137.593,387.449,1.280,801.096,308.290,0.934,1277.103,301.910,1.054,816.063,67.043,0.713,-0.034,-0.964,1.402,0.000,-350.243,0.000,-0.007,0.021,0.016,-0.266,-0.792,1.359
0723_092514_0142.png,-0.003,0.170,0.945,-0.070,0.173,0.953,0.117,-0.004,1.153,-0.187,-0.017,1.096,0.257,-0.234,1.179,-0.264,-0.270,1.044,0.100,-0.282,0.964,-0.243,-0.327,0.785,957.210,711.343,0.945,889.727,712.922,0.953,1056.123,536.677,1.153,798.172,525.192,1.096,1167.041,351.183,1.179,719.387,293.787,1.044,1058.647,262.044,0.964,665.222,144.502,0.785,-0.029,-0.964,1.402,0.000,-347.956,0.000,-0.040,0.019,-0.011,-0.075,-0.662,1.325
0723_092514_0143.png,0.015,0.155,0.926,-0.053,0.158,0.929,0.130,-0.003,1.142,-0.175,-0.014,1.091,0.204,-0.252,1.078,-0.246,-0.182,1.291,0.014,-0.302,0.894,-0.314,-0.257,1.051,975.235,699.358,0.926,905.433,701.918,0.929,1068.174,537.683,1.142,807.695,527.507,1.091,1139.625,317.652,1.078,778.911,405.548,1.291,975.416,218.611,0.894,676.182,307.216,1.051,-0.037,-0.966,1.402,0.000,-349.217,0.000,-0.041,-0.002,0.024,0.057,-1.121,1.569
0723_092514_0144.png,0.038,0.178,0.923,-0.028,0.177,0.921,0.157,-0.004,1.098,-0.135,0.005,1.136,0.121,-0.239,0.963,-0.277,-0.198,1.263,-0.012,-0.356,0.769,-0.430,-0.280,1.065,998.751,723.846,0.923,931.485,722.341,0.921,1095.702,536.493,1.098,846.706,543.997,1.136,1080.036,304.130,0.963,751.165,391.186,1.263,944.729,99.795,0.769,576.269,289.608,1.065,-0.031,-0.965,1.402,0.000,-6.511,0.000,0.008,-0.045,0.001,-0.025,-1.056,1.433
0723_092514_0145.png,0.040,0.171,0.940,-0.027,0.169,0.938,0.163,-0.009,1.100,-0.136,0.003,1.151,0.173,-0.249,1.222,-0.312,-0.184,1.242,0.158,-0.291,0.955,-0.337,-0.284,0.991,1000.156,713.271,0.940,932.133,711.641,0.938,1100.876,532.350,1.100,848.035,542.519,1.151,1094.922,345.934,1.222,721.108,399.022,1.242,1117.518,250.110,0.955,636.555,267.295,0.991,-0.027,-0.967,1.402,0.000,-8.918,0.000,-0.021,0.003,-0.031,-0.085,-0.874,1.555
0723_092514_0146.png,0.038,0.184,0.943,-0.026,0.182,0.938,0.153,-0.009,1.092,-0.130,0.003,1.146,0.205,-0.217,1.258,-0.123,-0.195,0.958,0.241,-0.291,1.008,-0.070,-0.358,0.757,998.454,725.776,0.943,933.928,724.682,0.938,1093.059,531.850,1.092,851.949,542.570,1.146,1115.082,375.687,1.258,838.224,346.991,0.958,1187.151,265.398,1.008,872.401,90.207,0.757,-0.023,-0.969,1.403,0.000,-9.946,0.000,0.029,-0.003,-0.002,-0.012,-0.703,1.210
0723_092514_0147.png,0.050,0.171,0.931,-0.014,0.167,0.923,0.163,-0.016,1.073,-0.120,0.001,1.149,0.288,-0.239,1.169,-0.104,-0.175,0.945,0.388,-0.303,0.940,-0.088,-0.348,0.745,1011.281,715.053,0.931,945.609,711.832,0.923,1104.490,525.560,1.073,860.962,541.013,1.149,1194.210,345.722,1.169,854.889,363.348,0.945,1352.601,232.970,0.940,847.185,96.297,0.745,-0.025,-0.966,1.402,0.000,-14.294,0.000,0.012,-0.010,0.027,0.092,-0.912,1.536
0723_092514_0148.png,0.041,0.165,0.938,-0.026,0.163,0.935,0.162,-0.013,1.106,-0.137,-0.004,1.147,0.255,-0.269,1.065,-0.282,-0.225,1.222,0.267,-0.335,0.802,-0.364,-0.292,0.973,1001.168,707.300,0.938,933.164,705.636,0.935,1099.312,528.520,1.106,846.194,536.866,1.147,1188.068,299.633,1.065,740.820,365.046,1.222,1276.690,142.615,0.802,603.680,254.064,0.973,-0.030,-0.959,1.400,0.000,-6.950,0.000,-0.018,-0.011,-0.031,-0.031,-1.094,1.153
0723_092514_0149.png,0.037,0.156,0.931,-0.031,0.154,0.931,0.160,-0.014,1.096,-0.142,-0.004,1.137,0.115,-0.227,0.949,-0.191,-0.208,0.977,0.054,-0.340,0.727,-0.195,-0.335,0.754,997.452,699.213,0.931,928.432,697.793,0.931,1099.172,528.141,1.096,841.329,536.489,1.137,1075.202,312.125,0.949,773.712,337.645,0.977,1029.999,95.509,0.727,714.763,117.284,0.754,-0.029,-0.969,1.403,0.000,-6.790,0.000,-0.028,0.016,0.030,-0.090,-1.189,1.261
0723_092514_0150.png,0.031,0.170,0.930,-0.033,0.168,0.925,0.140,-0.012,1.107,-0.149,-0.008,1.126,0.139,-0.265,1.016,-0.227,-0.234,1.008,-0.016,-0.341,0.826,-0.140,-0.347,0.794,991.741,713.961,0.930,926.212,712.626,0.925,1080.403,529.439,1.107,834.225,533.320,1.126,1089.628,291.526,1.016,745.339,319.332,1.008,941.005,146.806,0.826,792.205,124.943,0.794,-0.025,-0.960,1.401,0.000,-2.701,0.000,0.025,-0.027,0.027,0.192,-0.978,1.384
0723_092514_0151.png,0.019,0.170,0.931,-0.046,0.172,0.935,0.135,-0.002,1.125,-0.156,-0.005,1.112,0.258,-0.223,1.038,-0.245,-0.214,1.257,0.322,-0.335,0.814,-0.260,-0.286,1.009,978.921,713.583,0.931,913.448,714.638,0.935,1074.055,538.146,1.125,826.847,535.603,1.112,1195.976,335.724,1.038,774.583,377.852,1.257,1335.826,148.168,0.814,714.654,270.399,1.009,-0.033,-0.970,1.403,0.000,-356.234,0.000,0.020,-0.001,0.018,-0.098,-1.007,1.219
0723_092514_0152.png,-0.001,0.170,0.931,-0.069,0.173,0.936,0.113,0.004,1.149,-0.189,-0.008,1.095,0.182,-0.172,0.946,-0.276,-0.203,1.265,0.248,-0.343,0.748,-0.425,-0.265,1.049,958.767,713.453,0.931,890.144,715.866,0.936,1053.272,543.620,1.149,796.218,533.033,1.095,1142.704,367.114,0.946,752.256,387.479,1.265,1275.367,103.414,0.748,574.666,299.434,1.049,-0.025,-0.968,1.402,0.000,-348.419,0.000,-0.032,-0.008,-0.013,0.020,-0.971,1.447
0723_092514_0153.png,0.035,0.174,0.942,-0.031,0.173,0.941,0.154,-0.004,1.104,-0.138,0.005,1.143,0.192,-0.266,1.055,-0.105,-0.176,0.934,0.010,-0.322,0.870,-0.075,-0.352,0.730,994.990,715.587,0.942,928.849,714.474,0.941,1092.986,536.758,1.104,845.104,544.436,1.143,1132.996,300.514,1.055,852.839,361.136,0.934,970.974,187.569,0.870,862.666,81.133,0.730,-0.027,-0.974,1.404,0.000,-6.733,0.000,0.006,0.020,-0.016,-0.074,-0.863,1.402
0723_092514_0154.png,0.006,0.158,0.930,-0.061,0.163,0.938,0.128,0.001,1.146,-0.176,-0.010,1.099,0.280,-0.206,1.237,-0.224,-0.265,1.019,0.257,-0.279,0.982,-0.188,-0.334,0.765,966.192,701.470,0.930,897.786,704.871,0.938,1066.019,540.644,1.146,807.584,531.387,1.099,1175.320,381.449,1.237,751.285,292.737,1.019,1208.928,269.612,0.982,725.824,124.540,0.765,-0.035,-0.967,1.403,0.000,-349.869,0.000,-0.037,0.006,-0.009,-0.127,-1.025,1.675
0723_092514_0155.png,0.052,0.193,0.934,-0.014,0.190,0.927,0.165,-0.002,1.094,-0.128,0.009,1.141,0.227,-0.191,0.904,-0.123,-0.172,0.927,0.253,-0.367,0.704,-0.119,-0.349,0.719,1012.458,736.524,0.934,945.781,734.964,0.927,1103.424,538.486,1.094,852.997,547.499,1.141,1198.580,338.788,0.904,833.431,363.497,0.927,1301.391,43.717,0.704,802.904,78.282,0.719,-0.034,-0.969,1.403,0.000,-8.108,0.000,-0.001,-0.038,-0.008,0.167,-0.795,1.326
0723_092514_0156.png,0.023,0.163,0.939,-0.045,0.163,0.938,0.135,0.002,1.134,-0.168,-0.002,1.115,0.107,-0.250,1.043,-0.287,-0.240,1.075,0.040,-0.327,0.797,-0.150,-0.313,0.858,982.984,705.300,0.939,914.781,705.690,0.938,1073.482,541.941,1.134,817.011,538.258,1.115,1057.994,312.395,1.043,706.394,327.552,1.075,1008.122,149.763,0.797,793.557,192.526,0.858,-0.031,-0.975,1.404,0.000,-355.154,0.000,-0.023,0.026,-0.011,0.164,-1.125,1.230
0723_092514_0157.png,0.014,0.153,0.933,-0.050,0.154,0.934,0.119,-0.012,1.136,-0.166,-0.019,1.105,0.192,-0.211,1.301,-0.282,-0.205,1.261,0.245,-0.276,1.056,-0.448,-0.273,1.078,973.872,695.708,0.933,909.096,696.846,0.934,1059.323,529.863,1.136,816.785,523.484,1.105,1100.231,385.521,1.301,747.177,385.506,1.261,1180.178,291.107,1.056,564.520,298.696,1.078,-0.029,-0.958,1.400,0.000,-352.498,0.000,0.034,0.001,0.019,0.129,-1.087,1.388
0723_092514_0158.png,0.040,0.181,0.930,-0.025,0.180,0.931,0.161,-0.011,1.095,-0.130,-0.002,1.135,0.212,-0.269,1.030,-0.300,-0.213,1.147,0.203,-0.344,0.783,-0.237,-0.313,0.917,1000.769,724.886,0.930,934.205,724.355,0.931,1099.983,530.446,1.095,851.194,538.411,1.135,1156.151,291.335,1.030,711.530,363.157,1.147,1206.906,121.802,0.783,714.513,215.386,0.917,-0.036,-0.963,1.402,0.000,-6.781,0.000,0.010,-0.029,0.022,-0.128,-0.761,1.463
0723_092514_0159.png,0.028,0.169,0.930,-0.036,0.169,0.932,0.144,-0.001,1.116,-0.142,0.002,1.128,0.239,-0.206,1.264,-0.197,-0.245,1.028,0.355,-0.287,1.043,-0.058,-0.346,0.831,988.310,712.654,0.930,923.702,712.598,0.932,1082.282,539.548,1.116,840.442,541.808,1.128,1140.026,385.390,1.264,777.798,313.470,1.028,1283.934,278.052,1.043,893.074,144.142,0.831,-0.033,-0.971,1.403,0.000,-1.224,0.000,0.038,-0.005,-0.008,-0.080,-1.170,1.194
0723_092514_0160.png,0.027,0.162,0.945,-0.036,0.161,0.942,0.136,-0.018,1.113,-0.149,-0.015,1.129,0.080,-0.188,0.910,-0.269,-0.246,1.093,0.025,-0.354,0.712,-0.144,-0.320,0.881,987.073,703.076,0.945,923.344,702.329,0.942,1076.517,524.417,1.113,834.653,527.746,1.129,1043.164,343.598,0.910,725.924,325.603,1.093,993.449,67.372,0.712,804.147,194.301,0.881,-0.024,-0.961,1.401,0.000,-2.135,0.000,0.038,0.021,0.024,0.119,-0.792,1.326
0723_092514_0161.png,0.032,0.166,0.932,-0.032,0.164,0.930,0.149,-0.012,1.102,-0.138,-0.003,1.140,0.186,-0.196,1.302,-0.184,-0.244,1.021,0.277,-0.277,1.070,-0.058,-0.346,0.815,992.415,709.630,0.932,926.847,708.040,0.930,1088.179,529.763,1.102,844.517,537.418,1.140,1096.056,397.187,1.302,788.862,313.041,1.021,1206.548,293.831,1.070,891.818,136.575,0.815,-0.025,-0.962,1.401,0.000,-6.595,0.000,0.025,-0.016,-0.003,-0.026,-1.068,1.342
0723_092514_0162.png,0.051,0.170,0.931,-0.015,0.167,0.926,0.169,-0.013,1.085,-0.125,0.000,1.142,0.234,-0.242,0.964,-0.255,-0.190,1.289,0.225,-0.349,0.731,-0.316,-0.266,1.051,1011.854,713.693,0.931,944.242,711.554,0.926,1108.079,528.455,1.085,855.930,539.966,1.142,1190.466,301.022,0.964,771.941,400.004,1.289,1253.002,85.370,0.731,673.908,299.041,1.051,-0.034,-0.967,1.402,0.000,-10.108,0.000,-0.010,-0.007,0.025,0.021,-0.937,1.500
0723_092514_0163.png,-0.003,0.179,0.931,-0.066,0.185,0.945,0.114,0.009,1.152,-0.171,-0.003,1.097,0.190,-0.204,1.304,-0.239,-0.189,0.897,0.250,-0.283,1.050,-0.310,-0.370,0.703,957.420,722.438,0.931,894.006,725.807,0.945,1054.005,547.508,1.152,811.723,537.134,1.097,1098.454,390.845,1.304,706.049,339.840,0.897,1186.584,283.397,1.050,540.956,39.866,0.703,-0.036,-0.969,1.403,0.000,-347.834,0.000,0.022,-0.014,-0.037,-0.285,-0.889,1.344
0723_092514_0164.png,0.043,0.168,0.949,-0.022,0.168,0.949,0.162,-0.011,1.107,-0.129,-0.003,1.140,0.230,-0.225,1.239,-0.249,-0.212,1.242,0.307,-0.281,0.995,-0.262,-0.282,0.989,1003.373,708.565,0.949,938.328,708.019,0.949,1099.129,530.588,1.107,852.444,537.146,1.140,1136.342,367.624,1.239,769.241,377.833,1.242,1253.713,271.685,0.995,708.512,268.654,0.989,-0.039,-0.972,1.404,0.000,-5.426,0.000,0.014,0.041,0.001,-0.084,-0.752,1.237
0723_092514_0165.png,0.041,0.170,0.946,-0.026,0.170,0.948,0.165,-0.010,1.106,-0.132,-0.002,1.139,0.230,-0.265,1.115,-0.179,-0.218,0.987,0.055,-0.298,0.922,-0.166,-0.340,0.755,1000.829,710.830,0.946,934.359,710.620,0.948,1101.470,531.521,1.106,849.418,538.061,1.139,1155.757,314.480,1.115,787.400,329.714,0.987,1017.051,232.815,0.922,751.159,111.793,0.755,-0.038,-0.972,1.404,0.000,-5.295,0.000,-0.006,0.036,0.005,-0.168,-0.691,1.483
0723_092514_0166.png,0.007,0.164,0.929,-0.060,0.165,0.928,0.109,-0.006,1.145,-0.187,-0.020,1.085,0.153,-0.273,1.135,-0.341,-0.206,1.216,0.097,-0.307,0.884,-0.271,-0.287,0.983,967.158,707.607,0.929,898.574,708.855,0.928,1050.761,534.934,1.145,796.076,522.649,1.085,1087.842,311.160,1.135,693.020,379.012,1.216,1064.006,210.422,0.884,697.680,262.239,0.983,-0.025,-0.960,1.401,0.000,-347.166,0.000,-0.019,-0.016,0.031,0.293,-0.952,1.478
0723_092514_0167.png,0.022,0.167,0.929,-0.042,0.168,0.932,0.142,-0.004,1.123,-0.149,-0.002,1.130,0.088,-0.187,0.909,-0.163,-0.245,0.993,0.038,-0.367,0.702,-0.125,-0.365,0.752,982.927,711.056,0.929,917.201,711.503,0.932,1080.123,536.499,1.123,834.734,537.992,1.130,1051.525,344.280,0.909,804.046,305.258,0.993,1011.411,42.408,0.702,801.656,78.989,0.752,-0.031,-0.960,1.401,0.000,-0.364,0.000,0.021,-0.029,-0.033,-0.121,-1.052,1.578
0723_092514_0168.png,-0.001,0.184,0.933,-0.065,0.187,0.940,0.108,0.010,1.150,-0.179,-0.002,1.097,0.228,-0.234,1.106,-0.276,-0.247,1.018,0.252,-0.333,0.854,-0.301,-0.356,0.771,959.114,727.200,0.933,893.816,729.252,0.940,1049.463,548.439,1.150,804.576,538.325,1.097,1155.746,338.374,1.106,702.301,309.148,1.018,1240.438,168.629,0.854,588.444,101.013,0.771,-0.028,-0.970,1.403,0.000,-348.153,0.000,0.015,-0.018,-0.032,-0.022,-0.750,1.639
0723_092514_0169.png,0.034,0.174,0.927,-0.030,0.172,0.926,0.156,-0.001,1.094,-0.129,0.011,1.144,0.203,-0.187,0.893,-0.097,-0.170,0.931,0.250,-0.369,0.698,-0.069,-0.348,0.726,995.391,718.684,0.927,929.576,716.877,0.926,1095.549,539.488,1.094,853.138,549.005,1.144,1175.706,341.049,0.893,860.772,366.543,0.931,1301.071,37.549,0.698,869.596,84.568,0.726,-0.027,-0.974,1.404,0.000,-8.988,0.000,0.027,-0.015,-0.013,-0.151,-1.084,1.538
0723_092514_0170.png,0.023,0.162,0.931,-0.042,0.164,0.936,0.143,-0.007,1.119,-0.151,-0.008,1.118,0.116,-0.182,0.914,-0.169,-0.260,1.037,0.090,-0.352,0.713,-0.113,-0.335,0.797,983.291,705.680,0.931,917.243,706.531,0.936,1081.463,533.864,1.119,831.866,533.610,1.118,1081.263,350.729,0.914,804.946,301.628,1.037,1079.717,71.030,0.713,824.615,140.242,0.797,-0.035,-0.968,1.403,0.000,-358.575,0.000,0.012,0.009,0.025,-0.133,-0.967,1.515
0723_092514_0171.png,-0.001,0.149,0.932,-0.065,0.154,0.939,0.109,0.001,1.152,-0.179,-0.010,1.105,0.203,-0.253,1.134,-0.258,-0.258,1.024,0.223,-0.328,0.872,-0.254,-0.353,0.768,958.975,692.248,0.932,893.741,696.163,0.939,1049.892,540.865,1.152,806.141,531.634,1.105,1130.622,327.664,1.134,720.564,300.190,1.024,1203.502,182.605,0.872,645.250,103.137,0.768,-0.027,-0.965,1.402,0.000,-349.340,0.000,0.017,0.011,-0.039,-0.055,-1.212,1.605
0723_092514_0172.png,0.010,0.163,0.940,-0.055,0.164,0.942,0.122,-0.002,1.139,-0.172,-0.007,1.115,0.126,-0.181,0.921,-0.314,-0.218,1.197,0.132,-0.357,0.708,-0.385,-0.296,0.951,970.229,704.639,0.940,904.154,705.713,0.942,1061.607,538.738,1.139,812.977,533.901,1.115,1090.237,352.598,0.921,710.395,367.166,1.197,1137.665,60.497,0.708,575.162,244.339,0.951,-0.025,-0.968,1.403,0.000,-353.936,0.000,0.006,0.017,-0.021,0.056,-0.904,1.656
0723_092514_0173.png,0.048,0.177,0.938,-0.019,0.173,0.931,0.166,-0.012,1.081,-0.132,0.004,1.152,0.083,-0.223,0.933,-0.278,-0.219,1.100,0.001,-0.348,0.717,-0.164,-0.308,0.877,1009.077,719.216,0.938,940.724,716.804,0.931,1106.140,529.463,1.081,850.969,543.647,1.152,1044.706,312.995,0.933,719.546,351.095,1.100,961.369,78.746,0.717,781.894,205.732,0.877,-0.023,-0.969,1.403,0.000,-12.620,0.000,-0.034,0.000,0.004,0.069,-0.879,1.246
0723_092514_0174.png,-0.004,0.169,0.930,-0.067,0.172,0.938,0.108,-0.004,1.137,-0.176,-0.014,1.094,0.187,-0.204,1.300,-0.225,-0.269,1.036,0.239,-0.275,1.061,-0.054,-0.332,0.857,955.804,712.528,0.930,891.877,714.387,0.938,1050.137,536.522,1.137,806.985,527.791,1.094,1096.429,391.109,1.300,753.362,292.819,1.036,1173.900,293.773,1.061,899.806,171.721,0.857,-0.024,-0.966,1.402,0.000,-349.989,0.000,0.033,-0.001,0.033,-0.111,-0.785,1.590
0723_092514_0175.png,0.048,0.148,0.939,-0.017,0.143,0.932,0.162,-0.020,1.097,-0.131,-0.009,1.148,0.120,-0.251,0.967,-0.279,-0.222,1.207,-0.017,-0.343,0.762,-0.353,-0.289,0.965,1008.793,689.530,0.939,942.319,685.969,0.932,1100.811,522.263,1.097,851.573,532.846,1.148,1077.803,292.843,0.967,739.989,365.056,1.207,938.926,112.695,0.762,612.507,254.992,0.965,-0.029,-0.962,1.401,0.000,-9.028,0.000,-0.004,0.024,0.004,0.143,-1.234,1.281
0723_092514_0176.png,-0.004,0.180,0.932,-0.069,0.184,0.940,0.108,0.008,1.153,-0.184,-0.008,1.085,0.120,-0.173,0.945,-0.276,-0.261,1.042,0.132,-0.350,0.743,-0.276,-0.338,0.788,956.281,723.358,0.932,889.883,725.667,0.940,1048.763,546.558,1.153,798.940,533.325,1.085,1080.999,365.474,0.945,708.468,302.151,1.042,1129.631,91.682,0.743,627.398,132.274,0.788,-0.032,-0.971,1.403,0.000,-345.413,0.000,-0.009,-0.008,-0.007,-0.037,-0.734,1.603
0723_092514_0177.png,-0.005,0.156,0.937,-0.070,0.162,0.948,0.109,-0.003,1.159,-0.181,-0.016,1.100,0.203,-0.210,1.302,-0.184,-0.264,0.976,0.255,-0.275,1.041,-0.148,-0.365,0.723,955.154,698.612,0.937,890.053,702.602,0.948,1049.574,537.806,1.159,803.516,526.054,1.100,1108.027,386.601,1.302,780.991,282.487,0.976,1192.885,289.175,1.041,765.407,60.361,0.723,-0.031,-0.960,1.401,0.000,-347.128,0.000,0.002,0.009,-0.043,-0.155,-1.067,1.236
0723_092514_0178.png,0.016,0.182,0.944,-0.050,0.184,0.946,0.120,0.007,1.153,-0.170,-0.005,1.102,0.132,-0.223,0.993,-0.265,-0.227,0.967,0.116,-0.360,0.755,-0.273,-0.363,0.729,975.870,723.634,0.944,910.109,724.744,0.946,1059.335,545.526,1.153,813.505,535.862,1.102,1086.212,326.139,0.993,699.531,317.093,0.967,1105.598,86.926,0.755,603.832,66.242,0.729,-0.038,-0.969,1.403,0.000,-348.799,0.000,0.007,0.000,-0.043,0.176,-0.693,1.463
0723_092514_0179.png,0.043,0.147,0.931,-0.022,0.144,0.929,0.163,-0.023,1.085,-0.122,-0.009,1.148,0.216,-0.218,1.257,-0.121,-0.178,0.937,0.272,-0.277,1.013,-0.119,-0.342,0.732,1004.150,689.935,0.931,937.932,687.113,0.929,1103.333,519.706,1.085,858.733,532.896,1.148,1123.512,374.653,1.257,837.187,359.597,0.937,1215.039,279.609,1.013,805.410,95.028,0.732,-0.029,-0.963,1.401,0.000,-11.657,0.000,0.013,0.018,0.028,-0.119,-1.267,1.256
0723_092514_0180.png,0.039,0.173,0.936,-0.028,0.172,0.937,0.165,-0.002,1.107,-0.133,0.008,1.147,0.203,-0.208,0.919,-0.244,-0.227,1.227,0.191,-0.367,0.694,-0.232,-0.294,0.963,999.660,715.604,0.936,931.983,714.598,0.937,1101.423,538.566,1.107,849.515,546.275,1.147,1170.600,325.107,0.919,771.244,363.892,1.227,1221.152,37.444,0.694,730.701,249.951,0.963,-0.034,-0.971,1.403,0.000,-6.710,0.000,-0.012,-0.001,-0.041,-0.165,-1.026,1.362
0723_092514_0181.png,0.019,0.163,0.924,-0.046,0.163,0.926,0.133,-0.007,1.123,-0.159,-0.008,1.118,0.065,-0.182,0.919,-0.280,-0.210,1.263,-0.001,-0.354,0.721,-0.455,-0.277,1.081,979.666,707.405,0.924,913.117,707.879,0.926,1073.049,534.030,1.123,825.033,533.063,1.118,1027.183,351.580,0.919,748.905,381.927,1.263,958.457,73.555,0.721,559.457,296.475,1.081,-0.028,-0.959,1.400,0.000,-357.859,0.000,0.016,-0.034,0.002,0.001,-1.163,1.455
0723_092514_0182.png,0.001,0.187,0.927,-0.064,0.189,0.930,0.105,0.007,1.140,-0.181,-0.005,1.085,0.256,-0.177,1.017,-0.276,-0.207,1.249,0.359,-0.331,0.838,-0.441,-0.280,1.065,960.791,731.426,0.927,894.925,732.677,0.930,1048.007,545.907,1.140,801.787,535.318,1.085,1198.972,374.894,1.017,749.860,382.623,1.249,1367.748,163.900,0.838,566.080,289.762,1.065,-0.025,-0.971,1.403,0.000,-347.855,0.000,0.019,-0.027,0.025,0.103,-0.839,1.196
0723_092514_0183.png,0.017,0.149,0.932,-0.046,0.150,0.934,0.128,-0.010,1.130,-0.157,-0.013,1.116,0.273,-0.228,1.178,-0.294,-0.241,1.115,0.214,-0.311,0.937,-0.318,-0.327,0.868,977.695,691.651,0.932,913.271,692.765,0.934,1067.896,531.315,1.130,826.334,528.527,1.116,1180.068,355.603,1.178,709.107,333.979,1.115,1176.985,224.193,0.937,611.809,181.573,0.868,-0.030,-0.962,1.401,0.000,-356.006,0.000,0.038,0.008,0.004,-0.003,-1.212,1.424
0723_092514_0184.png,0.004,0.160,0.932,-0.061,0.166,0.945,0.132,-0.004,1.143,-0.166,-0.011,1.109,0.262,-0.228,1.055,-0.269,-0.257,1.047,0.323,-0.332,0.815,-0.126,-0.329,0.832,964.266,703.510,0.932,898.774,707.117,0.945,1069.453,537.072,1.143,817.251,530.200,1.109,1196.515,334.737,1.055,715.861,306.489,1.047,1337.044,152.965,0.815,816.451,163.581,0.832,-0.037,-0.962,1.401,0.000,-352.072,0.000,-0.011,-0.001,-0.020,-0.364,-1.030,1.395
0723_092514_0185.png,-0.004,0.148,0.935,-0.069,0.154,0.946,0.119,-0.006,1.144,-0.176,-0.017,1.099,0.079,-0.218,0.988,-0.233,-0.266,1.037,0.013,-0.335,0.765,-0.062,-0.318,0.847,955.952,690.470,0.935,890.775,694.342,0.946,1059.198,534.682,1.144,807.615,525.636,1.099,1035.809,329.965,0.988,746.430,295.887,1.037,975.978,123.117,0.765,889.859,182.789,0.847,-0.030,-0.969,1.403,0.000,-350.059,0.000,-0.007,0.040,0.016,-0.296,-1.115,1.271
0723_092514_0186.png,-0.007,0.156,0.923,-0.070,0.162,0.932,0.107,-0.001,1.139,-0.178,-0.011,1.092,0.103,-0.218,0.990,-0.269,-0.204,1.257,-0.017,-0.342,0.800,-0.337,-0.282,1.022,952.665,701.229,0.923,888.106,705.037,0.932,1049.574,539.570,1.139,804.521,530.083,1.092,1058.701,330.383,0.990,756.114,385.839,1.257,939.870,133.122,0.800,646.930,277.381,1.022,-0.024,-0.969,1.403,0.000,-349.190,0.000,0.024,0.001,0.029,-0.189,-1.166,1.456
0723_092514_0187.png,0.021,0.173,0.947,-0.044,0.175,0.951,0.136,-0.007,1.137,-0.158,-0.011,1.117,0.169,-0.266,1.062,-0.287,-0.225,1.216,0.152,-0.341,0.805,-0.311,-0.296,0.959,980.824,713.944,0.947,915.525,714.632,0.951,1073.832,534.185,1.137,825.650,530.271,1.117,1111.557,301.691,1.062,735.774,364.411,1.216,1139.291,137.530,0.805,651.159,246.848,0.959,-0.036,-0.962,1.401,0.000,-354.936,0.000,0.008,0.010,-0.019,-0.026,-0.672,1.344
0723_092514_0188.png,-0.002,0.142,0.935,-0.066,0.146,0.943,0.110,-0.004,1.151,-0.177,-0.013,1.109,0.252,-0.225,1.085,-0.207,-0.278,1.113,0.220,-0.332,0.838,-0.159,-0.327,0.852,958.312,683.912,0.935,893.608,687.737,0.943,1051.267,536.935,1.151,807.897,528.682,1.109,1180.744,342.776,1.085,783.560,302.814,1.113,1210.074,163.293,0.838,782.354,174.655,0.852,-0.025,-0.965,1.402,0.000,-350.452,0.000,0.020,0.030,-0.032,-0.093,-1.234,1.570
0723_092514_0189.png,-0.001,0.160,0.922,-0.064,0.165,0.931,0.119,0.000,1.127,-0.168,-0.006,1.100,0.148,-0.260,1.083,-0.315,-0.227,1.085,0.117,-0.329,0.841,-0.381,-0.324,0.860,958.884,704.912,0.922,894.519,707.973,0.931,1060.596,539.829,1.127,814.565,534.385,1.100,1089.697,311.747,1.083,683.656,340.883,1.085,1091.907,168.497,0.841,539.088,181.789,0.860,-0.026,-0.973,1.404,0.000,-353.245,0.000,0.027,0.003,0.041,-0.287,-1.159,1.433
0723_092514_0190.png,0.055,0.168,0.928,-0.010,0.162,0.918,0.168,-0.016,1.078,-0.119,0.000,1.150,0.230,-0.267,0.992,-0.248,-0.229,1.086,0.171,-0.353,0.753,-0.131,-0.323,0.872,1016.351,711.900,0.928,949.925,707.677,0.918,1108.319,525.683,1.078,861.821,540.354,1.150,1180.164,284.110,0.992,743.070,339.359,1.086,1175.292,94.388,0.753,817.397,187.942,0.872,-0.029,-0.962,1.401,0.000,-13.363,0.000,0.002,-0.028,0.012,0.152,-1.056,1.581
0723_092514_0191.png,0.057,0.180,0.942,-0.006,0.177,0.933,0.167,-0.014,1.078,-0.109,0.003,1.150,0.233,-0.217,1.242,-0.164,-0.221,1.015,0.179,-0.293,1.000,-0.154,-0.347,0.789,1017.186,721.999,0.942,953.565,720.236,0.933,1107.635,527.832,1.078,869.779,542.242,1.150,1138.439,373.737,1.242,806.745,333.089,1.015,1130.217,261.273,1.000,773.988,121.894,0.789,-0.033,-0.970,1.403,0.000,-13.755,0.000,0.036,0.005,0.016,0.074,-0.714,1.293
0723_092514_0192.png,0.056,0.174,0.940,-0.010,0.171,0.936,0.175,-0.016,1.086,-0.113,-0.001,1.153,0.154,-0.279,1.022,-0.147,-0.178,0.940,-0.017,-0.335,0.828,-0.181,-0.352,0.733,1016.307,715.722,0.940,949.984,714.121,0.936,1113.475,525.789,1.086,867.179,539.237,1.153,1103.471,280.153,1.022,811.401,359.415,0.940,940.900,155.019,0.828,725.100,83.468,0.733,-0.038,-0.963,1.402,0.000,-12.186,0.000,0.004,-0.002,-0.006,-0.077,-0.726,1.591
0723_092514_0193.png,0.037,0.150,0.937,-0.029,0.148,0.937,0.161,-0.020,1.087,-0.130,-0.005,1.151,0.188,-0.279,1.050,-0.163,-0.216,0.992,-0.003,-0.311,0.876,-0.054,-0.334,0.786,997.995,692.696,0.937,930.978,690.636,0.937,1100.990,522.607,1.087,852.675,535.662,1.151,1129.813,287.622,1.050,804.161,333.310,0.992,956.201,202.461,0.876,894.148,136.134,0.786,-0.024,-0.968,1.402,0.000,-11.482,0.000,-0.005,0.037,0.015,-0.180,-1.017,1.576
0723_092514_0194.png,0.035,0.162,0.934,-0.033,0.161,0.933,0.158,-0.018,1.099,-0.146,-0.009,1.139,0.111,-0.244,0.966,-0.282,-0.217,1.253,0.030,-0.342,0.740,-0.385,-0.269,1.020,995.685,704.950,0.934,926.482,703.816,0.933,1096.882,524.419,1.099,837.973,532.542,1.139,1068.980,299.449,0.966,746.252,375.645,1.253,998.073,100.460,0.740,601.579,289.170,1.020,-0.026,-0.960,1.401,0.000,-6.416,0.000,-0.034,-0.002,0.018,-0.056,-0.991,1.289
0723_092514_0195.png,0.025,0.177,0.929,-0.040,0.178,0.933,0.150,-0.002,1.113,-0.143,0.004,1.137,0.174,-0.256,1.001,-0.308,-0.215,1.149,0.152,-0.362,0.751,-0.409,-0.319,0.919,986.008,721.397,0.929,919.697,721.367,0.933,1087.881,538.709,1.113,840.478,543.326,1.137,1125.706,296.686,1.001,704.818,361.677,1.149,1152.281,81.527,0.751,536.694,210.432,0.919,-0.030,-0.964,1.402,0.000,-3.614,0.000,0.011,-0.033,-0.033,-0.211,-0.992,1.440
0723_092514_0196.png,0.058,0.182,0.947,-0.006,0.177,0.937,0.168,-0.008,1.098,-0.117,0.005,1.154,0.115,-0.212,0.909,-0.294,-0.201,1.123,0.013,-0.374,0.711,-0.409,-0.321,0.906,1018.131,722.545,0.947,953.834,720.149,0.937,1105.853,533.190,1.098,863.735,544.114,1.154,1079.792,318.766,0.909,711.292,370.089,1.123,977.983,40.221,0.711,530.794,203.289,0.906,-0.035,-0.966,1.402,0.000,-10.205,0.000,0.020,-0.006,-0.041,0.194,-0.788,1.355
0723_092514_0197.png,0.040,0.155,0.926,-0.028,0.154,0.927,0.167,-0.019,1.090,-0.136,-0.007,1.140,0.138,-0.285,1.125,-0.278,-0.219,1.060,0.092,-0.303,0.873,-0.216,-0.317,0.830,1001.270,699.393,0.926,931.580,697.901,0.927,1105.650,523.618,1.090,846.786,533.996,1.140,1076.277,299.340,1.125,710.222,343.720,1.060,1060.408,210.361,0.873,713.058,176.842,0.830,-0.032,-0.962,1.401,0.000,-8.520,0.000,-0.034,-0.004,0.032,-0.149,-1.140,1.430
0723_092514_0198.png,0.002,0.164,0.931,-0.066,0.168,0.937,0.115,0.004,1.157,-0.187,-0.012,1.087,0.186,-0.169,0.946,-0.223,-0.265,0.990,0.253,-0.338,0.738,-0.061,-0.331,0.786,962.035,706.986,0.931,892.714,710.192,0.937,1054.368,543.405,1.157,796.047,529.702,1.087,1146.587,369.682,0.946,745.832,285.488,0.990,1285.609,105.286,0.738,886.537,139.187,0.786,-0.033,-0.967,1.402,0.000,-345.598,0.000,-0.046,0.001,-0.017,0.050,-0.969,1.582
0723_092514_0199.png,0.008,0.167,0.925,-0.057,0.169,0.930,0.128,0.001,1.126,-0.168,-0.003,1.111,0.212,-0.218,1.268,-0.213,-0.235,0.981,0.267,-0.280,1.020,-0.111,-0.347,0.769,968.315,711.589,0.925,901.322,713.160,0.930,1068.087,540.478,1.126,816.073,537.694,1.111,1118.997,376.731,1.268,753.751,312.633,0.981,1208.657,278.777,1.020,823.003,110.359,0.769,-0.024,-0.969,1.403,0.000,-356.013,0.000,0.001,-0.015,0.010,-0.132,-1.078,1.546
0723_092514_0200.png,0.050,0.180,0.941,-0.018,0.178,0.937,0.171,-0.003,1.098,-0.134,0.008,1.146,0.137,-0.271,1.066,-0.206,-0.211,0.997,0.097,-0.325,0.807,-0.130,-0.336,0.771,1010.560,722.016,0.941,941.469,720.504,0.937,1108.410,537.142,1.098,849.131,546.389,1.146,1082.445,298.524,1.066,763.483,338.502,0.997,1074.174,156.969,0.807,799.711,125.556,0.771,-0.034,-0.973,1.404,0.000,-7.975,0.000,-0.040,0.005,-0.018,0.023,-0.794,1.510
0723_092514_0201.png,0.011,0.176,0.918,-0.055,0.179,0.924,0.133,0.003,1.120,-0.165,0.001,1.111,0.068,-0.174,0.920,-0.317,-0.223,1.069,0.004,-0.347,0.726,-0.331,-0.332,0.832,971.138,722.500,0.918,903.212,723.833,0.924,1072.934,542.950,1.120,818.352,541.242,1.111,1030.723,360.054,0.920,677.896,341.223,1.069,965.370,85.125,0.726,582.240,160.964,0.832,-0.026,-0.969,1.403,0.000,-357.093,0.000,-0.006,-0.043,0.013,-0.164,-1.105,1.450
0723_092514_0202.png,0.013,0.161,0.931,-0.053,0.162,0.929,0.116,-0.002,1.137,-0.178,-0.013,1.092,0.242,-0.213,1.246,-0.274,-0.222,0.964,0.394,-0.266,1.048,-0.292,-0.344,0.743,972.947,704.671,0.931,905.453,705.632,0.929,1057.295,538.030,1.137,804.919,529.078,1.092,1144.462,377.308,1.246,689.391,320.672,0.964,1317.797,298.577,1.048,586.487,99.102,0.743,-0.027,-0.970,1.403,0.000,-350.044,0.000,-0.003,0.009,0.040,0.276,-1.084,1.328
0723_092514_0203.png,0.034,0.162,0.935,-0.031,0.161,0.935,0.153,-0.002,1.116,-0.141,0.002,1.137,0.150,-0.260,1.023,-0.188,-0.220,0.980,-0.015,-0.337,0.828,-0.104,-0.352,0.761,994.484,704.419,0.935,928.003,703.662,0.935,1090.183,537.995,1.116,841.752,542.015,1.137,1099.118,298.820,1.023,777.970,326.646,0.980,942.492,153.063,0.828,830.463,100.176,0.761,-0.033,-0.971,1.403,0.000,-2.961,0.000,0.007,0.011,-0.026,-0.034,-1.071,1.649
0723_092514_0204.png,0.011,0.163,0.923,-0.053,0.165,0.927,0.125,0.002,1.128,-0.166,-0.003,1.104,0.221,-0.212,1.265,-0.181,-0.236,0.974,0.387,-0.270,1.075,-0.059,-0.348,0.776,971.564,707.854,0.923,905.221,709.740,0.927,1065.633,542.014,1.128,817.089,537.317,1.104,1126.484,380.340,1.265,783.300,309.856,0.974,1302.780,300.692,1.075,887.084,113.310,0.776,-0.029,-0.972,1.404,0.000,-354.004,0.000,0.015,-0.009,0.020,-0.056,-1.285,1.258
0723_092514_0205.png,0.031,0.153,0.937,-0.036,0.152,0.936,0.149,-0.010,1.120,-0.153,-0.007,1.133,0.223,-0.204,0.940,-0.209,-0.238,0.999,0.239,-0.353,0.717,-0.075,-0.336,0.789,991.588,695.398,0.937,923.456,694.661,0.936,1086.830,531.831,1.120,831.498,534.328,1.133,1186.055,333.582,0.940,761.137,313.562,0.999,1277.174,71.645,0.717,869.548,135.549,0.789,-0.030,-0.964,1.402,0.000,-1.252,0.000,-0.020,0.015,-0.015,0.046,-1.150,1.471
0723_092514_0206.png,0.057,0.175,0.944,-0.009,0.170,0.933,0.171,-0.013,1.087,-0.126,0.003,1.158,0.212,-0.278,1.027,-0.305,-0.206,1.146,0.201,-0.341,0.765,-0.398,-0.303,0.912,1017.725,716.517,0.944,950.479,713.440,0.933,1109.784,528.301,1.087,856.839,542.447,1.158,1155.989,283.001,1.027,706.734,369.344,1.146,1209.434,116.234,0.765,544.587,224.000,0.912,-0.027,-0.965,1.402,0.000,-12.648,0.000,-0.029,-0.001,-0.026,0.184,-0.786,1.587
0723_092514_0207.png,-0.004,0.179,0.924,-0.071,0.183,0.931,0.113,0.007,1.142,-0.187,-0.007,1.082,0.227,-0.207,1.274,-0.233,-0.181,1.287,0.372,-0.259,1.067,-0.291,-0.263,1.050,955.936,724.538,0.924,887.674,726.747,0.931,1054.302,545.560,1.142,795.962,533.782,1.082,1129.226,385.340,1.274,788.054,406.338,1.287,1291.931,308.841,1.067,696.779,301.516,1.050,-0.027,-0.973,1.404,0.000,-347.257,0.000,-0.031,-0.017,0.032,-0.087,-0.972,1.069
0723_092514_0208.png,0.027,0.166,0.944,-0.037,0.166,0.945,0.140,-0.006,1.125,-0.148,-0.006,1.123,0.146,-0.251,1.020,-0.295,-0.197,1.224,-0.005,-0.338,0.826,-0.443,-0.280,1.026,986.761,706.987,0.944,922.640,707.308,0.945,1078.176,535.274,1.125,834.960,534.719,1.123,1095.881,305.955,1.020,730.643,386.654,1.224,953.707,151.320,0.826,549.385,280.560,1.026,-0.035,-0.971,1.403,0.000,-358.256,0.000,0.032,0.032,0.001,-0.010,-0.853,1.341
0723_092514_0209.png,0.023,0.178,0.923,-0.042,0.179,0.928,0.147,-0.001,1.105,-0.144,0.004,1.128,0.199,-0.183,0.905,-0.103,-0.175,0.923,0.249,-0.360,0.710,-0.063,-0.351,0.725,983.635,723.305,0.923,917.397,723.415,0.928,1086.566,539.110,1.105,838.745,543.576,1.128,1168.953,348.140,0.905,854.258,359.536,0.923,1293.959,57.934,0.710,877.621,79.618,0.725,-0.029,-0.970,1.403,0.000,-3.457,0.000,0.017,-0.029,0.011,-0.217,-0.917,1.670
0723_092514_0210.png,0.020,0.160,0.926,-0.048,0.163,0.933,0.149,-0.003,1.123,-0.160,-0.005,1.113,0.218,-0.241,1.021,-0.299,-0.238,1.135,0.132,-0.326,0.791,-0.160,-0.292,0.919,980.562,704.583,0.926,911.163,706.426,0.933,1086.136,537.688,1.123,823.595,535.732,1.113,1162.502,316.062,1.021,709.840,340.699,1.135,1118.802,147.575,0.791,794.801,237.811,0.919,-0.037,-0.970,1.403,0.000,-356.951,0.000,-0.040,0.003,0.019,-0.228,-1.185,1.302
0723_092514_0211.png,0.050,0.173,0.950,-0.014,0.169,0.940,0.159,-0.013,1.090,-0.128,0.001,1.149,0.231,-0.202,1.256,-0.120,-0.172,0.935,0.398,-0.262,1.065,-0.112,-0.341,0.726,1009.855,713.202,0.950,945.440,711.021,0.940,1099.050,528.888,1.090,854.252,540.842,1.149,1134.791,387.056,1.256,838.232,364.797,0.935,1315.392,305.885,1.065,812.945,93.650,0.726,-0.025,-0.973,1.404,0.000,-10.897,0.000,0.011,0.033,0.007,0.197,-0.721,1.401
0723_092514_0212.png,0.055,0.160,0.929,-0.009,0.156,0.922,0.167,-0.017,1.084,-0.114,-0.003,1.146,0.245,-0.277,1.108,-0.251,-0.200,1.032,0.246,-0.331,0.854,-0.287,-0.339,0.817,1016.028,704.241,0.929,951.093,700.541,0.922,1106.747,524.810,1.084,865.681,537.404,1.146,1170.523,302.590,1.108,728.221,355.501,1.032,1234.053,171.524,0.854,625.648,144.895,0.817,-0.036,-0.962,1.401,0.000,-11.537,0.000,0.030,-0.013,0.019,0.101,-1.054,1.696
0723_092514_0213.png,0.013,0.160,0.921,-0.051,0.163,0.924,0.120,-0.001,1.132,-0.165,-0.010,1.094,0.252,-0.226,1.080,-0.192,-0.257,1.001,0.312,-0.328,0.855,-0.078,-0.348,0.793,973.289,705.421,0.921,907.664,707.500,0.924,1061.139,539.065,1.132,816.414,531.616,1.094,1182.051,341.043,1.080,777.756,295.953,1.001,1307.450,175.231,0.855,866.161,122.675,0.793,-0.032,-0.968,1.403,0.000,-351.227,0.000,0.029,-0.014,0.037,0.041,-1.119,1.632
0723_092514_0214.png,0.027,0.173,0.937,-0.040,0.174,0.936,0.136,-0.001,1.141,-0.166,-0.010,1.105,0.251,-0.234,1.230,-0.218,-0.278,1.082,0.161,-0.285,0.984,-0.177,-0.327,0.823,987.496,716.047,0.937,919.125,716.689,0.936,1072.990,538.910,1.141,817.292,531.650,1.105,1154.331,359.109,1.230,768.482,295.702,1.082,1116.085,264.293,0.984,755.741,161.674,0.823,-0.040,-0.963,1.402,0.000,-351.742,0.000,-0.023,-0.014,-0.012,0.236,-0.881,1.379
0723_092514_0215.png,0.063,0.179,0.932,-0.003,0.174,0.922,0.177,-0.015,1.071,-0.114,0.004,1.153,0.144,-0.254,0.951,-0.297,-0.200,1.169,0.091,-0.352,0.717,-0.389,-0.293,0.945,1024.059,722.190,0.932,956.865,719.104,0.922,1116.930,526.454,1.071,865.572,542.983,1.153,1104.257,286.292,0.951,718.421,377.587,1.169,1081.328,73.131,0.717,568.775,244.920,0.945,-0.032,-0.965,1.402,0.000,-14.966,0.000,-0.021,-0.022,0.017,0.157,-0.945,1.182
0723_092514_0216.png,0.023,0.170,0.919,-0.041,0.171,0.922,0.141,0.001,1.106,-0.144,0.005,1.124,0.231,-0.253,1.156,-0.161,-0.225,0.987,0.245,-0.323,0.907,-0.082,-0.359,0.781,983.531,716.178,0.919,918.160,716.037,0.922,1081.481,541.008,1.106,838.180,544.487,1.124,1150.120,331.527,1.156,804.988,323.400,0.987,1217.235,200.771,0.907,859.634,103.169,0.781,-0.028,-0.973,1.404,0.000,-2.526,0.000,0.038,-0.027,0.018,-0.132,-1.178,1.544
0723_092514_0217.png,0.027,0.155,0.944,-0.039,0.156,0.948,0.150,-0.010,1.118,-0.146,-0.005,1.139,0.204,-0.258,1.031,-0.294,-0.225,1.137,0.190,-0.338,0.776,-0.316,-0.309,0.884,986.945,696.572,0.944,920.872,696.635,0.948,1087.947,531.705,1.118,838.184,535.846,1.139,1148.271,302.388,1.031,713.888,351.555,1.137,1192.976,126.405,0.776,619.691,207.830,0.884,-0.030,-0.970,1.403,0.000,-2.946,0.000,0.000,0.043,-0.018,-0.194,-1.077,1.124
0723_092514_0218.png,-0.010,0.156,0.932,-0.072,0.160,0.940,0.095,0.000,1.150,-0.183,-0.013,1.093,0.225,-0.202,1.030,-0.254,-0.261,1.023,0.279,-0.342,0.812,-0.129,-0.348,0.809,950.009,698.754,0.932,886.688,702.246,0.940,1038.183,539.933,1.150,800.491,528.546,1.093,1167.793,353.559,1.030,724.120,297.483,1.023,1286.211,139.672,0.812,808.615,131.152,0.809,-0.022,-0.968,1.403,0.000,-346.957,0.000,0.043,0.018,-0.002,-0.033,-0.997,1.654
0723_092514_0219.png,-0.013,0.180,0.932,-0.080,0.186,0.946,0.113,0.008,1.153,-0.190,-0.008,1.085,0.083,-0.168,0.937,-0.150,-0.261,0.996,0.051,-0.338,0.726,-0.079,-0.335,0.751,946.798,723.752,0.932,879.865,726.420,0.946,1052.981,546.557,1.153,793.211,533.196,1.085,1043.884,369.271,0.937,816.764,290.426,0.996,1026.744,96.428,0.726,860.314,115.383,0.751,-0.030,-0.971,1.403,0.000,-345.793,0.000,-0.048,-0.002,-0.007,-0.280,-0.757,1.334
0723_092514_0220.png,0.006,0.175,0.934,-0.060,0.177,0.936,0.113,0.001,1.145,-0.181,-0.012,1.089,0.156,-0.247,1.052,-0.300,-0.210,1.231,0.138,-0.332,0.807,-0.232,-0.283,0.992,966.514,718.229,0.934,899.156,719.480,0.936,1053.755,540.866,1.145,801.756,529.710,1.089,1101.338,317.077,1.052,728.241,377.744,1.231,1122.473,149.167,0.807,737.357,268.645,0.992,-0.029,-0.968,1.403,0.000,-347.809,0.000,-0.009,-0.004,0.017,0.171,-0.830,1.306
0723_092514_0221.png,0.046,0.179,0.920,-0.022,0.177,0.920,0.176,-0.006,1.070,-0.120,0.013,1.153,0.238,-0.267,1.007,-0.196,-0.238,1.075,0.166,-0.341,0.765,-0.170,-0.325,0.827,1007.706,725.158,0.920,937.507,722.654,0.920,1116.321,534.410,1.070,861.366,550.474,1.153,1184.514,287.530,1.007,787.018,329.353,1.075,1167.058,115.710,0.765,764.192,166.593,0.827,-0.029,-0.971,1.403,0.000,-14.837,0.000,-0.035,-0.033,0.004,-0.273,-1.099,1.353
0723_092514_0222.png,0.002,0.156,0.937,-0.062,0.160,0.948,0.123,-0.009,1.138,-0.168,-0.016,1.108,0.053,-0.181,0.941,-0.268,-0.259,1.137,-0.016,-0.348,0.749,-0.282,-0.315,0.883,961.770,698.128,0.937,897.609,700.731,0.948,1063.214,532.467,1.138,816.052,526.355,1.108,1013.107,357.319,0.941,735.742,323.454,1.137,939.279,98.047,0.749,655.824,201.095,0.883,-0.030,-0.965,1.402,0.000,-352.804,0.000,0.014,0.026,0.011,-0.288,-0.958,1.296
0723_092514_0223.png,0.023,0.170,0.948,-0.042,0.171,0.948,0.130,-0.001,1.146,-0.161,-0.008,1.116,0.175,-0.183,0.927,-0.257,-0.183,1.293,0.223,-0.361,0.715,-0.324,-0.274,1.045,982.962,710.700,0.948,917.950,711.393,0.948,1067.479,538.963,1.146,822.684,533.043,1.116,1139.582,352.101,0.927,770.822,405.229,1.293,1256.992,60.168,0.715,665.279,290.470,1.045,-0.037,-0.965,1.402,0.000,-352.766,0.000,0.016,0.016,-0.043,0.174,-0.827,1.304
0723_092514_0224.png,0.026,0.141,0.945,-0.040,0.141,0.946,0.142,-0.017,1.132,-0.155,-0.017,1.131,0.226,-0.252,1.029,-0.300,-0.238,1.084,0.118,-0.336,0.798,-0.320,-0.325,0.831,986.000,682.089,0.945,919.873,682.230,0.946,1078.954,525.856,1.132,829.773,525.718,1.131,1169.210,306.830,1.029,696.984,331.513,1.084,1100.576,140.152,0.798,593.517,167.581,0.831,-0.032,-0.959,1.400,0.000,-358.696,0.000,0.001,0.039,-0.023,0.027,-1.105,1.472
0723_092514_0225.png,0.052,0.178,0.929,-0.013,0.174,0.923,0.167,0.000,1.090,-0.121,0.013,1.149,0.249,-0.263,1.072,-0.252,-0.223,1.095,0.121,-0.337,0.846,-0.146,-0.328,0.874,1012.760,722.492,0.929,946.249,719.050,0.923,1105.847,539.747,1.090,860.049,550.915,1.149,1180.569,306.562,1.072,740.994,346.369,1.095,1096.422,161.164,0.846,801.202,183.415,0.874,-0.033,-0.973,1.404,0.000,-10.630,0.000,0.009,-0.023,-0.025,0.085,-1.096,1.482
0723_092514_0226.png,0.020,0.186,0.930,-0.045,0.187,0.931,0.136,0.006,1.125,-0.160,0.005,1.118,0.285,-0.225,1.139,-0.161,-0.222,0.960,0.387,-0.316,0.909,-0.074,-0.360,0.748,980.860,730.182,0.930,913.775,730.538,0.931,1075.201,545.175,1.125,823.912,544.037,1.118,1198.113,351.832,1.139,800.882,320.500,0.960,1365.293,209.952,0.909,865.353,81.840,0.748,-0.029,-0.970,1.403,0.000,-357.643,0.000,0.002,-0.032,-0.018,0.003,-0.968,1.197
0723_092514_0227.png,0.017,0.162,0.944,-0.047,0.164,0.948,0.129,-0.002,1.143,-0.160,-0.010,1.111,0.142,-0.260,1.067,-0.191,-0.258,1.012,0.110,-0.338,0.814,-0.056,-0.343,0.799,976.892,703.280,0.944,912.391,704.868,0.948,1066.943,537.948,1.143,822.956,531.696,1.111,1087.051,308.522,1.067,780.383,297.277,1.012,1088.634,144.985,0.814,893.266,132.029,0.799,-0.038,-0.969,1.403,0.000,-352.440,0.000,0.022,0.033,-0.017,-0.009,-0.819,1.601
0723_092514_0228.png,0.015,0.157,0.935,-0.053,0.159,0.940,0.146,-0.011,1.118,-0.164,-0.007,1.132,0.090,-0.192,0.919,-0.284,-0.206,1.271,-0.005,-0.346,0.721,-0.339,-0.264,1.018,975.712,700.014,0.935,906.229,700.620,0.940,1083.966,530.912,1.118,821.884,533.764,1.132,1053.426,341.516,0.919,747.559,385.583,1.271,953.581,83.073,0.721,642.967,293.390,1.018,-0.022,-0.964,1.401,0.000,-1.516,0.000,-0.046,0.011,-0.008,-0.226,-1.059,1.384
