rolosa10/RGSpipe/dataset/synthetic_dataset/Coods3D_unique0722_134749.csv
filename,left_eye,left_eye,left_eye,right_eye,right_eye,right_eye,left_shoulder,left_shoulder,left_shoulder,right_shoulder,right_shoulder,right_shoulder,left_elbow,left_elbow,left_elbow,right_elbow,right_elbow,right_elbow,left_wrist,left_wrist,left_wrist,right_wrist,right_wrist,right_wrist,left_eye_2D,left_eye_2D,left_eye_2D,right_eye_2D,right_eye_2D,right_eye_2D,left_shoulder_2D,left_shoulder_2D,left_shoulder_2D,right_shoulder_2D,right_shoulder_2D,right_shoulder_2D,left_elbow_2D,left_elbow_2D,left_elbow_2D,right_elbow_2D,right_elbow_2D,right_elbow_2D,left_wrist_2D,left_wrist_2D,left_wrist_2D,right_wrist_2D,right_wrist_2D,right_wrist_2D,root_position,root_position,root_position,root_pitch,root_yaw,root_roll,root_scale,root_scale,root_scale,look_at,look_at,look_at
0722_134749_0001.png,0.043,0.179,0.928,-0.022,0.175,0.919,0.152,-0.004,1.097,-0.144,0.004,1.131,0.245,-0.220,1.246,-0.120,-0.177,0.929,0.166,-0.287,1.009,-0.096,-0.352,0.732,1003.725,723.200,0.928,936.729,720.767,0.919,1091.890,536.347,1.097,839.241,543.115,1.131,1147.169,372.503,1.246,836.805,359.130,0.929,1116.004,269.785,1.009,835.376,82.361,0.732,-0.027,-0.969,1.403,0.000,-5.644,0.000,-0.003,-0.031,0.020,0.279,-0.974,1.555
0722_134749_0002.png,0.043,0.174,0.933,-0.022,0.173,0.936,0.171,-0.008,1.086,-0.115,0.007,1.152,0.261,-0.226,1.217,-0.267,-0.191,1.253,0.362,-0.293,0.981,-0.343,-0.283,1.014,1004.023,717.243,0.933,937.692,715.984,0.936,1109.693,532.706,1.086,865.123,545.814,1.152,1164.288,363.270,1.217,757.474,394.641,1.253,1310.874,256.425,0.981,638.513,275.044,1.014,-0.034,-0.971,1.403,0.000,-12.329,0.000,0.010,0.003,-0.011,-0.341,-0.921,1.384
0722_134749_0003.png,0.002,0.157,0.935,-0.064,0.161,0.945,0.128,-0.003,1.139,-0.171,-0.006,1.123,0.232,-0.253,1.100,-0.154,-0.196,0.913,0.065,-0.316,0.896,-0.105,-0.367,0.701,962.182,699.443,0.935,896.042,702.095,0.945,1067.045,537.655,1.139,815.351,534.712,1.123,1160.346,320.956,1.100,799.776,335.522,0.913,1029.241,204.669,0.896,818.126,42.502,0.701,-0.024,-0.964,1.402,0.000,-355.887,0.000,-0.009,0.008,-0.043,-0.296,-1.167,1.297
0722_134749_0004.png,0.047,0.174,0.942,-0.017,0.172,0.940,0.166,-0.012,1.095,-0.114,0.001,1.153,0.254,-0.263,1.039,-0.285,-0.198,1.085,0.176,-0.351,0.796,-0.401,-0.329,0.879,1007.490,715.381,0.942,943.132,713.891,0.940,1104.472,529.453,1.095,866.065,541.091,1.153,1192.432,299.726,1.039,709.956,366.801,1.085,1169.964,120.148,0.796,526.497,184.396,0.879,-0.034,-0.964,1.402,0.000,-10.937,0.000,0.035,0.002,-0.029,-0.149,-0.816,1.397
0722_134749_0005.png,0.053,0.161,0.945,-0.011,0.159,0.943,0.173,-0.023,1.083,-0.107,-0.006,1.158,0.250,-0.216,1.244,-0.270,-0.176,1.276,0.380,-0.276,1.026,-0.271,-0.274,1.032,1013.456,701.733,0.945,948.445,700.020,0.943,1112.292,519.875,1.083,871.736,535.210,1.158,1150.833,375.138,1.244,758.706,408.729,1.276,1311.709,284.677,1.026,710.636,287.368,1.032,-0.035,-0.964,1.402,0.000,-14.030,0.000,0.020,0.032,0.001,-0.198,-0.799,1.392
0722_134749_0006.png,0.005,0.175,0.934,-0.060,0.179,0.943,0.131,0.007,1.135,-0.167,0.004,1.121,0.153,-0.179,0.915,-0.301,-0.233,1.086,0.177,-0.361,0.700,-0.202,-0.329,0.850,965.340,718.486,0.934,899.255,720.455,0.943,1069.632,545.580,1.135,817.995,543.023,1.121,1118.870,353.643,0.915,696.057,335.728,1.086,1199.858,50.307,0.700,733.929,171.706,0.850,-0.026,-0.972,1.403,0.000,-356.175,0.000,-0.006,-0.004,-0.042,-0.260,-0.894,1.605
0722_134749_0007.png,0.035,0.173,0.926,-0.031,0.171,0.923,0.150,0.001,1.111,-0.151,0.003,1.117,0.209,-0.241,1.014,-0.318,-0.209,1.164,0.123,-0.334,0.791,-0.247,-0.299,0.933,996.216,717.279,0.926,927.583,716.558,0.923,1088.335,541.187,1.111,831.177,542.549,1.117,1155.911,314.293,1.014,700.480,369.370,1.164,1107.365,137.902,0.791,707.870,235.794,0.933,-0.034,-0.975,1.404,0.000,-0.193,0.000,-0.015,-0.012,0.028,0.133,-1.097,1.447
0722_134749_0008.png,-0.003,0.165,0.923,-0.070,0.169,0.930,0.112,-0.002,1.148,-0.188,-0.016,1.085,0.152,-0.174,0.937,-0.305,-0.267,1.076,0.189,-0.341,0.732,-0.155,-0.317,0.866,957.031,710.293,0.923,888.442,713.272,0.930,1052.511,538.266,1.148,795.615,525.712,1.085,1114.482,363.729,0.937,690.855,304.336,1.076,1205.667,97.320,0.732,789.554,191.893,0.866,-0.027,-0.960,1.401,0.000,-346.853,0.000,-0.030,-0.029,0.013,-0.035,-1.027,1.430
0722_134749_0009.png,0.007,0.171,0.934,-0.057,0.174,0.939,0.119,-0.002,1.135,-0.167,-0.008,1.110,0.080,-0.177,0.922,-0.332,-0.216,1.085,0.044,-0.350,0.716,-0.435,-0.328,0.871,966.638,714.548,0.934,902.487,715.919,0.939,1059.420,538.208,1.135,817.129,533.234,1.110,1042.292,357.117,0.922,668.674,350.461,1.085,1018.884,75.608,0.716,485.234,182.081,0.871,-0.026,-0.965,1.402,0.000,-353.680,0.000,0.035,-0.007,-0.004,-0.069,-0.862,1.474
0722_134749_0010.png,0.041,0.152,0.933,-0.025,0.149,0.930,0.157,-0.019,1.100,-0.138,-0.011,1.134,0.272,-0.240,1.010,-0.288,-0.231,1.137,0.311,-0.334,0.776,-0.165,-0.299,0.921,1001.312,694.526,0.933,934.196,692.820,0.930,1095.900,523.747,1.100,844.119,530.768,1.134,1216.430,314.103,1.010,718.865,346.444,1.137,1340.717,130.187,0.776,790.173,231.416,0.921,-0.032,-0.963,1.401,0.000,-5.547,0.000,-0.002,0.013,0.035,0.049,-1.056,1.585
0722_134749_0011.png,0.051,0.159,0.928,-0.016,0.154,0.922,0.170,-0.014,1.076,-0.129,0.003,1.149,0.082,-0.222,0.939,-0.256,-0.220,1.082,-0.003,-0.338,0.727,-0.113,-0.305,0.876,1012.162,702.990,0.928,943.039,698.955,0.922,1110.272,527.821,1.076,853.481,542.564,1.149,1043.092,315.130,0.939,734.593,346.226,1.082,956.221,98.490,0.727,837.710,209.417,0.876,-0.026,-0.972,1.404,0.000,-12.987,0.000,-0.037,0.011,0.031,0.051,-1.200,1.433
0722_134749_0012.png,0.041,0.163,0.945,-0.026,0.162,0.941,0.160,-0.022,1.095,-0.140,-0.012,1.141,0.304,-0.246,1.068,-0.245,-0.239,1.057,0.356,-0.314,0.827,-0.096,-0.310,0.854,1001.372,704.596,0.945,933.759,703.617,0.941,1098.856,520.560,1.095,843.029,530.120,1.141,1230.201,320.778,1.068,739.976,325.003,1.057,1369.302,179.017,0.827,852.819,194.663,0.854,-0.027,-0.963,1.401,0.000,-7.732,0.000,-0.023,0.025,0.034,0.016,-0.711,1.400
0722_134749_0013.png,0.028,0.167,0.929,-0.038,0.167,0.930,0.147,0.001,1.118,-0.153,0.001,1.119,0.084,-0.176,0.923,-0.266,-0.182,0.955,0.021,-0.348,0.732,-0.323,-0.343,0.755,988.878,710.760,0.929,920.682,711.027,0.930,1085.392,540.664,1.118,829.682,540.880,1.119,1046.467,358.450,0.923,695.324,358.597,0.955,986.668,88.043,0.732,552.631,107.708,0.755,-0.034,-0.974,1.404,0.000,-359.044,0.000,-0.013,0.002,0.010,-0.014,-1.004,1.708
0722_134749_0014.png,0.051,0.171,0.945,-0.016,0.169,0.944,0.177,-0.013,1.096,-0.121,0.001,1.159,0.138,-0.259,0.975,-0.289,-0.174,1.281,-0.017,-0.343,0.766,-0.383,-0.268,1.042,1011.550,711.772,0.945,943.564,710.321,0.944,1113.461,528.549,1.096,860.691,541.067,1.159,1094.685,287.035,0.975,745.692,410.653,1.281,939.091,113.859,0.766,610.290,295.061,1.042,-0.035,-0.965,1.402,0.000,-11.088,0.000,-0.026,0.013,-0.040,-0.156,-0.755,1.573
0722_134749_0015.png,0.008,0.168,0.940,-0.058,0.170,0.941,0.113,0.001,1.152,-0.179,-0.010,1.107,0.231,-0.210,1.277,-0.245,-0.191,0.900,0.379,-0.276,1.057,-0.313,-0.368,0.699,968.121,710.530,0.940,901.830,712.021,0.941,1053.351,540.458,1.152,806.307,531.703,1.107,1131.780,383.353,1.277,700.873,337.710,0.900,1300.815,291.367,1.057,534.026,38.472,0.699,-0.027,-0.961,1.401,0.000,-349.951,0.000,0.004,-0.007,-0.047,0.177,-1.007,1.204
0722_134749_0016.png,0.026,0.165,0.944,-0.040,0.167,0.953,0.155,-0.008,1.125,-0.145,-0.007,1.130,0.283,-0.227,1.202,-0.229,-0.220,0.983,0.390,-0.285,0.965,-0.185,-0.346,0.750,986.326,706.040,0.944,920.216,707.191,0.953,1091.024,533.171,1.125,837.713,534.195,1.130,1184.199,360.536,1.202,738.248,326.660,0.983,1344.259,259.055,0.965,725.308,102.084,0.750,-0.040,-0.967,1.403,0.000,0.167,0.000,-0.011,0.029,-0.015,-0.317,-0.837,1.272
0722_134749_0017.png,0.028,0.148,0.934,-0.039,0.149,0.935,0.147,-0.009,1.127,-0.156,-0.009,1.125,0.162,-0.185,0.915,-0.243,-0.249,1.208,0.177,-0.356,0.707,-0.216,-0.290,0.947,988.516,691.014,0.934,920.331,691.335,0.935,1083.621,532.380,1.127,828.235,531.979,1.125,1128.654,347.730,0.915,768.615,344.194,1.208,1198.176,61.598,0.707,743.472,248.759,0.947,-0.034,-0.964,1.402,0.000,-358.440,0.000,-0.019,0.015,-0.011,0.016,-1.152,1.656
0722_134749_0018.png,-0.006,0.151,0.934,-0.069,0.156,0.943,0.102,-0.009,1.151,-0.178,-0.022,1.093,0.120,-0.238,1.012,-0.315,-0.242,1.038,0.003,-0.346,0.808,-0.362,-0.343,0.803,953.865,693.361,0.934,890.622,696.885,0.943,1044.248,532.576,1.151,805.317,520.698,1.093,1073.226,316.648,1.012,671.266,318.543,1.038,963.054,133.410,0.808,530.691,133.787,0.803,-0.028,-0.960,1.401,0.000,-346.930,0.000,0.037,0.016,0.006,-0.102,-0.995,1.471
0722_134749_0019.png,0.029,0.157,0.934,-0.038,0.157,0.934,0.146,-0.013,1.119,-0.155,-0.012,1.122,0.133,-0.241,0.983,-0.240,-0.180,0.925,-0.019,-0.334,0.792,-0.320,-0.344,0.732,989.190,700.208,0.934,921.300,700.106,0.934,1084.165,529.073,1.119,828.835,529.740,1.122,1088.549,306.728,0.983,713.531,354.789,0.925,937.267,139.292,0.792,543.730,93.618,0.732,-0.032,-0.962,1.401,0.000,-359.466,0.000,-0.013,0.005,0.020,0.036,-0.927,1.714
0722_134749_0020.png,0.051,0.160,0.935,-0.017,0.156,0.930,0.170,-0.007,1.103,-0.132,0.003,1.147,0.138,-0.265,1.016,-0.132,-0.188,0.943,-0.016,-0.332,0.805,-0.091,-0.353,0.731,1011.455,702.764,0.935,942.869,699.973,0.930,1106.493,533.748,1.103,850.853,542.341,1.147,1089.075,292.198,1.016,826.775,350.590,0.943,940.521,147.240,0.805,841.847,81.088,0.731,-0.036,-0.968,1.403,0.000,-7.312,0.000,-0.027,0.006,-0.025,0.074,-1.197,1.459
0722_134749_0021.png,0.064,0.159,0.946,-0.003,0.155,0.936,0.178,-0.029,1.082,-0.121,-0.012,1.154,0.321,-0.256,1.101,-0.113,-0.179,0.939,0.380,-0.305,0.852,-0.102,-0.339,0.728,1024.539,700.192,0.946,957.242,697.624,0.936,1116.540,514.496,1.082,860.091,529.811,1.154,1237.203,318.531,1.101,845.247,358.890,0.939,1383.778,199.693,0.852,827.094,97.110,0.728,-0.034,-0.958,1.400,0.000,-12.775,0.000,-0.038,0.020,0.024,0.196,-0.834,1.223
0722_134749_0022.png,0.057,0.154,0.941,-0.011,0.149,0.934,0.176,-0.023,1.082,-0.120,-0.004,1.164,0.248,-0.279,1.033,-0.278,-0.218,1.217,0.110,-0.324,0.808,-0.349,-0.283,0.967,1017.652,696.036,0.941,949.245,691.896,0.934,1115.133,519.983,1.082,861.963,536.935,1.164,1188.473,283.619,1.033,742.512,370.050,1.217,1089.974,159.056,0.808,616.794,262.152,0.967,-0.027,-0.961,1.401,0.000,-14.809,0.000,-0.039,0.022,-0.021,0.025,-1.090,1.304
0722_134749_0023.png,0.043,0.183,0.933,-0.023,0.182,0.929,0.158,-0.012,1.101,-0.140,-0.006,1.128,0.246,-0.262,1.041,-0.163,-0.232,0.989,0.148,-0.334,0.813,-0.086,-0.346,0.771,1003.532,726.772,0.933,936.050,726.135,0.929,1096.593,529.525,1.101,842.308,535.031,1.128,1185.105,300.299,1.041,802.848,316.808,0.989,1132.835,149.877,0.813,853.495,113.054,0.771,-0.035,-0.960,1.401,0.000,-4.168,0.000,-0.007,-0.036,0.027,0.109,-0.771,1.176
0722_134749_0024.png,-0.007,0.161,0.923,-0.072,0.166,0.932,0.105,-0.002,1.148,-0.185,-0.018,1.081,0.260,-0.225,1.160,-0.177,-0.253,0.956,0.135,-0.301,0.944,-0.093,-0.353,0.734,952.474,705.888,0.923,886.147,709.623,0.932,1047.385,538.151,1.148,797.309,524.556,1.081,1172.916,355.705,1.160,783.654,288.273,0.956,1095.550,237.158,0.944,839.543,82.959,0.734,-0.028,-0.963,1.401,0.000,-345.573,0.000,-0.005,-0.015,0.024,-0.116,-1.110,1.263
0722_134749_0025.png,0.071,0.175,0.939,0.005,0.169,0.926,0.182,-0.010,1.080,-0.113,0.007,1.155,0.197,-0.278,1.037,-0.273,-0.178,1.031,0.028,-0.322,0.836,-0.380,-0.321,0.833,1032.155,717.436,0.939,965.552,713.341,0.926,1120.436,530.936,1.080,867.186,545.677,1.155,1140.717,285.064,1.037,708.549,375.621,1.031,991.461,174.175,0.836,525.945,174.089,0.833,-0.038,-0.970,1.403,0.000,-13.414,0.000,-0.026,-0.001,-0.007,0.289,-0.963,1.378
0722_134749_0026.png,0.034,0.159,0.931,-0.034,0.158,0.929,0.151,-0.003,1.128,-0.156,-0.003,1.127,0.258,-0.226,1.000,-0.250,-0.262,1.110,0.302,-0.344,0.759,-0.248,-0.324,0.845,994.449,701.990,0.931,924.920,701.646,0.929,1087.049,537.599,1.128,828.245,537.459,1.127,1205.789,325.484,1.000,745.481,315.109,1.110,1338.324,109.083,0.759,681.301,175.927,0.845,-0.035,-0.963,1.401,0.000,-358.690,0.000,-0.033,-0.016,-0.033,0.111,-1.260,1.477
0722_134749_0027.png,-0.002,0.183,0.935,-0.066,0.186,0.944,0.108,0.001,1.148,-0.177,-0.011,1.093,0.098,-0.174,0.931,-0.267,-0.203,1.268,0.091,-0.347,0.720,-0.335,-0.288,1.027,958.129,725.653,0.935,893.768,727.081,0.944,1049.071,541.159,1.148,805.862,530.210,1.093,1060.269,361.752,0.931,759.459,387.962,1.268,1079.863,81.779,0.720,650.120,273.675,1.027,-0.030,-0.963,1.402,0.000,-347.606,0.000,0.023,-0.019,-0.008,-0.060,-0.666,1.407
0722_134749_0028.png,0.001,0.162,0.944,-0.064,0.165,0.948,0.107,0.003,1.154,-0.182,-0.009,1.101,0.114,-0.214,0.985,-0.151,-0.208,0.908,0.009,-0.345,0.776,-0.071,-0.364,0.699,961.260,703.190,0.944,895.835,705.422,0.948,1048.229,542.644,1.154,802.822,532.136,1.101,1070.351,333.180,0.985,802.106,322.010,0.908,970.993,117.181,0.776,862.794,44.598,0.699,-0.027,-0.972,1.404,0.000,-348.060,0.000,0.009,0.037,-0.029,0.111,-1.021,1.113
0722_134749_0029.png,0.016,0.169,0.944,-0.050,0.170,0.948,0.134,-0.009,1.129,-0.160,-0.010,1.125,0.278,-0.234,1.092,-0.219,-0.261,1.044,0.279,-0.328,0.842,-0.205,-0.344,0.790,975.616,709.683,0.944,910.314,710.237,0.948,1072.740,532.303,1.129,824.652,531.576,1.125,1201.979,336.445,1.092,760.265,301.762,1.044,1275.333,170.073,0.842,712.835,125.918,0.790,-0.026,-0.963,1.401,0.000,-358.105,0.000,0.010,0.013,-0.014,-0.087,-0.701,1.601
0722_134749_0030.png,0.026,0.173,0.944,-0.038,0.171,0.940,0.136,-0.009,1.120,-0.155,-0.007,1.128,0.067,-0.186,0.921,-0.324,-0.205,1.058,0.002,-0.359,0.727,-0.425,-0.328,0.847,986.662,714.108,0.944,921.528,713.412,0.940,1075.507,532.121,1.120,828.915,533.812,1.128,1029.658,348.065,0.921,668.737,355.758,1.058,962.660,70.949,0.727,482.621,171.983,0.847,-0.024,-0.963,1.401,0.000,-0.527,0.000,0.018,0.002,-0.005,0.172,-0.744,1.510
0722_134749_0031.png,0.002,0.174,0.946,-0.063,0.177,0.954,0.120,0.000,1.141,-0.173,-0.007,1.112,0.224,-0.203,0.988,-0.171,-0.238,0.967,0.281,-0.345,0.768,-0.128,-0.355,0.730,961.709,715.240,0.946,896.944,716.580,0.954,1060.152,539.856,1.141,811.666,534.173,1.112,1175.414,345.000,0.988,792.067,306.261,0.967,1308.252,112.318,0.768,792.657,77.027,0.730,-0.025,-0.971,1.403,0.000,-353.060,0.000,0.006,0.026,-0.017,-0.161,-0.730,1.191
0722_134749_0032.png,-0.016,0.170,0.929,-0.078,0.176,0.943,0.102,0.000,1.147,-0.182,-0.014,1.086,0.234,-0.205,1.261,-0.344,-0.227,1.082,0.356,-0.278,1.044,-0.410,-0.327,0.852,944.002,714.114,0.929,881.155,717.307,0.943,1044.713,540.143,1.147,800.588,527.986,1.086,1136.816,385.539,1.261,657.523,340.008,1.082,1284.281,286.520,1.044,502.223,175.244,0.852,-0.026,-0.967,1.402,0.000,-346.517,0.000,0.020,-0.002,0.017,-0.324,-0.838,1.402
0722_134749_0033.png,0.032,0.165,0.937,-0.035,0.164,0.934,0.151,-0.009,1.103,-0.152,-0.002,1.133,0.156,-0.248,0.990,-0.237,-0.171,0.939,-0.004,-0.326,0.799,-0.318,-0.335,0.749,992.955,707.730,0.937,924.606,706.439,0.934,1089.993,532.215,1.103,832.626,538.236,1.133,1109.404,301.421,0.990,719.560,366.846,0.939,954.903,152.143,0.799,555.733,114.517,0.749,-0.024,-0.972,1.403,0.000,-4.665,0.000,-0.024,0.020,0.022,0.058,-1.012,1.237
0722_134749_0034.png,0.036,0.166,0.950,-0.029,0.165,0.949,0.155,-0.013,1.111,-0.134,-0.004,1.148,0.112,-0.234,0.950,-0.142,-0.183,0.925,0.002,-0.362,0.737,-0.153,-0.358,0.708,995.855,706.360,0.950,931.110,705.497,0.949,1092.442,528.975,1.111,848.902,536.425,1.148,1072.190,305.335,0.950,814.221,351.438,0.925,963.004,73.473,0.737,754.783,58.377,0.708,-0.029,-0.964,1.402,0.000,-6.368,0.000,0.019,0.026,-0.033,-0.091,-0.764,1.483
0722_134749_0035.png,0.049,0.171,0.930,-0.017,0.169,0.928,0.170,-0.018,1.069,-0.117,0.000,1.147,0.175,-0.269,0.993,-0.271,-0.211,1.108,0.151,-0.341,0.752,-0.179,-0.308,0.890,1009.995,714.708,0.930,942.891,713.008,0.928,1111.034,524.014,1.069,863.172,540.055,1.147,1127.770,281.891,0.993,727.527,359.218,1.108,1151.407,109.315,0.752,768.837,211.461,0.890,-0.030,-0.970,1.403,0.000,-14.524,0.000,-0.003,0.005,0.049,-0.158,-0.847,1.375
0722_134749_0036.png,0.057,0.166,0.940,-0.011,0.163,0.935,0.178,-0.018,1.083,-0.120,-0.001,1.156,0.246,-0.214,1.252,-0.254,-0.206,1.273,0.395,-0.264,1.035,-0.258,-0.268,1.016,1017.256,708.422,0.940,948.875,705.987,0.935,1115.845,523.974,1.083,861.436,538.781,1.156,1146.873,377.178,1.252,770.596,386.187,1.273,1323.015,297.712,1.035,718.669,289.094,1.016,-0.033,-0.964,1.402,0.000,-12.965,0.000,-0.032,0.011,-0.003,-0.036,-0.971,1.110
0722_134749_0037.png,0.007,0.162,0.938,-0.059,0.166,0.944,0.117,0.004,1.153,-0.175,-0.006,1.107,0.258,-0.226,1.105,-0.242,-0.257,1.019,0.320,-0.326,0.856,-0.227,-0.351,0.760,966.670,704.612,0.938,900.575,707.267,0.944,1056.938,543.614,1.153,809.399,534.843,1.107,1182.437,345.831,1.105,734.337,299.771,1.019,1315.299,177.771,0.856,676.715,101.582,0.760,-0.032,-0.969,1.403,0.000,-349.831,0.000,0.001,0.016,-0.047,0.006,-1.119,1.191
0722_134749_0038.png,0.031,0.174,0.930,-0.037,0.175,0.933,0.153,0.000,1.127,-0.156,-0.002,1.117,0.169,-0.179,0.917,-0.328,-0.219,1.109,0.183,-0.354,0.712,-0.324,-0.315,0.860,992.116,717.743,0.930,922.390,718.386,0.933,1088.774,540.177,1.127,827.563,538.345,1.117,1135.041,354.065,0.917,678.553,352.143,1.109,1204.131,67.835,0.712,601.481,191.729,0.860,-0.040,-0.966,1.402,0.000,-357.040,0.000,-0.039,-0.020,-0.011,-0.008,-1.066,1.186
0722_134749_0039.png,0.041,0.149,0.940,-0.025,0.146,0.934,0.156,-0.013,1.111,-0.145,-0.006,1.140,0.227,-0.210,1.273,-0.128,-0.181,0.924,0.387,-0.256,1.066,-0.111,-0.351,0.712,1001.904,691.012,0.940,934.197,688.500,0.934,1093.583,528.733,1.111,838.929,534.580,1.140,1129.266,383.466,1.273,828.040,353.215,0.924,1305.627,311.274,1.066,811.642,71.190,0.712,-0.030,-0.965,1.402,0.000,-4.472,0.000,-0.019,0.026,-0.008,0.172,-1.219,1.407
0722_134749_0040.png,0.010,0.176,0.916,-0.055,0.179,0.922,0.122,0.008,1.138,-0.172,-0.003,1.090,0.053,-0.173,0.944,-0.275,-0.248,1.023,-0.016,-0.350,0.756,-0.302,-0.348,0.782,970.761,722.143,0.916,902.978,724.824,0.922,1061.604,547.063,1.138,810.069,537.747,1.090,1012.917,365.762,0.944,703.895,309.119,1.023,940.132,99.565,0.756,593.311,117.440,0.782,-0.035,-0.968,1.403,0.000,-349.297,0.000,-0.003,-0.047,0.009,-0.003,-1.079,1.585
0722_134749_0041.png,0.025,0.168,0.935,-0.039,0.169,0.939,0.146,-0.014,1.113,-0.144,-0.011,1.126,0.246,-0.252,1.192,-0.305,-0.219,1.087,0.144,-0.301,0.960,-0.306,-0.328,0.853,985.144,710.475,0.935,920.143,710.833,0.939,1084.764,528.097,1.113,838.846,530.956,1.126,1156.529,338.951,1.192,692.947,347.991,1.087,1102.600,241.762,0.960,619.093,173.625,0.853,-0.033,-0.961,1.401,0.000,-1.664,0.000,0.024,-0.004,0.019,-0.196,-0.819,1.425
0722_134749_0042.png,0.034,0.183,0.925,-0.033,0.182,0.925,0.158,-0.006,1.091,-0.141,0.003,1.132,0.139,-0.247,0.979,-0.318,-0.175,1.035,-0.018,-0.335,0.794,-0.447,-0.315,0.862,994.875,727.957,0.925,926.193,727.247,0.925,1097.337,534.487,1.091,841.350,542.618,1.132,1095.050,299.659,0.979,668.103,378.990,1.035,938.702,138.458,0.794,466.489,191.936,0.862,-0.028,-0.969,1.403,0.000,-6.858,0.000,-0.016,-0.031,0.034,-0.113,-0.812,1.569
0722_134749_0043.png,0.020,0.159,0.941,-0.047,0.161,0.947,0.148,-0.008,1.122,-0.153,-0.006,1.132,0.153,-0.273,1.108,-0.309,-0.218,1.071,0.120,-0.317,0.848,-0.289,-0.323,0.826,979.960,700.686,0.941,913.142,701.686,0.947,1085.318,533.214,1.122,831.200,535.162,1.132,1091.211,305.254,1.108,685.504,346.201,1.071,1094.405,184.266,0.848,626.940,168.744,0.826,-0.030,-0.968,1.403,0.000,-0.738,0.000,-0.015,0.030,-0.013,-0.286,-1.028,1.202
0722_134749_0044.png,0.035,0.158,0.942,-0.034,0.156,0.937,0.150,-0.012,1.121,-0.159,-0.009,1.130,0.188,-0.259,1.021,-0.145,-0.229,0.972,0.019,-0.319,0.821,-0.089,-0.339,0.737,994.940,699.168,0.942,925.713,697.980,0.937,1087.298,530.149,1.121,825.892,532.058,1.130,1134.755,298.356,1.021,817.970,315.811,0.972,981.699,170.405,0.821,844.528,102.297,0.737,-0.029,-0.964,1.402,0.000,-0.622,0.000,-0.042,0.017,-0.004,0.198,-1.019,1.420
0722_134749_0045.png,0.038,0.161,0.928,-0.030,0.160,0.930,0.168,-0.006,1.090,-0.136,0.007,1.148,0.307,-0.237,1.125,-0.210,-0.166,0.943,0.383,-0.301,0.877,-0.281,-0.334,0.741,998.912,705.152,0.928,928.805,703.200,0.930,1106.201,534.513,1.090,847.303,545.852,1.148,1219.698,339.843,1.125,747.677,372.462,0.943,1375.057,213.814,0.877,599.493,111.302,0.741,-0.027,-0.974,1.404,0.000,-9.937,0.000,-0.042,0.010,-0.005,-0.193,-1.137,1.622
0722_134749_0046.png,0.040,0.164,0.931,-0.027,0.162,0.928,0.162,-0.012,1.093,-0.136,0.001,1.146,0.120,-0.216,0.917,-0.262,-0.195,1.291,0.032,-0.358,0.711,-0.321,-0.267,1.044,1000.406,707.853,0.931,931.855,705.565,0.928,1100.571,529.890,1.093,846.748,540.453,1.146,1084.560,316.464,0.917,767.393,396.536,1.291,1002.588,61.042,0.711,667.206,296.399,1.044,-0.026,-0.965,1.402,0.000,-9.157,0.000,-0.020,-0.008,-0.003,-0.049,-1.127,1.368
0722_134749_0047.png,0.040,0.167,0.929,-0.024,0.164,0.925,0.152,-0.008,1.101,-0.137,-0.001,1.131,0.273,-0.243,1.058,-0.122,-0.180,0.927,0.324,-0.334,0.822,-0.106,-0.354,0.729,1000.767,710.791,0.929,934.915,708.960,0.925,1091.554,533.416,1.101,845.036,539.381,1.131,1205.490,321.129,1.058,835.299,355.701,0.927,1334.952,153.206,0.822,820.998,77.466,0.729,-0.032,-0.969,1.403,0.000,-4.900,0.000,0.021,-0.009,0.023,0.115,-1.091,1.443
0722_134749_0048.png,0.054,0.183,0.946,-0.013,0.181,0.939,0.169,-0.002,1.106,-0.127,0.008,1.149,0.302,-0.241,1.087,-0.119,-0.178,0.926,0.349,-0.330,0.832,-0.114,-0.360,0.709,1013.842,724.514,0.946,947.139,722.772,0.939,1105.579,538.340,1.106,854.546,546.516,1.149,1224.286,329.381,1.087,837.401,357.240,0.926,1358.784,163.190,0.832,806.982,57.775,0.709,-0.038,-0.970,1.403,0.000,-7.218,0.000,-0.010,-0.003,-0.047,0.122,-0.838,1.251
0722_134749_0049.png,0.030,0.180,0.934,-0.035,0.179,0.935,0.153,0.001,1.111,-0.141,0.008,1.141,0.256,-0.236,1.201,-0.149,-0.227,0.990,0.314,-0.306,0.945,-0.060,-0.356,0.768,990.608,722.942,0.934,923.950,722.315,0.935,1090.771,540.920,1.111,842.283,546.745,1.141,1162.726,352.973,1.201,816.794,321.664,0.990,1276.273,232.189,0.945,885.762,98.871,0.768,-0.028,-0.970,1.403,0.000,-4.912,0.000,0.004,-0.016,-0.039,-0.147,-1.000,1.267
0722_134749_0050.png,-0.003,0.160,0.929,-0.067,0.165,0.941,0.116,-0.002,1.145,-0.174,-0.015,1.090,0.275,-0.201,1.067,-0.244,-0.267,1.040,0.381,-0.316,0.861,-0.073,-0.324,0.854,957.259,703.400,0.929,892.654,706.965,0.941,1056.105,537.984,1.145,808.364,526.941,1.090,1205.022,360.673,1.067,737.011,295.673,1.040,1380.355,190.645,0.861,878.911,179.484,0.854,-0.034,-0.968,1.403,0.000,-347.881,0.000,0.007,0.012,0.021,-0.239,-0.963,1.457
0722_134749_0051.png,0.037,0.179,0.921,-0.028,0.178,0.922,0.159,-0.007,1.091,-0.133,0.003,1.132,0.247,-0.259,1.039,-0.154,-0.174,0.929,0.159,-0.338,0.812,-0.173,-0.346,0.732,998.179,724.225,0.921,930.790,723.338,0.922,1098.775,533.975,1.091,848.499,542.113,1.132,1185.698,303.120,1.039,802.455,362.228,0.929,1146.655,144.803,0.812,735.748,91.069,0.732,-0.033,-0.968,1.403,0.000,-7.033,0.000,0.007,-0.036,0.033,-0.120,-0.879,1.694
0722_134749_0052.png,-0.006,0.166,0.937,-0.071,0.169,0.943,0.106,-0.004,1.145,-0.186,-0.017,1.087,0.268,-0.197,1.063,-0.283,-0.201,1.253,0.371,-0.311,0.859,-0.458,-0.260,1.068,953.876,708.521,0.937,887.936,710.263,0.943,1048.140,536.407,1.145,797.481,524.708,1.087,1199.531,363.708,1.063,745.489,387.562,1.253,1370.828,195.846,0.859,552.651,308.766,1.068,-0.024,-0.968,1.403,0.000,-347.449,0.000,-0.003,0.021,0.034,-0.021,-0.819,1.205
0722_134749_0053.png,0.044,0.184,0.933,-0.023,0.182,0.930,0.166,-0.014,1.084,-0.130,0.000,1.147,0.083,-0.240,0.960,-0.233,-0.238,1.063,-0.001,-0.349,0.737,-0.075,-0.322,0.867,1004.813,727.607,0.933,936.359,726.544,0.930,1105.681,527.427,1.084,851.778,540.105,1.147,1042.644,301.745,0.960,751.607,327.083,1.063,958.787,89.928,0.737,877.485,186.650,0.867,-0.027,-0.961,1.401,0.000,-11.108,0.000,-0.022,-0.035,0.009,-0.079,-0.709,1.458
0722_134749_0054.png,0.013,0.182,0.926,-0.051,0.183,0.924,0.114,0.006,1.134,-0.172,-0.002,1.097,0.266,-0.203,1.225,-0.167,-0.188,0.898,0.237,-0.305,0.987,-0.163,-0.369,0.705,973.828,727.407,0.926,907.930,728.121,0.924,1056.009,545.045,1.134,810.784,537.894,1.097,1166.858,382.362,1.225,782.851,341.373,0.898,1188.337,246.567,0.987,739.824,42.471,0.705,-0.026,-0.969,1.403,0.000,-351.334,0.000,0.027,-0.037,0.012,0.259,-1.015,1.228
0722_134749_0055.png,0.008,0.166,0.940,-0.056,0.168,0.948,0.129,-0.006,1.130,-0.165,-0.011,1.109,0.273,-0.193,1.248,-0.299,-0.237,1.080,0.259,-0.278,1.006,-0.319,-0.320,0.837,968.513,707.410,0.940,903.358,708.782,0.948,1068.830,534.786,1.130,818.595,530.588,1.109,1168.259,392.692,1.248,696.437,331.626,1.080,1204.483,277.519,1.006,598.174,176.986,0.837,-0.030,-0.971,1.403,0.000,-354.677,0.000,0.006,0.032,0.025,-0.200,-0.808,1.259
0722_134749_0056.png,0.010,0.163,0.931,-0.057,0.166,0.935,0.125,0.002,1.138,-0.175,-0.007,1.102,0.281,-0.217,1.168,-0.293,-0.248,1.118,0.385,-0.291,0.939,-0.152,-0.302,0.903,970.333,706.591,0.931,902.256,708.432,0.935,1064.820,541.306,1.138,808.940,534.285,1.102,1189.002,363.259,1.168,710.646,328.987,1.118,1350.263,245.709,0.939,799.427,222.361,0.903,-0.029,-0.972,1.404,0.000,-351.893,0.000,-0.019,0.011,0.010,0.015,-1.152,1.163
0722_134749_0057.png,0.019,0.161,0.942,-0.045,0.162,0.942,0.118,-0.009,1.145,-0.164,-0.020,1.097,0.202,-0.245,1.056,-0.190,-0.275,1.031,0.073,-0.331,0.851,-0.145,-0.346,0.786,979.118,702.271,0.942,915.042,703.189,0.942,1058.156,532.740,1.145,817.962,523.000,1.097,1141.975,319.759,1.056,784.311,286.140,1.031,1041.891,169.788,0.851,784.421,121.619,0.786,-0.038,-0.963,1.402,0.000,-349.059,0.000,0.036,0.021,0.015,0.267,-0.865,1.264
0722_134749_0058.png,0.048,0.168,0.943,-0.016,0.163,0.932,0.157,-0.013,1.105,-0.133,-0.003,1.148,0.147,-0.275,1.017,-0.256,-0.203,1.000,-0.016,-0.345,0.815,-0.327,-0.349,0.781,1008.484,709.192,0.943,943.333,706.042,0.932,1095.324,528.949,1.105,849.567,537.669,1.148,1097.521,283.062,1.017,716.197,346.859,1.000,940.999,137.740,0.815,562.264,114.697,0.781,-0.028,-0.960,1.401,0.000,-7.584,0.000,0.010,-0.009,-0.032,0.269,-0.963,1.484
0722_134749_0059.png,-0.001,0.179,0.927,-0.067,0.183,0.933,0.105,0.008,1.151,-0.184,-0.007,1.085,0.144,-0.172,0.940,-0.334,-0.230,1.147,0.183,-0.349,0.735,-0.413,-0.313,0.908,958.758,723.997,0.927,892.081,726.435,0.933,1046.370,546.766,1.151,798.580,533.873,1.085,1105.631,365.636,0.940,683.087,349.524,1.147,1196.622,88.771,0.735,526.916,211.677,0.908,-0.029,-0.968,1.403,0.000,-345.617,0.000,0.001,-0.025,-0.010,0.062,-0.987,1.115
0722_134749_0060.png,0.052,0.164,0.941,-0.010,0.160,0.931,0.157,-0.009,1.102,-0.123,0.000,1.140,0.224,-0.254,1.018,-0.141,-0.177,0.927,0.132,-0.351,0.791,-0.162,-0.350,0.721,1012.223,705.879,0.941,949.327,702.845,0.931,1095.767,532.231,1.102,857.525,539.797,1.140,1169.219,302.999,1.018,815.308,358.378,0.927,1119.201,118.379,0.791,746.488,77.515,0.721,-0.036,-0.970,1.403,0.000,-6.774,0.000,0.047,0.017,0.000,0.266,-1.046,1.409
0722_134749_0061.png,0.053,0.166,0.947,-0.011,0.164,0.944,0.169,-0.015,1.096,-0.113,-0.002,1.151,0.161,-0.273,1.026,-0.120,-0.179,0.934,-0.016,-0.335,0.842,-0.130,-0.353,0.723,1013.107,706.810,0.947,948.995,705.164,0.944,1106.510,527.218,1.096,866.328,538.279,1.151,1109.573,286.968,1.026,837.421,357.492,0.934,941.643,161.769,0.842,788.988,76.324,0.723,-0.038,-0.968,1.403,0.000,-10.144,0.000,0.031,0.031,-0.011,-0.039,-0.739,1.610
0722_134749_0062.png,0.007,0.154,0.933,-0.058,0.157,0.934,0.105,0.001,1.152,-0.180,-0.014,1.085,0.066,-0.170,0.941,-0.249,-0.257,1.002,0.028,-0.337,0.736,-0.116,-0.338,0.793,967.271,697.174,0.933,901.157,699.785,0.934,1046.779,541.039,1.152,802.371,527.510,1.085,1026.845,368.354,0.941,723.868,295.937,1.002,996.632,105.025,0.736,820.567,135.299,0.793,-0.033,-0.971,1.403,0.000,-345.174,0.000,0.012,0.026,0.012,0.247,-1.095,1.484
0722_134749_0063.png,0.011,0.158,0.936,-0.055,0.160,0.939,0.123,-0.010,1.138,-0.173,-0.017,1.107,0.190,-0.180,0.931,-0.134,-0.238,0.958,0.255,-0.346,0.729,-0.070,-0.352,0.731,971.157,700.873,0.936,904.378,702.076,0.939,1062.659,531.649,1.138,811.507,525.329,1.107,1153.972,356.151,0.931,826.820,303.703,0.958,1292.430,89.173,0.729,869.319,81.898,0.731,-0.027,-0.960,1.401,0.000,-352.722,0.000,-0.002,0.004,0.005,0.065,-0.991,1.317
0722_134749_0064.png,0.045,0.177,0.938,-0.021,0.173,0.930,0.159,-0.010,1.097,-0.139,0.000,1.143,0.091,-0.251,0.989,-0.232,-0.239,1.050,0.013,-0.346,0.754,-0.086,-0.327,0.846,1005.964,719.427,0.938,938.786,717.296,0.930,1097.426,530.989,1.097,844.220,540.180,1.143,1047.204,298.503,0.989,749.866,323.863,1.050,976.643,103.852,0.754,863.194,172.210,0.846,-0.026,-0.964,1.402,0.000,-7.870,0.000,-0.015,-0.015,-0.003,0.199,-0.837,1.480
0722_134749_0065.png,0.031,0.163,0.936,-0.033,0.162,0.933,0.144,-0.006,1.116,-0.147,-0.003,1.127,0.249,-0.248,1.076,-0.311,-0.212,1.158,0.144,-0.328,0.850,-0.410,-0.304,0.934,991.825,705.841,0.936,926.072,705.104,0.933,1082.707,535.307,1.116,835.553,537.418,1.127,1180.407,320.581,1.076,704.685,366.036,1.158,1121.209,173.228,0.850,542.874,230.188,0.934,-0.031,-0.970,1.403,0.000,-0.976,0.000,0.018,0.011,0.005,0.087,-1.054,1.421
0722_134749_0066.png,0.045,0.174,0.929,-0.021,0.174,0.931,0.174,-0.009,1.087,-0.121,0.004,1.145,0.227,-0.242,0.961,-0.163,-0.221,1.003,0.202,-0.353,0.725,-0.147,-0.342,0.772,1006.305,718.531,0.929,938.215,717.504,0.931,1111.901,531.824,1.087,859.481,543.378,1.145,1184.243,300.152,0.961,805.355,330.540,1.003,1225.219,77.472,0.725,778.620,118.452,0.772,-0.038,-0.969,1.403,0.000,-10.315,0.000,-0.013,-0.011,0.009,-0.281,-0.963,1.316
0722_134749_0067.png,0.064,0.172,0.935,-0.001,0.167,0.926,0.177,-0.018,1.079,-0.112,-0.001,1.153,0.294,-0.258,1.140,-0.165,-0.206,0.986,0.351,-0.313,0.889,-0.110,-0.346,0.770,1024.848,715.097,0.935,958.519,711.952,0.926,1116.214,524.185,1.079,868.007,539.244,1.153,1205.655,324.418,1.140,800.685,341.509,0.986,1335.870,205.308,0.889,824.261,112.969,0.770,-0.037,-0.961,1.401,0.000,-13.579,0.000,-0.005,-0.016,0.006,0.150,-0.937,1.313
0722_134749_0068.png,0.006,0.159,0.932,-0.059,0.163,0.940,0.126,0.000,1.137,-0.169,-0.008,1.102,0.226,-0.244,1.116,-0.320,-0.216,1.165,0.086,-0.303,0.904,-0.407,-0.295,0.933,965.894,701.875,0.932,900.037,704.693,0.940,1065.294,540.384,1.137,814.318,533.512,1.102,1152.556,332.186,1.116,698.620,363.452,1.165,1050.993,221.079,0.904,545.273,239.287,0.933,-0.032,-0.975,1.404,0.000,-351.937,0.000,0.000,0.027,0.018,-0.190,-1.074,1.378
0722_134749_0069.png,0.022,0.151,0.937,-0.042,0.151,0.939,0.141,-0.010,1.122,-0.150,-0.007,1.137,0.250,-0.220,1.246,-0.250,-0.211,1.276,0.379,-0.284,1.021,-0.270,-0.284,1.016,982.558,693.580,0.937,917.206,693.340,0.939,1079.423,531.339,1.122,834.895,534.513,1.137,1150.560,372.316,1.246,773.826,382.976,1.276,1312.927,275.301,1.021,707.840,273.892,1.016,-0.025,-0.962,1.401,0.000,-2.040,0.000,0.020,0.014,-0.031,-0.090,-1.173,1.459
0722_134749_0070.png,0.054,0.182,0.935,-0.015,0.180,0.933,0.178,-0.008,1.094,-0.128,0.003,1.145,0.234,-0.251,0.979,-0.183,-0.243,1.039,0.193,-0.344,0.734,-0.152,-0.331,0.790,1014.931,724.723,0.935,945.108,723.540,0.933,1114.762,532.788,1.094,853.763,542.845,1.145,1187.233,296.319,0.979,792.272,317.918,1.039,1210.266,93.562,0.734,777.599,141.537,0.790,-0.040,-0.966,1.402,0.000,-8.536,0.000,-0.045,-0.019,-0.006,-0.033,-0.761,1.537
0722_134749_0071.png,0.024,0.172,0.930,-0.041,0.172,0.934,0.152,-0.007,1.099,-0.144,0.000,1.132,0.157,-0.258,1.012,-0.232,-0.209,0.995,-0.017,-0.326,0.832,-0.267,-0.338,0.776,985.044,715.504,0.930,917.869,715.454,0.934,1091.410,533.601,1.099,838.815,540.189,1.132,1107.311,297.020,1.012,738.202,340.334,0.995,940.436,167.098,0.832,632.358,125.988,0.776,-0.027,-0.972,1.403,0.000,-5.381,0.000,-0.004,0.002,0.028,-0.292,-0.969,1.242
0722_134749_0072.png,0.056,0.146,0.945,-0.009,0.140,0.935,0.166,-0.025,1.091,-0.123,-0.010,1.153,0.250,-0.242,0.963,-0.278,-0.201,1.247,0.270,-0.350,0.726,-0.418,-0.269,1.037,1015.989,686.851,0.945,951.057,682.461,0.935,1104.397,518.622,1.091,858.772,531.521,1.153,1207.061,300.998,0.963,747.824,386.637,1.247,1313.776,81.418,0.726,576.859,293.416,1.037,-0.030,-0.963,1.401,0.000,-11.268,0.000,0.006,0.040,0.009,0.228,-1.129,1.355
0722_134749_0073.png,0.012,0.163,0.939,-0.054,0.166,0.944,0.126,0.001,1.149,-0.169,-0.008,1.111,0.254,-0.201,1.272,-0.294,-0.235,1.019,0.325,-0.281,1.019,-0.323,-0.347,0.771,972.347,704.851,0.939,905.979,707.148,0.944,1064.511,540.694,1.149,815.269,533.284,1.111,1149.939,389.534,1.272,686.041,320.988,1.019,1262.960,278.183,1.019,560.870,112.250,0.771,-0.035,-0.966,1.402,0.000,-351.348,0.000,-0.003,0.010,-0.043,-0.029,-1.037,1.319
0722_134749_0074.png,0.014,0.165,0.927,-0.050,0.166,0.926,0.119,-0.003,1.138,-0.171,-0.011,1.104,0.203,-0.221,0.997,-0.205,-0.286,1.110,0.242,-0.355,0.771,-0.159,-0.334,0.853,974.627,709.636,0.927,908.264,710.739,0.926,1059.410,537.480,1.138,813.002,530.854,1.104,1153.509,328.717,0.997,783.976,295.110,1.110,1258.841,102.649,0.771,783.202,167.340,0.853,-0.028,-0.959,1.401,0.000,-352.140,0.000,0.018,-0.034,-0.004,0.171,-1.096,1.493
0722_134749_0075.png,0.059,0.168,0.940,-0.006,0.162,0.931,0.175,-0.016,1.090,-0.113,0.000,1.161,0.119,-0.250,0.946,-0.306,-0.187,1.207,0.010,-0.367,0.724,-0.261,-0.302,0.964,1019.977,709.462,0.940,953.880,705.776,0.931,1112.323,525.624,1.090,867.626,539.870,1.161,1079.729,288.637,0.946,719.190,392.387,1.207,972.647,57.177,0.724,702.935,241.903,0.964,-0.034,-0.958,1.400,0.000,-13.057,0.000,0.002,-0.012,-0.041,0.094,-0.947,1.537
0722_134749_0076.png,0.047,0.173,0.926,-0.018,0.170,0.924,0.166,-0.008,1.098,-0.124,0.002,1.142,0.245,-0.267,1.040,-0.113,-0.183,0.933,0.249,-0.352,0.787,-0.104,-0.365,0.730,1008.019,717.266,0.926,941.330,715.293,0.924,1103.372,533.220,1.098,856.861,541.858,1.142,1184.188,296.283,1.040,844.718,353.406,0.933,1261.124,113.961,0.787,824.366,64.507,0.730,-0.038,-0.961,1.401,0.000,-7.650,0.000,0.014,-0.040,-0.015,-0.025,-1.187,1.199
0722_134749_0077.png,0.053,0.187,0.934,-0.011,0.185,0.929,0.172,-0.006,1.085,-0.113,0.009,1.151,0.129,-0.193,0.883,-0.269,-0.214,1.122,0.090,-0.376,0.686,-0.158,-0.323,0.907,1014.390,730.865,0.934,948.312,728.993,0.929,1110.511,534.998,1.085,866.595,547.839,1.151,1099.419,332.501,0.883,732.152,358.593,1.122,1084.973,19.102,0.686,794.464,201.630,0.907,-0.035,-0.969,1.403,0.000,-12.228,0.000,0.014,-0.027,-0.017,-0.056,-0.886,1.148
0722_134749_0078.png,0.032,0.143,0.940,-0.033,0.141,0.937,0.147,-0.015,1.122,-0.149,-0.012,1.136,0.077,-0.188,0.911,-0.220,-0.224,0.979,0.010,-0.358,0.705,-0.171,-0.351,0.748,992.832,684.443,0.940,926.380,683.124,0.937,1084.295,527.239,1.122,835.193,530.164,1.136,1040.159,343.277,0.911,745.752,322.502,0.979,973.802,57.674,0.705,742.320,93.506,0.748,-0.030,-0.960,1.401,0.000,-1.683,0.000,0.003,0.025,-0.019,0.100,-1.235,1.488
0722_134749_0079.png,0.007,0.168,0.936,-0.060,0.171,0.942,0.125,-0.001,1.139,-0.175,-0.010,1.096,0.188,-0.170,0.937,-0.221,-0.252,0.998,0.246,-0.334,0.739,-0.064,-0.324,0.804,966.946,710.510,0.936,899.471,712.190,0.942,1064.595,539.553,1.139,807.937,531.046,1.096,1150.514,367.504,0.937,749.002,300.267,0.998,1276.116,109.960,0.739,883.828,157.076,0.804,-0.032,-0.973,1.404,0.000,-350.557,0.000,-0.023,0.024,0.026,-0.057,-0.777,1.570
0722_134749_0080.png,0.014,0.149,0.933,-0.050,0.152,0.939,0.128,-0.011,1.136,-0.160,-0.017,1.110,0.076,-0.186,0.935,-0.267,-0.259,1.073,0.026,-0.357,0.739,-0.128,-0.325,0.862,974.182,692.099,0.933,909.389,694.281,0.939,1067.318,530.768,1.136,822.873,525.351,1.110,1037.240,350.917,0.935,723.629,310.634,1.073,993.471,80.771,0.739,818.999,181.571,0.862,-0.035,-0.961,1.401,0.000,-353.462,0.000,0.025,0.014,0.008,-0.101,-1.187,1.211
0722_134749_0081.png,0.013,0.164,0.922,-0.051,0.166,0.927,0.132,0.000,1.121,-0.158,0.000,1.120,0.148,-0.182,0.910,-0.310,-0.220,1.172,0.166,-0.360,0.706,-0.392,-0.311,0.938,973.426,709.029,0.922,907.651,710.209,0.927,1072.189,540.008,1.121,826.228,539.834,1.120,1115.146,349.909,0.910,708.448,361.310,1.172,1183.611,54.682,0.706,562.403,224.305,0.938,-0.026,-0.967,1.402,0.000,-358.646,0.000,0.024,-0.025,-0.003,-0.163,-1.260,1.419
0722_134749_0082.png,0.031,0.167,0.942,-0.037,0.167,0.940,0.147,-0.002,1.130,-0.162,-0.004,1.120,0.224,-0.209,1.280,-0.245,-0.253,1.054,0.394,-0.250,1.076,-0.059,-0.310,0.868,991.633,708.636,0.942,922.445,708.548,0.940,1083.720,538.167,1.130,822.638,536.270,1.120,1126.507,384.763,1.280,739.148,311.688,1.054,1308.085,319.216,1.076,895.583,200.680,0.868,-0.035,-0.971,1.403,0.000,-356.992,0.000,-0.040,0.019,-0.009,0.161,-0.934,1.398
0722_134749_0083.png,-0.005,0.197,0.931,-0.070,0.200,0.942,0.110,0.014,1.148,-0.181,0.000,1.089,0.062,-0.181,0.957,-0.272,-0.226,0.962,-0.005,-0.355,0.762,-0.283,-0.361,0.732,955.355,740.883,0.931,889.718,742.320,0.942,1051.407,551.293,1.148,802.040,540.084,1.089,1021.375,360.475,0.957,691.649,316.247,0.962,953.249,97.565,0.762,592.145,70.421,0.732,-0.030,-0.973,1.404,0.000,-347.103,0.000,-0.002,-0.030,-0.015,-0.142,-0.653,1.366
0722_134749_0084.png,0.005,0.170,0.939,-0.059,0.174,0.947,0.111,0.000,1.153,-0.171,-0.013,1.096,0.069,-0.181,0.943,-0.285,-0.206,1.244,0.030,-0.360,0.740,-0.353,-0.291,1.001,964.756,712.326,0.939,900.744,714.482,0.947,1051.740,539.898,1.153,811.323,528.664,1.096,1029.287,357.045,0.943,742.067,382.461,1.244,998.880,77.519,0.740,624.832,263.869,1.001,-0.036,-0.965,1.402,0.000,-347.270,0.000,0.029,0.007,-0.019,-0.005,-0.823,1.287
0722_134749_0085.png,0.005,0.169,0.945,-0.061,0.171,0.949,0.119,-0.006,1.150,-0.180,-0.015,1.109,0.109,-0.233,0.989,-0.327,-0.243,1.071,0.017,-0.350,0.762,-0.278,-0.331,0.818,965.444,709.967,0.945,898.626,711.238,0.949,1058.116,534.952,1.150,805.972,526.742,1.109,1064.954,316.284,0.989,669.625,324.315,1.071,980.729,102.661,0.762,637.097,154.686,0.818,-0.027,-0.958,1.400,0.000,-350.854,0.000,-0.015,0.002,-0.035,0.038,-0.696,1.602
0722_134749_0086.png,0.005,0.147,0.932,-0.060,0.151,0.942,0.130,-0.006,1.134,-0.165,-0.011,1.111,0.236,-0.229,1.036,-0.243,-0.239,1.215,0.273,-0.331,0.799,-0.226,-0.287,0.961,965.172,689.572,0.932,899.931,692.813,0.942,1068.980,534.767,1.134,818.907,530.272,1.111,1176.673,329.367,1.036,769.967,353.332,1.215,1285.093,146.343,0.799,736.712,256.417,0.961,-0.031,-0.970,1.403,0.000,-354.386,0.000,0.004,0.034,0.012,-0.294,-1.142,1.528
0722_134749_0087.png,0.025,0.171,0.932,-0.040,0.173,0.938,0.149,-0.007,1.123,-0.147,-0.006,1.129,0.116,-0.252,0.998,-0.255,-0.260,1.118,-0.015,-0.351,0.786,-0.267,-0.332,0.857,985.758,714.159,0.932,919.293,714.966,0.938,1086.389,534.099,1.123,836.184,535.196,1.129,1070.973,299.659,0.998,743.327,318.891,1.118,941.396,115.371,0.786,663.860,172.161,0.857,-0.036,-0.959,1.401,0.000,0.077,0.000,0.002,-0.025,-0.026,-0.204,-0.936,1.425
0722_134749_0088.png,0.036,0.171,0.926,-0.028,0.171,0.930,0.162,-0.008,1.094,-0.121,0.004,1.144,0.233,-0.270,1.131,-0.199,-0.201,0.982,0.102,-0.324,0.907,-0.206,-0.359,0.768,996.918,715.538,0.926,931.597,714.594,0.930,1101.045,533.422,1.094,859.658,543.480,1.144,1155.759,312.851,1.131,767.035,344.979,0.982,1067.160,200.482,0.907,704.942,94.859,0.768,-0.034,-0.967,1.402,0.000,-9.334,0.000,0.031,-0.020,-0.008,-0.318,-1.066,1.406
0722_134749_0089.png,0.063,0.169,0.923,-0.004,0.164,0.917,0.181,-0.013,1.074,-0.112,0.005,1.150,0.291,-0.266,1.100,-0.281,-0.195,1.077,0.223,-0.321,0.854,-0.377,-0.315,0.868,1024.428,714.430,0.923,955.892,710.470,0.917,1120.291,528.653,1.074,867.156,543.741,1.150,1211.765,309.997,1.100,711.597,368.058,1.077,1207.936,183.055,0.854,546.657,194.457,0.868,-0.039,-0.965,1.402,0.000,-13.616,0.000,-0.022,-0.030,0.015,0.059,-1.070,1.667
0722_134749_0090.png,0.045,0.172,0.933,-0.019,0.168,0.928,0.162,-0.016,1.083,-0.117,0.001,1.154,0.165,-0.284,1.026,-0.273,-0.165,0.993,-0.017,-0.343,0.845,-0.427,-0.327,0.839,1005.915,714.981,0.933,940.753,712.246,0.928,1102.114,526.305,1.083,863.471,540.589,1.154,1112.789,276.939,1.026,698.205,381.899,0.993,940.334,154.274,0.845,475.622,169.210,0.839,-0.026,-0.961,1.401,0.000,-13.460,0.000,0.029,-0.019,-0.009,-0.052,-0.966,1.365
0722_134749_0091.png,-0.006,0.179,0.932,-0.069,0.182,0.939,0.098,0.003,1.151,-0.183,-0.011,1.092,0.235,-0.171,0.983,-0.248,-0.194,0.894,0.371,-0.341,0.822,-0.314,-0.373,0.704,954.028,722.671,0.932,889.881,724.742,0.939,1040.598,542.288,1.151,801.017,530.499,1.092,1187.175,374.804,0.983,696.701,333.606,0.894,1389.246,146.103,0.822,535.373,35.723,0.704,-0.025,-0.962,1.401,0.000,-346.529,0.000,0.034,-0.027,-0.019,0.014,-0.899,1.069
0722_134749_0092.png,0.043,0.173,0.932,-0.025,0.171,0.931,0.170,-0.016,1.081,-0.132,0.001,1.153,0.280,-0.259,1.016,-0.305,-0.206,1.215,0.299,-0.334,0.764,-0.210,-0.280,0.978,1004.296,716.298,0.932,934.423,714.500,0.931,1109.165,526.046,1.081,851.310,540.544,1.153,1221.735,297.819,1.016,721.694,378.880,1.215,1332.618,124.677,0.764,756.021,267.830,0.978,-0.025,-0.964,1.401,0.000,-12.585,0.000,-0.045,-0.013,0.004,-0.164,-0.969,1.115
0722_134749_0093.png,0.027,0.167,0.925,-0.040,0.167,0.926,0.149,-0.005,1.112,-0.153,-0.002,1.125,0.190,-0.260,1.026,-0.330,-0.211,1.104,0.034,-0.328,0.826,-0.431,-0.311,0.884,987.583,711.936,0.925,918.664,711.854,0.926,1087.663,535.578,1.112,830.429,538.126,1.125,1136.464,299.300,1.026,675.307,358.554,1.104,999.057,161.624,0.826,495.786,205.885,0.884,-0.030,-0.965,1.402,0.000,-1.323,0.000,-0.020,-0.024,0.010,-0.081,-1.214,1.197
0722_134749_0094.png,0.040,0.165,0.937,-0.024,0.164,0.937,0.161,-0.010,1.098,-0.123,0.001,1.146,0.176,-0.243,0.961,-0.282,-0.200,1.215,0.089,-0.361,0.740,-0.365,-0.294,0.981,1000.343,707.450,0.937,935.510,706.109,0.937,1099.081,531.336,1.098,858.002,540.986,1.146,1134.602,299.346,0.961,739.240,383.535,1.215,1074.112,75.684,0.740,606.602,254.535,0.981,-0.033,-0.969,1.403,0.000,-8.822,0.000,0.031,0.014,-0.008,-0.154,-0.885,1.717
0722_134749_0095.png,0.034,0.170,0.920,-0.029,0.170,0.923,0.160,-0.007,1.092,-0.124,0.004,1.139,0.077,-0.187,0.901,-0.240,-0.189,1.297,-0.002,-0.365,0.716,-0.310,-0.283,1.064,995.498,716.191,0.920,929.776,715.244,0.923,1099.296,534.034,1.092,856.841,543.271,1.139,1041.567,342.197,0.901,784.181,401.352,1.297,957.419,55.142,0.716,682.412,286.556,1.064,-0.034,-0.966,1.402,0.000,-8.453,0.000,0.032,-0.036,0.008,-0.284,-1.136,1.496
0722_134749_0096.png,0.020,0.170,0.931,-0.045,0.170,0.930,0.128,0.003,1.135,-0.165,-0.003,1.110,0.143,-0.245,1.017,-0.200,-0.186,0.905,-0.014,-0.340,0.827,-0.235,-0.365,0.705,980.393,713.330,0.931,913.703,714.102,0.930,1067.215,542.099,1.135,818.447,537.253,1.110,1093.957,311.216,1.017,749.883,344.060,0.905,943.777,148.735,0.827,642.922,47.139,0.705,-0.031,-0.967,1.402,0.000,-353.857,0.000,0.009,-0.016,-0.014,0.156,-1.127,1.289
0722_134749_0097.png,0.034,0.152,0.931,-0.034,0.150,0.928,0.151,-0.008,1.115,-0.154,-0.006,1.125,0.097,-0.184,0.918,-0.282,-0.210,1.245,0.028,-0.347,0.724,-0.400,-0.270,1.019,994.422,695.078,0.931,925.390,694.077,0.928,1088.533,533.028,1.115,830.026,535.179,1.125,1060.747,349.115,0.918,744.228,379.273,1.245,996.253,84.798,0.724,586.940,288.436,1.019,-0.031,-0.968,1.403,0.000,-0.899,0.000,-0.026,0.011,0.015,0.103,-1.261,1.477
0722_134749_0098.png,0.032,0.177,0.920,-0.033,0.175,0.918,0.149,0.003,1.102,-0.144,0.009,1.128,0.106,-0.181,0.901,-0.121,-0.176,0.925,0.064,-0.361,0.705,-0.098,-0.357,0.727,992.657,722.758,0.920,925.370,721.432,0.918,1088.197,542.458,1.102,838.850,547.447,1.128,1071.465,348.936,0.901,836.070,358.892,0.925,1046.003,52.992,0.705,831.962,72.882,0.727,-0.028,-0.972,1.404,0.000,-4.051,0.000,0.011,-0.039,0.007,0.011,-1.235,1.344
0722_134749_0099.png,0.052,0.163,0.949,-0.012,0.160,0.942,0.165,-0.025,1.081,-0.114,-0.008,1.157,0.089,-0.203,0.894,-0.255,-0.186,1.289,-0.018,-0.360,0.712,-0.318,-0.269,1.050,1012.500,703.520,0.949,948.364,701.524,0.942,1105.470,517.867,1.081,866.235,533.567,1.157,1054.205,323.784,0.894,771.983,402.704,1.289,936.121,59.315,0.712,671.671,296.187,1.050,-0.027,-0.963,1.401,0.000,-14.316,0.000,0.024,0.032,0.011,0.007,-0.670,1.556
0722_134749_0100.png,0.026,0.166,0.950,-0.040,0.165,0.948,0.138,-0.009,1.125,-0.159,-0.009,1.125,0.139,-0.242,0.995,-0.305,-0.219,1.048,-0.017,-0.332,0.803,-0.371,-0.325,0.817,985.556,705.687,0.950,919.668,705.398,0.948,1076.608,532.676,1.125,825.750,532.583,1.125,1092.677,308.738,0.995,683.305,341.501,1.048,939.871,146.817,0.803,527.939,161.339,0.817,-0.028,-0.970,1.403,0.000,-358.736,0.000,0.001,0.040,0.002,0.131,-0.762,1.356
0722_134749_0101.png,0.037,0.165,0.945,-0.028,0.164,0.943,0.150,-0.011,1.125,-0.145,-0.010,1.129,0.147,-0.246,0.987,-0.244,-0.220,0.986,0.110,-0.354,0.745,-0.242,-0.353,0.753,997.288,705.902,0.945,931.561,705.491,0.943,1086.460,530.955,1.125,837.991,531.757,1.129,1101.942,302.783,0.987,724.477,328.010,0.986,1100.599,88.473,0.745,654.608,94.742,0.753,-0.038,-0.962,1.401,0.000,0.378,0.000,0.008,0.012,-0.017,0.115,-0.813,1.534
0722_134749_0102.png,0.006,0.167,0.925,-0.058,0.169,0.928,0.110,0.001,1.142,-0.174,-0.009,1.100,0.115,-0.184,0.936,-0.318,-0.189,1.249,0.123,-0.365,0.738,-0.328,-0.302,1.008,965.892,711.248,0.925,900.719,713.410,0.928,1051.602,540.768,1.142,809.757,532.464,1.100,1077.211,353.567,0.936,718.071,395.747,1.249,1118.628,69.487,0.738,650.953,254.959,1.008,-0.026,-0.962,1.401,0.000,-350.205,0.000,0.033,-0.031,-0.009,0.075,-1.182,1.278
0722_134749_0103.png,0.048,0.169,0.920,-0.018,0.166,0.916,0.167,-0.007,1.080,-0.126,0.007,1.140,0.273,-0.247,1.164,-0.171,-0.229,1.024,0.332,-0.303,0.920,-0.050,-0.331,0.819,1009.614,715.014,0.920,941.416,711.883,0.916,1106.784,533.791,1.080,854.608,545.571,1.140,1183.197,338.165,1.164,801.580,327.846,1.024,1303.467,226.765,0.920,901.436,155.220,0.819,-0.032,-0.972,1.404,0.000,-10.643,0.000,-0.008,-0.022,0.032,0.023,-1.153,1.573
0722_134749_0104.png,0.009,0.176,0.922,-0.056,0.177,0.923,0.118,0.003,1.134,-0.176,-0.005,1.101,0.250,-0.225,1.229,-0.319,-0.240,1.075,0.152,-0.298,0.995,-0.374,-0.337,0.837,969.682,721.400,0.922,902.069,722.580,0.923,1058.617,542.353,1.134,807.603,535.943,1.101,1153.128,365.824,1.229,678.105,327.492,1.075,1105.744,255.502,0.995,535.152,157.212,0.837,-0.023,-0.963,1.401,0.000,-352.327,0.000,0.003,-0.049,0.001,0.123,-1.082,1.409
0722_134749_0105.png,0.006,0.190,0.935,-0.060,0.192,0.943,0.131,0.004,1.130,-0.171,0.000,1.111,0.241,-0.206,1.270,-0.252,-0.210,0.955,0.181,-0.277,1.022,-0.267,-0.353,0.731,966.610,732.876,0.935,899.421,733.749,0.943,1070.183,543.701,1.130,813.502,540.088,1.111,1140.293,386.025,1.270,709.404,331.108,0.955,1128.178,282.109,1.022,613.203,81.410,0.731,-0.026,-0.970,1.403,0.000,-355.195,0.000,-0.020,-0.018,-0.006,-0.202,-0.664,1.394
0722_134749_0106.png,-0.001,0.173,0.930,-0.069,0.177,0.938,0.122,0.002,1.142,-0.184,-0.007,1.100,0.204,-0.239,1.044,-0.341,-0.191,1.232,0.202,-0.328,0.794,-0.283,-0.281,0.990,958.785,716.689,0.930,890.171,718.989,0.938,1061.435,541.998,1.142,800.888,533.649,1.100,1145.771,322.551,1.044,696.652,392.556,1.232,1202.345,147.382,0.794,688.142,270.225,0.990,-0.026,-0.967,1.402,0.000,-350.731,0.000,-0.041,-0.012,-0.006,-0.153,-0.927,1.366
0722_134749_0107.png,0.064,0.174,0.932,-0.002,0.168,0.924,0.183,-0.006,1.082,-0.108,0.012,1.160,0.282,-0.231,1.206,-0.156,-0.216,1.004,0.391,-0.294,0.966,-0.086,-0.349,0.777,1025.664,717.374,0.932,957.813,712.897,0.924,1120.837,534.385,1.082,871.457,549.560,1.160,1182.215,357.836,1.206,812.648,335.577,1.004,1344.664,250.470,0.966,855.042,112.740,0.777,-0.037,-0.969,1.403,0.000,-14.310,0.000,-0.017,-0.017,-0.039,0.054,-1.190,1.251
0722_134749_0108.png,0.036,0.172,0.945,-0.028,0.171,0.945,0.158,-0.013,1.091,-0.122,0.002,1.154,0.218,-0.262,1.158,-0.270,-0.220,1.127,0.238,-0.318,0.900,-0.172,-0.316,0.903,996.281,713.447,0.945,932.013,712.423,0.945,1097.765,528.927,1.091,859.243,541.403,1.154,1138.666,325.241,1.158,732.402,354.554,1.127,1211.495,203.436,0.900,779.286,206.632,0.903,-0.025,-0.969,1.403,0.000,-11.752,0.000,0.031,0.024,-0.015,-0.277,-0.762,1.304
0722_134749_0109.png,-0.006,0.168,0.927,-0.068,0.174,0.939,0.111,0.003,1.142,-0.172,-0.009,1.092,0.267,-0.199,1.222,-0.311,-0.234,1.055,0.233,-0.299,0.985,-0.291,-0.339,0.819,954.224,712.743,0.927,891.192,716.233,0.939,1052.177,542.386,1.142,810.103,532.445,1.092,1167.340,384.998,1.222,679.671,329.345,1.055,1184.682,251.520,0.985,622.103,145.667,0.819,-0.031,-0.970,1.403,0.000,-348.503,0.000,0.032,-0.002,0.013,-0.300,-1.004,1.286
0722_134749_0110.png,0.012,0.176,0.926,-0.052,0.177,0.928,0.120,0.004,1.127,-0.167,-0.002,1.101,0.114,-0.177,0.926,-0.279,-0.221,0.999,0.108,-0.354,0.731,-0.323,-0.348,0.781,972.261,720.592,0.926,906.758,721.458,0.928,1060.885,543.025,1.127,815.383,537.934,1.101,1076.594,358.081,0.926,694.807,329.479,0.999,1099.820,79.685,0.731,567.242,115.908,0.781,-0.026,-0.973,1.404,0.000,-353.514,0.000,0.029,-0.014,0.029,0.086,-0.928,1.542
0722_134749_0111.png,0.049,0.174,0.921,-0.018,0.170,0.917,0.170,-0.007,1.073,-0.123,0.011,1.148,0.132,-0.261,0.990,-0.288,-0.195,1.086,0.018,-0.341,0.772,-0.378,-0.312,0.874,1010.391,720.101,0.921,941.418,716.730,0.917,1110.781,534.039,1.073,857.740,548.755,1.148,1086.653,289.620,0.990,707.787,369.367,1.086,982.551,120.247,0.772,548.786,200.520,0.874,-0.028,-0.973,1.404,0.000,-13.565,0.000,-0.022,-0.024,0.021,-0.034,-1.024,1.728
0722_134749_0112.png,0.040,0.161,0.934,-0.027,0.160,0.933,0.158,-0.008,1.115,-0.143,-0.005,1.128,0.200,-0.183,0.911,-0.099,-0.180,0.925,0.241,-0.354,0.713,-0.055,-0.350,0.726,1000.967,704.148,0.934,932.978,703.462,0.933,1094.899,533.366,1.115,839.612,536.193,1.128,1169.239,348.653,0.911,858.466,355.148,0.925,1281.057,67.540,0.713,888.528,81.867,0.726,-0.039,-0.967,1.403,0.000,-1.594,0.000,-0.015,0.008,0.005,0.052,-0.963,1.712
0722_134749_0113.png,0.056,0.163,0.932,-0.010,0.159,0.927,0.174,-0.021,1.080,-0.119,-0.005,1.149,0.174,-0.180,1.298,-0.207,-0.236,1.050,0.255,-0.261,1.065,-0.056,-0.320,0.852,1017.057,706.075,0.932,949.416,703.486,0.927,1113.549,521.684,1.080,861.822,535.843,1.149,1087.313,408.138,1.298,772.887,326.445,1.050,1187.345,307.130,1.065,897.726,182.358,0.852,-0.035,-0.962,1.401,0.000,-12.352,0.000,-0.015,-0.002,0.026,0.014,-0.894,1.658
0722_134749_0114.png,0.063,0.171,0.934,0.000,0.165,0.924,0.175,-0.011,1.081,-0.105,0.006,1.153,0.168,-0.264,0.979,-0.241,-0.193,1.276,0.022,-0.354,0.778,-0.288,-0.285,1.031,1024.436,714.264,0.934,959.569,710.204,0.924,1114.201,530.315,1.081,873.366,544.559,1.153,1122.763,283.882,0.979,780.215,396.144,1.276,986.597,107.335,0.778,694.769,277.299,1.031,-0.038,-0.968,1.403,0.000,-13.585,0.000,0.023,-0.009,-0.008,0.132,-1.024,1.497
0722_134749_0115.png,0.035,0.163,0.934,-0.027,0.162,0.934,0.155,-0.013,1.094,-0.123,-0.001,1.144,0.238,-0.257,1.028,-0.223,-0.248,1.155,0.157,-0.349,0.798,-0.200,-0.319,0.906,995.922,706.253,0.934,932.029,704.908,0.934,1094.621,528.867,1.094,857.446,538.908,1.144,1180.258,302.411,1.028,776.278,335.697,1.155,1146.896,124.363,0.798,750.433,204.539,0.906,-0.029,-0.968,1.403,0.000,-9.278,0.000,0.047,0.011,0.009,-0.193,-0.996,1.421
0722_134749_0116.png,0.035,0.181,0.949,-0.030,0.181,0.947,0.151,-0.001,1.116,-0.144,0.004,1.135,0.086,-0.181,0.914,-0.235,-0.174,0.939,0.024,-0.357,0.717,-0.324,-0.347,0.747,995.321,721.823,0.949,929.562,721.331,0.947,1088.920,539.455,1.116,839.476,543.205,1.135,1049.410,351.512,0.914,722.385,363.832,0.939,991.768,65.881,0.717,547.156,98.886,0.747,-0.032,-0.975,1.404,0.000,-2.691,0.000,0.004,0.022,-0.021,0.036,-0.690,1.345
0722_134749_0117.png,0.028,0.189,0.934,-0.040,0.189,0.936,0.151,0.001,1.114,-0.155,0.003,1.122,0.142,-0.251,1.015,-0.238,-0.258,1.120,0.004,-0.332,0.805,-0.214,-0.313,0.865,988.841,732.213,0.934,919.846,732.284,0.936,1089.113,540.928,1.114,828.826,542.531,1.122,1093.508,304.569,1.015,758.174,320.716,1.120,964.724,148.106,0.805,724.119,196.056,0.865,-0.032,-0.971,1.403,0.000,-0.415,0.000,-0.031,-0.020,0.008,-0.063,-0.721,1.395
0722_134749_0118.png,0.028,0.187,0.927,-0.040,0.187,0.927,0.150,-0.002,1.104,-0.153,0.003,1.127,0.115,-0.258,1.017,-0.174,-0.225,0.984,0.050,-0.339,0.777,-0.062,-0.342,0.777,988.470,732.053,0.927,919.315,731.679,0.927,1089.213,537.991,1.104,830.575,542.395,1.127,1067.420,298.491,1.017,791.921,322.403,0.984,1021.707,125.650,0.777,884.345,121.809,0.777,-0.026,-0.967,1.402,0.000,-3.179,0.000,-0.025,-0.041,0.013,-0.062,-0.932,1.068
0722_134749_0119.png,0.032,0.179,0.933,-0.036,0.178,0.931,0.152,-0.001,1.114,-0.153,0.003,1.129,0.228,-0.208,0.950,-0.132,-0.179,0.918,0.252,-0.352,0.726,-0.110,-0.355,0.713,992.684,722.215,0.933,923.593,721.696,0.931,1089.684,539.436,1.114,830.885,542.237,1.129,1187.964,332.150,0.950,823.280,355.025,0.918,1290.076,79.226,0.726,813.104,67.001,0.713,-0.030,-0.969,1.403,0.000,-1.604,0.000,-0.029,-0.020,-0.010,0.031,-1.027,1.136
0722_134749_0120.png,0.003,0.167,0.930,-0.063,0.170,0.936,0.122,-0.006,1.136,-0.178,-0.015,1.097,0.283,-0.218,1.199,-0.305,-0.252,1.144,0.180,-0.288,0.971,-0.314,-0.305,0.892,963.267,711.214,0.930,895.593,712.930,0.936,1061.964,534.904,1.136,805.565,526.885,1.097,1184.293,367.213,1.199,706.135,330.495,1.144,1136.757,257.577,0.971,624.957,214.882,0.892,-0.027,-0.963,1.401,0.000,-351.167,0.000,-0.020,-0.010,0.027,-0.083,-0.841,1.539
0722_134749_0121.png,0.033,0.155,0.927,-0.033,0.154,0.928,0.155,-0.018,1.089,-0.136,-0.007,1.137,0.082,-0.187,0.902,-0.314,-0.197,1.198,0.007,-0.350,0.720,-0.289,-0.291,0.965,993.344,698.958,0.927,926.245,697.558,0.928,1095.715,524.495,1.089,846.220,534.442,1.137,1046.120,343.171,0.902,710.474,383.262,1.198,969.371,77.187,0.720,674.974,253.551,0.965,-0.026,-0.966,1.402,0.000,-8.485,0.000,0.004,0.007,0.046,-0.169,-1.152,1.360
0722_134749_0122.png,-0.007,0.187,0.929,-0.073,0.191,0.938,0.103,0.013,1.155,-0.188,-0.002,1.089,0.187,-0.169,0.949,-0.338,-0.234,1.069,0.270,-0.348,0.751,-0.412,-0.335,0.829,953.026,731.518,0.929,886.350,734.005,0.938,1044.645,551.101,1.155,795.524,538.558,1.089,1147.104,370.325,0.949,659.528,332.167,1.069,1302.565,98.915,0.751,487.869,155.254,0.829,-0.027,-0.970,1.403,0.000,-345.763,0.000,-0.007,-0.031,-0.036,-0.026,-0.793,1.541
0722_134749_0123.png,-0.005,0.166,0.930,-0.069,0.173,0.944,0.112,0.011,1.157,-0.176,-0.003,1.098,0.088,-0.172,0.933,-0.186,-0.248,0.965,0.068,-0.351,0.716,-0.071,-0.363,0.742,954.533,709.506,0.930,890.176,714.584,0.944,1052.230,548.779,1.157,807.229,537.593,1.098,1049.392,364.648,0.933,776.293,295.301,0.965,1049.750,73.068,0.716,869.341,75.683,0.742,-0.035,-0.972,1.403,0.000,-347.066,0.000,0.007,0.002,-0.049,-0.281,-1.090,1.427
0722_134749_0124.png,0.010,0.156,0.935,-0.054,0.160,0.944,0.125,-0.005,1.147,-0.165,-0.016,1.100,0.256,-0.216,1.042,-0.280,-0.182,1.273,0.327,-0.331,0.816,-0.264,-0.275,1.026,970.385,698.445,0.935,905.234,701.432,0.944,1063.562,535.991,1.147,817.096,526.456,1.100,1193.190,343.018,1.042,750.847,403.893,1.273,1340.915,153.738,0.816,715.678,285.209,1.026,-0.040,-0.965,1.402,0.000,-349.369,0.000,0.009,0.020,-0.002,-0.114,-0.988,1.417
0722_134749_0125.png,0.005,0.154,0.921,-0.062,0.160,0.930,0.125,-0.002,1.147,-0.176,-0.014,1.091,0.052,-0.175,0.945,-0.329,-0.244,1.099,-0.021,-0.342,0.749,-0.376,-0.318,0.850,965.291,699.395,0.921,896.962,703.823,0.930,1063.825,538.677,1.147,806.898,527.475,1.091,1012.513,364.167,0.945,674.995,329.076,1.099,933.362,104.982,0.749,539.666,184.136,0.850,-0.038,-0.961,1.401,0.000,-348.094,0.000,-0.032,-0.019,0.002,-0.159,-1.240,1.436
0722_134749_0126.png,0.012,0.160,0.948,-0.055,0.161,0.949,0.124,-0.012,1.143,-0.177,-0.022,1.101,0.180,-0.260,1.208,-0.309,-0.249,1.057,0.146,-0.280,0.953,-0.336,-0.319,0.809,972.267,701.068,0.948,904.739,701.789,0.949,1063.501,529.905,1.143,807.215,521.214,1.101,1101.908,335.569,1.208,682.073,315.999,1.057,1106.037,260.902,0.953,565.490,165.300,0.809,-0.030,-0.963,1.401,0.000,-350.718,0.000,-0.025,0.036,0.022,0.147,-0.732,1.261
0722_134749_0127.png,0.012,0.181,0.939,-0.050,0.183,0.946,0.127,-0.001,1.132,-0.156,-0.005,1.115,0.235,-0.230,1.224,-0.191,-0.190,0.914,0.294,-0.305,0.976,-0.228,-0.371,0.719,972.412,722.887,0.939,909.461,723.820,0.946,1066.467,539.220,1.132,826.721,535.956,1.115,1142.224,361.666,1.224,761.116,342.658,0.914,1246.711,243.259,0.976,657.874,49.724,0.719,-0.031,-0.967,1.402,0.000,-355.384,0.000,0.045,-0.004,-0.011,-0.157,-0.750,1.175
0722_134749_0128.png,0.021,0.151,0.929,-0.044,0.151,0.930,0.136,-0.013,1.118,-0.156,-0.012,1.122,0.188,-0.243,0.995,-0.316,-0.227,1.109,0.191,-0.349,0.759,-0.388,-0.319,0.878,981.280,694.727,0.929,914.883,694.766,0.930,1075.928,529.352,1.118,827.415,530.085,1.122,1140.016,307.299,0.995,688.824,345.481,1.109,1198.782,102.302,0.759,539.793,194.774,0.878,-0.026,-0.961,1.401,0.000,0.451,0.000,0.014,-0.002,0.018,-0.007,-1.251,1.351
0722_134749_0129.png,0.031,0.147,0.938,-0.037,0.146,0.935,0.147,-0.016,1.116,-0.160,-0.012,1.130,0.187,-0.196,1.304,-0.201,-0.239,0.997,0.243,-0.252,1.056,-0.054,-0.325,0.795,991.283,689.483,0.938,922.264,688.089,0.935,1085.489,526.773,1.116,825.591,529.786,1.130,1096.434,397.316,1.304,768.750,311.809,0.997,1178.642,313.417,1.056,895.219,150.664,0.795,-0.025,-0.964,1.401,0.000,-1.641,0.000,-0.035,0.026,0.013,0.146,-1.152,1.450
0722_134749_0130.png,0.030,0.168,0.920,-0.035,0.167,0.918,0.139,-0.001,1.116,-0.152,-0.002,1.113,0.168,-0.180,0.914,-0.195,-0.243,1.001,0.197,-0.356,0.717,-0.185,-0.356,0.770,990.590,713.555,0.920,924.032,713.126,0.918,1078.058,539.142,1.116,830.324,538.649,1.113,1134.952,352.294,0.914,775.158,309.651,1.001,1220.649,67.926,0.717,731.771,100.523,0.770,-0.032,-0.967,1.402,0.000,-358.320,0.000,0.022,-0.037,0.022,0.155,-1.239,1.445
0722_134749_0131.png,0.026,0.166,0.950,-0.039,0.165,0.949,0.139,-0.008,1.129,-0.154,-0.006,1.135,0.153,-0.251,0.998,-0.122,-0.187,0.918,0.008,-0.347,0.791,-0.095,-0.365,0.706,985.548,705.822,0.950,920.597,705.435,0.949,1076.768,533.431,1.129,831.124,534.680,1.135,1105.585,300.826,0.998,833.585,345.873,0.918,969.067,123.424,0.791,832.372,49.080,0.706,-0.027,-0.964,1.402,0.000,-0.094,0.000,0.015,0.023,-0.042,0.071,-0.813,1.471
0722_134749_0132.png,0.028,0.158,0.932,-0.038,0.158,0.934,0.146,-0.010,1.118,-0.150,-0.009,1.121,0.103,-0.194,0.929,-0.282,-0.223,1.030,0.025,-0.353,0.737,-0.321,-0.333,0.800,988.311,700.851,0.932,921.500,701.078,0.934,1084.003,531.665,1.118,832.738,532.403,1.121,1065.115,341.615,0.929,700.098,334.565,1.030,992.508,84.525,0.737,578.658,144.042,0.800,-0.034,-0.966,1.402,0.000,0.447,0.000,0.004,0.009,0.020,-0.039,-1.103,1.338
0722_134749_0133.png,0.046,0.161,0.940,-0.021,0.156,0.932,0.159,-0.008,1.102,-0.143,0.001,1.142,0.106,-0.220,0.942,-0.255,-0.175,0.966,0.033,-0.349,0.722,-0.321,-0.337,0.765,1006.691,702.796,0.940,939.052,699.671,0.932,1097.116,532.806,1.102,841.281,540.630,1.142,1067.457,317.885,0.942,708.759,367.436,0.966,1003.428,80.227,0.722,560.880,121.392,0.765,-0.028,-0.972,1.403,0.000,-6.499,0.000,-0.024,0.023,-0.001,0.247,-1.137,1.338
0722_134749_0134.png,0.016,0.175,0.945,-0.050,0.177,0.950,0.128,0.003,1.149,-0.166,-0.006,1.108,0.287,-0.216,1.111,-0.191,-0.247,0.974,0.387,-0.317,0.878,-0.067,-0.353,0.756,976.166,716.101,0.945,910.342,717.531,0.950,1066.188,542.691,1.149,817.947,534.831,1.108,1205.355,355.434,1.111,773.983,299.128,0.974,1378.875,196.345,0.878,875.883,95.315,0.756,-0.039,-0.969,1.403,0.000,-350.805,0.000,0.000,0.014,-0.039,0.025,-0.697,1.604
0722_134749_0135.png,-0.009,0.165,0.924,-0.071,0.171,0.936,0.110,0.003,1.139,-0.175,-0.007,1.092,0.193,-0.242,1.076,-0.258,-0.199,1.263,0.040,-0.323,0.887,-0.306,-0.283,1.025,950.821,709.569,0.924,887.395,713.336,0.936,1051.471,542.575,1.139,807.352,533.477,1.092,1130.923,326.018,1.076,766.115,389.960,1.263,1002.469,193.654,0.887,675.780,277.047,1.025,-0.026,-0.972,1.404,0.000,-349.416,0.000,0.027,0.001,0.024,-0.305,-1.028,1.497
0722_134749_0136.png,0.031,0.162,0.926,-0.033,0.160,0.922,0.140,-0.004,1.107,-0.149,-0.002,1.119,0.217,-0.250,1.190,-0.282,-0.225,1.072,0.248,-0.304,0.944,-0.318,-0.328,0.843,991.961,706.577,0.926,926.264,705.134,0.922,1079.941,536.155,1.107,833.517,538.601,1.119,1133.760,340.416,1.190,709.426,340.026,1.072,1210.240,233.459,0.944,601.342,170.170,0.843,-0.028,-0.972,1.404,0.000,-1.334,0.000,0.027,-0.003,0.041,0.181,-1.173,1.536
0722_134749_0137.png,0.039,0.150,0.939,-0.027,0.148,0.939,0.164,-0.018,1.102,-0.132,-0.006,1.153,0.243,-0.193,1.286,-0.298,-0.197,1.043,0.342,-0.265,1.047,-0.405,-0.324,0.830,999.937,691.415,0.939,932.279,689.599,0.939,1101.884,524.353,1.102,850.713,534.642,1.153,1139.648,396.963,1.286,688.280,360.512,1.043,1270.672,299.263,1.047,495.789,168.793,0.830,-0.029,-0.961,1.401,0.000,-8.756,0.000,-0.015,0.022,-0.025,-0.143,-1.099,1.517
0722_134749_0138.png,0.063,0.165,0.938,-0.003,0.160,0.927,0.173,-0.023,1.074,-0.121,-0.006,1.150,0.213,-0.278,1.011,-0.248,-0.183,1.002,0.060,-0.322,0.810,-0.312,-0.324,0.800,1023.444,707.453,0.938,956.871,704.294,0.927,1113.566,519.258,1.074,859.928,535.091,1.150,1160.381,278.057,1.011,725.014,366.084,1.002,1030.734,161.927,0.810,588.895,154.535,0.800,-0.031,-0.963,1.401,0.000,-13.681,0.000,-0.026,0.006,0.038,0.239,-0.823,1.570
0722_134749_0139.png,0.005,0.152,0.926,-0.062,0.155,0.932,0.128,-0.009,1.130,-0.177,-0.015,1.103,0.240,-0.252,1.110,-0.254,-0.222,0.957,0.064,-0.296,0.919,-0.270,-0.340,0.732,965.348,696.324,0.926,896.513,698.551,0.932,1067.895,532.294,1.130,807.576,526.667,1.103,1165.993,324.111,1.110,707.318,319.101,0.957,1026.561,233.375,0.919,608.577,98.205,0.732,-0.025,-0.964,1.402,0.000,-353.557,0.000,-0.032,0.002,0.036,-0.129,-1.115,1.525
0722_134749_0140.png,0.013,0.166,0.933,-0.053,0.168,0.934,0.115,0.007,1.151,-0.177,-0.007,1.092,0.131,-0.228,1.014,-0.217,-0.268,1.144,-0.016,-0.334,0.819,-0.176,-0.312,0.885,973.289,709.016,0.933,905.919,711.156,0.934,1055.335,545.764,1.151,805.962,534.335,1.092,1082.764,326.001,1.014,779.488,317.490,1.144,941.612,152.315,0.819,770.896,204.408,0.885,-0.035,-0.972,1.404,0.000,-347.191,0.000,-0.005,0.007,-0.013,0.237,-1.106,1.317
0722_134749_0141.png,0.041,0.181,0.938,-0.024,0.178,0.932,0.151,-0.003,1.110,-0.145,0.002,1.128,0.179,-0.263,1.042,-0.237,-0.172,0.934,0.002,-0.326,0.860,-0.326,-0.341,0.745,1001.308,722.979,0.938,935.085,721.808,0.932,1088.978,537.841,1.110,838.039,541.321,1.128,1123.682,300.386,1.042,719.108,364.789,0.934,962.367,178.976,0.860,544.100,104.339,0.745,-0.033,-0.971,1.403,0.000,-2.364,0.000,0.004,-0.006,0.007,0.236,-0.814,1.452
0722_134749_0142.png,0.038,0.156,0.929,-0.026,0.154,0.927,0.151,-0.010,1.115,-0.136,-0.005,1.135,0.134,-0.237,0.960,-0.147,-0.230,0.974,0.023,-0.365,0.753,-0.118,-0.366,0.744,998.788,699.729,0.929,933.428,698.268,0.927,1088.724,531.823,1.115,845.756,535.744,1.135,1092.641,305.119,0.960,816.193,315.441,0.974,988.634,78.930,0.753,809.794,72.062,0.744,-0.036,-0.959,1.401,0.000,-2.838,0.000,0.030,-0.020,-0.021,0.070,-1.215,1.591
0722_134749_0143.png,0.032,0.190,0.933,-0.033,0.190,0.932,0.147,-0.001,1.111,-0.145,0.002,1.126,0.160,-0.264,1.032,-0.317,-0.180,1.020,-0.014,-0.338,0.851,-0.443,-0.333,0.845,992.181,733.930,0.933,925.932,733.653,0.932,1086.003,539.123,1.111,837.177,541.989,1.126,1107.702,296.778,1.032,664.798,371.968,1.020,944.253,161.928,0.851,460.997,165.665,0.845,-0.032,-0.967,1.402,0.000,-1.778,0.000,0.013,-0.036,-0.001,0.019,-0.694,1.548
0722_134749_0144.png,0.043,0.162,0.926,-0.024,0.161,0.927,0.171,-0.021,1.082,-0.127,-0.006,1.146,0.086,-0.251,0.977,-0.278,-0.207,1.259,0.004,-0.338,0.750,-0.434,-0.263,1.060,1004.589,706.640,0.926,935.318,705.126,0.927,1110.736,521.517,1.082,855.017,534.883,1.146,1044.118,295.712,0.977,750.418,383.490,1.259,965.146,110.838,0.750,570.373,304.516,1.060,-0.032,-0.959,1.401,0.000,-11.378,0.000,-0.028,-0.017,0.027,-0.225,-1.013,1.433
0722_134749_0145.png,0.015,0.154,0.938,-0.050,0.157,0.946,0.143,-0.012,1.129,-0.154,-0.012,1.132,0.208,-0.267,1.053,-0.185,-0.246,0.988,0.042,-0.329,0.851,-0.165,-0.358,0.741,975.464,695.982,0.938,909.774,697.669,0.946,1080.269,529.671,1.129,830.624,530.254,1.132,1147.846,298.756,1.053,782.426,303.151,0.988,1006.974,171.886,0.851,748.634,80.551,0.741,-0.031,-0.958,1.400,0.000,-359.400,0.000,0.000,0.008,-0.032,-0.318,-1.069,1.352
0722_134749_0146.png,0.045,0.181,0.943,-0.022,0.179,0.938,0.164,-0.010,1.100,-0.135,0.001,1.149,0.153,-0.278,1.159,-0.242,-0.212,1.007,0.114,-0.311,0.893,-0.289,-0.343,0.775,1005.077,722.549,0.943,937.308,721.138,0.938,1101.642,531.161,1.100,847.953,541.017,1.149,1085.211,311.603,1.159,731.379,339.587,1.007,1081.612,209.295,0.893,605.262,118.539,0.775,-0.028,-0.963,1.401,0.000,-8.524,0.000,-0.022,-0.014,-0.028,0.035,-0.808,1.163
0722_134749_0147.png,0.009,0.161,0.924,-0.056,0.165,0.933,0.128,-0.004,1.132,-0.164,-0.013,1.094,0.186,-0.230,1.014,-0.298,-0.238,1.048,0.103,-0.335,0.800,-0.235,-0.328,0.822,968.753,705.587,0.924,903.145,708.332,0.933,1067.453,536.674,1.132,817.580,529.056,1.094,1134.073,324.757,1.014,689.859,324.183,1.048,1082.286,142.030,0.800,687.899,160.348,0.822,-0.036,-0.969,1.403,0.000,-351.302,0.000,0.009,0.002,0.048,-0.222,-1.123,1.188
0722_134749_0148.png,0.005,0.183,0.932,-0.059,0.185,0.934,0.104,0.009,1.148,-0.179,-0.004,1.089,0.204,-0.168,0.955,-0.327,-0.215,1.179,0.303,-0.341,0.769,-0.229,-0.313,0.952,965.140,727.017,0.932,899.785,728.513,0.934,1046.147,547.563,1.148,803.946,536.249,1.089,1163.096,372.970,0.955,696.221,366.795,1.179,1335.138,118.420,0.769,731.037,227.191,0.952,-0.029,-0.970,1.403,0.000,-346.858,0.000,0.026,-0.020,-0.010,0.202,-0.819,1.467
0722_134749_0149.png,0.029,0.171,0.931,-0.037,0.170,0.928,0.142,0.001,1.125,-0.159,0.001,1.124,0.143,-0.272,1.073,-0.234,-0.210,0.958,0.105,-0.338,0.813,-0.238,-0.358,0.731,990.009,714.996,0.931,921.702,714.448,0.928,1080.358,540.845,1.125,825.548,540.683,1.124,1086.846,299.034,1.073,728.188,331.640,0.958,1083.324,144.461,0.813,650.213,73.709,0.731,-0.030,-0.965,1.402,0.000,-358.664,0.000,-0.015,-0.027,-0.028,0.156,-1.064,1.581
0722_134749_0150.png,0.006,0.152,0.931,-0.060,0.155,0.939,0.132,-0.008,1.129,-0.169,-0.011,1.118,0.188,-0.197,1.311,-0.217,-0.262,1.035,0.269,-0.258,1.069,-0.054,-0.324,0.836,966.066,695.168,0.931,898.789,697.328,0.939,1071.414,533.048,1.129,815.940,530.718,1.118,1096.504,397.223,1.311,760.131,298.864,1.035,1199.766,310.472,1.069,898.528,171.597,0.836,-0.025,-0.964,1.402,0.000,-356.579,0.000,-0.017,0.011,0.002,-0.229,-1.057,1.673
0722_134749_0151.png,0.039,0.175,0.926,-0.028,0.174,0.928,0.168,-0.015,1.085,-0.131,-0.001,1.146,0.256,-0.275,1.057,-0.184,-0.175,0.945,0.272,-0.332,0.801,-0.234,-0.345,0.748,1000.444,719.496,0.926,931.083,718.411,0.928,1107.552,526.912,1.085,851.524,539.236,1.146,1190.660,292.216,1.057,774.355,363.581,0.945,1282.825,146.230,0.801,662.232,101.612,0.748,-0.030,-0.960,1.401,0.000,-10.644,0.000,-0.029,-0.034,0.010,-0.237,-0.880,1.503
0722_134749_0152.png,0.047,0.183,0.930,-0.016,0.181,0.929,0.166,-0.006,1.084,-0.111,0.008,1.145,0.073,-0.188,0.903,-0.266,-0.212,1.159,-0.016,-0.366,0.726,-0.318,-0.318,0.925,1008.236,727.233,0.930,943.672,725.799,0.929,1105.664,534.443,1.084,867.445,546.342,1.145,1036.463,342.206,0.903,741.328,366.395,1.159,938.434,60.489,0.726,633.651,213.173,0.925,-0.036,-0.971,1.403,0.000,-11.496,0.000,0.042,-0.019,0.008,-0.153,-0.831,1.456
0722_134749_0153.png,0.004,0.173,0.923,-0.061,0.178,0.935,0.131,0.002,1.140,-0.169,-0.006,1.104,0.223,-0.231,1.266,-0.234,-0.249,0.987,0.275,-0.284,1.008,-0.126,-0.350,0.763,964.602,718.084,0.923,897.659,721.286,0.935,1069.192,541.770,1.140,813.971,534.562,1.104,1127.278,366.503,1.266,734.399,299.827,0.987,1219.391,271.608,1.008,803.516,103.664,0.763,-0.036,-0.962,1.401,0.000,-351.683,0.000,-0.020,-0.039,-0.018,-0.309,-1.001,1.477
0722_134749_0154.png,0.004,0.160,0.943,-0.062,0.162,0.947,0.119,-0.005,1.139,-0.177,-0.012,1.106,0.239,-0.226,1.052,-0.315,-0.183,1.250,0.277,-0.323,0.814,-0.358,-0.272,1.009,963.636,701.503,0.943,897.551,702.997,0.947,1059.430,536.161,1.139,807.953,529.557,1.106,1175.781,336.183,1.052,720.157,401.041,1.250,1283.331,161.966,0.814,622.192,283.222,1.009,-0.024,-0.971,1.403,0.000,-352.331,0.000,-0.003,0.041,0.010,-0.030,-0.820,1.532
0722_134749_0155.png,0.003,0.169,0.943,-0.065,0.171,0.945,0.111,-0.002,1.156,-0.189,-0.016,1.097,0.278,-0.209,1.223,-0.244,-0.260,1.199,0.242,-0.288,0.967,-0.232,-0.296,0.932,962.692,710.900,0.943,894.567,712.383,0.945,1051.266,538.222,1.156,796.509,526.398,1.097,1175.972,377.771,1.223,766.712,333.965,1.199,1198.283,256.235,0.967,723.068,238.018,0.932,-0.027,-0.961,1.401,0.000,-347.428,0.000,-0.029,0.002,-0.030,0.168,-0.780,1.434
0722_134749_0156.png,0.030,0.195,0.934,-0.037,0.195,0.934,0.149,0.002,1.113,-0.151,0.005,1.127,0.265,-0.249,1.089,-0.317,-0.213,1.169,0.177,-0.330,0.849,-0.255,-0.310,0.928,990.335,738.300,0.934,922.633,738.114,0.934,1087.230,541.790,1.113,832.907,544.547,1.127,1191.046,322.330,1.089,701.832,366.928,1.169,1158.415,169.982,0.849,699.103,221.988,0.928,-0.030,-0.968,1.403,0.000,-1.639,0.000,-0.010,-0.039,-0.014,-0.012,-0.703,1.383
0722_134749_0157.png,0.007,0.154,0.937,-0.060,0.159,0.947,0.130,0.000,1.147,-0.171,-0.010,1.106,0.173,-0.207,0.971,-0.200,-0.263,1.020,0.141,-0.344,0.742,-0.056,-0.328,0.804,966.919,696.129,0.937,900.152,699.534,0.947,1067.945,539.636,1.147,813.182,531.652,1.106,1129.038,337.691,0.971,773.865,295.166,1.020,1140.917,99.750,0.742,894.304,152.339,0.804,-0.037,-0.971,1.403,0.000,-350.995,0.000,-0.023,0.036,-0.016,-0.195,-1.002,1.580
0722_134749_0158.png,0.044,0.181,0.936,-0.021,0.177,0.929,0.157,-0.004,1.099,-0.132,0.007,1.147,0.253,-0.242,1.203,-0.155,-0.181,0.938,0.128,-0.305,0.972,-0.180,-0.364,0.736,1004.438,723.807,0.936,938.546,721.373,0.929,1096.136,536.250,1.099,850.694,545.548,1.147,1159.592,348.897,1.203,802.826,356.890,0.938,1085.172,241.306,0.972,727.194,69.443,0.736,-0.027,-0.966,1.402,0.000,-8.488,0.000,0.012,-0.025,-0.031,0.131,-1.001,1.222
0722_134749_0159.png,0.013,0.174,0.933,-0.053,0.175,0.933,0.122,-0.003,1.132,-0.172,-0.008,1.108,0.053,-0.179,0.932,-0.317,-0.236,1.145,-0.014,-0.352,0.737,-0.185,-0.311,0.931,972.977,717.583,0.933,906.425,718.064,0.933,1062.192,537.821,1.132,812.457,533.114,1.108,1013.929,356.826,0.932,696.839,343.683,1.145,941.766,85.381,0.737,771.378,222.167,0.931,-0.024,-0.964,1.402,0.000,-354.106,0.000,0.008,-0.018,0.004,0.131,-0.807,1.649
0722_134749_0160.png,0.027,0.180,0.948,-0.038,0.180,0.950,0.146,-0.003,1.121,-0.145,0.001,1.139,0.181,-0.191,1.310,-0.103,-0.182,0.920,0.233,-0.274,1.055,-0.065,-0.361,0.707,987.180,720.157,0.948,922.358,720.049,0.950,1084.172,537.292,1.121,838.925,540.941,1.139,1091.193,401.509,1.310,854.037,352.140,0.920,1170.189,292.649,1.055,872.471,53.791,0.707,-0.029,-0.968,1.403,0.000,-2.612,0.000,0.016,0.010,-0.044,-0.113,-0.722,1.280
0722_134749_0161.png,0.059,0.167,0.946,-0.005,0.162,0.936,0.169,-0.014,1.086,-0.115,0.001,1.153,0.218,-0.265,1.012,-0.240,-0.234,1.133,0.110,-0.343,0.785,-0.249,-0.315,0.883,1019.068,708.176,0.946,954.764,704.921,0.936,1107.614,527.356,1.086,864.785,540.765,1.153,1164.813,290.561,1.012,758.836,343.937,1.133,1093.260,124.876,0.785,692.293,200.785,0.883,-0.032,-0.971,1.403,0.000,-12.411,0.000,0.016,0.029,0.000,0.196,-0.949,1.161
0722_134749_0162.png,0.004,0.176,0.928,-0.060,0.178,0.932,0.103,0.002,1.149,-0.179,-0.012,1.085,0.108,-0.226,1.003,-0.319,-0.199,1.230,0.006,-0.353,0.798,-0.336,-0.303,0.989,964.319,719.798,0.928,898.901,721.684,0.932,1044.947,542.009,1.149,803.404,529.276,1.085,1062.050,325.464,1.003,713.472,386.028,1.230,967.369,119.379,0.798,636.799,248.875,0.989,-0.030,-0.963,1.401,0.000,-345.727,0.000,0.027,-0.028,0.001,0.180,-0.879,1.450
0722_134749_0163.png,0.024,0.172,0.931,-0.044,0.175,0.938,0.156,-0.006,1.118,-0.151,-0.003,1.130,0.177,-0.196,1.319,-0.240,-0.254,1.053,0.243,-0.262,1.067,-0.063,-0.321,0.860,984.120,716.176,0.931,915.363,717.132,0.938,1092.746,534.752,1.118,832.871,537.100,1.130,1087.442,398.720,1.319,743.692,310.692,1.053,1176.206,306.608,1.067,890.858,184.787,0.860,-0.035,-0.961,1.401,0.000,-1.095,0.000,-0.035,-0.024,-0.019,-0.316,-0.952,1.357
0722_134749_0164.png,0.005,0.159,0.939,-0.062,0.163,0.946,0.125,0.000,1.150,-0.178,-0.011,1.102,0.168,-0.213,0.984,-0.308,-0.209,1.222,0.107,-0.339,0.755,-0.372,-0.276,0.971,965.474,701.415,0.939,897.673,704.088,0.946,1063.065,540.154,1.150,806.149,530.734,1.102,1122.139,334.230,0.984,720.539,377.306,1.222,1094.214,113.650,0.755,595.271,269.893,0.971,-0.033,-0.970,1.403,0.000,-349.680,0.000,-0.033,0.031,-0.016,-0.074,-0.957,1.421
0722_134749_0165.png,0.020,0.165,0.945,-0.046,0.166,0.945,0.128,-0.001,1.147,-0.167,-0.011,1.105,0.074,-0.189,0.953,-0.325,-0.216,1.162,-0.016,-0.346,0.754,-0.200,-0.297,0.940,979.990,705.879,0.945,913.537,707.032,0.945,1065.768,539.226,1.147,816.012,530.909,1.105,1033.564,351.325,0.953,693.755,362.815,1.162,939.319,103.185,0.754,757.433,239.388,0.940,-0.038,-0.969,1.403,0.000,-350.533,0.000,-0.004,0.029,-0.015,0.176,-0.873,1.355
0722_134749_0166.png,0.050,0.175,0.946,-0.014,0.171,0.938,0.162,-0.002,1.103,-0.125,0.009,1.150,0.114,-0.230,0.950,-0.265,-0.188,1.260,-0.004,-0.363,0.743,-0.342,-0.284,1.016,1010.115,715.590,0.946,945.588,712.953,0.938,1099.258,538.173,1.103,856.802,547.271,1.150,1074.177,310.085,0.950,759.816,398.147,1.260,955.055,75.571,0.743,639.708,273.805,1.016,-0.032,-0.975,1.404,0.000,-8.486,0.000,0.022,0.020,-0.040,0.144,-0.875,1.541
0722_134749_0167.png,0.048,0.165,0.929,-0.020,0.162,0.928,0.174,-0.011,1.093,-0.130,0.002,1.146,0.231,-0.269,1.027,-0.282,-0.212,1.065,0.114,-0.329,0.797,-0.241,-0.321,0.827,1009.475,708.471,0.929,939.473,706.502,0.928,1111.520,530.780,1.093,852.022,541.308,1.146,1173.572,290.732,1.027,708.684,351.035,1.065,1096.103,146.806,0.797,682.601,171.476,0.827,-0.036,-0.966,1.402,0.000,-8.956,0.000,-0.041,-0.009,-0.002,-0.080,-1.037,1.637
0722_134749_0168.png,0.054,0.177,0.932,-0.011,0.174,0.930,0.176,-0.002,1.091,-0.108,0.013,1.156,0.242,-0.211,0.917,-0.119,-0.174,0.935,0.259,-0.376,0.697,-0.135,-0.357,0.721,1014.803,720.149,0.932,948.646,717.560,0.930,1113.586,537.875,1.091,871.349,550.364,1.156,1211.411,320.651,0.917,838.479,363.378,0.935,1313.798,27.328,0.697,782.305,69.612,0.721,-0.039,-0.971,1.403,0.000,-12.131,0.000,0.018,-0.014,-0.044,-0.151,-1.072,1.369
0722_134749_0169.png,0.013,0.177,0.931,-0.052,0.179,0.938,0.128,-0.001,1.137,-0.165,-0.009,1.101,0.092,-0.180,0.930,-0.130,-0.193,0.904,0.056,-0.355,0.729,-0.077,-0.363,0.708,973.533,720.294,0.931,907.391,721.762,0.938,1067.415,539.052,1.137,817.734,531.798,1.101,1053.962,356.034,0.930,823.385,336.911,0.904,1033.156,77.563,0.729,856.735,52.723,0.708,-0.037,-0.964,1.402,0.000,-351.572,0.000,0.005,-0.018,0.006,-0.073,-0.826,1.347
0722_134749_0170.png,0.039,0.157,0.928,-0.029,0.155,0.928,0.166,-0.014,1.085,-0.135,0.000,1.145,0.253,-0.258,1.014,-0.301,-0.192,1.055,0.252,-0.330,0.766,-0.401,-0.309,0.848,1000.027,701.276,0.928,930.341,699.210,0.928,1105.475,527.482,1.085,847.611,539.592,1.145,1197.432,298.052,1.014,688.505,367.156,1.055,1273.170,130.362,0.766,509.846,193.077,0.848,-0.027,-0.969,1.403,0.000,-10.379,0.000,-0.036,0.009,0.023,-0.175,-1.224,1.279
0722_134749_0171.png,0.052,0.170,0.937,-0.015,0.167,0.930,0.169,-0.006,1.092,-0.133,0.006,1.143,0.165,-0.266,1.035,-0.117,-0.171,0.935,-0.016,-0.313,0.848,-0.097,-0.341,0.732,1013.274,712.962,0.937,944.789,710.393,0.930,1107.192,534.621,1.092,849.054,544.645,1.143,1111.218,295.059,1.035,841.539,366.394,0.935,942.220,189.041,0.848,833.436,97.113,0.732,-0.033,-0.976,1.404,0.000,-8.678,0.000,-0.033,0.017,0.012,0.138,-0.922,1.604
0722_134749_0172.png,-0.019,0.146,0.941,-0.082,0.153,0.956,0.102,-0.011,1.155,-0.185,-0.024,1.096,0.191,-0.196,1.314,-0.242,-0.276,1.041,0.237,-0.260,1.064,-0.058,-0.321,0.860,941.115,687.562,0.941,878.622,691.968,0.956,1044.292,531.025,1.155,799.283,518.914,1.096,1097.990,398.083,1.314,738.891,288.068,1.041,1172.239,307.568,1.064,895.799,185.600,0.860,-0.025,-0.962,1.401,0.000,-347.070,0.000,0.011,0.044,0.000,-0.364,-0.950,1.334
0722_134749_0173.png,0.021,0.166,0.931,-0.042,0.168,0.936,0.142,-0.012,1.112,-0.144,-0.010,1.122,0.114,-0.249,0.996,-0.118,-0.187,0.923,-0.016,-0.346,0.799,-0.093,-0.359,0.729,981.402,709.666,0.931,916.987,710.276,0.936,1081.397,529.335,1.112,837.568,531.524,1.122,1068.505,301.955,0.996,838.027,347.692,0.923,940.497,127.691,0.799,838.686,71.331,0.729,-0.032,-0.963,1.401,0.000,-1.027,0.000,0.035,-0.006,0.030,-0.252,-0.981,1.151
0722_134749_0174.png,0.026,0.166,0.931,-0.038,0.167,0.935,0.149,-0.016,1.109,-0.142,-0.011,1.129,0.145,-0.244,0.970,-0.142,-0.239,0.989,0.023,-0.352,0.768,-0.093,-0.351,0.760,986.715,710.039,0.931,920.992,710.308,0.935,1088.180,526.463,1.109,840.769,530.562,1.129,1102.139,300.384,0.970,823.233,309.678,0.989,988.392,104.555,0.768,843.165,100.507,0.760,-0.033,-0.957,1.400,0.000,-2.851,0.000,0.017,-0.019,0.018,-0.244,-0.978,1.158
0722_134749_0175.png,0.014,0.163,0.934,-0.054,0.165,0.937,0.125,-0.003,1.151,-0.177,-0.015,1.096,0.172,-0.253,1.050,-0.161,-0.245,0.948,-0.014,-0.317,0.864,-0.118,-0.356,0.709,973.972,705.790,0.934,904.954,707.818,0.937,1063.177,537.504,1.151,806.163,526.559,1.096,1115.973,310.913,1.050,798.279,293.808,0.948,944.736,190.772,0.864,801.636,62.719,0.709,-0.037,-0.960,1.401,0.000,-348.385,0.000,-0.035,-0.007,-0.014,0.125,-0.995,1.370
0722_134749_0176.png,0.052,0.167,0.933,-0.011,0.160,0.923,0.164,-0.012,1.076,-0.115,0.005,1.152,0.245,-0.259,1.013,-0.174,-0.225,1.030,0.250,-0.349,0.769,-0.057,-0.337,0.829,1013.491,709.817,0.933,948.825,705.273,0.923,1104.625,529.062,1.076,865.148,544.333,1.152,1189.876,296.576,1.013,799.005,331.961,1.030,1268.602,108.314,0.769,894.246,152.683,0.829,-0.026,-0.972,1.403,0.000,-14.605,0.000,0.025,0.006,0.012,0.133,-1.171,1.219
0722_134749_0177.png,0.022,0.162,0.925,-0.046,0.164,0.928,0.147,-0.003,1.116,-0.160,-0.003,1.116,0.222,-0.181,0.931,-0.215,-0.241,1.010,0.254,-0.343,0.732,-0.062,-0.323,0.812,982.800,707.074,0.925,912.966,707.859,0.928,1085.505,537.634,1.116,823.448,537.721,1.116,1187.100,355.331,0.931,757.897,312.934,1.010,1290.609,93.923,0.732,887.151,162.357,0.812,-0.031,-0.971,1.403,0.000,-358.911,0.000,-0.036,-0.005,0.025,-0.121,-1.235,1.270
0722_134749_0178.png,0.032,0.175,0.932,-0.033,0.174,0.933,0.155,-0.004,1.100,-0.130,0.008,1.148,0.183,-0.183,1.307,-0.096,-0.179,0.934,0.270,-0.279,1.071,-0.067,-0.364,0.727,992.191,718.300,0.932,926.654,716.928,0.933,1093.728,536.917,1.100,851.970,546.298,1.148,1093.273,406.471,1.307,861.886,357.454,0.934,1199.934,292.076,1.071,872.458,64.218,0.727,-0.026,-0.968,1.402,0.000,-8.750,0.000,0.025,-0.017,-0.036,-0.206,-1.024,1.428
0722_134749_0179.png,0.055,0.156,0.941,-0.012,0.152,0.936,0.175,-0.015,1.088,-0.121,0.000,1.156,0.195,-0.261,0.985,-0.122,-0.210,0.984,0.060,-0.334,0.769,-0.052,-0.337,0.761,1016.062,697.364,0.941,948.315,694.085,0.936,1112.816,526.659,1.088,860.163,540.270,1.156,1148.199,287.590,0.985,841.941,337.335,0.984,1034.422,126.971,0.769,895.595,119.329,0.761,-0.033,-0.971,1.403,0.000,-12.056,0.000,-0.024,0.039,-0.006,0.012,-1.001,1.582
0722_134749_0180.png,0.039,0.174,0.936,-0.025,0.172,0.934,0.160,-0.014,1.090,-0.125,0.000,1.150,0.224,-0.208,1.271,-0.148,-0.219,0.988,0.197,-0.288,1.019,-0.127,-0.356,0.761,999.827,716.979,0.936,934.125,715.430,0.934,1099.307,528.031,1.090,856.733,540.128,1.150,1127.567,384.267,1.271,817.346,329.107,0.988,1143.619,271.138,1.019,801.090,95.405,0.761,-0.026,-0.963,1.401,0.000,-11.108,0.000,0.019,-0.012,-0.010,-0.145,-0.864,1.366
0722_134749_0181.png,0.057,0.158,0.938,-0.006,0.153,0.930,0.168,-0.018,1.087,-0.115,-0.005,1.144,0.248,-0.268,1.073,-0.206,-0.241,1.073,0.248,-0.330,0.825,-0.191,-0.328,0.833,1018.153,700.006,0.938,953.879,696.811,0.930,1106.850,524.495,1.087,864.757,536.197,1.144,1180.110,302.331,1.073,777.844,326.587,1.073,1246.031,159.627,0.825,742.349,165.561,0.833,-0.038,-0.968,1.403,0.000,-10.570,0.000,0.028,0.025,0.030,0.151,-1.053,1.353
0722_134749_0182.png,0.013,0.158,0.934,-0.052,0.160,0.941,0.141,-0.005,1.117,-0.158,-0.003,1.125,0.226,-0.213,1.253,-0.223,-0.176,0.927,0.338,-0.269,1.024,-0.286,-0.345,0.734,973.622,700.855,0.934,907.051,701.998,0.941,1079.756,535.665,1.117,826.638,537.268,1.125,1131.829,378.061,1.253,731.203,359.141,0.927,1274.213,290.604,1.024,590.014,93.860,0.734,-0.026,-0.974,1.404,0.000,-0.421,0.000,-0.005,0.031,0.015,-0.260,-0.974,1.648
0722_134749_0183.png,0.040,0.170,0.943,-0.026,0.168,0.937,0.149,-0.003,1.123,-0.148,-0.001,1.133,0.249,-0.247,1.186,-0.191,-0.245,1.010,0.135,-0.300,0.946,-0.081,-0.348,0.785,1000.027,711.657,0.943,933.691,710.233,0.937,1086.353,537.256,1.123,835.703,539.262,1.133,1159.582,342.012,1.186,780.621,309.419,1.010,1095.600,238.012,0.946,861.903,118.624,0.785,-0.033,-0.967,1.402,0.000,-0.858,0.000,-0.002,0.003,-0.034,0.258,-0.963,1.412
0722_134749_0184.png,0.048,0.166,0.932,-0.019,0.163,0.931,0.173,-0.011,1.077,-0.118,0.007,1.155,0.163,-0.277,1.095,-0.301,-0.193,1.155,0.125,-0.317,0.839,-0.397,-0.292,0.932,1008.697,709.115,0.932,940.456,706.516,0.931,1113.009,530.269,1.077,862.618,545.779,1.155,1101.230,299.814,1.095,712.579,381.549,1.155,1101.952,181.016,0.839,554.781,242.273,0.932,-0.029,-0.974,1.404,0.000,-14.272,0.000,-0.019,0.018,0.004,-0.230,-1.121,1.188
0722_134749_0185.png,0.026,0.178,0.927,-0.042,0.179,0.932,0.156,-0.006,1.104,-0.147,0.001,1.133,0.284,-0.245,1.164,-0.167,-0.177,0.926,0.182,-0.302,0.927,-0.184,-0.350,0.724,986.271,722.915,0.927,917.442,723.015,0.932,1094.447,535.039,1.104,836.353,540.796,1.133,1192.028,339.993,1.164,788.786,358.040,0.926,1147.159,230.321,0.927,718.843,79.710,0.724,-0.029,-0.965,1.402,0.000,-4.465,0.000,-0.026,-0.029,0.004,-0.261,-0.834,1.613
0722_134749_0186.png,-0.004,0.191,0.927,-0.069,0.193,0.933,0.110,0.008,1.141,-0.185,-0.003,1.092,0.106,-0.176,0.932,-0.285,-0.199,1.267,0.101,-0.355,0.729,-0.257,-0.286,1.019,956.364,735.751,0.927,889.178,737.094,0.933,1051.497,546.471,1.141,798.657,537.053,1.092,1067.982,360.879,0.932,746.337,390.501,1.267,1092.103,77.510,0.729,719.786,273.040,1.019,-0.022,-0.967,1.402,0.000,-349.254,0.000,-0.008,-0.042,0.000,-0.036,-0.780,1.312
0722_134749_0187.png,0.046,0.158,0.933,-0.018,0.154,0.926,0.156,-0.017,1.093,-0.134,-0.007,1.134,0.218,-0.191,0.908,-0.299,-0.165,1.003,0.250,-0.355,0.716,-0.445,-0.317,0.858,1007.325,700.795,0.933,941.625,698.040,0.926,1096.048,525.624,1.093,847.677,534.089,1.134,1188.498,339.588,0.908,676.175,383.782,1.003,1291.902,68.692,0.716,466.928,188.440,0.858,-0.031,-0.967,1.402,0.000,-7.117,0.000,0.012,0.011,0.046,0.211,-1.036,1.553
0722_134749_0188.png,0.040,0.184,0.932,-0.025,0.181,0.926,0.153,-0.007,1.098,-0.139,0.001,1.134,0.120,-0.258,0.999,-0.283,-0.228,1.101,-0.017,-0.347,0.795,-0.318,-0.326,0.862,1000.748,727.671,0.932,934.203,726.324,0.926,1092.524,533.924,1.098,843.039,540.979,1.134,1074.287,294.403,0.999,715.353,342.814,1.101,939.683,125.440,0.795,609.570,180.029,0.862,-0.028,-0.964,1.402,0.000,-5.949,0.000,0.007,-0.036,0.011,0.134,-0.798,1.542
0722_134749_0189.png,0.011,0.178,0.928,-0.054,0.179,0.929,0.115,0.009,1.140,-0.176,-0.001,1.097,0.070,-0.175,0.938,-0.182,-0.272,1.058,0.027,-0.356,0.743,-0.127,-0.340,0.809,970.920,721.947,0.928,904.190,723.296,0.929,1056.002,547.295,1.140,807.753,539.077,1.097,1031.064,362.197,0.938,796.706,295.701,1.058,994.404,84.663,0.743,811.041,140.272,0.809,-0.028,-0.973,1.404,0.000,-350.261,0.000,0.010,-0.018,-0.001,0.185,-1.045,1.298
0722_134749_0190.png,0.037,0.160,0.946,-0.028,0.157,0.944,0.155,-0.010,1.107,-0.136,-0.001,1.147,0.268,-0.232,1.184,-0.266,-0.227,1.185,0.324,-0.297,0.931,-0.301,-0.300,0.930,997.403,700.377,0.946,931.843,698.726,0.944,1093.072,531.442,1.107,847.041,539.367,1.147,1175.351,353.540,1.184,746.391,358.248,1.185,1290.493,237.043,0.931,652.586,233.077,0.930,-0.027,-0.971,1.403,0.000,-6.857,0.000,0.010,0.042,-0.020,-0.023,-0.975,1.390
0722_134749_0191.png,0.031,0.165,0.937,-0.034,0.164,0.936,0.150,-0.012,1.109,-0.142,-0.004,1.141,0.297,-0.235,1.066,-0.107,-0.183,0.929,0.374,-0.332,0.830,-0.074,-0.358,0.724,991.652,707.755,0.937,925.441,706.637,0.936,1088.509,529.925,1.109,841.282,536.308,1.141,1225.176,330.051,1.066,850.822,352.541,0.929,1389.000,159.206,0.830,863.380,69.584,0.724,-0.026,-0.961,1.401,0.000,-5.208,0.000,0.010,-0.005,-0.016,-0.049,-1.082,1.125
0722_134749_0192.png,0.009,0.172,0.920,-0.057,0.174,0.924,0.123,0.006,1.130,-0.174,-0.001,1.096,0.064,-0.171,0.936,-0.154,-0.182,0.903,0.004,-0.343,0.747,-0.132,-0.358,0.715,968.888,717.563,0.920,900.881,719.484,0.924,1063.733,545.415,1.130,809.213,538.813,1.096,1025.255,366.318,0.936,797.724,347.799,0.903,965.384,103.475,0.747,783.994,62.950,0.715,-0.028,-0.974,1.404,0.000,-352.139,0.000,-0.007,-0.020,0.030,-0.015,-1.159,1.349
0722_134749_0193.png,0.007,0.174,0.934,-0.056,0.176,0.939,0.121,0.000,1.129,-0.163,-0.003,1.117,0.165,-0.266,1.164,-0.178,-0.243,0.989,0.134,-0.324,0.907,-0.082,-0.363,0.774,966.666,717.519,0.934,903.181,718.598,0.939,1061.663,539.910,1.129,821.478,537.562,1.117,1094.509,322.703,1.164,789.246,306.182,0.989,1100.765,199.933,0.907,859.721,94.551,0.774,-0.023,-0.968,1.403,0.000,-356.340,0.000,0.045,-0.006,-0.008,-0.125,-0.869,1.469
0722_134749_0194.png,0.052,0.174,0.939,-0.014,0.170,0.930,0.167,-0.016,1.082,-0.125,0.000,1.152,0.215,-0.205,1.270,-0.110,-0.175,0.941,0.382,-0.263,1.073,-0.094,-0.346,0.736,1012.652,715.940,0.939,945.850,713.377,0.930,1106.586,526.029,1.082,857.026,540.375,1.152,1120.584,386.578,1.270,849.010,362.947,0.941,1298.364,306.962,1.073,838.016,92.580,0.736,-0.026,-0.965,1.402,0.000,-12.883,0.000,-0.012,-0.004,0.004,0.101,-0.791,1.565
0722_134749_0195.png,0.032,0.149,0.934,-0.035,0.147,0.932,0.149,-0.007,1.118,-0.152,-0.004,1.130,0.242,-0.254,1.073,-0.293,-0.231,1.097,0.098,-0.316,0.860,-0.173,-0.311,0.875,992.785,691.279,0.934,924.785,690.286,0.932,1086.834,534.117,1.118,832.218,536.580,1.130,1174.699,314.906,1.073,706.290,339.972,1.097,1068.953,190.966,0.860,772.193,202.040,0.875,-0.031,-0.970,1.403,0.000,-1.249,0.000,-0.014,0.024,-0.003,0.071,-1.261,1.552
0722_134749_0196.png,0.042,0.175,0.940,-0.023,0.173,0.935,0.153,-0.002,1.116,-0.140,0.002,1.134,0.283,-0.219,1.213,-0.235,-0.246,1.189,0.242,-0.302,0.960,-0.211,-0.308,0.929,1002.006,717.293,0.940,936.143,716.065,0.935,1090.526,538.105,1.116,842.422,541.612,1.134,1181.528,368.157,1.213,772.285,343.001,1.189,1199.416,241.160,0.960,744.009,224.259,0.929,-0.036,-0.969,1.403,0.000,-2.437,0.000,0.010,-0.003,-0.024,0.161,-0.873,1.548
0722_134749_0197.png,-0.008,0.161,0.945,-0.072,0.165,0.954,0.104,-0.003,1.154,-0.183,-0.015,1.100,0.259,-0.209,1.073,-0.301,-0.180,1.266,0.316,-0.327,0.839,-0.395,-0.272,1.035,952.445,702.112,0.945,888.444,704.681,0.954,1046.063,537.824,1.154,802.086,526.976,1.100,1189.504,355.078,1.073,734.199,404.577,1.266,1317.916,169.403,0.839,597.325,289.995,1.035,-0.026,-0.967,1.402,0.000,-347.893,0.000,0.015,0.038,-0.020,-0.101,-0.859,1.198
0722_134749_0198.png,-0.003,0.159,0.924,-0.068,0.163,0.931,0.113,-0.004,1.143,-0.182,-0.016,1.088,0.236,-0.243,1.123,-0.180,-0.270,1.003,0.242,-0.311,0.874,-0.056,-0.336,0.786,957.234,703.268,0.924,890.083,706.567,0.931,1054.068,537.081,1.143,800.820,525.920,1.088,1160.151,334.319,1.123,788.881,283.910,1.003,1223.650,201.623,0.874,892.338,133.471,0.786,-0.028,-0.963,1.401,0.000,-348.038,0.000,-0.013,-0.011,0.025,-0.098,-1.023,1.618
0722_134749_0199.png,0.033,0.181,0.936,-0.033,0.181,0.934,0.149,-0.007,1.101,-0.147,-0.002,1.124,0.115,-0.231,0.971,-0.291,-0.184,1.264,-0.019,-0.335,0.782,-0.385,-0.270,1.046,993.279,724.299,0.936,926.294,723.886,0.934,1088.893,533.899,1.101,835.335,538.650,1.124,1072.390,314.171,0.971,741.221,401.816,1.264,937.332,132.065,0.782,609.511,294.600,1.046,-0.028,-0.973,1.404,0.000,-3.531,0.000,-0.002,0.002,0.046,0.038,-0.676,1.426
0722_134749_0200.png,0.002,0.156,0.940,-0.061,0.159,0.947,0.120,-0.010,1.138,-0.168,-0.014,1.119,0.097,-0.210,0.950,-0.314,-0.231,1.061,0.023,-0.363,0.741,-0.305,-0.339,0.816,962.321,697.692,0.940,898.437,699.557,0.947,1060.144,531.871,1.138,816.935,528.127,1.119,1056.833,329.403,0.950,678.419,332.973,1.061,989.124,74.961,0.741,604.698,144.900,0.816,-0.023,-0.961,1.401,0.000,-355.063,0.000,0.027,0.018,-0.019,-0.166,-0.865,1.689
0722_134749_0201.png,0.017,0.160,0.939,-0.049,0.163,0.945,0.138,-0.002,1.142,-0.163,-0.008,1.118,0.186,-0.253,1.039,-0.278,-0.202,1.262,0.023,-0.329,0.835,-0.406,-0.270,1.033,977.601,702.078,0.939,910.460,704.115,0.945,1075.149,538.161,1.142,821.612,533.392,1.118,1130.078,308.169,1.039,750.220,387.714,1.262,986.745,165.944,0.835,585.787,290.983,1.033,-0.037,-0.965,1.402,0.000,-354.114,0.000,-0.017,0.014,-0.038,-0.105,-0.922,1.691
0722_134749_0202.png,0.057,0.182,0.937,-0.006,0.178,0.928,0.165,-0.008,1.092,-0.115,0.003,1.142,0.210,-0.275,1.137,-0.212,-0.250,1.133,0.223,-0.335,0.881,-0.188,-0.330,0.884,1017.441,724.258,0.937,954.053,722.032,0.928,1103.380,532.899,1.092,864.533,542.732,1.142,1135.629,309.837,1.137,781.769,329.864,1.133,1200.190,178.563,0.881,758.176,184.762,0.884,-0.039,-0.967,1.403,0.000,-9.188,0.000,0.044,-0.018,0.003,0.215,-0.913,1.168
0722_134749_0203.png,0.061,0.154,0.948,-0.006,0.149,0.939,0.176,-0.026,1.084,-0.118,-0.008,1.164,0.309,-0.244,1.156,-0.283,-0.207,1.239,0.386,-0.295,0.905,-0.306,-0.277,0.983,1020.879,694.613,0.948,953.961,690.726,0.939,1114.279,517.119,1.084,863.608,533.708,1.164,1214.119,339.442,1.156,743.160,381.500,1.239,1365.542,229.807,0.905,663.585,271.943,0.983,-0.029,-0.960,1.401,0.000,-14.434,0.000,-0.028,0.032,-0.017,0.117,-0.996,1.209
0722_134749_0204.png,0.007,0.162,0.928,-0.056,0.166,0.936,0.125,0.000,1.134,-0.162,-0.005,1.110,0.178,-0.228,0.999,-0.306,-0.217,1.187,0.113,-0.354,0.777,-0.383,-0.305,0.952,967.665,705.853,0.928,903.375,708.433,0.936,1064.582,540.240,1.134,821.203,535.500,1.110,1129.336,322.546,0.999,714.642,366.041,1.187,1098.434,106.838,0.777,576.994,235.628,0.952,-0.031,-0.969,1.403,0.000,-353.898,0.000,0.031,0.000,-0.002,-0.204,-1.120,1.416
0722_134749_0205.png,0.040,0.176,0.924,-0.026,0.175,0.925,0.164,-0.001,1.100,-0.131,0.008,1.138,0.163,-0.275,1.143,-0.188,-0.189,0.954,0.141,-0.321,0.882,-0.190,-0.356,0.744,1001.670,720.822,0.924,933.696,719.715,0.925,1102.129,539.378,1.100,850.284,546.635,1.138,1095.220,311.202,1.143,772.425,351.707,0.954,1111.555,193.243,0.882,717.796,85.063,0.744,-0.037,-0.970,1.403,0.000,-6.275,0.000,-0.004,-0.030,-0.010,-0.132,-1.129,1.377
0722_134749_0206.png,-0.004,0.176,0.928,-0.068,0.179,0.937,0.106,0.002,1.141,-0.177,-0.011,1.084,0.080,-0.201,0.976,-0.341,-0.221,1.081,-0.017,-0.346,0.788,-0.439,-0.323,0.869,955.452,719.952,0.928,891.348,721.961,0.937,1048.321,541.736,1.141,804.917,530.372,1.084,1037.826,343.857,0.976,659.919,345.266,1.081,939.152,122.875,0.788,479.237,186.937,0.869,-0.029,-0.971,1.403,0.000,-347.177,0.000,0.028,-0.005,0.036,-0.103,-0.750,1.572
0722_134749_0207.png,-0.002,0.163,0.921,-0.066,0.168,0.931,0.121,0.004,1.131,-0.173,-0.004,1.097,0.258,-0.207,1.048,-0.290,-0.203,1.237,0.337,-0.322,0.834,-0.449,-0.273,1.045,957.985,708.152,0.921,892.196,711.547,0.931,1061.406,543.171,1.131,809.963,536.456,1.097,1194.593,352.050,1.048,736.829,384.237,1.237,1343.981,172.441,0.834,551.699,292.018,1.045,-0.027,-0.975,1.404,0.000,-352.014,0.000,0.004,0.000,0.033,-0.284,-1.179,1.395
0722_134749_0208.png,0.037,0.146,0.942,-0.029,0.144,0.938,0.148,-0.021,1.120,-0.148,-0.019,1.124,0.119,-0.255,1.005,-0.317,-0.223,1.116,-0.018,-0.331,0.800,-0.387,-0.308,0.884,996.997,687.082,0.942,930.882,686.211,0.938,1085.355,522.525,1.120,834.952,523.580,1.124,1072.554,298.599,1.005,689.783,350.168,1.116,938.653,146.023,0.800,543.825,209.229,0.884,-0.035,-0.960,1.401,0.000,0.170,0.000,0.005,0.033,0.027,0.177,-1.030,1.423
0722_134749_0209.png,0.022,0.161,0.929,-0.042,0.161,0.931,0.141,-0.010,1.118,-0.149,-0.007,1.130,0.280,-0.239,1.067,-0.264,-0.201,0.974,0.312,-0.340,0.823,-0.326,-0.355,0.764,982.926,704.556,0.929,917.099,704.693,0.931,1080.188,531.489,1.118,834.372,533.790,1.130,1209.459,327.265,1.067,701.907,343.604,0.974,1321.072,146.733,0.823,554.769,98.055,0.764,-0.028,-0.958,1.400,0.000,-1.143,0.000,0.021,-0.022,-0.012,-0.111,-1.158,1.359
0722_134749_0210.png,0.021,0.171,0.937,-0.044,0.172,0.940,0.143,-0.007,1.114,-0.147,-0.002,1.138,0.064,-0.186,0.908,-0.280,-0.204,1.258,-0.011,-0.361,0.708,-0.450,-0.276,1.068,980.818,713.754,0.937,915.586,713.697,0.940,1082.010,533.888,1.114,837.146,538.711,1.138,1026.520,345.378,0.908,748.674,385.684,1.258,945.209,54.442,0.708,559.022,293.751,1.068,-0.024,-0.964,1.402,0.000,-3.770,0.000,0.020,-0.006,-0.024,-0.188,-0.833,1.633
0722_134749_0211.png,0.026,0.176,0.934,-0.040,0.176,0.935,0.146,-0.005,1.105,-0.150,0.001,1.132,0.108,-0.224,0.954,-0.288,-0.227,1.180,0.005,-0.350,0.750,-0.312,-0.301,0.931,986.088,719.223,0.934,919.071,718.745,0.935,1085.893,535.450,1.105,834.321,540.724,1.132,1067.200,317.067,0.954,727.770,357.336,1.180,966.377,95.639,0.750,641.524,233.073,0.931,-0.024,-0.970,1.403,0.000,-4.129,0.000,-0.001,-0.003,0.012,-0.088,-0.855,1.423
0722_134749_0212.png,-0.005,0.162,0.942,-0.072,0.167,0.950,0.110,0.003,1.157,-0.187,-0.010,1.096,0.068,-0.174,0.939,-0.197,-0.274,1.052,0.028,-0.346,0.726,-0.146,-0.328,0.794,954.493,704.043,0.942,887.849,707.075,0.950,1050.822,542.813,1.157,797.820,530.914,1.096,1029.093,363.963,0.939,781.468,292.618,1.052,996.045,86.959,0.726,785.137,146.840,0.794,-0.029,-0.972,1.404,0.000,-347.046,0.000,-0.023,0.037,-0.025,-0.074,-0.877,1.444
0722_134749_0213.png,-0.005,0.184,0.922,-0.068,0.190,0.934,0.111,0.013,1.140,-0.174,0.004,1.097,0.062,-0.174,0.937,-0.192,-0.187,0.895,0.017,-0.360,0.741,-0.212,-0.373,0.699,954.993,730.194,0.922,890.969,733.065,0.934,1052.922,551.114,1.140,809.525,543.170,1.097,1023.231,362.951,0.937,756.434,341.788,0.895,981.535,78.721,0.741,672.088,32.552,0.699,-0.027,-0.974,1.404,0.000,-350.221,0.000,0.029,-0.032,-0.013,-0.237,-0.882,1.645
0722_134749_0214.png,-0.003,0.184,0.920,-0.069,0.189,0.933,0.122,0.010,1.138,-0.177,-0.002,1.086,0.207,-0.221,1.268,-0.284,-0.256,1.092,0.237,-0.276,1.017,-0.114,-0.310,0.901,956.782,730.298,0.920,890.085,732.983,0.933,1061.771,548.281,1.138,805.070,538.205,1.086,1115.328,374.287,1.268,712.388,316.961,1.092,1181.858,282.111,1.017,839.805,212.577,0.901,-0.033,-0.974,1.404,0.000,-348.692,0.000,-0.022,-0.029,0.023,-0.300,-0.874,1.431
0722_134749_0215.png,0.016,0.173,0.929,-0.047,0.174,0.930,0.120,0.001,1.135,-0.165,-0.008,1.095,0.237,-0.212,1.029,-0.294,-0.214,1.215,0.299,-0.340,0.815,-0.227,-0.299,0.982,976.872,717.111,0.929,911.746,718.227,0.930,1060.498,540.707,1.135,817.124,532.827,1.095,1178.927,343.683,1.029,729.881,372.795,1.215,1308.971,143.690,0.815,739.965,250.762,0.982,-0.034,-0.969,1.403,0.000,-350.696,0.000,0.032,-0.010,0.027,0.161,-0.959,1.304
0722_134749_0216.png,0.047,0.170,0.928,-0.016,0.166,0.925,0.167,-0.010,1.079,-0.107,0.008,1.154,0.237,-0.273,1.074,-0.284,-0.185,1.087,0.102,-0.341,0.855,-0.417,-0.323,0.903,1008.364,714.417,0.928,943.431,711.173,0.925,1107.091,531.435,1.079,871.667,546.206,1.154,1169.634,297.845,1.074,711.699,377.924,1.087,1073.412,160.396,0.855,521.167,199.267,0.903,-0.031,-0.968,1.403,0.000,-14.524,0.000,0.041,-0.015,-0.012,-0.157,-1.100,1.451
0722_134749_0217.png,0.021,0.156,0.935,-0.043,0.158,0.940,0.140,-0.007,1.133,-0.151,-0.008,1.125,0.213,-0.264,1.077,-0.123,-0.190,0.908,0.046,-0.328,0.880,-0.099,-0.368,0.697,981.772,698.405,0.935,916.531,699.904,0.940,1077.392,534.445,1.133,832.100,532.843,1.125,1147.792,306.586,1.077,831.184,341.202,0.908,1009.787,184.945,0.880,825.211,38.636,0.697,-0.036,-0.961,1.401,0.000,-357.204,0.000,0.019,0.002,-0.032,-0.142,-1.183,1.287
0722_134749_0218.png,0.010,0.140,0.936,-0.058,0.142,0.939,0.124,-0.013,1.145,-0.178,-0.024,1.099,0.243,-0.209,1.280,-0.150,-0.267,0.999,0.356,-0.256,1.052,-0.081,-0.332,0.759,969.757,681.807,0.936,901.539,684.265,0.939,1062.793,528.794,1.145,806.389,519.129,1.099,1140.161,384.814,1.280,817.361,285.779,0.999,1281.846,308.310,1.052,858.859,124.421,0.759,-0.032,-0.960,1.401,0.000,-349.883,0.000,-0.028,0.032,0.019,0.049,-1.168,1.391
0722_134749_0219.png,0.013,0.171,0.931,-0.050,0.172,0.930,0.113,0.008,1.141,-0.171,0.000,1.106,0.087,-0.173,0.923,-0.252,-0.176,1.299,0.066,-0.351,0.713,-0.291,-0.285,1.057,973.511,714.745,0.931,908.762,715.690,0.930,1054.098,546.513,1.141,813.437,539.984,1.106,1049.624,362.050,0.923,775.804,410.953,1.299,1047.694,71.951,0.713,698.141,283.262,1.057,-0.026,-0.971,1.403,0.000,-351.794,0.000,0.038,-0.013,-0.025,0.233,-1.075,1.541
0722_134749_0220.png,0.012,0.152,0.932,-0.053,0.156,0.937,0.117,-0.006,1.150,-0.169,-0.018,1.096,0.103,-0.178,0.931,-0.247,-0.224,1.250,0.091,-0.347,0.719,-0.251,-0.290,0.994,971.893,695.308,0.932,906.546,698.148,0.937,1056.556,535.275,1.150,813.512,524.351,1.096,1064.996,358.168,0.931,772.307,369.657,1.250,1080.157,81.527,0.719,719.899,262.799,0.994,-0.038,-0.961,1.401,0.000,-347.923,0.000,0.021,0.006,-0.004,0.070,-1.082,1.489
0722_134749_0221.png,0.066,0.180,0.941,0.001,0.176,0.932,0.179,-0.012,1.077,-0.110,0.005,1.152,0.099,-0.218,0.923,-0.143,-0.172,0.945,-0.016,-0.349,0.730,-0.174,-0.343,0.742,1026.872,721.989,0.941,960.874,719.756,0.932,1118.080,529.091,1.077,869.008,544.096,1.152,1061.909,315.969,0.923,815.962,367.322,0.945,938.502,84.532,0.730,737.317,100.547,0.742,-0.038,-0.972,1.404,0.000,-13.794,0.000,-0.008,0.006,0.014,0.146,-0.799,1.174
0722_134749_0222.png,0.027,0.173,0.935,-0.037,0.173,0.933,0.131,0.004,1.136,-0.159,-0.002,1.109,0.085,-0.176,0.926,-0.195,-0.237,0.975,0.043,-0.352,0.721,-0.083,-0.355,0.765,987.543,715.543,0.935,921.828,715.938,0.933,1069.660,543.761,1.136,823.689,538.633,1.109,1047.681,359.428,0.926,769.897,309.167,0.975,1016.558,75.093,0.721,856.389,98.371,0.765,-0.037,-0.971,1.403,0.000,-353.473,0.000,0.019,-0.002,-0.014,0.240,-0.962,1.515
0722_134749_0223.png,-0.003,0.160,0.924,-0.066,0.165,0.933,0.109,-0.002,1.141,-0.175,-0.012,1.098,0.180,-0.173,0.936,-0.142,-0.194,0.894,0.251,-0.340,0.737,-0.112,-0.372,0.697,956.517,704.528,0.924,892.298,707.958,0.933,1051.090,538.022,1.141,808.778,529.377,1.098,1143.272,364.091,0.936,809.166,333.816,0.894,1284.140,100.626,0.737,807.561,32.082,0.697,-0.026,-0.962,1.401,0.000,-349.985,0.000,0.032,-0.018,0.004,-0.173,-1.156,1.372
0722_134749_0224.png,0.049,0.158,0.936,-0.017,0.154,0.934,0.173,-0.009,1.086,-0.113,0.008,1.162,0.141,-0.262,0.988,-0.219,-0.215,1.039,0.087,-0.354,0.737,-0.132,-0.336,0.814,1009.853,700.567,0.936,942.877,697.051,0.934,1111.794,532.133,1.086,867.318,546.890,1.162,1095.282,287.800,0.988,759.663,343.029,1.039,1071.746,83.604,0.737,805.987,147.352,0.814,-0.030,-0.973,1.404,0.000,-13.998,0.000,0.000,0.028,-0.036,-0.190,-1.218,1.379
0722_134749_0225.png,0.048,0.188,0.933,-0.016,0.185,0.925,0.161,-0.007,1.077,-0.125,0.008,1.143,0.171,-0.175,1.293,-0.139,-0.202,0.982,0.236,-0.273,1.065,-0.055,-0.345,0.786,1009.340,731.934,0.933,943.663,730.220,0.925,1102.067,533.639,1.077,856.366,546.643,1.143,1085.722,411.612,1.293,825.370,344.710,0.982,1171.107,296.414,1.065,893.820,122.708,0.786,-0.026,-0.973,1.404,0.000,-12.192,0.000,0.012,-0.018,0.030,0.110,-0.767,1.335
0722_134749_0226.png,0.022,0.156,0.938,-0.044,0.157,0.941,0.143,-0.007,1.123,-0.158,-0.008,1.121,0.162,-0.269,1.134,-0.248,-0.241,1.032,0.133,-0.305,0.878,-0.244,-0.328,0.787,982.724,698.018,0.938,915.213,698.618,0.941,1081.022,533.857,1.123,825.748,533.483,1.121,1095.616,314.312,1.134,731.050,317.562,1.032,1103.695,210.179,0.878,665.392,143.218,0.787,-0.031,-0.971,1.403,0.000,-358.464,0.000,-0.015,0.034,0.012,-0.065,-1.073,1.294
0722_134749_0227.png,0.016,0.153,0.938,-0.049,0.155,0.941,0.122,-0.007,1.144,-0.165,-0.017,1.103,0.111,-0.183,0.930,-0.159,-0.204,0.907,0.102,-0.355,0.722,-0.104,-0.364,0.703,975.769,695.199,0.938,910.774,696.940,0.941,1061.391,534.000,1.144,817.688,525.730,1.103,1073.771,352.733,0.930,793.542,326.308,0.907,1094.791,72.555,0.722,818.686,47.355,0.703,-0.036,-0.964,1.402,0.000,-350.566,0.000,0.023,0.025,0.001,0.096,-0.926,1.674
0722_134749_0228.png,0.046,0.166,0.949,-0.020,0.165,0.948,0.169,-0.016,1.089,-0.119,0.000,1.160,0.155,-0.265,1.165,-0.268,-0.202,1.053,0.122,-0.304,0.903,-0.275,-0.330,0.816,1006.174,706.756,0.949,940.149,705.216,0.948,1107.325,526.037,1.089,862.474,540.300,1.160,1086.743,323.448,1.165,717.642,357.928,1.053,1088.287,219.871,0.903,639.668,155.522,0.816,-0.028,-0.969,1.403,0.000,-13.073,0.000,0.000,0.039,-0.025,-0.199,-0.718,1.540
0722_134749_0229.png,0.004,0.175,0.923,-0.062,0.179,0.931,0.117,0.002,1.144,-0.175,-0.013,1.077,0.141,-0.169,0.940,-0.205,-0.283,1.065,0.162,-0.335,0.740,-0.171,-0.328,0.816,963.916,720.730,0.923,897.006,723.080,0.931,1056.988,541.834,1.144,805.086,528.335,1.077,1103.091,368.931,0.940,776.668,287.493,1.065,1168.398,109.078,0.740,760.345,157.246,0.816,-0.038,-0.968,1.403,0.000,-345.570,0.000,-0.011,-0.020,0.039,-0.066,-0.913,1.226
