rolosa10/RGSpipe/dataset/synthetic_dataset/Coods3D_unique0723_095332.csv
filename,left_eye,left_eye,left_eye,right_eye,right_eye,right_eye,left_shoulder,left_shoulder,left_shoulder,right_shoulder,right_shoulder,right_shoulder,left_elbow,left_elbow,left_elbow,right_elbow,right_elbow,right_elbow,left_wrist,left_wrist,left_wrist,right_wrist,right_wrist,right_wrist,left_eye_2D,left_eye_2D,left_eye_2D,right_eye_2D,right_eye_2D,right_eye_2D,left_shoulder_2D,left_shoulder_2D,left_shoulder_2D,right_shoulder_2D,right_shoulder_2D,right_shoulder_2D,left_elbow_2D,left_elbow_2D,left_elbow_2D,right_elbow_2D,right_elbow_2D,right_elbow_2D,left_wrist_2D,left_wrist_2D,left_wrist_2D,right_wrist_2D,right_wrist_2D,right_wrist_2D,root_position,root_position,root_position,root_pitch,root_yaw,root_roll,root_scale,root_scale,root_scale,look_at,look_at,look_at
0723_095332_0001.png,0.008,0.162,0.925,-0.057,0.167,0.933,0.120,0.001,1.149,-0.171,-0.010,1.100,0.219,-0.214,1.293,-0.151,-0.243,0.947,0.212,-0.286,1.031,-0.099,-0.370,0.713,968.475,706.362,0.925,902.160,709.883,0.933,1059.616,540.580,1.149,812.638,530.984,1.100,1121.158,382.405,1.293,808.646,296.423,0.947,1155.801,276.514,1.031,827.360,46.634,0.713,-0.036,-0.959,1.401,0.000,-349.130,0.000,0.006,-0.029,-0.030,-0.078,-1.189,1.361
0723_095332_0002.png,0.016,0.155,0.939,-0.052,0.158,0.945,0.143,-0.011,1.134,-0.166,-0.015,1.119,0.253,-0.222,1.259,-0.229,-0.266,1.042,0.393,-0.261,1.035,-0.053,-0.315,0.845,976.611,696.934,0.939,907.887,698.497,0.945,1079.676,530.447,1.134,818.753,527.396,1.119,1151.331,372.708,1.259,750.988,297.264,1.042,1321.270,300.572,1.035,899.799,185.175,0.845,-0.033,-0.961,1.401,0.000,-355.983,0.000,-0.042,0.018,-0.007,-0.153,-0.959,1.434
0723_095332_0003.png,0.006,0.150,0.937,-0.060,0.154,0.946,0.130,-0.014,1.138,-0.168,-0.020,1.115,0.231,-0.246,1.227,-0.338,-0.229,1.105,0.241,-0.287,0.967,-0.340,-0.317,0.856,966.024,692.363,0.937,899.972,694.787,0.946,1068.903,528.024,1.138,816.390,523.260,1.115,1139.042,349.665,1.227,668.894,343.174,1.105,1197.370,257.808,0.967,582.572,187.706,0.856,-0.030,-0.957,1.400,0.000,-354.304,0.000,-0.009,0.016,-0.004,-0.238,-0.963,1.504
0723_095332_0004.png,0.029,0.158,0.937,-0.036,0.157,0.938,0.153,-0.016,1.100,-0.137,-0.005,1.147,0.248,-0.246,1.196,-0.146,-0.213,0.971,0.143,-0.296,0.958,-0.094,-0.354,0.752,989.373,700.428,0.937,923.320,699.331,0.938,1092.221,526.444,1.100,846.442,535.942,1.147,1157.047,344.451,1.196,816.855,331.716,0.971,1101.664,246.423,0.958,841.713,92.233,0.752,-0.023,-0.964,1.401,0.000,-8.262,0.000,0.011,0.014,-0.006,-0.215,-1.022,1.406
0723_095332_0005.png,0.013,0.185,0.929,-0.054,0.187,0.932,0.126,0.006,1.138,-0.176,-0.003,1.099,0.223,-0.244,1.076,-0.273,-0.207,1.263,0.086,-0.321,0.861,-0.340,-0.279,1.017,973.447,729.420,0.929,904.662,730.419,0.932,1065.186,544.619,1.138,807.932,537.042,1.099,1156.637,324.033,1.076,754.337,384.382,1.263,1055.148,185.272,0.861,642.225,279.107,1.017,-0.031,-0.968,1.402,0.000,-351.283,0.000,-0.025,-0.033,-0.002,0.095,-0.796,1.514
0723_095332_0006.png,0.026,0.158,0.946,-0.042,0.157,0.945,0.144,-0.012,1.125,-0.161,-0.011,1.131,0.152,-0.264,1.029,-0.221,-0.262,1.055,-0.017,-0.322,0.829,-0.200,-0.329,0.798,985.972,698.653,0.946,917.939,698.360,0.945,1081.872,529.717,1.125,824.780,530.841,1.131,1100.368,295.832,1.029,760.410,303.498,1.055,940.246,170.532,0.829,722.216,147.427,0.798,-0.027,-0.963,1.401,0.000,0.101,0.000,-0.028,0.027,-0.015,0.054,-1.006,1.142
0723_095332_0007.png,0.026,0.177,0.940,-0.041,0.178,0.943,0.147,0.000,1.126,-0.155,0.001,1.127,0.090,-0.180,0.913,-0.248,-0.186,0.941,0.035,-0.356,0.704,-0.291,-0.354,0.730,986.246,718.991,0.940,918.698,719.395,0.943,1084.367,540.399,1.126,829.485,540.546,1.127,1053.993,352.405,0.913,709.238,352.233,0.941,1007.911,59.230,0.704,581.447,78.703,0.730,-0.034,-0.969,1.403,0.000,-358.975,0.000,-0.017,0.000,-0.030,-0.068,-0.803,1.526
0723_095332_0008.png,0.012,0.167,0.937,-0.054,0.170,0.946,0.142,-0.006,1.123,-0.160,-0.006,1.124,0.095,-0.220,0.965,-0.224,-0.267,1.118,-0.018,-0.342,0.757,-0.193,-0.314,0.860,972.654,709.745,0.937,905.732,711.107,0.946,1080.617,535.125,1.123,824.467,535.296,1.124,1053.236,322.638,0.965,769.824,313.135,1.118,936.859,110.507,0.757,746.199,192.539,0.860,-0.029,-0.968,1.403,0.000,-358.996,0.000,-0.019,0.012,-0.003,-0.338,-0.923,1.245
0723_095332_0009.png,-0.009,0.159,0.922,-0.074,0.165,0.933,0.110,-0.003,1.149,-0.186,-0.018,1.084,0.132,-0.175,0.938,-0.247,-0.284,1.093,0.152,-0.342,0.731,-0.235,-0.323,0.836,951.120,704.434,0.922,884.246,708.572,0.933,1050.871,537.750,1.149,796.771,524.507,1.084,1094.199,362.762,0.938,744.963,293.007,1.093,1157.339,95.506,0.731,692.194,172.426,0.836,-0.029,-0.961,1.401,0.000,-346.123,0.000,-0.021,-0.017,0.017,-0.198,-1.119,1.304
0723_095332_0010.png,0.053,0.183,0.944,-0.013,0.181,0.940,0.174,-0.016,1.086,-0.112,0.002,1.162,0.195,-0.190,1.299,-0.254,-0.206,1.041,0.319,-0.272,1.075,-0.263,-0.344,0.804,1013.494,724.230,0.944,947.264,722.859,0.940,1112.095,525.985,1.086,868.517,541.283,1.162,1102.891,400.684,1.299,728.290,351.636,1.041,1242.223,299.496,1.075,649.610,133.527,0.804,-0.031,-0.959,1.400,0.000,-14.195,0.000,0.003,-0.018,-0.041,-0.135,-0.665,1.332
0723_095332_0011.png,0.037,0.189,0.933,-0.030,0.189,0.934,0.163,0.000,1.102,-0.138,0.009,1.138,0.228,-0.246,1.211,-0.198,-0.210,0.982,0.284,-0.299,0.954,-0.142,-0.349,0.760,997.847,732.476,0.933,929.523,731.958,0.934,1100.264,540.387,1.102,844.963,547.373,1.138,1139.035,346.609,1.211,768.571,336.808,0.982,1243.496,242.336,0.954,782.710,103.935,0.760,-0.033,-0.971,1.403,0.000,-5.928,0.000,-0.019,-0.025,-0.016,-0.169,-0.877,1.138
0723_095332_0012.png,0.009,0.167,0.931,-0.057,0.169,0.934,0.123,0.004,1.139,-0.174,-0.001,1.115,0.054,-0.178,0.930,-0.192,-0.210,0.927,-0.011,-0.357,0.726,-0.161,-0.370,0.705,968.971,711.066,0.931,901.689,712.577,0.934,1062.535,543.485,1.139,811.340,538.804,1.115,1015.074,357.705,0.930,762.883,324.090,0.927,945.279,72.143,0.726,742.842,41.319,0.705,-0.024,-0.967,1.402,0.000,-354.036,0.000,-0.004,-0.015,-0.039,0.011,-1.049,1.633
0723_095332_0013.png,0.054,0.152,0.941,-0.011,0.150,0.938,0.172,-0.020,1.094,-0.118,-0.008,1.148,0.269,-0.224,1.227,-0.137,-0.208,0.972,0.393,-0.276,1.003,-0.072,-0.345,0.759,1014.848,694.076,0.941,948.763,691.774,0.938,1109.773,522.218,1.094,862.282,533.552,1.148,1168.523,366.360,1.227,825.822,336.367,0.972,1332.558,278.467,1.003,869.766,108.107,0.759,-0.039,-0.965,1.402,0.000,-9.850,0.000,0.004,0.034,0.011,-0.015,-1.025,1.365
0723_095332_0014.png,0.047,0.166,0.933,-0.018,0.162,0.931,0.170,-0.007,1.083,-0.112,0.011,1.161,0.131,-0.267,1.003,-0.292,-0.193,1.150,-0.019,-0.349,0.791,-0.401,-0.307,0.927,1007.830,709.137,0.933,941.302,705.562,0.931,1109.367,533.829,1.083,867.939,548.977,1.161,1084.177,286.879,1.003,718.222,380.761,1.150,937.687,120.884,0.791,549.175,224.760,0.927,-0.028,-0.973,1.404,0.000,-14.700,0.000,0.011,0.009,-0.036,-0.192,-1.201,1.299
0723_095332_0015.png,0.010,0.171,0.944,-0.054,0.171,0.944,0.116,-0.002,1.140,-0.172,-0.009,1.109,0.241,-0.211,1.245,-0.169,-0.239,0.965,0.398,-0.277,1.045,-0.137,-0.363,0.732,970.192,711.971,0.944,905.565,712.631,0.944,1056.714,538.414,1.140,812.765,532.270,1.109,1144.232,379.168,1.245,793.314,304.500,0.965,1322.141,287.706,1.045,781.658,68.849,0.732,-0.025,-0.968,1.403,0.000,-352.527,0.000,0.025,0.017,-0.008,0.145,-0.745,1.549
0723_095332_0016.png,0.043,0.162,0.938,-0.019,0.159,0.930,0.149,-0.008,1.110,-0.135,-0.003,1.131,0.221,-0.223,1.250,-0.271,-0.179,0.982,0.277,-0.291,1.005,-0.366,-0.343,0.802,1003.935,704.397,0.938,940.257,702.234,0.930,1087.428,533.155,1.110,846.457,537.356,1.131,1128.277,370.511,1.250,697.331,366.600,0.982,1221.713,265.127,1.005,525.518,132.902,0.802,-0.035,-0.969,1.403,0.000,-3.187,0.000,0.042,0.013,0.011,0.256,-1.027,1.560
0723_095332_0017.png,0.012,0.164,0.938,-0.052,0.165,0.938,0.112,-0.005,1.144,-0.170,-0.015,1.102,0.174,-0.177,0.933,-0.241,-0.188,1.297,0.237,-0.345,0.729,-0.296,-0.280,1.057,971.769,706.164,0.938,907.588,707.268,0.938,1052.804,535.658,1.144,813.018,527.254,1.102,1137.199,359.643,0.933,783.196,402.258,1.297,1269.358,89.916,0.729,693.532,287.737,1.057,-0.029,-0.962,1.401,0.000,-350.229,0.000,0.039,0.000,-0.005,0.223,-0.996,1.205
0723_095332_0018.png,0.008,0.148,0.939,-0.058,0.152,0.943,0.112,-0.001,1.160,-0.176,-0.016,1.095,0.181,-0.173,0.942,-0.278,-0.190,1.265,0.250,-0.339,0.731,-0.456,-0.257,1.081,967.974,689.927,0.939,901.923,693.365,0.943,1051.830,538.774,1.160,806.794,525.845,1.095,1142.652,365.664,0.942,751.343,397.376,1.265,1285.958,98.400,0.731,558.526,314.377,1.081,-0.038,-0.966,1.402,0.000,-345.920,0.000,0.003,0.034,-0.029,0.112,-1.074,1.550
0723_095332_0019.png,-0.001,0.190,0.932,-0.067,0.193,0.940,0.117,0.003,1.140,-0.179,-0.005,1.103,0.108,-0.178,0.923,-0.312,-0.248,1.132,0.101,-0.354,0.712,-0.167,-0.318,0.919,958.726,733.948,0.932,892.501,735.061,0.940,1057.303,542.425,1.140,805.894,535.338,1.103,1071.614,356.935,0.923,697.625,331.590,1.132,1094.771,66.699,0.712,787.361,210.868,0.919,-0.024,-0.962,1.401,0.000,-351.664,0.000,-0.003,-0.042,-0.016,-0.143,-0.703,1.309
0723_095332_0020.png,-0.012,0.165,0.931,-0.074,0.170,0.944,0.105,-0.005,1.145,-0.178,-0.016,1.095,0.110,-0.183,0.939,-0.172,-0.264,0.990,0.117,-0.358,0.740,-0.055,-0.353,0.775,947.994,708.249,0.931,885.196,711.349,0.944,1047.304,536.247,1.145,805.023,526.133,1.095,1071.866,354.808,0.939,794.713,286.445,0.990,1110.375,80.277,0.740,892.387,106.368,0.775,-0.025,-0.962,1.401,0.000,-348.610,0.000,0.029,-0.002,0.008,-0.283,-0.841,1.545
0723_095332_0021.png,0.010,0.174,0.929,-0.058,0.177,0.935,0.135,-0.007,1.125,-0.172,-0.010,1.110,0.095,-0.190,0.933,-0.291,-0.237,1.217,0.016,-0.347,0.738,-0.308,-0.286,0.963,969.754,718.647,0.929,900.770,719.642,0.935,1073.763,534.406,1.125,812.492,531.481,1.110,1056.653,345.984,0.933,733.047,354.741,1.217,981.033,93.051,0.738,655.454,257.266,0.963,-0.025,-0.961,1.401,0.000,-356.054,0.000,-0.034,-0.026,0.020,-0.142,-0.782,1.601
0723_095332_0022.png,0.037,0.173,0.933,-0.030,0.172,0.936,0.166,-0.009,1.094,-0.129,0.003,1.148,0.211,-0.278,1.085,-0.117,-0.177,0.932,0.027,-0.315,0.895,-0.105,-0.352,0.721,997.605,715.824,0.933,929.943,714.952,0.936,1104.169,531.862,1.094,853.060,542.593,1.148,1145.305,295.920,1.085,840.789,359.554,0.932,988.682,205.440,0.895,821.355,75.453,0.721,-0.030,-0.967,1.402,0.000,-9.535,0.000,-0.011,-0.007,-0.015,-0.290,-0.917,1.433
0723_095332_0023.png,0.044,0.174,0.926,-0.020,0.170,0.919,0.159,-0.004,1.079,-0.118,0.012,1.149,0.223,-0.205,1.255,-0.189,-0.227,1.040,0.395,-0.280,1.080,-0.060,-0.342,0.847,1004.934,719.197,0.926,939.702,715.387,0.919,1100.282,536.108,1.079,862.066,549.769,1.149,1128.832,384.380,1.255,787.594,332.614,1.040,1308.206,293.450,1.080,892.338,156.047,0.847,-0.024,-0.974,1.404,0.000,-13.457,0.000,0.034,-0.018,0.001,0.001,-1.056,1.673
0723_095332_0024.png,0.048,0.167,0.930,-0.019,0.163,0.928,0.172,-0.008,1.083,-0.116,0.010,1.160,0.288,-0.255,1.073,-0.217,-0.223,1.048,0.333,-0.333,0.818,-0.096,-0.334,0.834,1008.588,710.947,0.930,940.740,707.404,0.928,1111.138,533.081,1.083,864.660,548.188,1.160,1215.089,314.062,1.073,763.511,337.475,1.048,1347.011,152.823,0.818,850.210,159.160,0.834,-0.028,-0.970,1.403,0.000,-14.292,0.000,-0.007,-0.005,-0.034,-0.165,-1.177,1.402
0723_095332_0025.png,0.063,0.188,0.947,-0.002,0.185,0.941,0.181,-0.005,1.087,-0.103,0.012,1.161,0.311,-0.244,1.092,-0.088,-0.173,0.939,0.381,-0.331,0.844,-0.076,-0.354,0.722,1023.464,729.265,0.947,957.816,727.503,0.941,1118.420,535.233,1.087,875.386,549.506,1.161,1230.460,327.677,1.092,871.327,364.939,0.939,1389.406,167.228,0.844,860.252,74.177,0.722,-0.039,-0.971,1.403,0.000,-13.819,0.000,0.009,-0.001,-0.049,-0.053,-0.666,1.431
0723_095332_0026.png,0.037,0.148,0.938,-0.029,0.146,0.937,0.156,-0.018,1.111,-0.138,-0.010,1.143,0.287,-0.247,1.153,-0.157,-0.223,0.972,0.343,-0.308,0.900,-0.073,-0.352,0.754,997.452,689.575,0.938,930.989,687.976,0.937,1093.343,524.620,1.111,845.194,531.365,1.143,1196.410,336.151,1.153,806.581,321.937,0.972,1322.547,214.325,0.900,868.072,96.402,0.754,-0.031,-0.959,1.401,0.000,-5.399,0.000,0.004,0.016,-0.015,-0.018,-1.136,1.512
0723_095332_0027.png,0.033,0.153,0.938,-0.032,0.152,0.933,0.141,-0.014,1.123,-0.157,-0.017,1.114,0.069,-0.180,0.925,-0.243,-0.210,0.958,-0.004,-0.341,0.731,-0.260,-0.343,0.742,993.872,695.625,0.938,926.909,694.911,0.933,1079.208,527.761,1.123,825.729,525.896,1.114,1030.771,354.565,0.925,718.625,331.233,0.958,954.850,97.120,0.731,627.319,100.268,0.742,-0.034,-0.963,1.402,0.000,-357.054,0.000,-0.004,0.019,0.038,0.292,-1.044,1.364
0723_095332_0028.png,0.012,0.167,0.932,-0.057,0.169,0.936,0.125,-0.003,1.147,-0.178,-0.016,1.089,0.257,-0.239,1.122,-0.233,-0.273,1.026,0.124,-0.300,0.899,-0.198,-0.329,0.774,971.766,709.978,0.932,902.542,711.883,0.936,1064.025,537.675,1.147,804.644,525.961,1.089,1177.537,337.552,1.122,744.372,287.117,1.026,1091.681,223.072,0.899,716.578,136.391,0.774,-0.037,-0.964,1.402,0.000,-347.775,0.000,-0.041,-0.002,0.015,0.078,-0.978,1.115
0723_095332_0029.png,0.019,0.150,0.931,-0.046,0.151,0.936,0.144,-0.011,1.115,-0.153,-0.008,1.127,0.088,-0.204,0.939,-0.279,-0.217,1.017,-0.019,-0.345,0.746,-0.321,-0.333,0.790,979.733,692.697,0.931,912.809,693.399,0.936,1082.979,530.493,1.115,830.705,532.926,1.127,1048.674,333.369,0.939,699.545,337.599,1.017,936.367,100.184,0.746,573.441,139.448,0.790,-0.028,-0.967,1.402,0.000,-1.203,0.000,-0.002,0.022,0.018,-0.192,-1.089,1.673
0723_095332_0030.png,0.013,0.160,0.924,-0.052,0.162,0.924,0.115,-0.003,1.141,-0.173,-0.014,1.093,0.093,-0.208,0.968,-0.311,-0.244,1.055,0.015,-0.355,0.767,-0.268,-0.340,0.817,973.489,704.699,0.924,906.923,706.508,0.924,1055.454,537.806,1.141,809.268,528.181,1.093,1051.092,336.002,0.968,679.821,319.796,1.055,978.310,100.063,0.767,648.468,144.566,0.817,-0.031,-0.961,1.401,0.000,-349.185,0.000,0.017,-0.025,0.014,0.211,-1.194,1.407
0723_095332_0031.png,0.007,0.150,0.930,-0.057,0.153,0.933,0.109,-0.010,1.146,-0.173,-0.023,1.088,0.058,-0.181,0.944,-0.281,-0.210,1.246,0.008,-0.348,0.747,-0.432,-0.278,1.050,967.164,693.036,0.930,902.220,695.647,0.933,1050.037,532.097,1.146,808.539,520.108,1.088,1018.134,357.902,0.944,745.292,379.391,1.246,970.383,97.250,0.747,568.710,288.482,1.050,-0.032,-0.960,1.401,0.000,-346.983,0.000,0.030,0.007,0.028,0.128,-1.164,1.259
0723_095332_0032.png,0.036,0.163,0.929,-0.030,0.161,0.927,0.153,-0.007,1.102,-0.142,0.001,1.134,0.204,-0.184,0.904,-0.130,-0.176,0.925,0.253,-0.357,0.712,-0.117,-0.347,0.721,996.399,706.872,0.929,929.232,705.152,0.927,1091.708,534.175,1.102,841.102,540.560,1.134,1174.583,346.476,0.904,826.804,359.332,0.925,1298.404,63.526,0.712,806.015,81.885,0.721,-0.028,-0.970,1.403,0.000,-5.246,0.000,0.003,-0.001,0.015,0.034,-1.149,1.462
0723_095332_0033.png,0.034,0.160,0.933,-0.030,0.159,0.933,0.147,-0.011,1.119,-0.142,-0.010,1.122,0.127,-0.186,0.910,-0.304,-0.182,1.249,0.108,-0.358,0.706,-0.338,-0.289,1.015,994.813,702.580,0.933,929.592,702.469,0.933,1084.714,530.587,1.119,839.651,531.154,1.122,1092.475,345.162,0.910,728.720,401.649,1.249,1105.422,58.216,0.706,643.352,269.248,1.015,-0.039,-0.963,1.401,0.000,-359.396,0.000,0.027,0.001,0.014,0.047,-1.109,1.216
0723_095332_0034.png,0.056,0.156,0.943,-0.010,0.150,0.935,0.169,-0.012,1.090,-0.123,0.002,1.153,0.116,-0.243,0.965,-0.236,-0.232,1.098,-0.016,-0.340,0.759,-0.246,-0.316,0.849,1016.257,697.030,0.943,950.203,692.911,0.935,1107.269,529.223,1.090,858.510,541.769,1.153,1074.240,300.829,0.965,755.862,339.145,1.098,939.367,114.132,0.759,684.405,185.485,0.849,-0.031,-0.975,1.404,0.000,-11.334,0.000,-0.006,0.048,0.000,0.166,-1.128,1.350
0723_095332_0035.png,0.057,0.184,0.930,-0.007,0.180,0.919,0.166,-0.005,1.089,-0.120,0.007,1.141,0.295,-0.246,1.066,-0.117,-0.172,0.929,0.363,-0.341,0.831,-0.116,-0.348,0.724,1018.298,728.693,0.930,953.257,725.761,0.919,1104.775,535.906,1.089,860.275,546.096,1.141,1223.002,320.553,1.066,839.864,364.107,0.929,1375.687,149.855,0.831,807.398,83.050,0.724,-0.036,-0.967,1.402,0.000,-9.461,0.000,0.022,-0.041,0.001,0.257,-0.938,1.505
0723_095332_0036.png,0.056,0.152,0.939,-0.009,0.147,0.933,0.173,-0.021,1.092,-0.115,-0.006,1.156,0.278,-0.266,1.060,-0.237,-0.246,1.162,0.208,-0.335,0.812,-0.223,-0.311,0.904,1016.649,693.541,0.939,950.669,689.907,0.933,1110.383,521.989,1.092,865.686,535.088,1.156,1209.148,301.411,1.060,766.421,338.964,1.162,1203.511,147.686,0.812,725.668,212.616,0.904,-0.036,-0.960,1.401,0.000,-11.706,0.000,0.008,0.015,-0.016,0.034,-1.074,1.594
0723_095332_0037.png,-0.017,0.174,0.924,-0.080,0.181,0.940,0.100,0.004,1.154,-0.186,-0.011,1.087,0.267,-0.202,1.222,-0.260,-0.249,0.970,0.225,-0.303,0.978,-0.210,-0.365,0.733,942.772,718.905,0.924,878.804,722.966,0.940,1042.232,543.676,1.154,796.892,530.555,1.087,1167.886,382.711,1.222,704.980,295.837,0.970,1178.567,245.463,0.978,687.787,66.338,0.733,-0.026,-0.962,1.401,0.000,-345.442,0.000,0.009,-0.032,-0.020,-0.307,-0.949,1.364
0723_095332_0038.png,0.016,0.174,0.937,-0.052,0.174,0.938,0.133,-0.011,1.128,-0.172,-0.015,1.109,0.261,-0.234,1.226,-0.213,-0.250,0.988,0.361,-0.280,0.990,-0.195,-0.342,0.747,976.253,716.411,0.937,907.564,716.764,0.938,1072.212,530.720,1.128,812.608,526.879,1.109,1162.567,358.171,1.226,755.253,298.894,0.988,1306.518,271.060,0.990,712.028,104.689,0.747,-0.027,-0.958,1.400,0.000,-355.229,0.000,-0.030,-0.016,0.022,0.056,-0.704,1.449
0723_095332_0039.png,0.044,0.174,0.925,-0.023,0.171,0.921,0.164,-0.008,1.082,-0.133,0.005,1.141,0.118,-0.275,1.067,-0.268,-0.193,1.023,0.057,-0.323,0.821,-0.349,-0.324,0.819,1005.100,718.618,0.925,936.420,716.197,0.921,1103.918,532.641,1.082,849.190,544.328,1.141,1065.511,294.843,1.067,711.210,360.921,1.023,1026.379,166.499,0.821,554.641,163.388,0.819,-0.027,-0.971,1.403,0.000,-10.367,0.000,-0.020,-0.018,0.029,0.000,-1.108,1.252
0723_095332_0040.png,0.027,0.165,0.939,-0.041,0.166,0.941,0.148,-0.013,1.121,-0.157,-0.011,1.128,0.190,-0.202,1.311,-0.224,-0.190,0.931,0.283,-0.258,1.069,-0.247,-0.352,0.720,986.904,707.496,0.939,918.521,707.604,0.941,1085.863,529.071,1.121,827.995,530.403,1.128,1097.908,393.528,1.311,730.781,345.993,0.931,1211.961,310.263,1.069,633.626,75.515,0.720,-0.031,-0.959,1.400,0.000,-0.091,0.000,-0.027,-0.002,-0.005,-0.043,-0.827,1.513
0723_095332_0041.png,0.029,0.175,0.934,-0.038,0.175,0.933,0.146,-0.009,1.114,-0.155,-0.007,1.122,0.225,-0.187,0.929,-0.287,-0.200,1.268,0.264,-0.351,0.729,-0.421,-0.270,1.054,989.077,718.476,0.934,920.951,718.276,0.933,1084.875,532.253,1.114,828.466,533.810,1.122,1190.540,348.175,0.929,744.439,390.194,1.268,1304.743,81.742,0.729,580.701,296.803,1.054,-0.030,-0.962,1.401,0.000,-0.333,0.000,-0.016,-0.019,0.018,0.038,-0.790,1.512
0723_095332_0042.png,0.048,0.177,0.937,-0.017,0.174,0.932,0.164,-0.008,1.101,-0.125,0.003,1.147,0.081,-0.189,0.897,-0.173,-0.220,0.987,0.002,-0.367,0.699,-0.086,-0.356,0.772,1008.893,719.184,0.937,943.030,717.107,0.932,1101.511,532.926,1.101,856.146,542.138,1.147,1045.401,339.421,0.897,793.851,328.063,0.987,963.028,40.720,0.699,854.167,101.822,0.772,-0.034,-0.963,1.402,0.000,-8.268,0.000,0.013,-0.021,-0.030,0.065,-1.030,1.076
0723_095332_0043.png,0.009,0.179,0.918,-0.056,0.183,0.925,0.122,0.012,1.139,-0.170,0.001,1.092,0.170,-0.234,1.028,-0.215,-0.265,1.031,0.045,-0.340,0.822,-0.054,-0.339,0.836,969.068,725.408,0.918,901.993,728.294,0.925,1061.521,549.812,1.139,811.538,540.861,1.092,1117.241,323.788,1.028,761.662,295.938,1.031,1012.557,146.108,0.822,898.035,153.873,0.836,-0.035,-0.972,1.404,0.000,-349.485,0.000,0.003,-0.042,0.000,-0.074,-1.193,1.196
0723_095332_0044.png,0.021,0.168,0.933,-0.043,0.169,0.935,0.136,-0.006,1.123,-0.154,-0.008,1.117,0.243,-0.234,1.222,-0.153,-0.215,0.946,0.165,-0.296,0.982,-0.097,-0.362,0.737,981.736,711.420,0.933,916.393,711.924,0.935,1074.857,534.723,1.123,828.814,533.561,1.117,1149.018,358.106,1.222,806.027,324.165,0.946,1119.612,253.516,0.982,834.442,73.700,0.737,-0.031,-0.965,1.402,0.000,-357.651,0.000,0.024,-0.005,0.014,-0.026,-0.982,1.277
0723_095332_0045.png,0.036,0.153,0.937,-0.027,0.152,0.934,0.146,-0.004,1.120,-0.139,-0.001,1.131,0.230,-0.237,1.210,-0.267,-0.228,1.068,0.298,-0.304,0.961,-0.172,-0.336,0.845,996.806,695.741,0.937,932.493,694.632,0.934,1084.297,536.669,1.120,843.196,538.850,1.131,1141.135,353.351,1.210,722.502,337.317,1.068,1254.331,239.645,0.961,766.307,162.350,0.845,-0.036,-0.971,1.403,0.000,-1.117,0.000,0.038,0.025,-0.016,0.108,-1.282,1.359
0723_095332_0046.png,0.054,0.160,0.945,-0.012,0.157,0.940,0.171,-0.018,1.094,-0.122,-0.006,1.146,0.310,-0.241,1.110,-0.136,-0.184,0.945,0.383,-0.308,0.869,-0.130,-0.347,0.741,1014.462,701.079,0.945,948.308,699.251,0.940,1108.387,524.309,1.094,858.826,534.978,1.146,1226.089,333.149,1.110,823.305,355.371,0.945,1378.763,203.161,0.869,793.554,94.650,0.741,-0.038,-0.968,1.403,0.000,-9.203,0.000,-0.002,0.037,0.016,0.033,-0.837,1.464
0723_095332_0047.png,0.042,0.179,0.928,-0.024,0.177,0.929,0.170,-0.009,1.080,-0.122,0.008,1.153,0.215,-0.281,1.072,-0.207,-0.231,1.050,0.055,-0.322,0.863,-0.212,-0.337,0.806,1003.342,723.235,0.928,934.921,721.506,0.929,1109.749,531.966,1.080,859.465,546.366,1.153,1150.516,290.546,1.072,772.106,330.417,1.050,1020.485,185.219,0.863,709.736,142.014,0.806,-0.028,-0.967,1.402,0.000,-13.273,0.000,-0.015,-0.024,-0.009,-0.262,-0.921,1.438
0723_095332_0048.png,-0.002,0.168,0.936,-0.065,0.174,0.950,0.118,0.005,1.145,-0.167,-0.003,1.107,0.093,-0.173,0.926,-0.322,-0.214,1.050,0.073,-0.349,0.712,-0.412,-0.335,0.829,957.577,710.243,0.936,894.965,713.735,0.950,1058.279,544.482,1.145,816.203,537.140,1.107,1055.907,361.872,0.926,668.138,346.469,1.050,1057.036,74.216,0.712,487.208,155.862,0.829,-0.033,-0.973,1.404,0.000,-351.063,0.000,0.028,0.019,-0.027,-0.348,-0.927,1.445
0723_095332_0049.png,0.010,0.139,0.933,-0.055,0.143,0.940,0.127,-0.015,1.136,-0.165,-0.022,1.104,0.252,-0.232,1.059,-0.274,-0.248,1.181,0.212,-0.324,0.824,-0.292,-0.296,0.931,969.743,681.561,0.933,904.275,684.387,0.940,1066.673,527.715,1.136,818.087,521.203,1.104,1186.577,331.224,1.059,739.222,340.432,1.181,1204.326,166.349,0.824,661.260,237.938,0.931,-0.033,-0.962,1.401,0.000,-352.585,0.000,0.010,0.034,0.033,-0.144,-1.170,1.454
0723_095332_0050.png,0.021,0.184,0.942,-0.044,0.184,0.941,0.134,0.003,1.126,-0.159,0.003,1.125,0.183,-0.180,0.913,-0.284,-0.191,1.267,0.233,-0.358,0.706,-0.429,-0.276,1.059,981.427,725.727,0.942,915.739,725.661,0.941,1073.105,542.537,1.126,825.293,542.293,1.125,1150.436,353.014,0.913,746.718,396.578,1.267,1273.791,58.282,0.706,574.895,291.979,1.059,-0.026,-0.971,1.403,0.000,-358.572,0.000,0.012,-0.005,-0.028,0.075,-0.778,1.358
0723_095332_0051.png,0.039,0.187,0.926,-0.026,0.187,0.925,0.158,0.000,1.099,-0.137,0.006,1.126,0.243,-0.191,0.931,-0.272,-0.209,1.237,0.274,-0.356,0.733,-0.394,-0.284,1.022,1000.423,732.486,0.926,932.826,731.904,0.925,1097.045,539.755,1.099,844.195,545.012,1.126,1208.205,344.768,0.931,751.225,379.283,1.237,1315.313,78.609,0.733,593.443,275.528,1.022,-0.036,-0.972,1.404,0.000,-4.194,0.000,0.000,-0.033,0.024,-0.020,-0.776,1.669
0723_095332_0052.png,0.007,0.145,0.926,-0.058,0.151,0.935,0.125,-0.008,1.142,-0.167,-0.018,1.096,0.201,-0.246,1.051,-0.249,-0.221,1.250,0.062,-0.322,0.845,-0.265,-0.280,0.999,966.782,689.125,0.926,900.932,693.186,0.935,1064.356,533.464,1.142,814.680,524.143,1.096,1141.563,317.555,1.051,770.591,371.593,1.250,1029.941,177.098,0.845,707.612,273.392,0.999,-0.038,-0.963,1.402,0.000,-349.790,0.000,0.002,0.011,0.023,-0.192,-1.206,1.488
0723_095332_0053.png,0.042,0.158,0.943,-0.023,0.154,0.935,0.150,-0.008,1.112,-0.142,-0.003,1.136,0.223,-0.253,1.178,-0.234,-0.246,1.182,0.256,-0.305,0.921,-0.205,-0.302,0.926,1002.246,699.254,0.943,937.071,696.826,0.935,1088.513,532.811,1.112,841.547,537.632,1.136,1140.191,335.996,1.178,771.734,342.174,1.182,1223.850,225.574,0.921,748.980,230.126,0.926,-0.030,-0.971,1.403,0.000,-3.704,0.000,0.014,0.031,-0.004,0.254,-1.065,1.479
0723_095332_0054.png,0.034,0.171,0.941,-0.032,0.170,0.943,0.160,-0.016,1.091,-0.130,-0.002,1.152,0.249,-0.263,1.031,-0.291,-0.181,1.271,0.250,-0.341,0.778,-0.381,-0.274,1.040,994.281,712.765,0.941,927.893,711.902,0.943,1099.141,526.258,1.091,852.404,538.608,1.152,1190.026,297.529,1.031,741.929,404.868,1.271,1265.703,122.872,0.778,611.510,289.401,1.040,-0.023,-0.965,1.402,0.000,-11.059,0.000,0.001,0.011,-0.006,-0.292,-0.806,1.239
0723_095332_0055.png,0.011,0.167,0.937,-0.056,0.169,0.941,0.131,-0.003,1.134,-0.170,-0.006,1.124,0.272,-0.219,1.034,-0.225,-0.267,1.055,0.348,-0.337,0.800,-0.208,-0.343,0.794,970.779,709.313,0.937,903.550,710.368,0.941,1069.582,537.289,1.134,816.486,535.279,1.124,1210.297,338.725,1.034,757.361,299.316,1.055,1373.099,139.487,0.800,710.573,129.952,0.794,-0.023,-0.963,1.401,0.000,-356.829,0.000,-0.012,-0.006,-0.035,-0.096,-1.075,1.148
0723_095332_0056.png,0.011,0.170,0.927,-0.054,0.172,0.932,0.130,0.002,1.130,-0.166,-0.001,1.115,0.230,-0.254,1.127,-0.291,-0.231,1.034,0.068,-0.312,0.924,-0.342,-0.343,0.796,971.474,714.398,0.927,904.503,715.851,0.932,1069.386,541.961,1.130,818.090,539.085,1.115,1153.848,325.896,1.127,692.124,327.431,1.034,1030.011,218.841,0.924,551.624,130.734,0.796,-0.027,-0.968,1.402,0.000,-355.893,0.000,0.000,-0.020,-0.016,-0.101,-1.044,1.538
0723_095332_0057.png,0.046,0.172,0.945,-0.020,0.170,0.942,0.167,-0.018,1.085,-0.128,-0.003,1.148,0.181,-0.177,1.294,-0.241,-0.215,1.037,0.281,-0.253,1.066,-0.160,-0.322,0.816,1006.619,712.812,0.945,939.461,711.885,0.942,1106.021,524.291,1.085,853.646,537.183,1.148,1092.773,409.731,1.294,738.605,342.880,1.037,1211.039,314.215,1.066,773.904,164.746,0.816,-0.029,-0.969,1.403,0.000,-11.225,0.000,-0.017,0.027,0.027,-0.085,-0.647,1.383
0723_095332_0058.png,0.035,0.162,0.932,-0.033,0.162,0.935,0.164,-0.018,1.098,-0.141,-0.008,1.139,0.312,-0.247,1.108,-0.251,-0.195,1.305,0.381,-0.307,0.863,-0.285,-0.258,1.056,995.686,705.445,0.932,926.289,704.918,0.935,1102.164,524.704,1.098,842.634,533.290,1.139,1228.020,327.682,1.108,777.335,397.544,1.305,1379.832,201.557,0.863,702.849,307.730,1.056,-0.031,-0.961,1.401,0.000,-6.848,0.000,-0.036,-0.003,0.018,-0.220,-0.967,1.368
0723_095332_0059.png,-0.009,0.178,0.923,-0.072,0.183,0.936,0.110,0.005,1.134,-0.175,-0.005,1.088,0.181,-0.172,0.954,-0.280,-0.216,1.224,0.249,-0.345,0.778,-0.396,-0.290,1.010,950.515,723.681,0.923,887.123,726.187,0.936,1052.263,544.581,1.134,806.745,535.497,1.088,1140.414,368.810,0.954,742.126,372.443,1.224,1264.283,118.509,0.778,587.233,266.462,1.010,-0.026,-0.975,1.404,0.000,-349.398,0.000,0.026,-0.009,0.041,-0.332,-0.888,1.292
0723_095332_0060.png,0.058,0.164,0.940,-0.008,0.161,0.938,0.182,-0.014,1.087,-0.106,0.004,1.165,0.194,-0.284,1.058,-0.278,-0.188,1.246,0.003,-0.324,0.869,-0.456,-0.270,1.055,1018.816,706.274,0.940,951.705,703.391,0.938,1119.396,527.806,1.087,873.556,543.184,1.165,1134.244,284.746,1.058,748.050,396.342,1.246,962.810,186.056,0.869,549.454,296.586,1.055,-0.037,-0.966,1.402,0.000,-14.285,0.000,-0.007,0.014,-0.046,-0.190,-1.078,1.168
0723_095332_0061.png,0.048,0.174,0.934,-0.019,0.169,0.928,0.166,0.000,1.099,-0.135,0.011,1.150,0.277,-0.248,1.140,-0.294,-0.210,1.099,0.322,-0.314,0.878,-0.242,-0.322,0.855,1008.694,716.721,0.934,940.134,713.475,0.928,1103.542,539.747,1.099,848.726,549.441,1.150,1191.206,333.098,1.140,705.144,358.261,1.099,1308.335,200.060,0.878,690.357,181.109,0.855,-0.029,-0.972,1.404,0.000,-8.697,0.000,-0.027,-0.010,-0.041,0.114,-1.161,1.351
0723_095332_0062.png,0.043,0.194,0.930,-0.023,0.194,0.931,0.170,-0.004,1.087,-0.125,0.009,1.144,0.080,-0.183,0.899,-0.167,-0.216,0.995,-0.010,-0.358,0.715,-0.062,-0.344,0.788,1004.334,738.623,0.930,936.193,738.001,0.931,1108.874,536.722,1.087,856.182,547.735,1.144,1044.151,345.980,0.899,800.041,333.621,0.995,947.338,63.428,0.715,884.891,124.542,0.788,-0.034,-0.968,1.403,0.000,-9.999,0.000,-0.013,-0.040,-0.004,-0.238,-0.723,1.351
0723_095332_0063.png,0.052,0.175,0.927,-0.015,0.172,0.925,0.176,-0.007,1.088,-0.121,0.007,1.148,0.236,-0.250,0.975,-0.284,-0.186,1.263,0.213,-0.355,0.730,-0.402,-0.275,1.040,1013.793,719.139,0.927,945.046,716.765,0.925,1113.392,533.759,1.088,859.763,545.527,1.148,1189.993,295.678,0.975,746.108,399.941,1.263,1237.198,78.017,0.730,592.481,288.484,1.040,-0.037,-0.967,1.402,0.000,-10.577,0.000,-0.020,-0.026,-0.012,-0.068,-1.093,1.326
0723_095332_0064.png,0.037,0.139,0.940,-0.028,0.138,0.942,0.161,-0.021,1.109,-0.128,-0.011,1.152,0.141,-0.286,1.068,-0.309,-0.187,1.231,0.103,-0.340,0.807,-0.333,-0.291,0.981,997.655,680.535,0.940,932.190,679.320,0.942,1098.368,521.798,1.109,854.672,530.533,1.152,1085.209,285.795,1.068,721.485,395.333,1.231,1081.968,139.198,0.807,637.424,258.126,0.981,-0.033,-0.958,1.400,0.000,-7.411,0.000,0.016,0.032,-0.030,-0.200,-1.190,1.531
0723_095332_0065.png,0.051,0.169,0.947,-0.016,0.165,0.940,0.165,-0.014,1.109,-0.136,-0.005,1.144,0.125,-0.255,0.986,-0.300,-0.212,1.072,0.019,-0.347,0.757,-0.304,-0.325,0.828,1010.885,709.216,0.947,943.810,707.372,0.940,1101.224,528.401,1.109,846.805,535.536,1.144,1080.913,294.123,0.986,693.588,351.447,1.072,983.510,104.589,0.757,611.092,166.914,0.828,-0.035,-0.962,1.401,0.000,-5.727,0.000,-0.020,0.009,-0.020,0.207,-0.888,1.212
0723_095332_0066.png,0.021,0.179,0.932,-0.046,0.181,0.937,0.145,0.001,1.125,-0.156,0.001,1.127,0.186,-0.243,1.254,-0.245,-0.239,1.016,0.197,-0.293,0.986,-0.140,-0.346,0.790,981.028,723.224,0.932,913.428,723.945,0.937,1082.368,540.713,1.125,828.317,541.130,1.127,1100.999,356.016,1.254,730.827,316.536,1.016,1149.963,257.439,0.986,791.864,123.818,0.790,-0.031,-0.964,1.402,0.000,-359.248,0.000,-0.013,-0.030,-0.034,-0.164,-0.908,1.448
0723_095332_0067.png,0.006,0.171,0.934,-0.058,0.173,0.939,0.122,-0.004,1.133,-0.169,-0.010,1.107,0.279,-0.221,1.151,-0.198,-0.258,1.007,0.388,-0.306,0.930,-0.077,-0.346,0.794,966.589,713.895,0.934,901.344,715.230,0.939,1062.054,536.912,1.133,814.889,531.836,1.107,1190.640,357.480,1.151,773.345,296.851,1.007,1357.217,226.970,0.930,867.181,125.430,0.794,-0.026,-0.966,1.402,0.000,-353.710,0.000,0.018,-0.003,0.011,-0.095,-0.921,1.194
0723_095332_0068.png,0.018,0.182,0.942,-0.050,0.183,0.944,0.133,0.004,1.138,-0.169,-0.003,1.106,0.145,-0.242,1.027,-0.280,-0.212,1.234,-0.004,-0.327,0.823,-0.309,-0.280,0.979,977.788,723.484,0.942,909.959,724.227,0.944,1070.892,543.730,1.138,814.281,537.522,1.106,1094.729,316.012,1.027,744.470,376.257,1.234,955.914,162.411,0.823,660.264,268.176,0.979,-0.034,-0.974,1.404,0.000,-352.632,0.000,-0.024,0.010,-0.005,0.070,-0.741,1.238
0723_095332_0069.png,0.006,0.165,0.929,-0.057,0.170,0.939,0.119,0.001,1.144,-0.165,-0.008,1.105,0.263,-0.209,1.234,-0.279,-0.208,1.250,0.283,-0.303,0.983,-0.348,-0.295,1.008,965.964,708.862,0.929,901.965,711.882,0.939,1059.233,540.600,1.144,817.823,532.963,1.105,1162.993,379.167,1.234,747.697,381.996,1.250,1233.715,246.683,0.983,631.725,262.003,1.008,-0.034,-0.964,1.402,0.000,-350.880,0.000,0.032,-0.011,-0.020,-0.166,-1.042,1.427
0723_095332_0070.png,0.061,0.190,0.932,-0.005,0.187,0.925,0.177,-0.012,1.077,-0.115,0.004,1.147,0.175,-0.182,1.299,-0.089,-0.173,0.939,0.232,-0.273,1.061,-0.062,-0.345,0.736,1022.507,733.614,0.932,955.259,732.242,0.925,1116.355,529.078,1.077,864.890,543.061,1.147,1088.268,407.028,1.299,869.968,364.573,0.939,1168.196,295.741,1.061,880.290,93.809,0.736,-0.038,-0.964,1.402,0.000,-12.637,0.000,-0.012,-0.041,0.016,0.087,-0.699,1.402
0723_095332_0071.png,0.033,0.153,0.938,-0.033,0.153,0.937,0.146,-0.010,1.126,-0.149,-0.010,1.122,0.289,-0.229,1.075,-0.117,-0.193,0.924,0.340,-0.324,0.835,-0.057,-0.355,0.724,993.167,695.166,0.938,927.017,695.135,0.937,1083.024,531.872,1.126,834.061,531.255,1.122,1215.914,337.301,1.075,839.670,341.486,0.924,1347.577,170.980,0.835,885.614,72.802,0.724,-0.038,-0.966,1.402,0.000,-358.217,0.000,0.009,0.024,0.003,0.089,-1.141,1.298
0723_095332_0072.png,0.023,0.162,0.925,-0.040,0.164,0.927,0.133,-0.002,1.128,-0.154,-0.006,1.108,0.254,-0.228,1.050,-0.242,-0.245,1.023,0.257,-0.341,0.816,-0.142,-0.348,0.807,983.904,706.663,0.925,918.542,707.769,0.927,1072.011,538.300,1.128,828.006,534.473,1.108,1189.939,333.256,1.050,734.705,311.910,1.023,1259.389,142.264,0.816,793.080,130.297,0.807,-0.037,-0.967,1.402,0.000,-354.884,0.000,0.032,-0.014,0.014,0.045,-1.098,1.621
0723_095332_0073.png,0.055,0.174,0.933,-0.009,0.171,0.928,0.169,-0.013,1.082,-0.112,0.002,1.144,0.217,-0.278,1.086,-0.259,-0.218,1.186,0.071,-0.324,0.878,-0.323,-0.304,0.952,1016.110,717.721,0.933,951.281,715.593,0.928,1108.790,528.983,1.082,867.202,541.423,1.144,1149.808,296.723,1.086,752.567,365.267,1.186,1037.237,189.292,0.878,637.184,236.571,0.952,-0.038,-0.969,1.403,0.000,-11.587,0.000,0.030,-0.004,0.024,0.019,-0.968,1.113
0723_095332_0074.png,0.048,0.183,0.930,-0.017,0.179,0.922,0.158,-0.002,1.098,-0.136,0.005,1.130,0.092,-0.214,0.947,-0.279,-0.197,1.025,-0.018,-0.352,0.755,-0.366,-0.334,0.822,1009.466,727.134,0.930,942.796,725.177,0.922,1097.115,537.991,1.098,845.463,544.227,1.130,1052.590,325.169,0.947,701.104,356.949,1.025,937.756,97.245,0.755,536.516,154.106,0.822,-0.035,-0.970,1.403,0.000,-5.181,0.000,0.002,-0.030,0.018,0.269,-0.999,1.261
0723_095332_0075.png,0.037,0.169,0.954,-0.031,0.169,0.953,0.159,-0.016,1.118,-0.146,-0.011,1.141,0.090,-0.189,0.909,-0.327,-0.214,1.162,0.023,-0.357,0.704,-0.408,-0.295,0.918,997.067,708.913,0.954,929.298,708.605,0.953,1095.505,526.226,1.118,838.149,530.984,1.141,1054.699,342.149,0.909,692.324,365.050,1.162,991.322,58.053,0.704,537.136,233.969,0.918,-0.033,-0.959,1.400,0.000,-3.318,0.000,-0.032,0.019,-0.027,-0.033,-0.632,1.369
0723_095332_0076.png,0.061,0.176,0.934,-0.002,0.170,0.923,0.171,-0.010,1.079,-0.104,0.008,1.155,0.163,-0.211,0.890,-0.284,-0.193,1.166,0.107,-0.380,0.688,-0.279,-0.319,0.931,1021.629,719.466,0.934,957.625,715.250,0.923,1110.668,531.419,1.079,874.147,546.333,1.155,1133.956,315.156,0.890,728.406,382.695,1.166,1108.359,15.394,0.688,674.515,214.430,0.931,-0.034,-0.968,1.403,0.000,-14.617,0.000,0.037,-0.018,-0.015,0.152,-1.083,1.214
0723_095332_0077.png,0.050,0.166,0.933,-0.013,0.163,0.927,0.161,-0.012,1.095,-0.124,-0.004,1.133,0.093,-0.186,0.903,-0.271,-0.185,1.262,0.026,-0.355,0.717,-0.265,-0.282,1.028,1011.158,709.418,0.933,946.467,707.515,0.927,1099.703,529.271,1.095,855.949,536.886,1.133,1057.846,344.289,0.903,756.033,400.694,1.262,994.804,68.602,0.717,714.654,279.200,1.028,-0.039,-0.969,1.403,0.000,-6.547,0.000,0.032,0.004,0.038,0.134,-0.908,1.629
0723_095332_0078.png,0.037,0.166,0.936,-0.026,0.164,0.933,0.152,-0.007,1.106,-0.132,0.001,1.142,0.230,-0.215,1.259,-0.215,-0.172,0.935,0.377,-0.282,1.053,-0.300,-0.340,0.736,998.083,708.440,0.936,933.531,706.741,0.933,1091.055,533.597,1.106,850.395,540.683,1.142,1133.978,377.662,1.259,740.932,365.387,0.935,1300.392,285.079,1.053,571.936,100.231,0.736,-0.030,-0.967,1.402,0.000,-6.231,0.000,0.036,0.003,-0.017,0.004,-1.014,1.514
0723_095332_0079.png,0.016,0.162,0.940,-0.050,0.164,0.944,0.136,-0.010,1.122,-0.162,-0.010,1.119,0.157,-0.245,1.005,-0.325,-0.193,1.221,0.124,-0.335,0.767,-0.315,-0.281,0.980,975.735,704.155,0.940,909.203,704.801,0.944,1075.607,531.815,1.122,822.383,531.279,1.119,1108.847,308.341,1.005,706.470,389.490,1.221,1114.186,124.969,0.767,654.658,266.876,0.980,-0.026,-0.969,1.403,0.000,-358.307,0.000,-0.004,0.031,0.025,-0.118,-0.880,1.270
0723_095332_0080.png,0.045,0.185,0.930,-0.022,0.183,0.928,0.168,-0.004,1.084,-0.123,0.011,1.151,0.156,-0.235,0.934,-0.225,-0.245,1.141,0.120,-0.366,0.703,-0.212,-0.320,0.884,1005.587,729.268,0.930,937.863,727.399,0.928,1107.410,536.568,1.084,858.658,549.420,1.151,1118.960,301.072,0.934,772.235,335.921,1.141,1121.712,44.295,0.703,732.071,195.702,0.884,-0.029,-0.970,1.403,0.000,-12.062,0.000,-0.006,-0.026,-0.017,-0.163,-0.978,1.153
0723_095332_0081.png,0.054,0.174,0.925,-0.010,0.168,0.916,0.166,-0.006,1.086,-0.121,0.007,1.145,0.113,-0.202,0.902,-0.190,-0.253,1.087,0.017,-0.369,0.718,-0.151,-0.336,0.839,1015.749,718.795,0.925,949.524,714.586,0.916,1105.417,534.511,1.086,859.171,545.991,1.145,1079.474,327.061,0.902,793.441,318.414,1.087,983.010,51.927,0.718,788.958,159.423,0.839,-0.033,-0.966,1.402,0.000,-10.654,0.000,0.011,-0.039,-0.002,0.207,-1.206,1.402
0723_095332_0082.png,0.038,0.172,0.928,-0.030,0.171,0.929,0.164,-0.005,1.097,-0.141,0.004,1.136,0.190,-0.201,1.282,-0.319,-0.195,1.081,0.238,-0.263,1.033,-0.409,-0.308,0.865,998.901,716.136,0.928,929.081,715.158,0.929,1102.356,535.702,1.097,841.862,543.435,1.136,1100.981,390.560,1.282,679.112,368.677,1.081,1178.857,297.872,1.033,509.676,201.793,0.865,-0.032,-0.972,1.404,0.000,-6.375,0.000,-0.037,-0.005,0.016,-0.126,-1.063,1.287
0723_095332_0083.png,-0.011,0.168,0.938,-0.076,0.173,0.950,0.110,-0.002,1.148,-0.184,-0.013,1.102,0.208,-0.217,1.278,-0.185,-0.239,0.948,0.240,-0.278,1.019,-0.157,-0.363,0.711,948.932,710.627,0.938,884.101,713.268,0.950,1050.994,538.279,1.148,801.158,529.136,1.102,1115.034,378.539,1.278,774.843,299.866,0.948,1184.375,280.756,1.019,749.829,54.373,0.711,-0.023,-0.964,1.402,0.000,-349.755,0.000,-0.003,0.006,-0.019,-0.265,-0.853,1.267
0723_095332_0084.png,0.050,0.156,0.948,-0.016,0.152,0.941,0.164,-0.017,1.110,-0.131,-0.008,1.151,0.116,-0.240,0.951,-0.258,-0.245,1.160,0.012,-0.360,0.728,-0.266,-0.312,0.896,1010.348,696.045,0.948,944.313,693.319,0.941,1100.711,525.128,1.110,852.100,533.601,1.151,1075.565,299.599,0.951,748.106,339.019,1.160,975.228,70.319,0.728,677.623,209.169,0.896,-0.034,-0.959,1.401,0.000,-7.105,0.000,-0.003,0.021,-0.038,0.161,-1.099,1.150
0723_095332_0085.png,-0.013,0.156,0.924,-0.079,0.161,0.932,0.101,-0.003,1.149,-0.193,-0.018,1.082,0.195,-0.225,1.275,-0.355,-0.237,1.089,0.209,-0.271,1.022,-0.400,-0.317,0.847,946.426,700.532,0.924,879.477,704.392,0.932,1043.495,537.437,1.149,790.504,523.816,1.082,1105.615,372.393,1.275,650.208,333.019,1.089,1154.113,287.375,1.022,511.196,184.346,0.847,-0.021,-0.964,1.401,0.000,-345.722,0.000,-0.016,-0.004,0.026,-0.095,-1.047,1.564
0723_095332_0086.png,0.052,0.155,0.938,-0.013,0.150,0.931,0.170,-0.013,1.085,-0.119,0.004,1.159,0.236,-0.236,0.943,-0.243,-0.172,1.314,0.248,-0.357,0.705,-0.306,-0.258,1.069,1013.104,697.611,0.938,946.258,693.081,0.931,1108.868,528.814,1.085,862.165,543.576,1.159,1197.474,302.548,0.943,784.292,415.504,1.314,1294.258,58.360,0.705,688.010,310.157,1.069,-0.027,-0.972,1.403,0.000,-13.640,0.000,-0.007,0.030,-0.018,0.030,-1.101,1.671
0723_095332_0087.png,0.020,0.166,0.926,-0.046,0.168,0.928,0.131,-0.002,1.134,-0.167,-0.010,1.098,0.141,-0.272,1.113,-0.269,-0.251,1.029,0.086,-0.315,0.863,-0.167,-0.334,0.807,980.729,710.897,0.926,912.610,712.180,0.928,1069.705,538.351,1.134,815.506,531.106,1.098,1080.371,307.497,1.113,711.796,308.076,1.029,1054.931,192.592,0.863,763.406,146.368,0.807,-0.036,-0.966,1.402,0.000,-351.730,0.000,-0.010,-0.017,0.024,0.112,-0.942,1.714
0723_095332_0088.png,0.050,0.180,0.936,-0.014,0.176,0.928,0.162,-0.006,1.091,-0.124,0.006,1.145,0.174,-0.274,1.041,-0.278,-0.195,1.242,-0.008,-0.334,0.861,-0.461,-0.275,1.072,1010.978,723.169,0.936,945.745,720.733,0.928,1101.336,534.377,1.091,857.096,544.911,1.145,1119.119,289.295,1.041,747.288,390.878,1.242,951.254,171.368,0.861,550.993,295.985,1.072,-0.031,-0.970,1.403,0.000,-9.751,0.000,0.019,-0.014,-0.003,0.153,-0.976,1.142
0723_095332_0089.png,-0.008,0.157,0.940,-0.072,0.162,0.950,0.103,-0.003,1.158,-0.183,-0.016,1.102,0.127,-0.184,0.937,-0.193,-0.273,1.006,0.155,-0.362,0.723,-0.055,-0.352,0.786,951.615,699.089,0.940,887.597,702.570,0.950,1044.272,537.509,1.158,802.217,526.440,1.102,1089.240,353.020,0.937,777.696,281.847,1.006,1164.561,64.150,0.723,893.727,113.761,0.786,-0.026,-0.961,1.401,0.000,-347.608,0.000,0.020,0.016,-0.042,-0.113,-0.918,1.538
0723_095332_0090.png,0.029,0.151,0.946,-0.034,0.150,0.943,0.136,-0.015,1.129,-0.150,-0.015,1.127,0.233,-0.214,1.269,-0.105,-0.190,0.913,0.395,-0.270,1.073,-0.065,-0.361,0.705,989.431,691.811,0.946,925.613,691.301,0.943,1074.609,527.719,1.129,833.328,527.161,1.127,1134.476,379.786,1.269,850.234,342.219,0.913,1310.429,301.119,1.073,872.526,52.935,0.705,-0.032,-0.961,1.401,0.000,-358.270,0.000,0.036,0.031,-0.009,0.167,-0.914,1.655
0723_095332_0091.png,0.018,0.183,0.931,-0.046,0.183,0.931,0.133,-0.007,1.113,-0.158,-0.005,1.120,0.185,-0.243,1.250,-0.156,-0.221,0.963,0.189,-0.296,0.997,-0.067,-0.357,0.762,978.324,727.116,0.931,912.568,727.065,0.931,1073.574,534.392,1.113,826.212,535.853,1.120,1100.699,354.831,1.250,805.784,321.431,0.963,1140.573,257.312,0.997,876.234,94.651,0.762,-0.022,-0.963,1.401,0.000,-0.305,0.000,0.022,-0.033,0.021,-0.015,-0.787,1.284
0723_095332_0092.png,0.021,0.155,0.939,-0.046,0.156,0.943,0.141,-0.013,1.129,-0.159,-0.016,1.115,0.186,-0.198,1.311,-0.148,-0.214,0.938,0.255,-0.254,1.068,-0.087,-0.346,0.722,980.969,696.553,0.939,913.765,697.647,0.943,1079.016,529.139,1.129,823.999,526.338,1.115,1094.955,396.392,1.311,810.401,322.725,0.938,1186.927,313.946,1.068,845.235,83.905,0.722,-0.035,-0.964,1.402,0.000,-356.169,0.000,-0.014,0.027,0.019,-0.080,-0.905,1.491
0723_095332_0093.png,0.004,0.190,0.935,-0.063,0.193,0.943,0.125,0.010,1.143,-0.179,-0.002,1.092,0.151,-0.234,1.030,-0.240,-0.265,1.121,-0.022,-0.318,0.842,-0.215,-0.308,0.863,964.213,733.361,0.935,896.009,734.511,0.943,1063.969,548.210,1.143,803.915,538.317,1.092,1099.073,323.863,1.030,756.051,315.156,1.121,935.640,180.828,0.842,723.402,200.798,0.863,-0.034,-0.976,1.404,0.000,-349.000,0.000,-0.040,-0.004,0.004,-0.098,-0.641,1.344
0723_095332_0094.png,0.034,0.173,0.934,-0.034,0.172,0.931,0.148,0.000,1.120,-0.156,0.000,1.121,0.082,-0.177,0.917,-0.297,-0.210,1.223,0.016,-0.348,0.718,-0.366,-0.282,0.979,994.216,716.577,0.934,925.626,716.053,0.931,1085.464,540.271,1.120,827.600,540.410,1.121,1044.631,356.703,0.917,728.897,377.095,1.223,980.568,78.589,0.718,604.429,265.747,0.979,-0.033,-0.972,1.403,0.000,-358.965,0.000,-0.023,-0.004,0.001,0.171,-1.063,1.192
0723_095332_0095.png,0.057,0.166,0.936,-0.010,0.161,0.928,0.170,-0.008,1.098,-0.131,0.002,1.142,0.308,-0.242,1.094,-0.274,-0.196,1.262,0.366,-0.315,0.847,-0.450,-0.258,1.073,1017.666,708.546,0.936,949.998,705.301,0.928,1106.891,532.784,1.098,850.937,541.575,1.142,1228.053,329.857,1.094,753.334,392.523,1.262,1371.495,186.284,0.847,561.324,310.933,1.073,-0.037,-0.970,1.403,0.000,-7.461,0.000,-0.024,0.004,0.000,0.256,-1.108,1.372
0723_095332_0096.png,0.036,0.178,0.940,-0.031,0.175,0.933,0.148,0.002,1.115,-0.155,0.007,1.134,0.158,-0.258,1.027,-0.211,-0.175,0.924,-0.004,-0.331,0.824,-0.266,-0.351,0.719,996.591,720.475,0.940,928.713,718.768,0.933,1086.579,541.733,1.115,830.322,545.471,1.134,1106.591,301.151,1.027,743.026,360.339,0.924,955.691,158.019,0.824,608.359,76.110,0.719,-0.025,-0.973,1.404,0.000,-2.614,0.000,-0.023,-0.001,-0.026,0.255,-0.991,1.276
0723_095332_0097.png,0.028,0.178,0.923,-0.038,0.177,0.921,0.141,0.006,1.114,-0.156,0.007,1.117,0.131,-0.234,0.991,-0.274,-0.218,1.226,-0.017,-0.341,0.803,-0.360,-0.292,0.990,988.950,723.001,0.923,921.034,722.466,0.921,1080.647,545.386,1.114,827.288,546.047,1.117,1085.239,315.179,0.991,747.115,370.841,1.226,939.522,136.507,0.803,614.425,259.388,0.990,-0.029,-0.975,1.404,0.000,-359.511,0.000,-0.001,-0.027,0.011,0.119,-1.133,1.439
0723_095332_0098.png,0.041,0.170,0.920,-0.024,0.166,0.918,0.163,-0.011,1.077,-0.121,0.006,1.151,0.101,-0.194,0.881,-0.214,-0.162,0.950,0.042,-0.373,0.691,-0.305,-0.326,0.755,1002.396,715.535,0.920,935.172,712.118,0.918,1104.041,530.542,1.077,860.350,545.147,1.151,1069.372,331.162,0.881,745.782,378.256,0.950,1017.450,27.285,0.691,575.442,129.674,0.755,-0.025,-0.964,1.402,0.000,-13.756,0.000,0.011,-0.038,0.000,-0.134,-1.209,1.418
0723_095332_0099.png,0.046,0.172,0.926,-0.020,0.170,0.923,0.165,-0.008,1.097,-0.133,0.001,1.135,0.264,-0.259,1.057,-0.274,-0.196,1.016,0.295,-0.332,0.809,-0.360,-0.332,0.811,1007.652,716.417,0.926,939.430,714.722,0.923,1103.123,533.466,1.097,848.836,540.936,1.135,1197.902,306.989,1.057,703.560,356.562,1.016,1306.720,149.076,0.809,538.442,150.668,0.811,-0.037,-0.966,1.402,0.000,-6.222,0.000,-0.011,-0.025,0.015,0.037,-1.164,1.152
0723_095332_0100.png,0.014,0.172,0.937,-0.052,0.175,0.945,0.139,-0.004,1.133,-0.162,-0.007,1.120,0.097,-0.235,0.988,-0.322,-0.228,1.146,-0.017,-0.346,0.770,-0.226,-0.309,0.907,974.592,714.975,0.937,907.593,716.378,0.945,1076.925,536.945,1.133,822.236,534.349,1.120,1053.430,314.096,0.988,692.515,351.112,1.146,939.446,112.772,0.770,723.536,216.021,0.907,-0.033,-0.963,1.401,0.000,-356.272,0.000,-0.017,-0.008,-0.025,-0.220,-0.887,1.257
0723_095332_0101.png,0.057,0.160,0.926,-0.007,0.155,0.919,0.171,-0.015,1.072,-0.112,0.002,1.146,0.224,-0.268,1.016,-0.267,-0.209,1.193,0.102,-0.334,0.805,-0.357,-0.292,0.973,1018.820,704.452,0.926,953.109,700.139,0.919,1111.463,527.057,1.072,867.448,541.888,1.146,1169.770,289.400,1.016,747.548,373.443,1.193,1080.096,145.349,0.805,610.712,254.933,0.973,-0.035,-0.972,1.404,0.000,-13.768,0.000,0.016,0.006,0.043,0.084,-1.186,1.471
0723_095332_0102.png,0.034,0.165,0.944,-0.029,0.162,0.936,0.139,-0.012,1.112,-0.146,-0.007,1.133,0.225,-0.232,0.988,-0.179,-0.223,0.976,0.251,-0.355,0.759,-0.177,-0.359,0.752,993.741,706.453,0.944,930.255,704.699,0.936,1078.539,529.765,1.112,837.275,533.952,1.133,1176.734,316.776,0.988,785.574,322.521,0.976,1274.782,95.612,0.759,736.401,85.352,0.752,-0.024,-0.965,1.402,0.000,-3.100,0.000,0.038,0.015,0.007,0.266,-0.859,1.510
0723_095332_0103.png,0.004,0.174,0.935,-0.061,0.176,0.941,0.121,-0.009,1.130,-0.172,-0.016,1.099,0.152,-0.250,1.032,-0.174,-0.245,0.973,-0.020,-0.323,0.855,-0.131,-0.344,0.746,963.892,716.723,0.935,898.194,717.534,0.941,1061.797,532.450,1.130,810.729,526.186,1.099,1100.223,309.231,1.032,789.745,300.824,0.973,938.253,181.071,0.855,793.454,101.230,0.746,-0.025,-0.964,1.402,0.000,-352.752,0.000,0.006,-0.001,0.047,-0.106,-0.665,1.386
0723_095332_0104.png,0.038,0.164,0.928,-0.027,0.162,0.926,0.155,-0.012,1.105,-0.136,-0.004,1.139,0.179,-0.276,1.030,-0.115,-0.184,0.926,0.008,-0.341,0.838,-0.096,-0.361,0.719,998.889,707.632,0.928,932.407,705.917,0.926,1093.296,529.705,1.105,846.689,536.480,1.139,1124.982,284.974,1.030,841.834,350.562,0.926,969.583,152.631,0.838,832.590,62.263,0.719,-0.031,-0.958,1.400,0.000,-5.618,0.000,0.014,-0.031,-0.011,0.019,-1.029,1.734
0723_095332_0105.png,0.029,0.164,0.937,-0.036,0.165,0.939,0.146,-0.010,1.122,-0.147,-0.010,1.123,0.110,-0.232,0.973,-0.260,-0.234,1.027,0.016,-0.352,0.760,-0.286,-0.340,0.789,988.942,706.087,0.937,923.206,706.523,0.939,1083.948,531.318,1.122,835.823,531.530,1.123,1067.502,313.732,0.973,719.722,323.259,1.027,980.566,99.192,0.760,615.288,129.928,0.789,-0.037,-0.963,1.402,0.000,-359.038,0.000,0.014,0.006,0.006,-0.074,-0.969,1.238
0723_095332_0106.png,0.027,0.160,0.946,-0.039,0.161,0.946,0.144,-0.014,1.127,-0.155,-0.015,1.122,0.232,-0.219,0.977,-0.165,-0.238,0.974,0.267,-0.343,0.749,-0.132,-0.348,0.739,987.326,701.291,0.946,920.677,701.512,0.946,1081.376,528.276,1.127,828.388,527.334,1.122,1185.781,327.223,0.977,799.424,307.897,0.974,1298.607,104.647,0.749,790.004,92.776,0.739,-0.034,-0.962,1.401,0.000,-357.927,0.000,-0.008,0.027,0.007,0.027,-0.795,1.403
0723_095332_0107.png,0.007,0.190,0.934,-0.061,0.191,0.937,0.121,0.008,1.140,-0.181,-0.003,1.093,0.239,-0.197,1.280,-0.332,-0.232,1.078,0.336,-0.266,1.047,-0.394,-0.318,0.837,966.902,733.260,0.934,898.223,734.098,0.937,1061.059,546.765,1.140,802.152,537.664,1.093,1137.767,393.561,1.280,666.790,335.395,1.078,1265.278,298.452,1.047,512.388,179.414,0.837,-0.029,-0.973,1.404,0.000,-349.777,0.000,-0.032,-0.014,0.010,0.065,-0.666,1.422
0723_095332_0108.png,0.000,0.177,0.937,-0.063,0.180,0.946,0.119,0.002,1.135,-0.170,-0.003,1.114,0.224,-0.248,1.124,-0.312,-0.227,1.062,0.071,-0.316,0.921,-0.374,-0.338,0.828,960.351,719.527,0.937,896.240,721.066,0.946,1059.785,541.387,1.135,814.773,537.246,1.114,1149.233,330.326,1.124,681.028,336.776,1.062,1033.219,213.503,0.921,530.862,151.812,0.828,-0.023,-0.969,1.403,0.000,-354.518,0.000,0.023,0.000,-0.016,-0.221,-0.825,1.307
0723_095332_0109.png,0.041,0.181,0.931,-0.025,0.178,0.926,0.156,-0.009,1.095,-0.139,0.000,1.133,0.291,-0.247,1.121,-0.205,-0.243,1.038,0.357,-0.316,0.880,-0.062,-0.331,0.839,1001.720,724.702,0.931,934.385,723.358,0.926,1095.607,532.482,1.095,843.207,540.118,1.133,1207.000,330.474,1.121,772.035,317.677,1.038,1345.999,198.698,0.880,889.862,164.310,0.839,-0.029,-0.965,1.402,0.000,-6.404,0.000,-0.004,-0.029,0.022,0.101,-0.901,1.254
0723_095332_0110.png,0.019,0.177,0.935,-0.049,0.179,0.942,0.150,-0.002,1.112,-0.157,0.001,1.125,0.094,-0.177,0.914,-0.231,-0.246,1.053,0.035,-0.346,0.720,-0.051,-0.309,0.868,978.985,719.586,0.935,910.516,720.283,0.942,1088.569,538.032,1.112,827.442,540.548,1.125,1057.350,355.661,0.914,751.125,317.542,1.053,1006.190,83.033,0.720,904.274,201.307,0.868,-0.029,-0.974,1.404,0.000,-1.282,0.000,-0.035,0.010,0.015,-0.316,-0.821,1.301
0723_095332_0111.png,0.022,0.150,0.929,-0.043,0.152,0.933,0.138,-0.011,1.128,-0.155,-0.014,1.114,0.105,-0.224,0.970,-0.248,-0.258,1.052,-0.017,-0.346,0.775,-0.087,-0.327,0.860,982.411,693.164,0.929,916.176,694.593,0.933,1076.382,530.857,1.128,827.903,527.988,1.114,1063.143,320.198,0.970,735.981,306.676,1.052,939.225,114.946,0.775,864.212,178.499,0.860,-0.036,-0.961,1.401,0.000,-356.012,0.000,0.012,0.001,0.013,-0.059,-1.205,1.440
0723_095332_0112.png,0.014,0.170,0.916,-0.052,0.174,0.921,0.119,0.008,1.143,-0.170,-0.005,1.085,0.201,-0.249,1.095,-0.167,-0.215,0.914,0.040,-0.322,0.903,-0.114,-0.368,0.707,974.037,716.408,0.916,906.785,719.583,0.921,1058.711,546.901,1.143,811.161,535.684,1.085,1134.932,323.693,1.095,785.876,316.592,0.914,1001.628,200.468,0.903,806.407,45.347,0.707,-0.039,-0.968,1.403,0.000,-347.266,0.000,0.008,-0.041,0.009,0.078,-1.202,1.471
0723_095332_0113.png,0.002,0.170,0.946,-0.064,0.173,0.954,0.124,-0.001,1.138,-0.174,-0.006,1.117,0.187,-0.225,1.259,-0.336,-0.217,1.083,0.188,-0.277,0.997,-0.375,-0.320,0.838,961.914,710.658,0.946,896.253,712.103,0.954,1063.705,539.243,1.138,811.619,535.230,1.117,1101.624,370.138,1.259,664.636,349.247,1.083,1138.918,276.173,0.997,534.927,176.983,0.838,-0.023,-0.972,1.403,0.000,-354.806,0.000,-0.007,0.033,-0.019,-0.202,-0.826,1.136
0723_095332_0114.png,0.048,0.156,0.930,-0.019,0.153,0.926,0.166,-0.013,1.094,-0.130,-0.002,1.142,0.194,-0.201,1.285,-0.274,-0.203,1.253,0.254,-0.267,1.039,-0.413,-0.269,1.042,1008.902,699.618,0.930,940.935,696.783,0.926,1104.484,528.677,1.094,851.420,538.451,1.142,1103.538,390.844,1.285,751.938,386.108,1.253,1192.783,295.445,1.039,583.335,294.740,1.042,-0.034,-0.967,1.402,0.000,-8.366,0.000,-0.013,0.003,0.013,0.050,-1.135,1.657
0723_095332_0115.png,0.055,0.160,0.938,-0.012,0.155,0.933,0.175,-0.017,1.077,-0.120,0.002,1.160,0.314,-0.244,1.097,-0.212,-0.163,0.957,0.369,-0.307,0.845,-0.299,-0.323,0.757,1015.951,701.776,0.938,947.486,698.154,0.933,1114.814,525.221,1.077,861.418,541.930,1.160,1232.679,328.284,1.097,749.308,377.863,0.957,1374.904,194.695,0.845,584.031,134.043,0.757,-0.027,-0.971,1.403,0.000,-14.916,0.000,-0.036,0.030,0.001,-0.019,-0.955,1.626
0723_095332_0116.png,0.018,0.160,0.933,-0.048,0.163,0.939,0.138,-0.001,1.138,-0.160,-0.007,1.113,0.219,-0.240,1.031,-0.267,-0.233,1.003,0.122,-0.335,0.801,-0.233,-0.346,0.763,978.647,703.106,0.933,911.650,705.326,0.939,1075.678,538.861,1.138,823.129,533.956,1.113,1162.128,319.162,1.031,706.947,318.995,1.003,1104.350,141.983,0.801,669.573,108.240,0.763,-0.039,-0.967,1.402,0.000,-353.948,0.000,-0.009,0.006,-0.017,-0.131,-1.136,1.289
0723_095332_0117.png,0.004,0.176,0.921,-0.059,0.180,0.929,0.111,0.006,1.144,-0.171,-0.009,1.080,0.137,-0.237,1.034,-0.244,-0.189,0.894,-0.012,-0.338,0.851,-0.315,-0.365,0.713,964.098,721.762,0.921,899.253,724.689,0.929,1051.855,545.060,1.144,809.682,532.341,1.080,1085.977,322.123,1.034,700.804,339.317,0.894,946.106,162.805,0.851,540.449,53.653,0.713,-0.038,-0.969,1.403,0.000,-345.618,0.000,0.027,-0.026,0.025,-0.060,-1.036,1.165
0723_095332_0118.png,0.024,0.147,0.940,-0.043,0.148,0.942,0.144,-0.011,1.130,-0.157,-0.011,1.129,0.120,-0.262,1.030,-0.333,-0.215,1.100,0.060,-0.337,0.779,-0.377,-0.315,0.855,984.121,688.678,0.940,916.614,689.278,0.942,1081.611,530.609,1.130,827.629,530.552,1.129,1071.203,297.950,1.030,671.818,354.384,1.100,1033.634,129.170,0.779,540.702,189.097,0.855,-0.032,-0.963,1.401,0.000,-358.773,0.000,-0.016,0.028,-0.022,-0.051,-1.090,1.599
0723_095332_0119.png,0.029,0.153,0.933,-0.034,0.151,0.931,0.144,-0.015,1.103,-0.140,-0.007,1.135,0.199,-0.271,1.062,-0.120,-0.182,0.928,0.027,-0.326,0.879,-0.101,-0.354,0.727,989.473,695.480,0.933,924.778,693.940,0.931,1084.083,527.398,1.103,842.438,533.945,1.135,1138.120,297.353,1.062,837.323,353.105,0.928,989.711,187.688,0.879,828.392,77.335,0.727,-0.024,-0.966,1.402,0.000,-5.449,0.000,0.036,0.016,0.021,-0.023,-1.226,1.254
0723_095332_0120.png,0.025,0.170,0.927,-0.038,0.171,0.931,0.142,0.000,1.120,-0.143,0.002,1.126,0.079,-0.180,0.911,-0.301,-0.215,1.091,0.022,-0.357,0.709,-0.393,-0.336,0.872,985.645,713.926,0.927,921.049,714.346,0.931,1080.406,540.116,1.120,839.044,541.453,1.126,1042.834,352.596,0.911,697.482,352.913,1.091,989.738,61.212,0.709,530.912,174.095,0.872,-0.034,-0.967,1.402,0.000,-0.249,0.000,0.040,-0.021,-0.019,-0.120,-1.169,1.310
0723_095332_0121.png,0.005,0.151,0.935,-0.061,0.153,0.938,0.114,-0.009,1.144,-0.181,-0.019,1.100,0.190,-0.200,1.314,-0.268,-0.267,1.056,0.254,-0.259,1.068,-0.097,-0.318,0.864,965.232,693.572,0.935,898.271,695.433,0.938,1054.879,532.791,1.144,803.802,523.692,1.100,1097.295,395.370,1.314,718.749,299.156,1.056,1185.797,309.212,1.068,853.055,190.407,0.864,-0.025,-0.962,1.401,0.000,-350.059,0.000,-0.004,0.018,0.012,0.109,-1.114,1.287
0723_095332_0122.png,0.009,0.159,0.935,-0.059,0.161,0.940,0.130,-0.002,1.135,-0.176,-0.007,1.113,0.231,-0.226,1.240,-0.280,-0.228,0.996,0.317,-0.274,0.995,-0.266,-0.338,0.755,968.846,701.494,0.935,900.291,703.132,0.940,1068.725,538.462,1.135,809.867,534.086,1.113,1137.356,366.924,1.240,692.586,321.750,0.996,1263.407,278.018,0.995,624.476,113.703,0.755,-0.025,-0.970,1.403,0.000,-354.577,0.000,-0.032,0.020,-0.006,-0.071,-1.109,1.308
0723_095332_0123.png,0.006,0.168,0.937,-0.058,0.171,0.942,0.104,0.002,1.153,-0.173,-0.013,1.088,0.163,-0.178,0.953,-0.293,-0.244,1.140,0.223,-0.353,0.760,-0.175,-0.315,0.916,965.685,710.323,0.937,901.754,712.455,0.942,1046.142,541.358,1.153,808.540,528.434,1.088,1122.681,362.836,0.953,715.988,336.190,1.140,1238.384,98.576,0.760,778.677,212.483,0.916,-0.035,-0.969,1.403,0.000,-345.376,0.000,0.038,0.015,-0.001,0.151,-0.907,1.202
0723_095332_0124.png,0.023,0.165,0.934,-0.043,0.166,0.937,0.146,-0.011,1.113,-0.153,-0.007,1.129,0.093,-0.225,0.958,-0.318,-0.223,1.125,-0.018,-0.346,0.753,-0.390,-0.310,0.890,983.413,708.228,0.934,915.953,708.278,0.937,1084.782,530.488,1.113,830.914,533.795,1.129,1052.225,316.865,0.958,691.621,351.626,1.125,937.257,103.592,0.753,543.302,208.682,0.890,-0.027,-0.963,1.401,0.000,-2.042,0.000,-0.010,-0.001,0.009,-0.134,-0.947,1.372
0723_095332_0125.png,0.006,0.169,0.938,-0.057,0.173,0.950,0.128,-0.002,1.138,-0.162,-0.010,1.105,0.254,-0.219,1.223,-0.186,-0.259,1.015,0.369,-0.285,0.998,-0.153,-0.346,0.771,966.055,711.268,0.938,902.500,713.393,0.950,1067.180,538.094,1.138,820.918,531.575,1.105,1157.386,369.622,1.223,785.647,297.060,1.015,1311.352,268.995,0.998,771.371,113.255,0.771,-0.037,-0.971,1.403,0.000,-352.229,0.000,0.017,0.023,0.010,-0.314,-0.777,1.347
0723_095332_0126.png,0.064,0.184,0.938,-0.001,0.179,0.928,0.178,-0.008,1.081,-0.106,0.010,1.158,0.186,-0.269,0.990,-0.183,-0.228,1.037,0.039,-0.353,0.779,-0.061,-0.342,0.828,1024.706,726.636,0.938,959.025,723.502,0.928,1116.330,533.336,1.081,872.979,548.266,1.158,1138.165,281.536,0.990,792.524,331.017,1.037,1007.722,108.804,0.779,890.029,147.464,0.828,-0.036,-0.968,1.403,0.000,-14.346,0.000,0.009,-0.019,-0.030,0.103,-0.923,1.208
0723_095332_0127.png,0.021,0.163,0.941,-0.044,0.163,0.942,0.135,-0.017,1.123,-0.158,-0.020,1.112,0.189,-0.220,1.288,-0.211,-0.247,0.994,0.223,-0.269,1.042,-0.080,-0.335,0.795,981.323,704.438,0.941,915.781,704.765,0.942,1074.373,525.273,1.123,825.148,522.918,1.112,1099.268,377.906,1.288,757.770,304.076,0.994,1163.598,294.562,1.042,863.884,139.189,0.795,-0.032,-0.960,1.401,0.000,-356.577,0.000,0.013,0.016,0.044,0.019,-0.709,1.428
0723_095332_0128.png,0.011,0.164,0.930,-0.056,0.166,0.933,0.131,-0.010,1.130,-0.173,-0.015,1.106,0.055,-0.179,0.935,-0.305,-0.247,1.054,-0.022,-0.342,0.745,-0.320,-0.325,0.809,971.444,707.509,0.930,902.689,708.666,0.933,1070.004,531.676,1.130,810.911,526.965,1.106,1015.795,358.055,0.935,684.631,317.271,1.054,931.502,103.445,0.745,583.857,157.953,0.809,-0.026,-0.960,1.401,0.000,-354.396,0.000,-0.027,-0.014,0.025,-0.039,-0.997,1.278
0723_095332_0129.png,0.003,0.173,0.928,-0.062,0.176,0.937,0.126,0.004,1.130,-0.168,0.001,1.116,0.220,-0.251,1.105,-0.324,-0.185,1.239,0.085,-0.322,0.887,-0.304,-0.295,0.995,962.616,716.868,0.928,897.080,718.968,0.937,1066.046,543.724,1.130,816.998,540.912,1.116,1149.485,323.682,1.105,711.279,398.246,1.239,1051.188,195.359,0.887,669.145,258.423,0.995,-0.024,-0.971,1.403,0.000,-355.907,0.000,0.009,-0.013,-0.017,-0.257,-0.949,1.652
0723_095332_0130.png,0.029,0.150,0.937,-0.036,0.151,0.941,0.154,-0.016,1.106,-0.138,-0.009,1.136,0.135,-0.256,1.000,-0.156,-0.181,0.927,0.008,-0.337,0.790,-0.174,-0.348,0.723,989.820,692.238,0.937,924.114,692.147,0.941,1092.033,526.559,1.106,844.282,532.574,1.136,1088.402,296.888,1.000,799.498,354.693,0.927,969.904,134.431,0.790,731.520,83.122,0.723,-0.032,-0.968,1.403,0.000,-4.740,0.000,0.012,0.039,0.021,-0.230,-1.052,1.421
0723_095332_0131.png,0.030,0.164,0.939,-0.035,0.163,0.940,0.152,-0.007,1.105,-0.136,0.002,1.147,0.180,-0.177,1.310,-0.221,-0.235,1.040,0.257,-0.268,1.069,-0.090,-0.337,0.833,990.031,706.014,0.939,924.687,704.944,0.940,1090.814,533.653,1.105,847.317,541.887,1.147,1091.060,411.840,1.310,758.111,325.380,1.040,1188.246,301.865,1.069,857.683,154.950,0.833,-0.025,-0.970,1.403,0.000,-7.339,0.000,0.019,0.019,-0.028,-0.180,-0.973,1.522
0723_095332_0132.png,0.044,0.171,0.937,-0.019,0.169,0.932,0.154,-0.008,1.102,-0.131,-0.001,1.131,0.139,-0.274,1.107,-0.214,-0.205,0.985,0.092,-0.326,0.859,-0.212,-0.350,0.772,1005.036,713.449,0.937,940.633,711.971,0.932,1093.198,533.364,1.102,849.841,539.135,1.131,1079.576,304.644,1.107,753.441,341.777,0.985,1061.340,179.257,0.859,699.027,108.623,0.772,-0.036,-0.972,1.404,0.000,-4.777,0.000,0.033,0.011,0.024,0.151,-0.949,1.262
0723_095332_0133.png,-0.002,0.164,0.932,-0.067,0.170,0.944,0.117,0.004,1.149,-0.175,-0.008,1.097,0.216,-0.236,1.069,-0.297,-0.197,1.242,0.089,-0.324,0.853,-0.239,-0.283,0.997,957.963,707.632,0.932,892.900,711.408,0.944,1057.106,543.347,1.149,808.322,533.027,1.097,1152.362,330.378,1.069,732.574,389.502,1.242,1059.010,178.441,0.853,732.170,270.397,0.997,-0.034,-0.971,1.403,0.000,-348.368,0.000,-0.001,0.013,-0.014,-0.249,-1.019,1.323
0723_095332_0134.png,0.057,0.182,0.939,-0.008,0.177,0.928,0.167,-0.007,1.091,-0.120,0.007,1.151,0.180,-0.229,1.254,-0.245,-0.224,1.067,0.186,-0.295,0.993,-0.139,-0.336,0.850,1017.426,724.240,0.939,952.261,721.249,0.928,1105.500,533.963,1.091,860.516,545.698,1.151,1096.800,366.240,1.254,741.549,340.479,1.067,1138.479,257.410,0.993,804.084,164.466,0.850,-0.032,-0.967,1.402,0.000,-10.950,0.000,0.010,-0.019,-0.023,0.225,-0.829,1.576
0723_095332_0135.png,0.023,0.178,0.934,-0.045,0.181,0.942,0.153,0.003,1.122,-0.152,0.005,1.130,0.153,-0.241,0.990,-0.238,-0.246,1.052,0.003,-0.339,0.785,-0.068,-0.323,0.854,983.289,721.634,0.934,915.051,722.548,0.942,1090.047,542.488,1.122,831.721,544.161,1.130,1107.018,308.272,0.990,744.867,317.534,1.052,963.064,129.628,0.785,884.476,180.741,0.854,-0.034,-0.971,1.403,0.000,-0.509,0.000,-0.031,-0.008,-0.033,-0.295,-0.968,1.201
0723_095332_0136.png,0.046,0.182,0.925,-0.019,0.180,0.922,0.166,-0.007,1.080,-0.123,0.007,1.141,0.178,-0.275,1.033,-0.124,-0.172,0.937,0.000,-0.330,0.854,-0.123,-0.346,0.739,1007.331,727.568,0.925,940.106,725.802,0.922,1106.195,533.725,1.080,857.770,545.835,1.141,1124.187,287.106,1.033,834.592,365.649,0.937,960.195,172.530,0.854,801.762,94.269,0.739,-0.032,-0.970,1.403,0.000,-11.153,0.000,0.005,-0.029,0.026,-0.080,-0.961,1.276
0723_095332_0137.png,-0.005,0.186,0.929,-0.071,0.190,0.940,0.112,0.008,1.145,-0.182,-0.005,1.086,0.193,-0.252,1.148,-0.314,-0.242,1.058,0.186,-0.310,0.893,-0.250,-0.330,0.820,954.674,730.112,0.929,888.475,731.979,0.940,1053.173,547.023,1.145,800.610,535.564,1.086,1120.104,331.482,1.148,677.318,322.265,1.058,1157.707,209.880,0.893,669.534,157.720,0.820,-0.030,-0.972,1.404,0.000,-347.233,0.000,-0.012,-0.015,0.010,-0.158,-0.728,1.404
0723_095332_0138.png,0.027,0.183,0.932,-0.039,0.183,0.931,0.134,0.002,1.128,-0.160,-0.003,1.103,0.104,-0.213,0.973,-0.110,-0.182,0.909,-0.014,-0.345,0.783,-0.060,-0.357,0.720,987.039,726.672,0.932,920.232,726.983,0.931,1073.290,542.047,1.128,822.322,537.167,1.103,1062.037,331.733,0.973,845.222,349.126,0.909,942.935,121.299,0.783,880.818,68.223,0.720,-0.037,-0.970,1.403,0.000,-353.869,0.000,0.005,-0.018,0.019,0.197,-0.842,1.278
0723_095332_0139.png,0.023,0.163,0.940,-0.041,0.163,0.940,0.128,-0.013,1.134,-0.159,-0.019,1.106,0.200,-0.255,1.052,-0.250,-0.222,1.255,0.053,-0.330,0.855,-0.270,-0.287,1.007,982.915,704.639,0.940,918.280,705.092,0.940,1067.565,529.144,1.134,823.675,523.467,1.106,1140.711,309.262,1.052,770.419,371.787,1.255,1019.417,173.280,0.855,704.442,268.932,1.007,-0.036,-0.960,1.401,0.000,-353.236,0.000,0.029,0.009,0.023,0.174,-0.837,1.280
0723_095332_0140.png,0.018,0.167,0.946,-0.046,0.168,0.949,0.138,-0.014,1.115,-0.154,-0.010,1.130,0.188,-0.238,1.244,-0.264,-0.241,1.059,0.196,-0.284,0.989,-0.140,-0.324,0.846,978.580,708.256,0.946,913.531,708.357,0.949,1077.846,528.324,1.115,830.241,531.433,1.130,1103.564,358.383,1.244,722.456,323.568,1.059,1148.708,267.051,0.989,802.085,175.465,0.846,-0.023,-0.966,1.402,0.000,-1.895,0.000,0.014,0.027,0.013,-0.129,-0.666,1.461
0723_095332_0141.png,0.045,0.180,0.927,-0.019,0.178,0.924,0.160,-0.005,1.095,-0.125,0.004,1.132,0.147,-0.264,1.020,-0.178,-0.215,0.990,-0.016,-0.342,0.838,-0.105,-0.352,0.785,1005.905,724.447,0.927,940.485,723.243,0.924,1099.317,535.693,1.095,855.238,543.044,1.132,1097.468,294.000,1.020,788.729,333.539,0.990,941.339,152.419,0.838,833.270,114.376,0.785,-0.038,-0.970,1.403,0.000,-6.482,0.000,0.032,-0.025,0.025,-0.007,-0.939,1.403
0723_095332_0142.png,0.002,0.164,0.936,-0.064,0.168,0.946,0.124,-0.005,1.148,-0.176,-0.014,1.109,0.208,-0.213,1.303,-0.168,-0.265,0.993,0.341,-0.263,1.072,-0.056,-0.348,0.761,962.330,706.099,0.936,895.577,708.675,0.946,1062.609,535.682,1.148,808.932,528.052,1.109,1111.717,384.452,1.303,798.931,286.046,0.993,1262.756,306.324,1.072,890.163,104.478,0.761,-0.030,-0.958,1.400,0.000,-351.428,0.000,-0.019,-0.006,-0.032,-0.188,-0.957,1.302
0723_095332_0143.png,-0.006,0.162,0.934,-0.072,0.168,0.946,0.121,0.000,1.142,-0.179,-0.009,1.102,0.279,-0.205,1.067,-0.238,-0.166,1.308,0.372,-0.314,0.847,-0.298,-0.254,1.068,953.729,705.314,0.934,887.995,708.481,0.946,1060.382,539.782,1.142,805.612,531.902,1.102,1208.659,357.031,1.067,787.068,419.540,1.308,1378.080,187.677,0.847,694.318,313.413,1.068,-0.027,-0.971,1.403,0.000,-351.082,0.000,-0.018,0.023,0.004,-0.319,-0.923,1.467
0723_095332_0144.png,0.000,0.159,0.934,-0.063,0.164,0.944,0.111,0.000,1.151,-0.171,-0.014,1.088,0.191,-0.202,1.300,-0.197,-0.254,0.974,0.239,-0.271,1.052,-0.057,-0.347,0.774,960.344,701.934,0.934,896.731,705.559,0.944,1051.707,539.916,1.151,810.562,527.342,1.088,1099.908,392.007,1.300,767.984,292.242,0.974,1176.214,295.434,1.052,889.421,113.145,0.774,-0.038,-0.970,1.403,0.000,-346.001,0.000,0.026,0.026,0.008,-0.141,-0.966,1.369
0723_095332_0145.png,0.033,0.170,0.935,-0.034,0.169,0.932,0.144,-0.004,1.122,-0.157,-0.007,1.108,0.226,-0.214,1.267,-0.240,-0.177,0.920,0.394,-0.256,1.075,-0.318,-0.341,0.735,993.421,712.912,0.935,925.546,712.806,0.932,1081.907,536.289,1.122,825.397,533.608,1.108,1129.800,379.080,1.267,711.689,357.406,0.920,1308.771,313.372,1.075,548.628,98.706,0.735,-0.037,-0.972,1.404,0.000,-356.216,0.000,-0.014,0.010,0.040,0.220,-0.956,1.166
0723_095332_0146.png,0.007,0.165,0.941,-0.058,0.170,0.951,0.128,0.001,1.146,-0.165,-0.006,1.113,0.190,-0.233,1.012,-0.328,-0.201,1.194,0.110,-0.348,0.779,-0.280,-0.300,0.944,966.900,707.278,0.941,902.273,709.975,0.951,1066.366,540.859,1.146,818.945,534.475,1.113,1138.646,321.244,1.012,698.841,379.601,1.194,1094.793,115.653,0.779,678.070,237.300,0.944,-0.036,-0.969,1.403,0.000,-352.312,0.000,0.006,0.021,-0.037,-0.238,-0.861,1.526
0723_095332_0147.png,-0.001,0.157,0.936,-0.067,0.162,0.944,0.113,0.002,1.157,-0.182,-0.013,1.091,0.177,-0.225,1.020,-0.223,-0.272,1.032,0.070,-0.331,0.799,-0.056,-0.324,0.830,959.432,699.980,0.936,892.569,703.585,0.944,1052.567,541.329,1.157,801.036,528.232,1.091,1125.470,330.595,1.020,754.377,288.967,1.032,1043.321,146.130,0.799,896.341,169.030,0.830,-0.034,-0.969,1.403,0.000,-345.940,0.000,-0.019,0.025,-0.014,-0.041,-0.966,1.542
0723_095332_0148.png,0.040,0.145,0.942,-0.024,0.141,0.936,0.151,-0.020,1.107,-0.133,-0.011,1.148,0.196,-0.278,1.055,-0.192,-0.234,1.004,0.019,-0.330,0.868,-0.082,-0.347,0.793,1000.210,686.076,0.942,936.091,682.890,0.936,1089.602,522.902,1.107,849.645,531.244,1.148,1136.789,289.070,1.055,778.246,318.083,1.004,980.986,178.575,0.868,862.053,123.566,0.793,-0.026,-0.960,1.401,0.000,-7.179,0.000,0.033,0.027,-0.016,0.131,-1.162,1.513
0723_095332_0149.png,0.025,0.170,0.926,-0.040,0.170,0.929,0.151,-0.012,1.090,-0.141,-0.002,1.133,0.148,-0.280,1.088,-0.308,-0.210,1.164,0.115,-0.323,0.841,-0.410,-0.296,0.950,986.182,714.702,0.926,919.257,714.255,0.929,1091.868,529.908,1.090,841.809,538.543,1.133,1089.334,295.474,1.088,708.525,368.464,1.164,1089.610,174.411,0.841,549.819,243.748,0.950,-0.024,-0.969,1.403,0.000,-7.380,0.000,0.006,-0.006,0.046,-0.249,-0.881,1.576
0723_095332_0150.png,0.029,0.156,0.929,-0.039,0.157,0.930,0.146,-0.005,1.126,-0.159,-0.009,1.111,0.179,-0.239,1.004,-0.242,-0.235,0.994,0.165,-0.335,0.764,-0.156,-0.334,0.771,989.218,699.429,0.929,920.013,700.264,0.930,1083.246,535.471,1.126,824.059,532.349,1.111,1129.210,313.285,1.004,728.357,315.447,0.994,1165.654,123.623,0.764,767.565,127.551,0.771,-0.038,-0.967,1.403,0.000,-355.832,0.000,-0.028,0.004,0.021,0.051,-1.151,1.524
0723_095332_0151.png,-0.004,0.165,0.922,-0.070,0.169,0.926,0.103,0.006,1.145,-0.188,-0.010,1.078,0.239,-0.209,1.066,-0.167,-0.259,0.989,0.299,-0.319,0.845,-0.057,-0.339,0.773,956.073,710.688,0.922,888.619,713.775,0.926,1045.519,544.596,1.145,794.312,531.359,1.078,1172.858,353.766,1.066,799.548,290.861,0.989,1297.055,180.602,0.845,889.919,122.907,0.773,-0.025,-0.973,1.404,0.000,-345.584,0.000,-0.006,-0.007,0.034,0.068,-1.100,1.442
0723_095332_0152.png,0.053,0.166,0.945,-0.012,0.162,0.939,0.169,-0.016,1.095,-0.113,-0.001,1.160,0.286,-0.243,1.173,-0.274,-0.208,1.081,0.197,-0.314,0.925,-0.267,-0.337,0.840,1012.925,707.053,0.945,948.163,704.305,0.939,1106.927,526.353,1.095,867.493,539.464,1.160,1191.717,343.169,1.173,718.708,356.787,1.081,1162.254,216.864,0.925,657.675,158.202,0.840,-0.033,-0.962,1.401,0.000,-12.237,0.000,0.024,0.010,-0.042,-0.024,-0.944,1.308
0723_095332_0153.png,0.013,0.173,0.932,-0.051,0.175,0.937,0.127,0.005,1.132,-0.161,0.001,1.112,0.175,-0.206,0.965,-0.297,-0.231,1.108,0.163,-0.360,0.748,-0.200,-0.326,0.881,973.151,716.391,0.932,908.239,717.824,0.937,1066.743,544.255,1.132,822.117,540.445,1.112,1132.917,337.324,0.965,704.795,341.551,1.108,1166.828,81.845,0.748,744.382,188.195,0.881,-0.030,-0.974,1.404,0.000,-354.801,0.000,0.027,0.001,-0.009,-0.079,-0.995,1.375
0723_095332_0154.png,0.032,0.155,0.941,-0.036,0.155,0.941,0.154,-0.017,1.115,-0.155,-0.013,1.132,0.227,-0.215,1.275,-0.127,-0.213,0.955,0.392,-0.249,1.069,-0.055,-0.337,0.735,992.435,696.809,0.941,923.156,696.301,0.941,1091.692,525.352,1.115,830.177,528.999,1.132,1129.576,379.722,1.275,833.946,327.673,0.955,1308.431,318.001,1.069,888.354,103.298,0.735,-0.030,-0.962,1.401,0.000,-2.195,0.000,-0.042,0.024,0.011,-0.004,-1.011,1.182
0723_095332_0155.png,0.006,0.169,0.927,-0.061,0.171,0.929,0.115,-0.004,1.143,-0.184,-0.016,1.089,0.274,-0.214,1.079,-0.249,-0.198,1.288,0.346,-0.316,0.853,-0.303,-0.270,1.044,966.177,713.372,0.927,897.400,714.896,0.929,1055.449,536.619,1.143,799.303,525.753,1.089,1201.611,351.411,1.079,776.272,393.857,1.288,1345.953,187.081,0.853,683.696,293.691,1.044,-0.027,-0.960,1.401,0.000,-348.450,0.000,-0.023,-0.028,0.021,0.144,-0.901,1.545
0723_095332_0156.png,0.009,0.146,0.934,-0.053,0.151,0.946,0.132,-0.012,1.135,-0.155,-0.018,1.110,0.218,-0.259,1.159,-0.294,-0.234,1.162,0.243,-0.312,0.907,-0.314,-0.307,0.914,969.206,688.234,0.934,906.251,691.685,0.946,1070.620,529.856,1.135,827.580,524.601,1.110,1139.121,327.229,1.159,719.542,348.383,1.162,1214.917,213.073,0.907,633.301,220.611,0.914,-0.039,-0.964,1.402,0.000,-353.613,0.000,0.031,0.031,0.017,-0.354,-1.058,1.478
0723_095332_0157.png,0.014,0.150,0.930,-0.049,0.152,0.936,0.138,-0.015,1.109,-0.148,-0.010,1.129,0.196,-0.261,1.031,-0.126,-0.185,0.926,0.055,-0.333,0.830,-0.105,-0.356,0.728,974.278,693.731,0.930,909.746,694.419,0.936,1078.749,527.328,1.109,835.010,531.532,1.129,1140.581,299.427,1.031,830.234,349.832,0.926,1022.513,158.155,0.830,822.726,74.811,0.728,-0.023,-0.965,1.402,0.000,-3.029,0.000,0.031,0.017,0.026,-0.307,-1.120,1.472
0723_095332_0158.png,0.035,0.180,0.927,-0.030,0.179,0.929,0.159,0.005,1.103,-0.130,0.014,1.143,0.115,-0.263,1.042,-0.116,-0.178,0.932,0.051,-0.353,0.792,-0.105,-0.367,0.728,996.156,724.670,0.927,929.703,723.647,0.929,1097.277,544.390,1.103,851.464,551.752,1.143,1065.226,299.835,1.042,841.600,358.471,0.932,1020.865,116.109,0.792,822.596,60.928,0.728,-0.033,-0.974,1.404,0.000,-6.747,0.000,0.015,-0.025,-0.037,-0.185,-1.065,1.505
0723_095332_0159.png,0.047,0.174,0.925,-0.020,0.172,0.923,0.168,-0.011,1.090,-0.130,-0.001,1.134,0.299,-0.252,1.118,-0.182,-0.218,0.993,0.362,-0.312,0.876,-0.084,-0.337,0.787,1008.468,718.805,0.925,939.867,717.436,0.923,1106.290,530.503,1.090,850.544,539.294,1.134,1214.000,325.768,1.118,785.435,331.190,0.993,1352.837,201.379,0.876,858.067,132.595,0.787,-0.037,-0.966,1.402,0.000,-7.382,0.000,-0.015,-0.027,0.035,-0.013,-0.920,1.578
0723_095332_0160.png,0.041,0.162,0.941,-0.025,0.159,0.935,0.158,-0.011,1.106,-0.138,-0.001,1.149,0.214,-0.213,1.274,-0.301,-0.203,1.223,0.270,-0.277,1.017,-0.435,-0.284,1.001,1001.913,703.932,0.941,934.893,701.366,0.935,1096.073,530.873,1.106,845.932,539.443,1.149,1120.071,381.123,1.274,725.741,382.041,1.223,1212.374,281.187,1.017,547.032,270.475,1.001,-0.027,-0.964,1.402,0.000,-7.354,0.000,-0.008,0.007,-0.035,0.085,-1.145,1.206
0723_095332_0161.png,-0.004,0.174,0.930,-0.066,0.178,0.940,0.108,0.006,1.141,-0.172,-0.005,1.094,0.068,-0.168,0.933,-0.294,-0.241,1.081,0.032,-0.339,0.731,-0.318,-0.337,0.840,955.838,717.645,0.930,893.023,720.262,0.940,1049.644,544.872,1.141,810.328,535.763,1.094,1029.798,368.574,0.933,701.348,327.749,1.081,1002.105,98.659,0.731,599.582,158.676,0.840,-0.028,-0.974,1.404,0.000,-349.119,0.000,0.044,0.005,0.010,-0.184,-0.889,1.401
0723_095332_0162.png,0.006,0.154,0.925,-0.057,0.157,0.932,0.121,-0.005,1.134,-0.164,-0.010,1.112,0.249,-0.225,1.226,-0.209,-0.263,1.021,0.376,-0.298,1.007,-0.066,-0.350,0.819,966.223,697.908,0.925,901.878,700.479,0.932,1061.445,535.616,1.134,819.746,531.327,1.112,1153.170,365.281,1.226,765.782,294.920,1.021,1315.082,259.131,1.007,882.958,133.009,0.819,-0.027,-0.961,1.401,0.000,-354.422,0.000,0.037,-0.015,-0.006,-0.162,-1.282,1.384
0723_095332_0163.png,0.007,0.176,0.928,-0.058,0.178,0.932,0.115,0.008,1.141,-0.176,-0.003,1.094,0.226,-0.218,1.244,-0.218,-0.264,1.032,0.350,-0.283,1.022,-0.055,-0.333,0.839,967.486,719.862,0.928,900.912,721.697,0.932,1055.731,546.469,1.141,807.157,537.300,1.094,1132.946,373.443,1.244,759.239,297.007,1.032,1285.354,276.759,1.022,898.027,161.936,0.839,-0.030,-0.973,1.404,0.000,-349.350,0.000,0.007,-0.009,0.005,0.084,-0.973,1.399
0723_095332_0164.png,0.041,0.176,0.933,-0.024,0.174,0.929,0.157,-0.016,1.096,-0.132,-0.006,1.139,0.130,-0.264,0.989,-0.227,-0.217,1.002,0.010,-0.354,0.775,-0.262,-0.348,0.779,1001.697,719.595,0.933,935.639,718.387,0.929,1096.197,526.457,1.096,849.616,535.356,1.139,1084.880,286.477,0.989,744.352,333.642,1.002,972.676,105.790,0.775,639.632,115.123,0.779,-0.030,-0.958,1.400,0.000,-7.640,0.000,0.014,-0.032,0.010,0.025,-0.742,1.653
0723_095332_0165.png,0.052,0.174,0.944,-0.011,0.171,0.936,0.162,-0.010,1.097,-0.120,0.001,1.143,0.235,-0.262,1.139,-0.242,-0.235,1.134,0.109,-0.315,0.916,-0.261,-0.323,0.887,1012.320,715.815,0.944,948.798,713.958,0.936,1100.410,531.607,1.097,860.549,540.838,1.143,1156.038,320.981,1.139,756.860,342.695,1.134,1073.165,212.601,0.916,679.985,194.056,0.887,-0.036,-0.971,1.403,0.000,-8.449,0.000,0.039,0.014,0.004,0.137,-0.815,1.343
0723_095332_0166.png,0.042,0.179,0.938,-0.024,0.177,0.934,0.158,-0.004,1.108,-0.140,0.002,1.134,0.142,-0.185,0.902,-0.256,-0.222,1.031,0.127,-0.362,0.701,-0.290,-0.336,0.794,1002.824,721.311,0.938,935.504,720.311,0.934,1095.844,536.448,1.108,842.440,541.445,1.134,1110.102,344.548,0.902,723.667,335.141,1.031,1131.734,48.956,0.701,612.989,137.599,0.794,-0.035,-0.969,1.403,0.000,-3.839,0.000,-0.009,-0.008,-0.005,0.091,-0.803,1.534
0723_095332_0167.png,0.010,0.154,0.935,-0.053,0.158,0.946,0.133,-0.010,1.132,-0.156,-0.014,1.115,0.251,-0.241,1.189,-0.272,-0.249,1.155,0.123,-0.297,0.969,-0.304,-0.314,0.904,969.827,696.523,0.935,906.218,699.041,0.946,1071.820,531.418,1.132,827.351,528.086,1.115,1160.847,347.521,1.189,735.692,335.306,1.155,1080.478,249.051,0.969,639.769,209.403,0.904,-0.035,-0.964,1.402,0.000,-355.501,0.000,0.026,0.020,0.006,-0.312,-0.933,1.607
0723_095332_0168.png,0.020,0.159,0.928,-0.044,0.161,0.931,0.137,-0.014,1.116,-0.153,-0.014,1.116,0.245,-0.211,1.269,-0.263,-0.206,1.273,0.333,-0.281,1.041,-0.326,-0.279,1.038,980.163,703.419,0.928,914.572,704.031,0.931,1076.671,527.847,1.116,829.668,527.807,1.116,1143.675,382.242,1.269,763.299,385.949,1.273,1264.524,283.353,1.041,661.302,283.872,1.038,-0.030,-0.960,1.401,0.000,-358.790,0.000,0.024,-0.010,0.039,-0.105,-1.070,1.257
0723_095332_0169.png,0.052,0.166,0.926,-0.011,0.161,0.922,0.172,-0.006,1.082,-0.105,0.011,1.156,0.263,-0.258,1.031,-0.165,-0.221,1.016,0.286,-0.358,0.782,-0.079,-0.355,0.804,1013.792,710.328,0.926,948.262,705.943,0.922,1111.072,534.491,1.082,873.656,548.881,1.156,1203.019,301.571,1.031,806.002,333.238,1.016,1307.630,104.700,0.782,866.527,119.669,0.804,-0.034,-0.970,1.403,0.000,-14.216,0.000,0.033,-0.016,-0.027,-0.088,-1.270,1.490
0723_095332_0170.png,0.041,0.162,0.936,-0.025,0.161,0.936,0.162,-0.017,1.102,-0.135,-0.009,1.135,0.257,-0.244,1.210,-0.274,-0.235,1.178,0.134,-0.284,0.986,-0.319,-0.298,0.931,1001.726,704.477,0.936,934.458,703.698,0.936,1099.742,525.490,1.102,847.050,532.281,1.135,1161.618,348.054,1.210,738.663,349.843,1.178,1089.205,266.322,0.986,633.816,235.541,0.931,-0.036,-0.962,1.401,0.000,-5.354,0.000,-0.006,0.007,0.022,-0.066,-0.911,1.428
0723_095332_0171.png,0.045,0.152,0.929,-0.021,0.149,0.926,0.164,-0.015,1.095,-0.132,-0.005,1.138,0.113,-0.222,0.937,-0.290,-0.204,1.058,0.021,-0.349,0.732,-0.368,-0.319,0.842,1006.545,695.438,0.929,938.880,692.933,0.926,1102.080,526.690,1.095,849.746,535.628,1.138,1074.450,314.900,0.937,699.467,356.140,1.058,987.448,86.489,0.732,544.011,179.356,0.842,-0.034,-0.966,1.402,0.000,-7.492,0.000,-0.007,0.007,0.027,0.037,-1.158,1.651
0723_095332_0172.png,0.054,0.159,0.929,-0.011,0.153,0.924,0.176,-0.012,1.081,-0.111,0.007,1.161,0.261,-0.270,1.054,-0.273,-0.206,1.215,0.280,-0.341,0.794,-0.313,-0.296,0.963,1015.698,702.401,0.929,948.225,697.500,0.924,1114.348,529.688,1.081,869.089,545.393,1.161,1195.264,296.277,1.054,746.673,378.642,1.215,1295.344,130.970,0.794,650.622,247.326,0.963,-0.031,-0.966,1.402,0.000,-14.755,0.000,-0.003,-0.006,-0.031,-0.051,-1.262,1.550
0723_095332_0173.png,0.011,0.184,0.927,-0.054,0.187,0.934,0.132,0.005,1.124,-0.162,0.001,1.106,0.155,-0.266,1.145,-0.154,-0.212,0.945,0.113,-0.314,0.894,-0.083,-0.356,0.742,970.832,729.298,0.927,904.847,730.550,0.934,1071.443,544.492,1.124,820.519,540.986,1.106,1088.846,319.060,1.145,805.331,326.535,0.945,1080.585,205.505,0.894,853.202,83.796,0.742,-0.031,-0.974,1.404,0.000,-355.208,0.000,0.008,-0.018,0.022,-0.218,-0.884,1.218
0723_095332_0174.png,0.059,0.164,0.943,-0.008,0.159,0.935,0.176,-0.019,1.084,-0.123,-0.002,1.155,0.156,-0.278,1.139,-0.152,-0.174,0.942,0.135,-0.301,0.879,-0.177,-0.339,0.733,1019.768,705.156,0.943,951.756,702.215,0.935,1114.313,523.645,1.084,858.490,538.105,1.155,1090.138,308.314,1.139,806.841,364.625,0.942,1106.636,214.161,0.879,730.114,99.486,0.733,-0.032,-0.966,1.402,0.000,-12.534,0.000,-0.037,0.021,0.001,0.107,-0.825,1.629
0723_095332_0175.png,0.011,0.179,0.923,-0.055,0.181,0.927,0.127,0.000,1.128,-0.170,-0.006,1.102,0.190,-0.226,0.998,-0.159,-0.224,0.947,0.139,-0.346,0.775,-0.089,-0.357,0.736,971.290,724.306,0.923,903.596,725.470,0.927,1067.068,540.321,1.128,813.179,535.225,1.102,1140.554,324.412,0.998,800.685,315.083,0.947,1131.049,115.019,0.775,845.084,79.267,0.736,-0.028,-0.965,1.402,0.000,-353.749,0.000,-0.005,-0.040,0.021,-0.033,-0.904,1.506
0723_095332_0176.png,-0.001,0.155,0.946,-0.067,0.158,0.951,0.106,-0.008,1.162,-0.185,-0.023,1.096,0.106,-0.181,0.935,-0.165,-0.273,0.987,0.108,-0.350,0.713,-0.056,-0.349,0.752,959.349,695.646,0.946,893.287,698.010,0.951,1046.696,533.078,1.162,799.391,519.644,1.096,1068.010,355.530,0.935,800.815,277.014,0.987,1104.187,73.891,0.713,889.788,98.184,0.752,-0.030,-0.958,1.400,0.000,-345.863,0.000,-0.006,0.026,-0.029,0.095,-0.783,1.622
0723_095332_0177.png,0.047,0.177,0.934,-0.017,0.173,0.925,0.157,-0.009,1.085,-0.129,0.005,1.145,0.069,-0.186,0.899,-0.279,-0.188,1.262,-0.017,-0.359,0.719,-0.415,-0.276,1.058,1007.901,720.627,0.934,942.580,717.585,0.925,1097.938,532.391,1.085,852.949,544.272,1.145,1033.237,343.366,0.899,749.680,398.382,1.262,938.083,64.858,0.719,586.983,291.947,1.058,-0.024,-0.970,1.403,0.000,-10.996,0.000,0.014,-0.012,0.012,0.212,-1.009,1.198
0723_095332_0178.png,0.032,0.170,0.920,-0.035,0.170,0.922,0.159,-0.001,1.100,-0.145,0.005,1.130,0.204,-0.267,1.054,-0.220,-0.169,0.932,0.024,-0.318,0.867,-0.290,-0.339,0.738,993.593,716.072,0.920,923.871,715.443,0.922,1097.283,538.718,1.100,838.351,544.450,1.130,1143.807,299.070,1.054,735.991,367.190,0.932,986.575,191.607,0.867,586.499,102.716,0.738,-0.032,-0.971,1.403,0.000,-4.517,0.000,-0.027,-0.028,0.015,-0.131,-1.111,1.650
0723_095332_0179.png,0.050,0.155,0.940,-0.016,0.152,0.934,0.166,-0.021,1.098,-0.131,-0.010,1.144,0.167,-0.265,0.991,-0.229,-0.204,0.987,0.138,-0.344,0.744,-0.245,-0.340,0.765,1011.013,696.827,0.940,943.919,694.363,0.934,1103.711,521.721,1.098,850.943,531.400,1.144,1120.069,285.135,0.991,739.464,343.466,0.987,1136.958,100.441,0.744,655.289,117.360,0.765,-0.034,-0.960,1.401,0.000,-8.005,0.000,-0.014,0.017,0.012,0.130,-1.079,1.177
0723_095332_0180.png,0.016,0.166,0.927,-0.047,0.168,0.929,0.124,0.003,1.136,-0.162,-0.004,1.107,0.135,-0.241,1.014,-0.280,-0.228,1.206,-0.012,-0.347,0.825,-0.363,-0.308,0.968,976.885,710.107,0.927,911.571,711.659,0.929,1063.538,542.538,1.136,820.397,536.922,1.107,1086.542,313.607,1.014,738.888,359.926,1.206,946.064,140.247,0.825,603.953,237.532,0.968,-0.033,-0.968,1.403,0.000,-352.937,0.000,0.031,-0.017,-0.008,0.070,-1.148,1.474
0723_095332_0181.png,0.030,0.177,0.930,-0.038,0.177,0.932,0.159,-0.002,1.106,-0.149,0.005,1.136,0.227,-0.250,1.206,-0.288,-0.207,1.249,0.274,-0.292,0.946,-0.352,-0.276,0.999,990.986,721.268,0.930,920.968,720.921,0.932,1096.889,538.243,1.106,835.443,544.140,1.136,1138.944,342.814,1.206,740.828,382.526,1.249,1235.059,246.769,0.946,624.916,277.467,0.999,-0.029,-0.969,1.403,0.000,-4.612,0.000,-0.043,-0.020,-0.012,-0.160,-0.874,1.691
0723_095332_0182.png,0.038,0.188,0.940,-0.027,0.187,0.939,0.160,-0.003,1.103,-0.129,0.008,1.148,0.070,-0.187,0.902,-0.153,-0.179,0.929,-0.014,-0.368,0.707,-0.180,-0.363,0.716,998.684,729.789,0.940,932.875,728.930,0.939,1097.831,537.682,1.103,852.884,546.432,1.148,1033.556,342.935,0.902,803.059,356.396,0.929,940.582,44.400,0.707,720.908,58.386,0.716,-0.030,-0.967,1.402,0.000,-7.996,0.000,0.014,-0.021,-0.042,-0.149,-0.775,1.312
0723_095332_0183.png,0.000,0.166,0.935,-0.063,0.171,0.944,0.111,0.004,1.143,-0.170,-0.006,1.102,0.054,-0.170,0.934,-0.192,-0.242,0.974,0.001,-0.340,0.731,-0.069,-0.355,0.771,959.544,709.181,0.935,896.437,711.811,0.944,1052.765,542.993,1.143,812.878,535.016,1.102,1015.128,367.122,0.934,772.099,303.898,0.974,961.382,97.483,0.731,875.224,102.124,0.771,-0.029,-0.974,1.404,0.000,-350.387,0.000,0.040,0.021,-0.004,-0.143,-0.911,1.495
0723_095332_0184.png,0.048,0.142,0.943,-0.018,0.138,0.938,0.164,-0.024,1.098,-0.130,-0.012,1.150,0.246,-0.269,1.046,-0.277,-0.230,1.113,0.253,-0.328,0.792,-0.145,-0.302,0.897,1008.816,683.390,0.943,942.228,680.188,0.938,1102.210,519.577,1.098,852.054,530.346,1.150,1183.674,295.414,1.046,723.112,343.312,1.113,1264.293,145.635,0.792,805.682,219.651,0.897,-0.030,-0.962,1.401,0.000,-9.056,0.000,-0.008,0.044,0.006,0.094,-1.162,1.363
0723_095332_0185.png,0.027,0.168,0.929,-0.036,0.166,0.925,0.136,-0.011,1.111,-0.150,-0.008,1.122,0.059,-0.186,0.923,-0.238,-0.208,0.970,-0.015,-0.359,0.741,-0.276,-0.357,0.763,987.489,711.500,0.929,922.492,710.575,0.925,1076.239,531.008,1.111,832.626,533.240,1.122,1021.089,348.049,0.923,726.888,336.045,0.970,940.908,79.581,0.741,616.063,95.605,0.763,-0.026,-0.961,1.401,0.000,-1.089,0.000,0.036,-0.024,0.026,0.148,-1.110,1.174
0723_095332_0186.png,0.026,0.156,0.937,-0.042,0.156,0.935,0.138,-0.002,1.132,-0.168,-0.007,1.111,0.228,-0.204,1.277,-0.344,-0.210,1.080,0.383,-0.250,1.070,-0.439,-0.305,0.855,986.009,698.364,0.937,917.065,698.561,0.935,1075.620,538.209,1.132,816.221,534.129,1.111,1129.433,388.402,1.277,657.120,355.500,1.080,1300.247,317.739,1.070,471.850,200.573,0.855,-0.032,-0.974,1.404,0.000,-354.876,0.000,-0.032,0.031,0.012,0.198,-1.033,1.651
0723_095332_0187.png,0.019,0.158,0.921,-0.049,0.161,0.925,0.142,0.000,1.129,-0.165,-0.005,1.106,0.125,-0.238,1.004,-0.311,-0.234,1.065,0.008,-0.333,0.788,-0.246,-0.321,0.827,980.083,703.316,0.921,910.115,705.496,0.925,1079.424,540.381,1.129,817.987,535.840,1.106,1078.675,314.877,1.004,682.627,330.800,1.065,970.136,137.934,0.788,677.478,170.917,0.827,-0.036,-0.968,1.403,0.000,-354.427,0.000,-0.037,-0.018,0.012,-0.081,-1.282,1.517
0723_095332_0188.png,0.050,0.154,0.950,-0.017,0.151,0.945,0.166,-0.020,1.112,-0.133,-0.012,1.147,0.135,-0.281,1.058,-0.185,-0.232,0.994,0.095,-0.333,0.798,-0.167,-0.345,0.750,1009.988,693.939,0.950,943.319,692.081,0.945,1102.162,523.081,1.112,850.079,530.467,1.147,1081.272,287.582,1.058,782.742,317.779,0.994,1072.667,143.568,0.798,748.501,102.958,0.750,-0.037,-0.959,1.401,0.000,-5.876,0.000,-0.014,0.033,-0.023,0.109,-0.967,1.253
0723_095332_0189.png,0.063,0.171,0.927,-0.004,0.166,0.919,0.181,-0.007,1.079,-0.117,0.010,1.153,0.210,-0.201,1.275,-0.201,-0.164,0.950,0.378,-0.261,1.072,-0.281,-0.333,0.750,1025.016,715.928,0.927,955.988,711.345,0.919,1119.846,533.412,1.079,863.864,547.933,1.153,1116.309,390.185,1.275,759.191,375.779,0.950,1295.346,308.211,1.072,604.124,118.069,0.750,-0.036,-0.969,1.403,0.000,-13.197,0.000,-0.036,-0.022,-0.010,0.127,-1.243,1.292
0723_095332_0190.png,0.017,0.147,0.929,-0.049,0.148,0.931,0.134,-0.013,1.124,-0.164,-0.016,1.112,0.293,-0.224,1.085,-0.229,-0.263,1.044,0.380,-0.312,0.862,-0.053,-0.318,0.863,977.912,690.397,0.929,910.415,691.233,0.931,1073.132,528.702,1.124,819.709,526.345,1.112,1217.036,343.789,1.085,750.859,300.096,1.044,1378.935,195.473,0.862,901.742,189.776,0.863,-0.028,-0.962,1.401,0.000,-356.578,0.000,-0.004,0.009,0.035,0.005,-1.109,1.696
0723_095332_0191.png,0.020,0.178,0.924,-0.047,0.180,0.928,0.142,0.011,1.124,-0.159,0.010,1.121,0.208,-0.206,1.285,-0.131,-0.213,0.957,0.362,-0.270,1.074,-0.057,-0.358,0.739,980.090,723.383,0.924,911.867,724.354,0.928,1080.069,548.901,1.124,825.290,548.404,1.121,1113.930,387.720,1.285,829.622,327.841,0.957,1280.512,300.873,1.074,886.962,79.824,0.739,-0.031,-0.975,1.404,0.000,-358.306,0.000,-0.013,-0.028,-0.027,-0.113,-1.056,1.658
0723_095332_0192.png,0.023,0.151,0.932,-0.042,0.149,0.929,0.134,-0.012,1.117,-0.160,-0.011,1.122,0.198,-0.204,1.293,-0.179,-0.242,0.994,0.314,-0.265,1.070,-0.085,-0.344,0.777,983.708,693.817,0.932,917.245,692.846,0.929,1073.808,529.853,1.117,824.413,530.832,1.122,1105.577,390.262,1.293,789.236,308.168,0.994,1238.603,304.577,1.070,856.054,118.443,0.777,-0.023,-0.964,1.402,0.000,0.210,0.000,0.011,0.009,0.024,0.157,-1.212,1.452
0723_095332_0193.png,0.020,0.173,0.936,-0.046,0.174,0.941,0.148,-0.005,1.114,-0.150,0.001,1.140,0.208,-0.191,0.913,-0.322,-0.200,1.062,0.237,-0.365,0.702,-0.428,-0.326,0.847,980.153,715.723,0.936,913.348,715.926,0.941,1086.386,535.527,1.114,835.217,540.679,1.140,1177.206,340.429,0.913,671.869,361.312,1.062,1280.503,45.935,0.702,479.557,173.552,0.847,-0.024,-0.965,1.402,0.000,-4.016,0.000,-0.006,-0.009,-0.032,-0.300,-0.975,1.222
0723_095332_0194.png,0.043,0.165,0.927,-0.025,0.162,0.927,0.171,-0.010,1.088,-0.131,0.004,1.150,0.267,-0.244,1.194,-0.133,-0.188,0.953,0.321,-0.291,0.937,-0.085,-0.347,0.742,1004.295,708.977,0.927,934.191,706.626,0.927,1109.363,531.093,1.088,851.380,543.376,1.150,1172.865,345.507,1.194,826.995,352.673,0.953,1286.100,245.066,0.937,851.641,95.723,0.742,-0.029,-0.967,1.402,0.000,-10.735,0.000,-0.040,-0.013,-0.009,-0.161,-1.222,1.278
0723_095332_0195.png,-0.008,0.162,0.933,-0.075,0.167,0.943,0.115,0.005,1.150,-0.187,-0.006,1.100,0.283,-0.208,1.113,-0.290,-0.234,0.985,0.382,-0.305,0.882,-0.286,-0.344,0.740,951.927,705.033,0.933,884.609,708.730,0.943,1054.808,544.207,1.150,798.004,534.387,1.100,1201.592,362.304,1.113,680.161,314.503,0.985,1371.578,210.864,0.882,592.174,97.278,0.740,-0.025,-0.972,1.403,0.000,-349.113,0.000,-0.032,0.016,-0.023,-0.186,-0.951,1.693
0723_095332_0196.png,0.025,0.147,0.941,-0.042,0.146,0.937,0.134,-0.015,1.131,-0.167,-0.018,1.117,0.292,-0.230,1.116,-0.164,-0.260,1.007,0.361,-0.304,0.876,-0.104,-0.334,0.765,985.488,688.584,0.941,917.781,688.160,0.937,1073.050,527.778,1.131,817.531,524.873,1.117,1208.771,343.623,1.116,805.092,294.862,1.007,1352.070,209.997,0.876,830.335,124.399,0.765,-0.028,-0.962,1.401,0.000,-356.092,0.000,-0.017,0.029,0.013,0.261,-1.129,1.332
0723_095332_0197.png,0.011,0.167,0.941,-0.055,0.169,0.945,0.129,-0.006,1.131,-0.169,-0.009,1.115,0.178,-0.246,1.023,-0.233,-0.183,0.915,0.031,-0.328,0.820,-0.294,-0.352,0.718,971.130,708.776,0.941,904.554,709.633,0.945,1068.478,535.310,1.131,815.656,532.153,1.115,1125.458,311.132,1.023,717.817,349.664,0.915,996.193,159.831,0.820,570.271,73.953,0.718,-0.025,-0.968,1.402,0.000,-355.723,0.000,-0.006,0.020,0.003,-0.055,-0.845,1.310
0723_095332_0198.png,0.033,0.177,0.939,-0.035,0.177,0.939,0.152,-0.002,1.125,-0.157,-0.003,1.120,0.288,-0.201,1.252,-0.234,-0.238,1.008,0.247,-0.275,1.002,-0.234,-0.337,0.762,993.392,718.755,0.939,924.192,718.836,0.939,1088.194,538.556,1.125,826.998,537.527,1.120,1178.667,387.671,1.252,739.597,314.971,1.008,1194.525,279.193,1.002,668.273,120.087,0.762,-0.038,-0.969,1.403,0.000,-357.828,0.000,-0.038,0.001,-0.003,0.077,-0.818,1.368
0723_095332_0199.png,0.009,0.157,0.936,-0.056,0.160,0.944,0.127,-0.008,1.138,-0.166,-0.016,1.103,0.195,-0.202,1.304,-0.253,-0.225,0.965,0.288,-0.260,1.070,-0.241,-0.349,0.739,969.021,699.280,0.936,903.753,701.420,0.944,1066.014,533.054,1.138,817.163,526.005,1.103,1102.146,392.445,1.304,711.132,317.899,0.965,1215.730,308.637,1.070,649.779,91.484,0.739,-0.034,-0.966,1.402,0.000,-351.932,0.000,0.008,0.026,0.021,-0.135,-0.845,1.636
0723_095332_0200.png,0.039,0.162,0.926,-0.029,0.161,0.926,0.162,-0.007,1.110,-0.144,-0.002,1.132,0.097,-0.204,0.930,-0.322,-0.214,1.151,-0.019,-0.348,0.737,-0.410,-0.300,0.915,1000.055,706.460,0.926,930.249,705.670,0.926,1099.067,533.618,1.110,839.437,538.012,1.132,1059.572,331.421,0.930,693.857,363.388,1.151,935.845,90.867,0.737,534.205,227.887,0.915,-0.037,-0.963,1.401,0.000,-3.071,0.000,-0.033,-0.024,-0.006,-0.035,-1.234,1.378
0723_095332_0201.png,0.013,0.172,0.936,-0.050,0.174,0.939,0.110,0.004,1.153,-0.167,-0.010,1.093,0.212,-0.216,1.024,-0.223,-0.268,1.154,0.206,-0.354,0.794,-0.188,-0.328,0.895,973.541,714.326,0.936,909.600,716.318,0.939,1050.939,542.897,1.153,814.700,531.082,1.093,1157.209,339.259,1.024,776.398,318.818,1.154,1206.767,116.698,0.794,760.104,191.016,0.895,-0.040,-0.966,1.402,0.000,-346.334,0.000,0.044,-0.003,-0.021,0.192,-0.903,1.359
0723_095332_0202.png,0.023,0.156,0.944,-0.041,0.156,0.942,0.129,-0.008,1.134,-0.160,-0.012,1.114,0.124,-0.233,0.991,-0.205,-0.187,0.910,-0.015,-0.340,0.799,-0.251,-0.357,0.711,982.863,697.649,0.944,918.140,697.909,0.942,1068.294,533.692,1.134,823.738,529.834,1.114,1079.091,316.037,0.991,745.541,344.764,0.910,941.919,135.469,0.799,624.419,62.380,0.711,-0.032,-0.969,1.403,0.000,-354.941,0.000,0.025,0.037,0.006,0.184,-0.992,1.315
0723_095332_0203.png,0.036,0.189,0.934,-0.032,0.187,0.930,0.155,0.000,1.101,-0.148,0.009,1.139,0.223,-0.209,1.273,-0.106,-0.173,0.928,0.388,-0.266,1.068,-0.063,-0.350,0.722,996.685,732.164,0.934,927.609,730.880,0.930,1094.230,539.803,1.101,836.100,547.136,1.139,1126.491,384.272,1.273,851.832,362.643,0.928,1305.923,303.214,1.068,877.215,79.278,0.722,-0.024,-0.970,1.403,0.000,-6.176,0.000,-0.032,-0.030,-0.018,0.064,-0.867,1.275
0723_095332_0204.png,0.007,0.165,0.928,-0.060,0.169,0.937,0.136,0.000,1.126,-0.169,-0.003,1.112,0.251,-0.241,1.168,-0.276,-0.244,1.170,0.095,-0.286,0.959,-0.306,-0.297,0.917,967.221,709.031,0.928,899.275,711.201,0.937,1074.904,540.230,1.126,815.701,537.379,1.112,1164.689,343.905,1.168,735.860,341.563,1.170,1054.064,256.480,0.959,642.951,232.119,0.917,-0.028,-0.973,1.404,0.000,-356.029,0.000,-0.028,0.006,0.013,-0.285,-1.055,1.428
0723_095332_0205.png,0.009,0.168,0.937,-0.057,0.169,0.937,0.112,-0.006,1.144,-0.178,-0.018,1.089,0.253,-0.222,1.216,-0.290,-0.258,1.048,0.140,-0.284,0.992,-0.303,-0.331,0.803,968.947,710.289,0.937,902.478,711.230,0.937,1053.102,535.258,1.144,804.101,524.045,1.089,1157.696,366.091,1.216,696.574,306.340,1.048,1094.273,267.709,0.992,600.961,148.193,0.803,-0.029,-0.964,1.402,0.000,-347.897,0.000,0.004,0.007,0.030,0.228,-0.762,1.482
0723_095332_0206.png,0.015,0.166,0.931,-0.052,0.167,0.931,0.128,-0.008,1.133,-0.175,-0.014,1.106,0.287,-0.219,1.070,-0.170,-0.211,0.923,0.373,-0.318,0.844,-0.110,-0.356,0.713,975.459,709.647,0.931,906.639,710.313,0.931,1067.111,533.614,1.133,809.375,528.118,1.106,1214.858,345.069,1.070,785.055,322.887,0.923,1379.978,182.154,0.844,813.108,65.699,0.713,-0.026,-0.959,1.401,0.000,-353.596,0.000,-0.024,-0.019,0.014,0.146,-1.050,1.178
0723_095332_0207.png,0.032,0.179,0.937,-0.034,0.178,0.937,0.153,0.000,1.103,-0.139,0.009,1.143,0.128,-0.187,0.894,-0.277,-0.199,1.246,0.106,-0.369,0.690,-0.351,-0.287,1.002,991.979,721.578,0.937,925.694,720.534,0.937,1091.802,539.819,1.103,844.708,547.541,1.143,1096.012,341.467,0.894,748.715,388.413,1.246,1105.614,31.743,0.690,627.241,267.863,1.002,-0.025,-0.974,1.404,0.000,-6.914,0.000,0.008,0.001,-0.025,-0.122,-0.887,1.464
0723_095332_0208.png,0.012,0.149,0.935,-0.056,0.151,0.939,0.135,-0.007,1.134,-0.170,-0.009,1.125,0.150,-0.240,0.987,-0.171,-0.245,0.983,0.011,-0.338,0.777,-0.133,-0.349,0.737,971.770,691.148,0.935,903.385,692.700,0.939,1073.394,534.196,1.134,816.282,532.433,1.125,1104.087,309.073,0.987,794.477,303.001,0.983,972.914,125.810,0.777,788.278,88.794,0.737,-0.025,-0.963,1.401,0.000,-357.126,0.000,-0.028,0.014,-0.027,-0.122,-1.219,1.481
0723_095332_0209.png,0.038,0.153,0.947,-0.030,0.152,0.943,0.154,-0.018,1.120,-0.153,-0.016,1.131,0.105,-0.225,0.955,-0.284,-0.221,1.238,0.022,-0.341,0.734,-0.351,-0.271,0.990,997.838,693.734,0.947,929.347,692.843,0.943,1090.793,524.671,1.120,830.906,526.912,1.131,1064.972,316.260,0.955,741.391,370.420,1.238,989.023,98.626,0.734,622.841,279.768,0.990,-0.033,-0.961,1.401,0.000,-0.899,0.000,-0.036,0.034,0.007,0.153,-0.900,1.439
0723_095332_0210.png,0.003,0.140,0.925,-0.062,0.145,0.929,0.111,-0.008,1.145,-0.180,-0.023,1.083,0.200,-0.210,1.295,-0.287,-0.206,1.244,0.245,-0.262,1.053,-0.452,-0.266,1.054,962.899,684.358,0.925,896.024,688.051,0.929,1051.866,532.951,1.145,802.331,520.191,1.083,1106.886,385.746,1.295,740.543,382.730,1.244,1181.329,303.134,1.053,552.014,300.201,1.054,-0.030,-0.964,1.402,0.000,-346.605,0.000,0.000,0.015,0.045,0.048,-1.238,1.588
0723_095332_0211.png,0.049,0.156,0.942,-0.017,0.155,0.942,0.172,-0.025,1.086,-0.116,-0.010,1.149,0.312,-0.247,1.085,-0.274,-0.193,1.253,0.369,-0.315,0.844,-0.449,-0.257,1.076,1009.173,697.162,0.942,943.271,696.032,0.942,1110.226,518.520,1.086,863.836,531.626,1.149,1233.461,323.531,1.085,751.893,393.309,1.253,1375.758,184.812,0.844,562.822,312.752,1.076,-0.037,-0.965,1.402,0.000,-11.440,0.000,0.007,0.039,0.030,-0.239,-0.900,1.154
0723_095332_0212.png,0.055,0.164,0.935,-0.013,0.159,0.929,0.174,-0.008,1.094,-0.130,0.005,1.149,0.082,-0.218,0.943,-0.122,-0.173,0.933,-0.010,-0.344,0.726,-0.112,-0.345,0.721,1016.040,706.357,0.935,946.862,702.905,0.929,1110.916,533.071,1.094,852.014,543.983,1.149,1042.177,320.591,0.943,835.911,363.687,0.933,947.077,89.847,0.726,813.020,85.286,0.721,-0.034,-0.971,1.403,0.000,-9.458,0.000,-0.042,0.010,-0.011,0.128,-1.159,1.387
0723_095332_0213.png,0.036,0.172,0.936,-0.032,0.170,0.931,0.152,-0.013,1.103,-0.154,-0.006,1.132,0.205,-0.270,1.040,-0.185,-0.216,0.971,0.036,-0.317,0.845,-0.176,-0.340,0.744,996.593,714.995,0.936,927.512,713.632,0.931,1091.028,528.888,1.103,830.188,534.854,1.132,1147.234,293.346,1.040,778.306,328.555,0.971,1000.488,183.564,0.845,735.467,105.809,0.744,-0.024,-0.963,1.401,0.000,-4.452,0.000,-0.037,-0.011,0.023,0.185,-0.937,1.132
0723_095332_0214.png,0.049,0.162,0.942,-0.014,0.158,0.935,0.163,-0.020,1.082,-0.112,-0.003,1.159,0.242,-0.275,1.077,-0.087,-0.181,0.949,0.104,-0.332,0.858,-0.065,-0.357,0.745,1009.256,703.958,0.942,945.312,700.696,0.935,1102.786,522.058,1.082,867.766,537.665,1.159,1173.527,297.221,1.077,872.772,358.186,0.949,1075.051,171.852,0.858,876.846,84.565,0.745,-0.025,-0.963,1.401,0.000,-14.762,0.000,0.037,0.016,-0.010,-0.014,-0.973,1.260
0723_095332_0215.png,0.052,0.164,0.925,-0.013,0.159,0.920,0.169,-0.016,1.075,-0.113,0.002,1.151,0.223,-0.274,1.015,-0.244,-0.229,1.212,0.098,-0.343,0.798,-0.249,-0.300,0.962,1013.043,708.360,0.925,946.559,704.368,0.920,1109.815,526.262,1.075,866.478,541.625,1.151,1169.282,282.952,1.015,768.762,360.363,1.212,1076.979,131.410,0.798,714.064,243.815,0.962,-0.031,-0.965,1.402,0.000,-14.284,0.000,0.013,-0.018,0.014,-0.026,-1.252,1.250
0723_095332_0216.png,0.005,0.149,0.936,-0.058,0.154,0.945,0.124,-0.009,1.141,-0.164,-0.017,1.110,0.122,-0.246,1.011,-0.283,-0.206,1.251,-0.014,-0.341,0.810,-0.347,-0.283,1.008,965.255,691.770,0.936,901.350,694.793,0.945,1063.051,532.085,1.141,819.161,525.849,1.110,1074.521,309.125,1.011,744.862,383.440,1.251,943.342,139.913,0.810,632.266,273.248,1.008,-0.032,-0.963,1.401,0.000,-352.614,0.000,0.024,0.024,-0.002,-0.228,-1.056,1.437
0723_095332_0217.png,0.017,0.191,0.930,-0.051,0.191,0.931,0.129,0.010,1.139,-0.176,0.000,1.095,0.204,-0.249,1.090,-0.231,-0.247,0.992,0.022,-0.308,0.901,-0.099,-0.336,0.781,977.110,734.717,0.930,907.474,735.564,0.931,1067.365,548.641,1.139,807.085,540.262,1.095,1138.189,322.786,1.090,738.490,302.897,0.992,982.688,215.465,0.901,839.815,130.544,0.781,-0.034,-0.973,1.404,0.000,-350.451,0.000,-0.037,-0.028,0.002,0.163,-0.783,1.398
0723_095332_0218.png,0.034,0.143,0.934,-0.031,0.141,0.931,0.152,-0.022,1.101,-0.142,-0.013,1.139,0.256,-0.246,1.198,-0.229,-0.217,0.996,0.125,-0.285,0.978,-0.260,-0.339,0.771,995.052,686.017,0.934,928.212,683.894,0.931,1091.399,521.093,1.101,841.769,529.175,1.139,1163.257,344.271,1.198,740.800,332.416,0.996,1081.887,262.637,0.978,639.203,121.611,0.771,-0.025,-0.960,1.401,0.000,-6.545,0.000,0.002,0.020,0.024,0.010,-1.253,1.357
0723_095332_0219.png,0.035,0.188,0.932,-0.028,0.187,0.933,0.157,-0.002,1.088,-0.124,0.011,1.143,0.193,-0.201,1.273,-0.112,-0.171,0.935,0.240,-0.290,1.031,-0.103,-0.350,0.733,995.664,731.732,0.932,930.981,730.912,0.933,1096.884,538.369,1.088,857.020,548.839,1.143,1104.182,389.644,1.273,845.928,365.747,0.935,1181.176,272.328,1.031,826.818,86.095,0.733,-0.028,-0.975,1.404,0.000,-10.074,0.000,0.037,-0.013,0.003,-0.244,-0.776,1.397
0723_095332_0220.png,0.019,0.156,0.932,-0.047,0.157,0.933,0.128,-0.007,1.132,-0.165,-0.012,1.110,0.150,-0.254,1.028,-0.228,-0.187,0.913,-0.008,-0.332,0.837,-0.290,-0.357,0.722,978.880,699.586,0.932,912.527,700.369,0.933,1067.344,533.823,1.132,818.762,529.289,1.110,1098.703,305.485,1.028,722.357,345.184,0.913,950.465,162.542,0.837,578.107,69.397,0.722,-0.030,-0.964,1.402,0.000,-354.339,0.000,0.011,0.003,0.012,0.119,-1.107,1.424
0723_095332_0221.png,0.050,0.156,0.933,-0.016,0.152,0.928,0.169,-0.014,1.089,-0.122,0.001,1.156,0.107,-0.235,0.938,-0.201,-0.170,0.944,0.031,-0.363,0.713,-0.280,-0.336,0.738,1011.411,699.459,0.933,944.111,695.372,0.928,1107.867,527.734,1.089,859.919,541.017,1.156,1068.423,301.151,0.938,757.289,368.956,0.944,1001.032,55.487,0.713,599.559,106.731,0.738,-0.030,-0.965,1.402,0.000,-12.028,0.000,-0.007,0.003,-0.021,0.016,-1.283,1.316
0723_095332_0222.png,0.014,0.167,0.939,-0.052,0.169,0.942,0.129,0.001,1.143,-0.170,-0.005,1.116,0.124,-0.245,1.014,-0.288,-0.241,1.040,-0.015,-0.340,0.801,-0.196,-0.337,0.801,974.406,709.155,0.939,907.186,710.557,0.942,1067.529,541.017,1.143,815.044,535.758,1.116,1076.535,310.630,1.014,696.792,319.198,1.040,942.573,136.767,0.801,727.271,139.782,0.801,-0.031,-0.967,1.402,0.000,-353.544,0.000,-0.012,0.005,-0.039,0.018,-1.025,1.271
0723_095332_0223.png,0.008,0.166,0.930,-0.057,0.168,0.931,0.110,0.007,1.144,-0.177,-0.005,1.095,0.183,-0.167,0.940,-0.279,-0.200,1.249,0.255,-0.336,0.742,-0.434,-0.275,1.053,967.672,709.441,0.930,901.559,711.466,0.931,1051.696,545.413,1.144,805.999,535.785,1.095,1145.409,371.031,0.940,747.704,387.489,1.249,1287.391,108.739,0.742,567.873,291.368,1.053,-0.028,-0.973,1.404,0.000,-348.822,0.000,0.016,0.003,0.000,0.162,-1.052,1.571
0723_095332_0224.png,-0.002,0.190,0.927,-0.066,0.192,0.935,0.112,0.006,1.134,-0.176,-0.003,1.097,0.266,-0.201,1.226,-0.214,-0.276,1.091,0.237,-0.303,0.988,-0.188,-0.340,0.839,957.486,734.411,0.927,892.626,735.640,0.935,1053.588,544.845,1.134,807.540,537.740,1.097,1166.090,384.005,1.226,773.222,299.573,1.091,1188.462,248.415,0.988,746.497,154.543,0.839,-0.023,-0.969,1.403,0.000,-351.409,0.000,0.023,-0.034,0.011,-0.136,-0.770,1.284
0723_095332_0225.png,-0.004,0.170,0.932,-0.068,0.175,0.945,0.115,0.005,1.146,-0.173,-0.004,1.105,0.173,-0.228,1.009,-0.317,-0.219,1.177,0.096,-0.353,0.785,-0.394,-0.308,0.936,955.575,713.223,0.932,892.008,716.543,0.945,1055.221,544.114,1.146,811.438,536.228,1.105,1123.021,325.423,1.009,703.733,362.726,1.177,1076.677,112.330,0.785,559.502,226.869,0.936,-0.029,-0.970,1.403,0.000,-350.571,0.000,0.022,0.001,-0.027,-0.293,-0.951,1.426
0723_095332_0226.png,0.006,0.157,0.944,-0.058,0.158,0.945,0.109,-0.005,1.145,-0.177,-0.014,1.106,0.234,-0.208,1.253,-0.342,-0.216,1.066,0.392,-0.272,1.053,-0.430,-0.325,0.844,966.178,698.205,0.944,901.695,699.355,0.945,1050.864,535.885,1.145,808.203,528.045,1.106,1137.691,382.325,1.253,655.019,347.651,1.066,1313.629,294.525,1.053,475.703,173.192,0.844,-0.024,-0.968,1.402,0.000,-350.873,0.000,0.027,0.035,-0.006,0.190,-1.016,1.164
0723_095332_0227.png,0.045,0.173,0.928,-0.021,0.172,0.929,0.171,-0.011,1.086,-0.120,0.004,1.148,0.225,-0.279,1.097,-0.217,-0.245,1.094,0.074,-0.318,0.883,-0.203,-0.327,0.844,1005.719,717.229,0.928,938.150,715.701,0.929,1109.664,530.804,1.086,860.712,543.135,1.148,1154.923,297.931,1.097,771.043,326.998,1.094,1039.854,197.597,0.883,731.607,171.210,0.844,-0.035,-0.966,1.402,0.000,-11.200,0.000,-0.002,-0.018,0.000,-0.241,-1.015,1.330
0723_095332_0228.png,0.044,0.150,0.928,-0.020,0.148,0.928,0.165,-0.018,1.085,-0.117,-0.004,1.144,0.138,-0.255,0.974,-0.108,-0.177,0.938,-0.017,-0.342,0.790,-0.099,-0.346,0.737,1004.661,694.150,0.928,939.039,691.889,0.928,1104.953,524.451,1.085,862.687,536.623,1.144,1094.828,290.959,0.974,850.344,360.417,0.938,939.596,128.144,0.790,832.115,93.880,0.737,-0.034,-0.967,1.402,0.000,-11.026,0.000,0.027,0.015,0.031,-0.180,-1.191,1.531
