rolosa10/RGSpipe/dataset/synthetic_dataset/Coods3D_unique0723_085331.csv
filename,left_eye,left_eye,left_eye,right_eye,right_eye,right_eye,left_shoulder,left_shoulder,left_shoulder,right_shoulder,right_shoulder,right_shoulder,left_elbow,left_elbow,left_elbow,right_elbow,right_elbow,right_elbow,left_wrist,left_wrist,left_wrist,right_wrist,right_wrist,right_wrist,left_eye_2D,left_eye_2D,left_eye_2D,right_eye_2D,right_eye_2D,right_eye_2D,left_shoulder_2D,left_shoulder_2D,left_shoulder_2D,right_shoulder_2D,right_shoulder_2D,right_shoulder_2D,left_elbow_2D,left_elbow_2D,left_elbow_2D,right_elbow_2D,right_elbow_2D,right_elbow_2D,left_wrist_2D,left_wrist_2D,left_wrist_2D,right_wrist_2D,right_wrist_2D,right_wrist_2D,root_position,root_position,root_position,root_pitch,root_yaw,root_roll,root_scale,root_scale,root_scale,look_at,look_at,look_at
0723_085331_0001.png,0.030,0.154,0.930,-0.034,0.155,0.934,0.154,-0.012,1.113,-0.136,-0.007,1.137,0.231,-0.228,1.258,-0.212,-0.181,0.930,0.345,-0.286,1.027,-0.288,-0.351,0.729,990.746,697.450,0.930,925.056,697.440,0.934,1091.260,529.604,1.113,845.912,534.503,1.137,1134.339,367.869,1.258,743.054,355.257,0.930,1279.314,275.331,1.027,584.263,82.414,0.729,-0.035,-0.960,1.401,0.000,-3.749,0.000,0.020,-0.005,-0.014,-0.197,-1.117,1.621
0723_085331_0002.png,0.011,0.169,0.936,-0.053,0.171,0.940,0.120,-0.008,1.138,-0.169,-0.019,1.092,0.071,-0.179,0.944,-0.243,-0.201,1.274,0.020,-0.345,0.754,-0.283,-0.275,1.035,971.337,711.869,0.936,905.861,712.873,0.940,1060.499,533.254,1.138,813.162,523.780,1.092,1031.125,359.674,0.944,778.635,390.320,1.274,985.667,105.258,0.754,699.648,287.665,1.035,-0.034,-0.964,1.402,0.000,-349.566,0.000,0.014,0.006,0.042,0.056,-0.696,1.503
0723_085331_0003.png,0.042,0.164,0.945,-0.021,0.159,0.936,0.151,-0.008,1.106,-0.133,0.001,1.146,0.079,-0.188,0.903,-0.284,-0.193,1.241,0.013,-0.365,0.705,-0.457,-0.276,1.058,1002.721,704.721,0.945,939.003,701.754,0.936,1089.583,532.776,1.106,849.334,540.724,1.146,1043.097,341.401,0.903,742.056,392.108,1.241,976.883,46.980,0.705,549.399,291.963,1.058,-0.026,-0.970,1.403,0.000,-7.121,0.000,0.033,0.025,-0.021,0.207,-0.947,1.613
0723_085331_0004.png,0.005,0.152,0.934,-0.059,0.154,0.936,0.110,-0.012,1.141,-0.175,-0.022,1.095,0.150,-0.250,1.038,-0.347,-0.220,1.063,-0.016,-0.326,0.860,-0.450,-0.322,0.854,965.337,694.422,0.934,900.437,696.137,0.936,1051.325,530.176,1.141,807.840,520.558,1.095,1097.628,310.742,1.038,649.616,343.095,1.063,941.857,179.106,0.860,458.245,180.869,0.854,-0.026,-0.961,1.401,0.000,-349.397,0.000,0.028,0.016,0.034,0.121,-1.052,1.263
0723_085331_0005.png,-0.002,0.160,0.923,-0.065,0.165,0.928,0.095,0.010,1.150,-0.181,-0.005,1.085,0.058,-0.176,0.951,-0.238,-0.255,1.002,0.024,-0.360,0.758,-0.229,-0.361,0.760,958.026,704.936,0.923,893.552,709.030,0.928,1038.655,548.275,1.150,801.482,535.538,1.085,1017.995,363.824,0.951,733.767,297.532,1.002,990.468,88.874,0.758,673.222,88.679,0.760,-0.028,-0.974,1.404,0.000,-345.100,0.000,0.043,-0.003,-0.003,0.100,-1.271,1.451
0723_085331_0006.png,0.002,0.188,0.925,-0.063,0.191,0.931,0.113,0.008,1.137,-0.175,-0.002,1.095,0.229,-0.240,1.114,-0.272,-0.211,1.255,0.091,-0.325,0.910,-0.341,-0.295,1.016,961.684,733.619,0.925,896.119,735.137,0.931,1054.237,546.409,1.137,807.893,538.403,1.095,1155.679,335.092,1.114,754.041,380.368,1.255,1055.266,200.159,0.910,640.864,264.350,1.016,-0.026,-0.969,1.403,0.000,-350.444,0.000,0.020,-0.041,0.005,-0.059,-0.920,1.098
0723_085331_0007.png,0.041,0.170,0.939,-0.024,0.167,0.935,0.159,-0.005,1.096,-0.129,0.007,1.148,0.121,-0.253,0.992,-0.189,-0.232,1.032,0.072,-0.355,0.750,-0.058,-0.335,0.828,1001.713,712.296,0.939,936.009,710.157,0.935,1097.600,535.234,1.096,853.049,545.405,1.148,1075.906,297.491,0.992,785.837,326.575,1.032,1051.722,90.062,0.750,893.460,154.964,0.828,-0.027,-0.975,1.404,0.000,-9.393,0.000,0.015,0.019,-0.013,-0.019,-0.877,1.688
0723_085331_0008.png,0.021,0.157,0.934,-0.043,0.158,0.939,0.146,-0.018,1.103,-0.140,-0.010,1.137,0.141,-0.269,1.015,-0.303,-0.208,1.205,-0.016,-0.337,0.822,-0.432,-0.289,0.997,981.498,699.600,0.934,916.794,699.635,0.939,1086.154,524.700,1.103,842.654,531.781,1.137,1091.689,288.295,1.015,720.762,375.770,1.205,941.071,149.512,0.822,547.382,264.151,0.997,-0.025,-0.962,1.401,0.000,-5.856,0.000,0.027,0.014,0.019,-0.297,-0.904,1.607
0723_085331_0009.png,0.010,0.163,0.943,-0.055,0.165,0.950,0.133,-0.005,1.134,-0.163,-0.007,1.128,0.200,-0.227,0.982,-0.297,-0.239,1.096,0.175,-0.356,0.742,-0.180,-0.322,0.866,970.421,703.815,0.943,905.028,705.173,0.950,1071.915,535.476,1.134,822.933,534.432,1.128,1153.932,319.936,0.982,702.101,332.869,1.096,1184.100,83.937,0.742,762.351,186.591,0.866,-0.026,-0.965,1.402,0.000,-357.780,0.000,0.003,0.022,-0.037,-0.207,-0.873,1.518
0723_085331_0010.png,0.041,0.176,0.932,-0.023,0.172,0.925,0.151,-0.004,1.097,-0.136,0.006,1.138,0.154,-0.266,1.025,-0.153,-0.207,0.971,-0.016,-0.340,0.841,-0.081,-0.356,0.767,1001.530,719.446,0.932,936.433,716.820,0.925,1090.580,536.665,1.097,846.748,544.720,1.138,1102.532,293.143,1.025,810.614,337.348,0.971,941.750,155.007,0.841,859.215,98.848,0.767,-0.026,-0.971,1.403,0.000,-7.256,0.000,0.026,-0.015,0.003,0.196,-1.055,1.344
0723_085331_0011.png,0.015,0.154,0.946,-0.049,0.155,0.945,0.114,-0.009,1.154,-0.170,-0.020,1.107,0.236,-0.248,1.147,-0.332,-0.207,1.198,0.250,-0.322,0.887,-0.247,-0.304,0.960,975.385,694.701,0.946,911.075,695.954,0.945,1054.053,532.667,1.154,814.015,523.092,1.107,1155.967,334.701,1.147,696.254,376.015,1.198,1228.441,195.035,0.887,715.668,239.011,0.960,-0.034,-0.958,1.400,0.000,-349.210,0.000,0.030,0.021,-0.031,0.271,-0.975,1.337
0723_085331_0012.png,0.034,0.172,0.939,-0.031,0.172,0.944,0.163,-0.009,1.105,-0.129,0.002,1.151,0.141,-0.255,0.977,-0.133,-0.183,0.934,-0.017,-0.352,0.778,-0.141,-0.364,0.724,994.412,713.752,0.939,928.304,713.422,0.944,1100.656,532.674,1.105,853.557,541.621,1.151,1097.560,291.581,0.977,824.148,353.821,0.934,939.756,109.756,0.778,774.748,62.014,0.724,-0.032,-0.964,1.402,0.000,-7.920,0.000,0.003,-0.001,-0.043,-0.344,-0.884,1.409
0723_085331_0013.png,0.052,0.185,0.927,-0.012,0.181,0.918,0.162,-0.004,1.091,-0.127,0.006,1.137,0.176,-0.281,1.070,-0.219,-0.222,1.024,0.159,-0.345,0.817,-0.147,-0.347,0.807,1013.034,729.843,0.927,947.115,727.400,0.918,1101.374,536.171,1.091,854.093,545.235,1.137,1116.541,290.611,1.070,756.848,333.704,1.024,1144.897,138.239,0.817,786.799,130.736,0.807,-0.034,-0.967,1.402,0.000,-8.179,0.000,0.015,-0.045,0.011,0.232,-1.009,1.269
0723_085331_0014.png,0.042,0.178,0.932,-0.025,0.176,0.928,0.156,-0.003,1.108,-0.144,0.002,1.128,0.196,-0.230,0.968,-0.246,-0.250,1.106,0.144,-0.350,0.741,-0.253,-0.322,0.855,1002.597,721.266,0.932,934.733,720.091,0.928,1094.026,537.411,1.108,838.876,541.449,1.128,1152.714,313.751,0.968,748.626,324.989,1.106,1145.140,91.058,0.741,678.942,181.797,0.855,-0.035,-0.969,1.403,0.000,-2.861,0.000,-0.012,-0.017,0.009,0.152,-0.911,1.496
0723_085331_0015.png,0.014,0.192,0.933,-0.051,0.193,0.937,0.131,0.004,1.119,-0.160,0.003,1.117,0.058,-0.179,0.925,-0.250,-0.242,1.043,-0.013,-0.358,0.736,-0.132,-0.341,0.831,973.847,735.633,0.933,908.530,735.980,0.937,1071.160,543.261,1.119,824.154,542.898,1.117,1019.277,356.324,0.925,732.032,319.008,1.043,943.588,77.856,0.736,808.575,150.008,0.831,-0.024,-0.971,1.403,0.000,-358.444,0.000,0.022,-0.026,0.003,-0.110,-0.726,1.293
0723_085331_0016.png,0.033,0.160,0.937,-0.032,0.159,0.934,0.144,-0.006,1.127,-0.149,-0.005,1.130,0.120,-0.188,0.909,-0.230,-0.226,0.983,0.100,-0.366,0.698,-0.258,-0.360,0.747,993.778,702.325,0.937,927.721,701.541,0.934,1081.569,535.310,1.127,834.333,535.928,1.130,1085.627,343.595,0.909,737.685,321.453,0.983,1096.071,40.623,0.698,631.804,82.084,0.747,-0.034,-0.962,1.401,0.000,-359.455,0.000,0.012,-0.003,-0.034,0.154,-1.149,1.422
0723_085331_0017.png,0.055,0.166,0.936,-0.010,0.161,0.926,0.165,-0.016,1.077,-0.124,0.000,1.145,0.194,-0.236,0.939,-0.238,-0.208,1.037,0.184,-0.350,0.713,-0.180,-0.324,0.818,1015.792,709.004,0.936,950.115,705.631,0.926,1105.871,526.016,1.077,857.233,540.036,1.145,1155.991,300.723,0.939,741.466,349.183,1.037,1205.340,73.629,0.713,750.284,162.955,0.818,-0.028,-0.972,1.403,0.000,-12.612,0.000,-0.002,0.017,0.043,0.215,-0.964,1.377
0723_085331_0018.png,0.006,0.157,0.921,-0.059,0.162,0.929,0.122,-0.004,1.139,-0.169,-0.012,1.101,0.184,-0.254,1.049,-0.155,-0.256,0.979,0.027,-0.334,0.854,-0.099,-0.359,0.743,966.026,701.931,0.921,899.976,705.396,0.929,1062.178,536.885,1.139,814.276,529.379,1.101,1126.498,309.334,1.049,809.774,291.736,0.979,990.367,167.572,0.854,833.325,80.831,0.743,-0.032,-0.959,1.401,0.000,-351.340,0.000,0.011,-0.031,0.001,-0.171,-1.279,1.353
0723_085331_0019.png,0.017,0.179,0.933,-0.048,0.179,0.931,0.121,-0.001,1.137,-0.168,-0.008,1.109,0.053,-0.184,0.939,-0.309,-0.190,1.264,-0.011,-0.364,0.747,-0.353,-0.297,1.022,976.942,722.721,0.933,911.211,723.169,0.931,1060.934,538.940,1.137,815.603,533.411,1.109,1013.346,353.544,0.939,727.269,397.224,1.264,945.469,76.327,0.747,631.843,263.513,1.022,-0.028,-0.959,1.400,0.000,-353.168,0.000,0.022,-0.040,-0.019,0.221,-0.940,1.221
0723_085331_0020.png,0.032,0.174,0.941,-0.034,0.174,0.938,0.146,-0.010,1.113,-0.152,-0.008,1.122,0.100,-0.182,0.915,-0.207,-0.250,1.029,0.053,-0.349,0.722,-0.068,-0.328,0.825,992.778,716.205,0.941,925.973,715.830,0.938,1085.102,531.592,1.113,831.565,533.358,1.122,1064.382,350.737,0.915,768.292,309.306,1.029,1030.440,80.080,0.722,881.516,162.265,0.825,-0.031,-0.967,1.402,0.000,-0.551,0.000,-0.004,0.008,0.029,0.118,-0.769,1.183
0723_085331_0021.png,-0.001,0.167,0.924,-0.065,0.170,0.929,0.102,0.004,1.145,-0.180,-0.010,1.083,0.128,-0.233,1.026,-0.241,-0.204,1.265,-0.007,-0.339,0.834,-0.269,-0.287,1.022,959.218,711.491,0.924,893.924,714.426,0.929,1044.694,543.482,1.145,802.059,531.185,1.083,1078.992,323.543,1.026,778.698,386.534,1.265,952.428,153.171,0.834,709.968,272.765,1.022,-0.028,-0.970,1.403,0.000,-346.124,0.000,0.026,-0.010,0.020,0.063,-1.085,1.367
0723_085331_0022.png,0.010,0.194,0.933,-0.053,0.197,0.942,0.126,0.011,1.135,-0.161,0.004,1.108,0.208,-0.226,1.020,-0.168,-0.247,0.993,0.160,-0.356,0.790,-0.057,-0.362,0.779,969.992,737.909,0.933,906.010,739.080,0.942,1065.418,548.891,1.135,822.248,543.764,1.108,1154.367,329.286,1.020,798.758,303.237,0.993,1151.927,111.876,0.790,890.850,98.007,0.779,-0.034,-0.973,1.404,0.000,-353.280,0.000,0.031,-0.026,-0.023,-0.181,-0.708,1.355
0723_085331_0023.png,0.005,0.189,0.927,-0.062,0.194,0.938,0.135,0.013,1.133,-0.171,0.007,1.107,0.215,-0.245,1.200,-0.184,-0.245,0.995,0.238,-0.296,0.938,-0.091,-0.345,0.764,965.549,734.474,0.927,897.411,736.398,0.938,1073.459,550.774,1.133,812.803,545.978,1.107,1130.451,346.215,1.200,783.819,306.153,0.995,1201.311,239.397,0.938,847.161,110.982,0.764,-0.031,-0.976,1.404,0.000,-353.936,0.000,-0.036,-0.027,-0.017,-0.292,-0.818,1.534
0723_085331_0024.png,0.027,0.175,0.940,-0.037,0.174,0.938,0.139,-0.007,1.114,-0.147,-0.002,1.134,0.201,-0.188,0.914,-0.182,-0.226,0.981,0.265,-0.365,0.721,-0.091,-0.359,0.770,986.833,717.438,0.940,922.668,716.685,0.938,1078.315,534.387,1.114,837.023,538.235,1.134,1169.006,344.544,0.914,783.851,320.538,0.981,1309.267,58.124,0.721,847.965,96.820,0.770,-0.024,-0.965,1.402,0.000,-2.831,0.000,0.037,-0.005,-0.014,0.051,-0.927,1.071
0723_085331_0025.png,0.005,0.173,0.928,-0.062,0.177,0.936,0.122,0.011,1.150,-0.178,-0.001,1.100,0.227,-0.234,1.223,-0.335,-0.228,1.085,0.298,-0.294,0.966,-0.340,-0.328,0.830,964.927,716.984,0.928,896.874,720.257,0.936,1061.043,548.819,1.150,806.068,539.304,1.100,1136.498,358.124,1.223,666.116,340.157,1.085,1253.064,250.748,0.966,570.656,164.927,0.830,-0.034,-0.970,1.403,0.000,-349.148,0.000,-0.026,-0.017,-0.038,-0.099,-1.117,1.299
0723_085331_0026.png,0.010,0.183,0.930,-0.054,0.185,0.929,0.106,0.014,1.147,-0.177,0.002,1.094,0.083,-0.171,0.933,-0.231,-0.262,1.035,0.063,-0.353,0.726,-0.071,-0.347,0.839,969.946,727.416,0.930,904.315,728.880,0.929,1048.154,551.805,1.147,805.799,541.813,1.094,1044.473,366.137,0.933,747.635,299.173,1.035,1042.593,78.226,0.726,880.049,146.656,0.839,-0.029,-0.974,1.404,0.000,-348.001,0.000,0.027,-0.024,-0.024,0.280,-0.960,1.468
0723_085331_0027.png,0.038,0.151,0.943,-0.027,0.152,0.948,0.167,-0.018,1.105,-0.125,-0.008,1.149,0.155,-0.264,0.996,-0.230,-0.244,1.079,-0.016,-0.335,0.806,-0.235,-0.329,0.827,998.200,692.170,0.943,932.576,691.982,0.948,1103.762,524.457,1.105,856.818,533.545,1.149,1107.884,288.333,0.996,756.888,325.267,1.079,940.933,144.999,0.806,689.610,161.799,0.827,-0.037,-0.965,1.402,0.000,-7.749,0.000,0.006,0.041,-0.013,-0.347,-0.965,1.459
0723_085331_0028.png,0.007,0.166,0.932,-0.059,0.170,0.941,0.124,0.001,1.147,-0.172,-0.010,1.098,0.058,-0.172,0.936,-0.344,-0.220,1.081,-0.006,-0.340,0.731,-0.419,-0.321,0.846,966.808,709.157,0.932,900.252,711.990,0.941,1062.431,540.886,1.147,810.956,531.296,1.098,1018.609,365.439,0.936,657.536,346.413,1.081,951.709,97.428,0.731,488.710,179.606,0.846,-0.036,-0.967,1.402,0.000,-349.295,0.000,-0.010,0.002,-0.009,-0.126,-1.054,1.141
0723_085331_0029.png,-0.008,0.161,0.930,-0.072,0.165,0.936,0.096,-0.003,1.146,-0.185,-0.018,1.084,0.198,-0.169,0.961,-0.271,-0.254,1.174,0.298,-0.332,0.780,-0.291,-0.309,0.925,951.409,704.768,0.930,887.127,707.404,0.936,1039.299,537.245,1.146,797.930,524.490,1.084,1156.002,372.341,0.961,740.159,334.141,1.174,1322.912,135.873,0.780,661.261,222.151,0.925,-0.022,-0.966,1.402,0.000,-345.950,0.000,0.031,0.008,0.031,0.020,-1.026,1.166
0723_085331_0030.png,0.032,0.188,0.927,-0.032,0.187,0.928,0.153,0.005,1.104,-0.136,0.012,1.134,0.159,-0.261,1.030,-0.159,-0.214,0.979,-0.014,-0.343,0.847,-0.067,-0.358,0.775,992.967,732.654,0.927,926.794,732.064,0.928,1091.949,544.552,1.104,845.724,550.241,1.134,1106.670,298.607,1.030,805.818,331.655,0.979,943.960,154.603,0.847,877.414,100.293,0.775,-0.032,-0.974,1.404,0.000,-4.926,0.000,0.019,-0.033,-0.016,-0.144,-0.988,1.299
0723_085331_0031.png,0.047,0.164,0.935,-0.017,0.162,0.932,0.164,-0.004,1.103,-0.123,0.006,1.146,0.158,-0.274,1.121,-0.295,-0.200,1.118,0.131,-0.332,0.859,-0.404,-0.319,0.901,1007.899,707.104,0.935,942.519,704.771,0.932,1101.285,536.270,1.103,858.241,544.612,1.146,1093.761,307.641,1.121,708.854,369.967,1.118,1105.498,172.541,0.859,533.555,203.913,0.901,-0.037,-0.971,1.403,0.000,-7.584,0.000,0.024,0.009,-0.027,0.000,-1.163,1.382
0723_085331_0032.png,0.002,0.154,0.925,-0.062,0.158,0.934,0.125,-0.014,1.129,-0.170,-0.021,1.101,0.074,-0.180,0.927,-0.318,-0.192,1.250,0.021,-0.341,0.731,-0.333,-0.282,1.015,962.373,698.306,0.925,896.413,700.656,0.934,1064.915,527.880,1.129,813.215,522.214,1.101,1035.671,355.117,0.927,717.756,393.908,1.250,987.842,96.095,0.731,648.510,275.743,1.015,-0.027,-0.958,1.400,0.000,-353.445,0.000,0.004,-0.008,0.046,-0.221,-0.944,1.686
0723_085331_0033.png,0.037,0.158,0.937,-0.031,0.155,0.930,0.150,-0.010,1.109,-0.156,-0.005,1.130,0.146,-0.259,1.016,-0.239,-0.214,0.986,0.006,-0.324,0.805,-0.208,-0.335,0.759,997.260,700.818,0.937,928.619,698.771,0.930,1088.299,531.267,1.109,828.802,535.447,1.130,1096.492,297.553,1.016,729.482,333.906,0.986,966.869,156.866,0.805,699.440,120.314,0.759,-0.025,-0.969,1.403,0.000,-2.820,0.000,-0.032,0.016,0.018,0.242,-1.090,1.455
0723_085331_0034.png,0.026,0.178,0.938,-0.042,0.178,0.938,0.141,0.001,1.132,-0.166,-0.005,1.104,0.244,-0.247,1.114,-0.300,-0.233,1.047,0.070,-0.295,0.919,-0.321,-0.322,0.803,986.345,720.359,0.938,917.159,720.847,0.938,1078.397,541.235,1.132,817.343,535.793,1.104,1168.441,329.451,1.114,687.466,328.153,1.047,1032.465,234.089,0.919,580.461,159.254,0.803,-0.038,-0.973,1.404,0.000,-353.540,0.000,-0.037,0.006,0.016,0.137,-0.759,1.455
0723_085331_0035.png,0.047,0.175,0.935,-0.018,0.174,0.934,0.168,-0.013,1.084,-0.120,0.000,1.141,0.220,-0.216,0.924,-0.267,-0.162,0.990,0.224,-0.357,0.711,-0.409,-0.321,0.842,1007.723,718.497,0.935,941.714,717.603,0.934,1106.985,528.215,1.084,860.349,539.712,1.141,1186.270,317.641,0.924,703.574,383.961,0.990,1259.191,62.444,0.711,497.858,177.965,0.842,-0.036,-0.970,1.403,0.000,-10.334,0.000,0.013,0.006,0.036,-0.161,-0.795,1.240
0723_085331_0036.png,0.030,0.175,0.935,-0.034,0.175,0.935,0.149,-0.005,1.102,-0.133,0.004,1.141,0.221,-0.195,1.282,-0.119,-0.176,0.926,0.200,-0.290,1.034,-0.107,-0.353,0.719,990.083,718.443,0.935,925.802,717.607,0.935,1088.503,535.667,1.102,848.922,543.263,1.141,1123.655,395.115,1.282,838.325,359.452,0.926,1144.338,273.265,1.034,818.000,73.306,0.719,-0.027,-0.970,1.403,0.000,-6.875,0.000,0.040,-0.004,-0.010,-0.161,-0.888,1.472
0723_085331_0037.png,0.016,0.174,0.933,-0.052,0.176,0.941,0.148,-0.002,1.119,-0.161,0.000,1.126,0.265,-0.248,1.091,-0.296,-0.230,1.188,0.145,-0.312,0.862,-0.311,-0.291,0.931,976.372,717.330,0.933,907.426,718.269,0.941,1085.734,538.368,1.119,823.963,539.867,1.126,1190.623,324.036,1.091,723.034,355.820,1.188,1119.833,195.608,0.862,642.465,242.417,0.931,-0.028,-0.969,1.403,0.000,-0.286,0.000,-0.041,-0.004,-0.008,-0.275,-0.852,1.537
0723_085331_0038.png,0.018,0.157,0.928,-0.049,0.159,0.930,0.131,-0.004,1.139,-0.170,-0.013,1.099,0.281,-0.215,1.224,-0.187,-0.237,0.953,0.247,-0.285,0.975,-0.154,-0.349,0.721,978.566,700.493,0.928,909.998,702.347,0.930,1069.107,536.431,1.139,813.213,528.396,1.099,1178.751,372.866,1.224,773.676,303.188,0.953,1200.663,261.884,0.975,757.344,80.024,0.721,-0.036,-0.964,1.402,0.000,-351.093,0.000,-0.021,-0.003,0.015,0.084,-1.069,1.619
0723_085331_0039.png,0.022,0.186,0.945,-0.045,0.186,0.947,0.146,-0.001,1.117,-0.157,0.004,1.138,0.296,-0.230,1.090,-0.234,-0.176,0.927,0.359,-0.322,0.842,-0.310,-0.351,0.722,982.239,727.220,0.945,914.694,727.130,0.947,1084.401,539.138,1.117,829.178,543.205,1.138,1218.349,339.568,1.090,720.348,359.691,0.927,1365.633,175.549,0.842,551.923,78.350,0.722,-0.022,-0.969,1.403,0.000,-2.917,0.000,-0.022,-0.003,-0.036,-0.132,-0.682,1.310
0723_085331_0040.png,-0.006,0.160,0.940,-0.072,0.164,0.946,0.106,-0.002,1.151,-0.187,-0.016,1.088,0.096,-0.224,1.005,-0.348,-0.223,1.125,0.043,-0.333,0.775,-0.428,-0.300,0.889,954.205,702.230,0.940,888.114,704.623,0.946,1047.275,538.382,1.151,796.780,525.639,1.088,1050.966,328.553,1.005,665.737,351.491,1.125,1013.059,131.622,0.775,501.795,218.762,0.889,-0.027,-0.971,1.403,0.000,-346.367,0.000,-0.009,0.039,0.015,0.000,-0.893,1.219
0723_085331_0041.png,0.041,0.172,0.928,-0.025,0.169,0.924,0.159,-0.011,1.090,-0.138,-0.001,1.135,0.110,-0.235,0.957,-0.300,-0.201,1.064,0.027,-0.347,0.744,-0.354,-0.319,0.845,1001.897,715.771,0.928,933.905,714.040,0.924,1098.589,530.083,1.090,844.725,539.210,1.135,1068.971,307.039,0.957,691.739,360.117,1.064,994.395,95.902,0.744,561.519,180.708,0.845,-0.029,-0.967,1.402,0.000,-7.750,0.000,-0.011,-0.016,0.034,0.036,-0.971,1.441
0723_085331_0042.png,0.017,0.156,0.936,-0.047,0.159,0.944,0.141,-0.006,1.128,-0.153,-0.007,1.123,0.101,-0.212,0.953,-0.182,-0.266,1.060,0.000,-0.352,0.751,-0.128,-0.334,0.810,977.594,698.231,0.936,912.345,700.051,0.944,1079.082,534.768,1.128,830.849,533.725,1.123,1061.149,328.915,0.953,796.807,300.990,1.060,960.458,94.593,0.751,810.158,147.809,0.810,-0.035,-0.968,1.403,0.000,-357.781,0.000,0.010,0.024,-0.008,-0.271,-1.117,1.254
0723_085331_0043.png,0.008,0.165,0.935,-0.058,0.168,0.936,0.109,0.003,1.151,-0.180,-0.013,1.082,0.075,-0.168,0.940,-0.274,-0.193,1.253,0.042,-0.333,0.734,-0.462,-0.258,1.082,968.032,708.260,0.935,901.300,710.189,0.936,1049.865,542.325,1.151,802.091,528.653,1.082,1036.185,370.197,0.940,751.966,393.759,1.253,1014.018,108.028,0.734,554.243,313.195,1.082,-0.034,-0.972,1.404,0.000,-345.148,0.000,0.000,0.020,0.018,0.229,-0.862,1.587
0723_085331_0044.png,0.045,0.172,0.928,-0.021,0.171,0.929,0.169,-0.006,1.100,-0.124,0.005,1.144,0.169,-0.262,1.206,-0.304,-0.188,1.223,0.150,-0.307,0.941,-0.327,-0.299,0.978,1006.215,716.531,0.928,938.843,715.159,0.929,1105.961,535.229,1.100,856.618,543.768,1.144,1093.510,333.243,1.206,723.919,394.086,1.223,1111.734,229.368,0.941,642.372,249.658,0.978,-0.039,-0.965,1.402,0.000,-7.529,0.000,0.001,-0.026,-0.024,-0.144,-1.135,1.266
0723_085331_0045.png,0.008,0.179,0.936,-0.055,0.182,0.944,0.115,0.001,1.146,-0.166,-0.011,1.097,0.184,-0.258,1.201,-0.288,-0.250,1.070,0.181,-0.316,0.942,-0.178,-0.342,0.846,968.047,721.889,0.936,904.510,723.422,0.944,1055.544,540.547,1.146,816.385,530.889,1.097,1105.372,336.035,1.201,704.307,317.780,1.070,1142.824,221.345,0.942,759.893,155.336,0.846,-0.037,-0.964,1.402,0.000,-348.757,0.000,0.039,-0.012,-0.012,-0.031,-0.708,1.437
0723_085331_0046.png,0.057,0.141,0.936,-0.010,0.136,0.933,0.180,-0.024,1.083,-0.112,-0.005,1.163,0.191,-0.284,1.022,-0.207,-0.232,1.050,0.018,-0.322,0.824,-0.060,-0.320,0.844,1018.039,683.434,0.936,950.028,679.098,0.933,1118.336,519.199,1.083,868.803,535.754,1.163,1137.823,276.054,1.022,772.778,329.494,1.050,980.604,168.166,0.824,892.699,179.394,0.844,-0.034,-0.963,1.401,0.000,-14.626,0.000,-0.021,0.033,-0.013,-0.102,-1.260,1.495
0723_085331_0047.png,0.044,0.178,0.929,-0.020,0.176,0.925,0.160,-0.008,1.081,-0.121,0.006,1.140,0.279,-0.228,1.187,-0.265,-0.209,1.083,0.223,-0.307,0.951,-0.318,-0.326,0.863,1004.925,722.766,0.929,939.731,721.055,0.925,1101.105,532.867,1.081,859.380,544.635,1.140,1183.581,357.490,1.187,727.229,356.662,1.083,1183.135,232.783,0.951,609.800,181.205,0.863,-0.031,-0.973,1.404,0.000,-11.077,0.000,0.032,-0.009,0.035,-0.057,-0.845,1.554
0723_085331_0048.png,0.023,0.176,0.946,-0.042,0.175,0.942,0.130,-0.001,1.137,-0.165,-0.004,1.122,0.065,-0.182,0.927,-0.237,-0.185,0.914,0.005,-0.360,0.722,-0.310,-0.362,0.713,983.344,717.225,0.946,917.559,717.044,0.942,1068.658,539.196,1.137,820.421,536.221,1.122,1026.901,353.099,0.927,713.942,347.056,0.914,966.770,65.884,0.722,547.128,57.352,0.713,-0.028,-0.965,1.402,0.000,-355.794,0.000,0.006,-0.002,-0.041,0.241,-0.778,1.494
0723_085331_0049.png,0.032,0.182,0.939,-0.033,0.181,0.939,0.153,-0.008,1.102,-0.134,0.003,1.147,0.241,-0.262,1.044,-0.292,-0.207,1.220,0.257,-0.352,0.789,-0.231,-0.303,0.975,992.257,723.933,0.939,926.778,723.115,0.939,1092.269,533.496,1.102,848.693,542.390,1.147,1179.721,301.502,1.044,732.229,378.810,1.220,1269.730,116.190,0.789,734.336,244.535,0.975,-0.025,-0.963,1.401,0.000,-8.019,0.000,0.019,-0.019,-0.033,-0.154,-0.724,1.574
0723_085331_0050.png,-0.009,0.148,0.937,-0.073,0.152,0.943,0.098,-0.009,1.151,-0.186,-0.023,1.091,0.196,-0.253,1.145,-0.260,-0.249,0.977,0.191,-0.310,0.893,-0.192,-0.349,0.748,951.116,690.243,0.937,886.498,693.183,0.943,1041.191,532.584,1.151,797.422,520.145,1.091,1122.536,329.891,1.145,706.537,297.071,0.977,1163.184,210.254,0.893,715.596,96.294,0.748,-0.022,-0.964,1.402,0.000,-346.621,0.000,0.019,0.035,0.017,0.006,-0.952,1.536
0723_085331_0051.png,0.039,0.160,0.947,-0.026,0.160,0.951,0.168,-0.017,1.102,-0.123,-0.005,1.157,0.222,-0.216,1.267,-0.189,-0.178,0.937,0.275,-0.278,1.009,-0.256,-0.347,0.723,999.259,701.127,0.947,933.571,700.539,0.951,1104.722,524.923,1.102,859.065,535.954,1.157,1126.783,377.709,1.267,768.306,359.075,0.937,1219.677,278.069,1.009,623.279,83.739,0.723,-0.033,-0.962,1.401,0.000,-9.749,0.000,0.004,0.028,-0.037,-0.342,-0.829,1.453
0723_085331_0052.png,0.024,0.157,0.932,-0.045,0.157,0.933,0.146,-0.008,1.124,-0.163,-0.006,1.130,0.189,-0.269,1.050,-0.214,-0.247,1.004,-0.006,-0.316,0.866,-0.061,-0.332,0.798,984.083,700.137,0.932,914.108,700.105,0.933,1083.680,533.638,1.124,822.491,534.810,1.130,1131.291,296.306,1.050,756.912,306.411,1.004,953.783,193.290,0.866,887.220,144.345,0.798,-0.026,-0.961,1.401,0.000,0.055,0.000,-0.043,-0.009,-0.023,-0.017,-1.267,1.261
0723_085331_0053.png,-0.006,0.175,0.937,-0.071,0.179,0.947,0.113,0.004,1.144,-0.181,-0.005,1.101,0.252,-0.209,1.228,-0.243,-0.227,1.237,0.394,-0.278,1.015,-0.239,-0.286,0.979,953.583,717.520,0.937,888.267,719.650,0.947,1053.770,543.667,1.144,803.341,535.398,1.101,1155.350,378.289,1.228,773.174,365.439,1.237,1329.290,279.509,1.015,727.440,261.807,0.979,-0.024,-0.973,1.404,0.000,-350.420,0.000,-0.002,0.012,-0.008,-0.195,-0.815,1.320
0723_085331_0054.png,0.045,0.160,0.939,-0.023,0.158,0.936,0.167,-0.021,1.089,-0.131,-0.007,1.150,0.174,-0.248,1.228,-0.242,-0.229,1.049,0.166,-0.280,0.969,-0.126,-0.322,0.830,1005.312,702.435,0.939,937.073,700.508,0.936,1105.562,521.738,1.089,851.339,534.437,1.150,1094.664,347.642,1.228,740.220,332.311,1.049,1122.756,265.644,0.969,815.744,171.536,0.830,-0.027,-0.962,1.401,0.000,-10.818,0.000,-0.026,0.014,0.009,-0.066,-0.910,1.420
0723_085331_0055.png,0.049,0.154,0.938,-0.017,0.151,0.938,0.174,-0.012,1.094,-0.117,0.002,1.155,0.235,-0.187,1.280,-0.246,-0.186,1.287,0.356,-0.263,1.054,-0.277,-0.268,1.034,1010.071,695.625,0.938,943.243,693.182,0.938,1110.853,529.782,1.094,863.577,541.851,1.155,1135.005,401.382,1.280,778.124,402.678,1.287,1280.765,303.023,1.054,704.915,293.165,1.034,-0.036,-0.971,1.403,0.000,-10.968,0.000,-0.001,0.036,-0.021,-0.180,-1.230,1.252
0723_085331_0056.png,0.037,0.152,0.937,-0.030,0.150,0.937,0.161,-0.016,1.091,-0.136,-0.003,1.147,0.106,-0.231,0.947,-0.237,-0.234,1.069,0.049,-0.345,0.722,-0.065,-0.305,0.881,997.331,694.312,0.937,929.397,692.479,0.937,1100.533,525.775,1.091,847.431,537.255,1.147,1066.643,307.862,0.947,749.479,331.604,1.069,1024.715,85.927,0.722,889.856,210.404,0.881,-0.025,-0.971,1.403,0.000,-9.890,0.000,-0.019,0.041,0.020,-0.164,-1.124,1.299
0723_085331_0057.png,0.043,0.183,0.930,-0.023,0.182,0.932,0.172,0.001,1.090,-0.117,0.016,1.154,0.242,-0.265,1.068,-0.097,-0.175,0.945,0.101,-0.337,0.845,-0.080,-0.362,0.743,1003.998,727.119,0.930,936.869,725.516,0.932,1109.734,540.936,1.090,863.708,553.156,1.154,1175.427,303.619,1.068,862.585,364.205,0.945,1073.227,160.893,0.845,857.564,76.552,0.743,-0.033,-0.974,1.404,0.000,-11.812,0.000,0.003,-0.019,-0.042,-0.301,-0.976,1.447
0723_085331_0058.png,0.043,0.150,0.936,-0.021,0.150,0.939,0.169,-0.018,1.098,-0.118,-0.007,1.148,0.289,-0.231,1.197,-0.144,-0.180,0.932,0.224,-0.299,0.950,-0.171,-0.349,0.722,1003.770,692.544,0.936,938.328,691.562,0.939,1106.275,523.988,1.098,862.419,534.223,1.148,1189.767,356.051,1.197,813.109,356.381,0.932,1184.619,241.237,0.950,734.926,80.802,0.722,-0.039,-0.964,1.402,0.000,-8.994,0.000,0.019,0.026,-0.001,-0.286,-1.116,1.365
0723_085331_0059.png,0.034,0.191,0.921,-0.032,0.191,0.923,0.164,-0.001,1.078,-0.123,0.016,1.149,0.156,-0.271,1.158,-0.304,-0.183,1.214,0.119,-0.322,0.899,-0.277,-0.303,0.979,995.017,737.618,0.921,927.304,736.272,0.923,1104.472,539.463,1.078,857.760,553.018,1.149,1087.845,317.034,1.158,721.568,396.770,1.214,1086.053,199.545,0.899,690.641,245.511,0.979,-0.025,-0.972,1.403,0.000,-13.074,0.000,0.002,-0.048,-0.008,-0.360,-0.916,1.444
0723_085331_0060.png,0.055,0.163,0.947,-0.013,0.160,0.942,0.173,-0.020,1.095,-0.128,-0.007,1.152,0.236,-0.210,1.266,-0.253,-0.190,1.301,0.396,-0.254,1.055,-0.279,-0.256,1.047,1014.871,703.401,0.947,946.867,701.444,0.942,1110.688,522.857,1.095,854.090,534.561,1.152,1137.632,381.860,1.266,775.030,400.897,1.301,1317.419,310.784,1.055,706.513,307.199,1.047,-0.034,-0.963,1.402,0.000,-9.837,0.000,-0.035,0.027,-0.004,0.061,-0.874,1.155
0723_085331_0061.png,-0.013,0.154,0.930,-0.079,0.160,0.942,0.110,0.001,1.151,-0.189,-0.012,1.097,0.249,-0.227,1.093,-0.227,-0.275,1.133,0.164,-0.317,0.856,-0.201,-0.311,0.870,946.439,697.385,0.930,880.089,702.088,0.942,1050.823,540.533,1.151,796.327,529.859,1.097,1176.153,342.891,1.093,769.835,309.157,1.133,1142.268,187.852,0.856,740.801,199.861,0.870,-0.024,-0.967,1.402,0.000,-348.375,0.000,-0.023,0.012,-0.015,-0.265,-1.098,1.559
0723_085331_0062.png,0.045,0.180,0.932,-0.020,0.178,0.932,0.169,-0.013,1.081,-0.114,0.004,1.154,0.162,-0.279,1.011,-0.256,-0.203,1.047,-0.017,-0.343,0.827,-0.323,-0.337,0.826,1005.601,723.376,0.932,939.195,721.908,0.932,1108.818,528.840,1.081,865.751,543.315,1.154,1111.878,278.046,1.011,727.372,355.132,1.047,939.988,145.811,0.827,587.881,151.915,0.826,-0.031,-0.964,1.402,0.000,-13.571,0.000,0.013,-0.024,-0.010,-0.270,-0.868,1.272
0723_085331_0063.png,0.003,0.182,0.930,-0.060,0.185,0.937,0.113,0.000,1.137,-0.170,-0.011,1.091,0.152,-0.264,1.093,-0.178,-0.262,0.998,0.126,-0.335,0.848,-0.055,-0.351,0.791,963.200,726.172,0.930,899.122,727.370,0.937,1054.285,539.611,1.137,811.778,530.443,1.091,1092.457,310.237,1.093,790.727,290.225,0.998,1100.988,163.823,0.848,894.004,117.776,0.791,-0.030,-0.966,1.402,0.000,-349.415,0.000,0.034,-0.021,0.027,-0.073,-0.770,1.142
0723_085331_0064.png,0.034,0.158,0.939,-0.033,0.157,0.937,0.152,-0.008,1.114,-0.146,-0.003,1.139,0.209,-0.266,1.053,-0.126,-0.182,0.923,0.037,-0.322,0.857,-0.108,-0.356,0.712,994.037,700.118,0.939,926.854,698.823,0.937,1089.435,532.749,1.114,837.724,537.709,1.139,1148.345,300.154,1.053,829.717,352.670,0.923,1000.638,182.360,0.857,815.930,64.247,0.712,-0.028,-0.967,1.402,0.000,-3.751,0.000,-0.008,0.018,-0.020,0.029,-1.075,1.484
0723_085331_0065.png,0.050,0.164,0.940,-0.016,0.159,0.934,0.169,-0.014,1.088,-0.119,0.003,1.161,0.309,-0.243,1.114,-0.115,-0.176,0.937,0.383,-0.318,0.866,-0.113,-0.350,0.719,1010.396,705.692,0.940,943.690,702.179,0.934,1107.719,527.507,1.088,862.539,542.171,1.161,1223.759,332.711,1.114,843.504,361.759,0.937,1380.877,190.602,0.866,810.740,77.452,0.719,-0.027,-0.965,1.402,0.000,-13.545,0.000,-0.002,0.010,-0.034,-0.040,-1.122,1.161
0723_085331_0066.png,-0.005,0.164,0.927,-0.072,0.168,0.936,0.122,-0.001,1.133,-0.184,-0.009,1.099,0.131,-0.228,0.999,-0.281,-0.210,0.951,-0.021,-0.322,0.806,-0.324,-0.339,0.732,955.211,708.606,0.927,886.745,711.168,0.936,1062.763,538.892,1.133,800.581,532.022,1.099,1084.996,322.627,0.999,678.776,330.007,0.951,934.633,160.029,0.806,539.311,100.138,0.732,-0.022,-0.970,1.403,0.000,-352.268,0.000,-0.040,0.003,0.030,-0.256,-1.093,1.172
0723_085331_0067.png,0.016,0.159,0.922,-0.049,0.161,0.928,0.137,-0.003,1.118,-0.156,-0.004,1.112,0.149,-0.272,1.130,-0.314,-0.220,1.133,0.104,-0.316,0.881,-0.398,-0.310,0.909,976.450,703.846,0.922,910.151,705.341,0.928,1076.094,537.749,1.118,826.640,536.619,1.112,1085.491,311.520,1.130,696.070,355.377,1.133,1071.943,199.453,0.881,543.313,215.216,0.909,-0.031,-0.971,1.403,0.000,-357.683,0.000,0.015,-0.004,0.031,-0.170,-1.205,1.501
0723_085331_0068.png,0.044,0.176,0.941,-0.024,0.173,0.934,0.161,-0.008,1.094,-0.140,0.004,1.148,0.251,-0.211,1.249,-0.307,-0.204,1.206,0.161,-0.274,1.006,-0.421,-0.283,0.977,1004.225,718.363,0.941,935.996,716.203,0.934,1099.958,532.928,1.094,844.070,543.577,1.148,1150.882,379.396,1.249,717.551,378.874,1.206,1112.462,280.969,1.006,550.508,264.639,0.977,-0.023,-0.969,1.403,0.000,-9.295,0.000,-0.031,0.002,-0.013,0.104,-0.841,1.451
0723_085331_0069.png,0.033,0.160,0.951,-0.034,0.158,0.945,0.147,-0.015,1.115,-0.157,-0.010,1.135,0.128,-0.245,0.981,-0.221,-0.250,1.040,-0.018,-0.331,0.778,-0.064,-0.318,0.837,993.175,700.462,0.951,925.958,699.133,0.945,1084.999,527.549,1.115,828.849,531.677,1.135,1084.337,302.587,0.981,757.497,311.362,1.040,938.017,135.322,0.778,887.526,179.030,0.837,-0.023,-0.966,1.402,0.000,-2.758,0.000,-0.023,0.040,0.003,0.208,-0.875,1.197
0723_085331_0070.png,0.051,0.161,0.941,-0.016,0.159,0.937,0.174,-0.024,1.087,-0.123,-0.008,1.157,0.258,-0.281,1.077,-0.282,-0.223,1.104,0.249,-0.323,0.815,-0.170,-0.310,0.877,1012.023,703.081,0.941,943.679,701.011,0.937,1112.409,519.135,1.087,858.795,533.643,1.157,1187.946,291.921,1.077,717.253,347.844,1.104,1250.696,163.400,0.815,775.813,203.835,0.877,-0.031,-0.957,1.400,0.000,-12.432,0.000,-0.030,0.007,-0.007,-0.088,-0.890,1.353
0723_085331_0071.png,0.029,0.166,0.922,-0.035,0.165,0.923,0.153,-0.011,1.082,-0.129,0.003,1.143,0.212,-0.208,1.264,-0.127,-0.176,0.939,0.371,-0.277,1.075,-0.126,-0.351,0.740,989.633,711.786,0.922,923.621,709.945,0.923,1094.452,530.234,1.082,852.617,542.461,1.143,1119.656,383.455,1.264,831.030,361.723,0.939,1288.575,294.542,1.075,798.757,89.025,0.740,-0.022,-0.968,1.402,0.000,-11.384,0.000,0.027,-0.019,0.023,-0.271,-1.179,1.345
0723_085331_0072.png,0.020,0.164,0.935,-0.043,0.166,0.940,0.136,-0.010,1.129,-0.150,-0.012,1.120,0.129,-0.255,1.010,-0.304,-0.214,1.208,-0.013,-0.350,0.811,-0.434,-0.299,0.996,980.257,706.587,0.935,916.256,707.713,0.940,1074.669,531.348,1.129,832.917,529.631,1.120,1081.160,299.675,1.010,720.492,371.762,1.208,944.593,129.686,0.811,545.977,255.021,0.996,-0.035,-0.958,1.400,0.000,-357.088,0.000,0.037,-0.008,-0.007,-0.145,-0.980,1.250
0723_085331_0073.png,0.007,0.166,0.937,-0.060,0.171,0.946,0.131,0.000,1.143,-0.172,-0.010,1.102,0.088,-0.205,0.971,-0.283,-0.233,1.197,-0.021,-0.336,0.765,-0.333,-0.288,0.943,967.150,708.968,0.937,899.953,711.402,0.946,1069.061,539.817,1.143,811.835,531.583,1.102,1045.802,338.717,0.971,735.167,354.648,1.197,933.585,122.444,0.765,624.371,249.726,0.943,-0.037,-0.970,1.403,0.000,-350.827,0.000,-0.030,0.019,-0.001,-0.197,-0.861,1.415
0723_085331_0074.png,0.002,0.162,0.932,-0.065,0.165,0.940,0.128,-0.006,1.132,-0.176,-0.013,1.104,0.147,-0.177,0.927,-0.337,-0.230,1.107,0.161,-0.342,0.726,-0.292,-0.307,0.867,962.147,705.260,0.932,894.568,707.330,0.940,1067.682,534.693,1.132,808.697,529.078,1.104,1110.620,358.367,0.927,670.864,342.386,1.107,1171.375,91.833,0.726,639.527,202.879,0.867,-0.026,-0.967,1.402,0.000,-353.485,0.000,-0.028,0.012,0.028,-0.236,-0.952,1.329
0723_085331_0075.png,0.018,0.139,0.942,-0.048,0.142,0.948,0.142,-0.019,1.130,-0.156,-0.021,1.123,0.184,-0.251,1.234,-0.307,-0.228,1.053,0.170,-0.278,0.976,-0.363,-0.322,0.817,978.355,680.408,0.942,912.337,682.007,0.948,1079.170,523.778,1.130,827.612,522.410,1.123,1101.548,346.118,1.234,682.941,333.851,1.053,1125.438,269.377,0.976,537.694,164.541,0.817,-0.034,-0.961,1.401,0.000,-357.538,0.000,-0.004,0.049,0.011,-0.193,-1.075,1.374
0723_085331_0076.png,0.029,0.181,0.928,-0.036,0.181,0.927,0.140,0.001,1.116,-0.153,-0.001,1.111,0.149,-0.216,0.964,-0.235,-0.256,1.078,0.076,-0.350,0.759,-0.235,-0.332,0.834,989.423,725.753,0.928,922.692,725.752,0.927,1079.658,540.429,1.116,828.878,539.329,1.111,1107.396,327.242,0.964,752.296,314.004,1.078,1055.181,101.392,0.759,691.580,160.835,0.834,-0.034,-0.971,1.403,0.000,-357.706,0.000,0.011,-0.021,0.032,0.109,-0.921,1.274
0723_085331_0077.png,0.026,0.170,0.934,-0.038,0.171,0.938,0.147,-0.005,1.115,-0.144,-0.002,1.125,0.123,-0.268,1.069,-0.120,-0.182,0.922,0.066,-0.333,0.823,-0.096,-0.358,0.725,986.900,712.627,0.934,921.370,713.030,0.938,1085.802,535.776,1.115,838.220,537.901,1.125,1069.779,301.466,1.069,836.716,352.065,0.922,1035.766,155.584,0.823,833.872,70.539,0.725,-0.034,-0.970,1.403,0.000,-0.990,0.000,0.017,0.007,0.010,-0.168,-0.916,1.392
0723_085331_0078.png,0.023,0.168,0.945,-0.041,0.169,0.948,0.138,-0.009,1.134,-0.154,-0.012,1.121,0.280,-0.235,1.091,-0.214,-0.238,0.979,0.286,-0.329,0.840,-0.124,-0.353,0.757,983.507,708.556,0.945,918.388,709.210,0.948,1076.083,532.267,1.134,829.138,529.647,1.121,1203.749,335.243,1.091,752.150,309.296,0.979,1283.295,167.413,0.840,804.743,96.000,0.757,-0.036,-0.961,1.401,0.000,-356.223,0.000,0.013,0.013,-0.016,-0.026,-0.835,1.101
0723_085331_0079.png,0.011,0.156,0.929,-0.055,0.159,0.937,0.138,-0.017,1.119,-0.162,-0.018,1.115,0.103,-0.206,0.941,-0.324,-0.230,1.162,0.011,-0.345,0.747,-0.403,-0.297,0.930,970.816,699.623,0.929,903.904,701.149,0.937,1077.291,525.825,1.119,822.108,524.904,1.115,1063.954,331.944,0.941,694.958,352.185,1.162,974.151,100.703,0.747,548.194,236.077,0.930,-0.028,-0.958,1.400,0.000,-357.964,0.000,-0.009,-0.003,0.041,-0.275,-0.930,1.572
0723_085331_0080.png,0.008,0.167,0.926,-0.058,0.170,0.932,0.126,0.003,1.139,-0.174,-0.006,1.098,0.071,-0.174,0.937,-0.200,-0.277,1.104,0.016,-0.346,0.740,-0.148,-0.317,0.850,968.653,711.398,0.926,900.467,713.915,0.932,1065.116,542.813,1.139,808.980,534.696,1.098,1032.226,363.270,0.937,787.349,301.410,1.104,980.787,94.840,0.740,794.084,185.202,0.850,-0.032,-0.970,1.403,0.000,-350.793,0.000,-0.022,-0.010,0.005,-0.070,-1.143,1.242
0723_085331_0081.png,0.028,0.167,0.946,-0.037,0.167,0.946,0.146,-0.010,1.121,-0.147,-0.007,1.136,0.183,-0.231,0.961,-0.271,-0.244,1.159,0.132,-0.361,0.729,-0.307,-0.316,0.902,988.429,708.107,0.946,923.065,707.843,0.946,1083.645,531.245,1.121,836.894,534.335,1.136,1140.821,310.833,0.961,737.676,339.844,1.159,1132.196,68.418,0.729,636.402,206.974,0.902,-0.030,-0.963,1.401,0.000,-1.926,0.000,0.012,0.013,-0.027,-0.039,-0.813,1.419
0723_085331_0082.png,0.048,0.176,0.942,-0.017,0.171,0.933,0.160,-0.003,1.104,-0.132,0.008,1.151,0.251,-0.255,1.044,-0.178,-0.235,1.019,0.276,-0.347,0.787,-0.061,-0.346,0.801,1008.652,717.093,0.942,942.849,713.946,0.933,1097.948,537.555,1.104,851.116,546.666,1.151,1188.743,307.407,1.044,794.085,320.965,1.019,1294.212,120.266,0.787,887.773,128.914,0.801,-0.028,-0.970,1.403,0.000,-8.299,0.000,0.004,-0.002,-0.047,0.213,-1.028,1.310
0723_085331_0083.png,0.048,0.171,0.942,-0.015,0.168,0.937,0.162,-0.012,1.104,-0.121,-0.002,1.146,0.185,-0.195,0.892,-0.283,-0.195,1.044,0.211,-0.375,0.687,-0.380,-0.339,0.838,1008.845,712.588,0.942,944.740,710.897,0.937,1099.545,529.644,1.104,859.738,538.065,1.146,1156.781,331.865,0.892,702.063,362.244,1.044,1251.583,21.350,0.687,528.668,154.844,0.838,-0.037,-0.962,1.401,0.000,-7.526,0.000,0.036,-0.004,-0.025,0.043,-0.831,1.551
0723_085331_0084.png,-0.003,0.177,0.923,-0.065,0.183,0.935,0.107,0.009,1.148,-0.173,-0.005,1.085,0.183,-0.202,1.307,-0.239,-0.190,0.896,0.253,-0.283,1.064,-0.306,-0.371,0.712,957.251,722.796,0.923,893.668,726.398,0.935,1048.415,547.863,1.148,808.837,535.714,1.085,1093.156,392.910,1.307,706.224,338.284,0.896,1185.980,286.863,1.064,551.309,44.519,0.712,-0.035,-0.970,1.403,0.000,-345.877,0.000,0.035,-0.025,-0.004,-0.189,-1.006,1.277
0723_085331_0085.png,0.042,0.171,0.928,-0.021,0.169,0.927,0.161,-0.009,1.095,-0.120,0.002,1.142,0.124,-0.253,0.979,-0.163,-0.174,0.931,0.007,-0.365,0.771,-0.209,-0.348,0.727,1003.434,714.735,0.928,938.734,713.005,0.927,1099.368,532.483,1.095,860.301,541.860,1.142,1080.346,294.182,0.979,792.992,361.790,0.931,969.167,89.397,0.771,686.743,84.446,0.727,-0.035,-0.965,1.402,0.000,-8.671,0.000,0.042,-0.022,-0.004,-0.089,-0.961,1.695
0723_085331_0086.png,0.051,0.167,0.944,-0.017,0.164,0.939,0.170,-0.013,1.103,-0.136,-0.003,1.144,0.253,-0.260,1.163,-0.159,-0.180,0.935,0.091,-0.284,0.953,-0.166,-0.346,0.724,1011.465,708.043,0.944,942.791,706.284,0.939,1106.280,528.975,1.103,846.885,537.309,1.144,1167.238,327.556,1.163,798.152,356.820,0.935,1050.294,256.485,0.953,742.440,86.068,0.724,-0.035,-0.966,1.402,0.000,-6.765,0.000,-0.040,0.017,-0.008,0.110,-0.903,1.291
0723_085331_0087.png,0.027,0.161,0.944,-0.040,0.161,0.943,0.138,-0.008,1.132,-0.160,-0.012,1.115,0.076,-0.181,0.932,-0.215,-0.209,0.939,0.014,-0.348,0.737,-0.214,-0.351,0.718,987.004,702.318,0.944,920.125,702.515,0.943,1076.278,532.933,1.132,823.116,529.498,1.115,1037.295,355.458,0.932,742.033,328.489,0.939,977.973,91.011,0.737,677.022,75.738,0.718,-0.035,-0.967,1.402,0.000,-355.493,0.000,-0.008,0.030,0.008,0.164,-0.923,1.211
0723_085331_0088.png,0.051,0.160,0.927,-0.014,0.156,0.922,0.167,-0.011,1.084,-0.126,0.002,1.139,0.231,-0.219,0.935,-0.090,-0.170,0.937,0.254,-0.348,0.718,-0.052,-0.336,0.739,1012.774,704.196,0.927,945.378,700.928,0.922,1106.553,530.388,1.084,854.550,541.432,1.139,1194.887,317.804,0.935,868.445,367.485,0.937,1296.757,78.371,0.718,893.052,107.663,0.739,-0.034,-0.973,1.404,0.000,-9.745,0.000,-0.006,0.009,0.040,0.098,-1.156,1.539
0723_085331_0089.png,0.043,0.159,0.930,-0.022,0.157,0.928,0.162,-0.011,1.085,-0.126,0.002,1.141,0.289,-0.238,1.038,-0.110,-0.174,0.945,0.343,-0.328,0.806,-0.093,-0.346,0.754,1004.186,703.103,0.930,937.757,700.732,0.928,1101.938,530.403,1.085,854.943,541.599,1.141,1224.997,322.259,1.038,849.440,364.421,0.945,1364.943,152.743,0.806,843.232,103.846,0.754,-0.030,-0.975,1.404,0.000,-10.111,0.000,0.011,0.023,0.037,-0.054,-1.027,1.696
0723_085331_0090.png,0.000,0.162,0.928,-0.065,0.166,0.938,0.114,-0.003,1.147,-0.176,-0.018,1.083,0.119,-0.235,1.021,-0.292,-0.259,1.069,0.081,-0.335,0.788,-0.146,-0.317,0.865,959.607,705.563,0.928,893.974,708.719,0.938,1054.719,537.379,1.147,805.526,524.362,1.083,1070.940,320.967,1.021,700.415,309.285,1.069,1058.152,135.950,0.788,799.049,191.015,0.865,-0.036,-0.966,1.402,0.000,-346.128,0.000,-0.002,0.006,0.032,-0.138,-0.970,1.309
0723_085331_0091.png,0.013,0.158,0.930,-0.053,0.161,0.933,0.120,-0.001,1.148,-0.173,-0.015,1.088,0.278,-0.219,1.178,-0.278,-0.255,1.027,0.387,-0.291,0.952,-0.178,-0.333,0.799,973.029,701.214,0.930,905.475,703.822,0.933,1059.758,538.818,1.148,808.525,526.869,1.088,1184.203,363.346,1.178,702.413,303.662,1.027,1346.058,249.861,0.952,747.715,143.513,0.799,-0.038,-0.966,1.402,0.000,-347.148,0.000,-0.011,0.006,0.013,0.106,-0.998,1.647
0723_085331_0092.png,-0.003,0.138,0.939,-0.069,0.144,0.949,0.118,-0.012,1.150,-0.179,-0.024,1.101,0.110,-0.182,0.932,-0.295,-0.253,1.036,0.102,-0.345,0.718,-0.178,-0.323,0.812,956.535,680.243,0.939,890.793,684.238,0.949,1057.545,529.698,1.150,805.327,519.604,1.101,1072.460,354.569,0.932,689.446,307.284,1.036,1094.516,82.671,0.718,751.426,161.863,0.812,-0.030,-0.962,1.401,0.000,-349.306,0.000,-0.014,0.047,0.005,-0.214,-1.101,1.405
0723_085331_0093.png,0.019,0.157,0.945,-0.048,0.159,0.950,0.142,-0.021,1.123,-0.158,-0.021,1.122,0.300,-0.235,1.102,-0.282,-0.208,1.265,0.370,-0.308,0.864,-0.437,-0.258,1.062,978.783,698.158,0.945,912.160,698.827,0.950,1080.498,522.383,1.123,825.728,522.251,1.122,1218.771,336.871,1.102,748.320,383.914,1.265,1366.820,201.658,0.864,569.001,308.828,1.062,-0.030,-0.958,1.400,0.000,-358.707,0.000,-0.013,0.027,0.025,-0.168,-0.745,1.321
0723_085331_0094.png,0.020,0.177,0.925,-0.045,0.178,0.929,0.145,-0.007,1.103,-0.146,-0.001,1.131,0.103,-0.220,0.942,-0.237,-0.255,1.195,0.003,-0.361,0.745,-0.216,-0.309,0.940,980.158,722.229,0.925,913.835,722.268,0.929,1085.056,533.934,1.103,836.977,539.465,1.131,1064.370,317.892,0.942,771.093,337.169,1.195,963.987,79.358,0.745,741.723,226.827,0.940,-0.024,-0.963,1.401,0.000,-4.429,0.000,0.014,-0.037,0.010,-0.284,-1.000,1.235
0723_085331_0095.png,0.017,0.178,0.930,-0.052,0.180,0.933,0.132,0.008,1.142,-0.174,-0.002,1.099,0.285,-0.198,1.245,-0.293,-0.231,1.194,0.234,-0.279,0.996,-0.312,-0.292,0.935,977.191,721.523,0.930,907.501,723.109,0.933,1070.125,546.877,1.142,809.677,538.652,1.099,1177.591,388.803,1.245,726.270,356.373,1.194,1183.292,273.380,0.996,643.002,243.166,0.935,-0.036,-0.972,1.404,0.000,-350.676,0.000,-0.041,-0.013,-0.011,0.070,-0.850,1.702
0723_085331_0096.png,-0.001,0.160,0.933,-0.068,0.163,0.937,0.107,0.003,1.150,-0.187,-0.010,1.095,0.068,-0.174,0.936,-0.274,-0.210,1.250,0.029,-0.346,0.728,-0.308,-0.279,0.996,958.658,703.275,0.933,891.387,705.840,0.937,1048.515,542.168,1.150,797.244,531.337,1.095,1028.676,363.004,0.936,751.857,380.258,1.250,998.306,87.647,0.728,665.879,273.633,0.996,-0.024,-0.970,1.403,0.000,-348.015,0.000,-0.010,0.012,-0.009,0.084,-1.020,1.569
0723_085331_0097.png,-0.010,0.173,0.923,-0.077,0.178,0.931,0.107,0.012,1.151,-0.194,-0.003,1.085,0.208,-0.242,1.187,-0.221,-0.275,1.121,0.220,-0.296,0.927,-0.194,-0.314,0.859,949.892,718.224,0.923,881.111,721.898,0.931,1048.568,549.728,1.151,789.951,537.126,1.085,1126.950,346.478,1.187,772.745,306.949,1.121,1185.805,236.872,0.927,745.309,192.574,0.859,-0.024,-0.973,1.404,0.000,-346.252,0.000,-0.039,-0.018,-0.007,-0.082,-0.962,1.717
0723_085331_0098.png,0.056,0.167,0.939,-0.007,0.163,0.932,0.165,-0.013,1.098,-0.118,-0.003,1.142,0.163,-0.264,1.001,-0.284,-0.194,1.220,0.012,-0.345,0.806,-0.450,-0.282,1.040,1016.518,708.721,0.939,952.584,706.307,0.932,1103.212,528.823,1.098,861.959,537.685,1.142,1115.007,289.649,1.001,738.483,388.497,1.220,974.592,132.680,0.806,548.682,281.867,1.040,-0.040,-0.966,1.402,0.000,-7.901,0.000,0.035,0.007,0.007,0.172,-0.871,1.644
0723_085331_0099.png,0.011,0.171,0.921,-0.055,0.173,0.925,0.132,0.004,1.123,-0.169,0.002,1.115,0.126,-0.248,1.015,-0.317,-0.221,1.190,-0.018,-0.336,0.811,-0.416,-0.297,0.957,971.777,716.601,0.921,903.008,717.640,0.925,1072.179,543.322,1.123,815.413,541.864,1.115,1078.341,308.098,1.015,706.894,363.469,1.190,939.411,145.617,0.811,546.628,244.472,0.957,-0.023,-0.970,1.403,0.000,-357.356,0.000,-0.017,-0.032,0.000,-0.080,-1.087,1.688
0723_085331_0100.png,0.036,0.181,0.928,-0.030,0.181,0.932,0.160,-0.002,1.110,-0.133,0.004,1.136,0.099,-0.185,0.900,-0.178,-0.226,0.986,0.043,-0.365,0.697,-0.080,-0.357,0.773,996.463,725.314,0.928,929.840,725.157,0.932,1096.740,538.335,1.110,848.225,543.356,1.136,1064.875,344.529,0.900,788.165,322.172,0.986,1018.255,41.853,0.697,861.544,100.821,0.773,-0.038,-0.964,1.402,0.000,-4.007,0.000,0.009,-0.038,-0.026,-0.178,-0.890,1.571
0723_085331_0101.png,0.057,0.150,0.945,-0.007,0.144,0.936,0.167,-0.017,1.095,-0.118,-0.003,1.153,0.281,-0.223,1.203,-0.168,-0.188,0.956,0.392,-0.286,0.974,-0.177,-0.351,0.746,1016.883,690.758,0.945,952.448,686.509,0.936,1105.185,525.639,1.095,862.564,537.294,1.153,1181.796,363.886,1.203,793.275,353.375,0.956,1342.220,260.788,0.974,734.448,91.817,0.746,-0.034,-0.969,1.403,0.000,-10.550,0.000,0.019,0.046,-0.007,0.187,-1.198,1.276
0723_085331_0102.png,0.001,0.155,0.927,-0.061,0.160,0.934,0.104,-0.002,1.149,-0.172,-0.016,1.089,0.143,-0.194,0.961,-0.207,-0.283,1.113,0.143,-0.361,0.757,-0.163,-0.336,0.859,961.442,698.847,0.927,897.935,702.642,0.934,1045.974,538.156,1.149,809.724,526.042,1.089,1101.600,348.227,0.961,782.783,298.038,1.113,1139.659,86.142,0.757,779.334,168.667,0.859,-0.033,-0.963,1.402,0.000,-346.282,0.000,0.047,-0.002,0.004,-0.016,-1.090,1.562
0723_085331_0103.png,0.009,0.155,0.948,-0.058,0.156,0.950,0.122,-0.015,1.143,-0.177,-0.023,1.107,0.287,-0.216,1.079,-0.166,-0.222,0.928,0.376,-0.311,0.853,-0.113,-0.354,0.707,968.765,695.401,0.948,902.085,696.356,0.950,1061.390,527.531,1.143,808.168,520.109,1.107,1213.350,349.925,1.079,789.925,311.974,0.928,1379.390,192.810,0.853,807.995,64.153,0.707,-0.027,-0.960,1.401,0.000,-351.861,0.000,-0.013,0.036,0.010,0.075,-0.735,1.519
0723_085331_0104.png,-0.002,0.155,0.933,-0.065,0.159,0.942,0.109,-0.009,1.144,-0.173,-0.021,1.093,0.248,-0.220,1.225,-0.178,-0.249,0.959,0.154,-0.290,0.996,-0.075,-0.355,0.750,958.017,698.124,0.933,894.429,700.966,0.942,1050.741,532.269,1.144,809.111,521.781,1.093,1152.307,368.987,1.225,783.348,293.520,0.959,1106.866,263.414,0.996,865.199,89.683,0.750,-0.030,-0.962,1.401,0.000,-348.406,0.000,0.032,0.015,0.026,-0.139,-1.038,1.116
0723_085331_0105.png,0.020,0.170,0.946,-0.047,0.170,0.943,0.129,-0.002,1.136,-0.172,-0.007,1.110,0.217,-0.194,0.967,-0.200,-0.243,0.985,0.249,-0.342,0.749,-0.061,-0.335,0.780,980.284,710.897,0.946,913.026,711.002,0.943,1067.687,538.738,1.136,812.937,533.655,1.110,1173.814,349.105,0.967,767.070,305.231,0.985,1276.587,106.663,0.749,885.600,131.547,0.780,-0.028,-0.972,1.403,0.000,-353.815,0.000,-0.016,0.028,0.000,0.259,-0.827,1.285
0723_085331_0106.png,0.041,0.157,0.935,-0.023,0.155,0.934,0.160,-0.027,1.084,-0.119,-0.012,1.147,0.092,-0.225,0.924,-0.121,-0.202,0.964,-0.018,-0.358,0.734,-0.068,-0.352,0.763,1001.576,699.698,0.935,936.925,698.188,0.934,1100.777,516.518,1.084,861.597,529.905,1.147,1054.590,308.235,0.924,840.474,340.826,0.964,936.690,75.835,0.734,875.554,100.554,0.763,-0.029,-0.957,1.400,0.000,-11.960,0.000,0.035,0.007,0.031,-0.168,-0.824,1.668
0723_085331_0107.png,0.043,0.160,0.945,-0.021,0.158,0.942,0.159,-0.019,1.098,-0.123,-0.007,1.146,0.095,-0.223,0.935,-0.288,-0.202,1.203,-0.017,-0.358,0.741,-0.370,-0.294,0.972,1003.195,701.088,0.945,939.255,699.671,0.942,1097.803,523.888,1.098,858.104,533.843,1.146,1057.023,313.272,0.935,732.079,379.980,1.203,937.549,80.218,0.741,597.666,252.776,0.972,-0.032,-0.965,1.402,0.000,-8.868,0.000,0.036,0.032,0.006,-0.067,-0.827,1.463
0723_085331_0108.png,0.049,0.174,0.933,-0.015,0.171,0.927,0.164,-0.014,1.084,-0.123,0.000,1.145,0.085,-0.189,0.893,-0.285,-0.205,1.213,0.007,-0.360,0.708,-0.364,-0.291,0.982,1010.221,717.433,0.933,944.207,715.200,0.927,1104.076,527.816,1.084,858.117,540.294,1.145,1050.514,338.849,0.893,736.251,379.445,1.213,969.797,57.174,0.708,607.800,258.533,0.982,-0.030,-0.966,1.402,0.000,-11.322,0.000,0.011,-0.012,0.019,0.057,-0.876,1.445
0723_085331_0109.png,0.046,0.166,0.939,-0.020,0.162,0.932,0.159,-0.008,1.104,-0.135,0.001,1.142,0.137,-0.231,0.948,-0.185,-0.216,0.984,0.103,-0.361,0.717,-0.107,-0.347,0.766,1006.132,707.893,0.939,939.731,705.443,0.932,1096.751,533.453,1.104,847.240,540.859,1.142,1097.903,308.585,0.948,781.010,331.530,0.984,1096.038,61.839,0.717,826.540,108.522,0.766,-0.032,-0.969,1.403,0.000,-6.293,0.000,0.001,0.009,-0.012,0.159,-1.031,1.464
0723_085331_0110.png,-0.004,0.167,0.943,-0.069,0.171,0.955,0.121,-0.004,1.148,-0.176,-0.011,1.116,0.145,-0.266,1.063,-0.306,-0.210,1.243,0.102,-0.340,0.803,-0.235,-0.287,0.989,956.291,708.043,0.943,891.556,710.568,0.955,1060.477,536.691,1.148,810.468,530.477,1.116,1089.732,302.079,1.063,726.177,379.490,1.243,1080.390,137.577,0.803,734.020,263.922,0.989,-0.026,-0.961,1.401,0.000,-352.659,0.000,-0.005,0.009,-0.046,-0.302,-0.780,1.515
0723_085331_0111.png,0.024,0.179,0.935,-0.039,0.180,0.940,0.144,-0.002,1.113,-0.141,0.001,1.127,0.196,-0.258,1.045,-0.245,-0.176,0.944,0.050,-0.340,0.847,-0.348,-0.349,0.768,984.631,722.121,0.935,920.829,722.433,0.940,1082.907,537.967,1.113,841.439,540.793,1.127,1138.827,305.272,1.045,713.619,362.572,0.944,1015.876,158.106,0.847,528.823,107.336,0.768,-0.033,-0.971,1.403,0.000,-1.810,0.000,0.041,-0.002,0.005,-0.212,-0.808,1.346
0723_085331_0112.png,0.026,0.175,0.925,-0.041,0.176,0.929,0.156,-0.009,1.093,-0.143,0.001,1.137,0.297,-0.242,1.065,-0.280,-0.213,1.246,0.361,-0.325,0.826,-0.409,-0.276,1.029,986.487,720.300,0.925,917.950,719.901,0.929,1095.448,532.436,1.093,840.231,541.211,1.137,1225.562,323.914,1.065,746.345,377.501,1.246,1375.670,165.562,0.826,581.782,284.583,1.029,-0.024,-0.966,1.402,0.000,-7.443,0.000,-0.018,-0.026,0.017,-0.279,-0.879,1.612
0723_085331_0113.png,0.042,0.188,0.935,-0.025,0.188,0.936,0.168,0.001,1.106,-0.136,0.009,1.137,0.174,-0.265,1.036,-0.272,-0.201,1.257,-0.016,-0.323,0.854,-0.412,-0.272,1.039,1003.214,731.640,0.935,934.255,731.196,0.936,1104.405,541.076,1.106,845.952,547.138,1.137,1119.849,296.285,1.036,754.465,388.345,1.257,941.826,179.913,0.854,583.136,291.405,1.039,-0.039,-0.972,1.404,0.000,-4.929,0.000,-0.030,-0.020,-0.019,-0.111,-0.770,1.449
0723_085331_0114.png,0.001,0.154,0.926,-0.066,0.159,0.935,0.120,-0.004,1.150,-0.181,-0.019,1.084,0.196,-0.230,1.032,-0.216,-0.280,1.142,0.100,-0.324,0.806,-0.172,-0.299,0.887,960.782,698.185,0.926,892.570,702.181,0.935,1059.146,536.855,1.150,801.273,523.428,1.084,1140.875,327.658,1.032,780.223,306.724,1.142,1078.427,157.434,0.806,776.023,219.629,0.887,-0.036,-0.963,1.402,0.000,-346.206,0.000,-0.039,0.002,0.019,-0.119,-1.062,1.522
0723_085331_0115.png,0.039,0.160,0.929,-0.029,0.159,0.929,0.165,-0.011,1.087,-0.137,0.002,1.144,0.154,-0.277,1.085,-0.197,-0.202,0.985,0.110,-0.311,0.834,-0.208,-0.332,0.762,999.738,704.341,0.929,930.045,702.425,0.929,1104.830,530.436,1.087,846.299,541.889,1.144,1094.898,297.547,1.085,769.988,345.264,0.985,1085.680,185.699,0.834,700.790,125.862,0.762,-0.027,-0.973,1.404,0.000,-9.862,0.000,-0.037,0.014,0.023,-0.164,-1.193,1.267
0723_085331_0116.png,0.032,0.176,0.948,-0.033,0.176,0.951,0.147,-0.005,1.128,-0.143,-0.005,1.126,0.290,-0.223,1.066,-0.104,-0.185,0.917,0.368,-0.332,0.834,-0.070,-0.362,0.712,991.729,716.285,0.948,927.415,716.542,0.951,1083.774,536.179,1.128,839.222,535.987,1.126,1218.944,340.845,1.066,851.668,347.627,0.917,1379.173,161.473,0.834,867.021,56.324,0.712,-0.040,-0.968,1.403,0.000,-358.630,0.000,0.024,0.019,-0.020,-0.027,-0.652,1.449
0723_085331_0117.png,0.037,0.167,0.943,-0.030,0.165,0.939,0.156,-0.006,1.115,-0.146,0.001,1.144,0.268,-0.250,1.058,-0.278,-0.198,1.269,0.291,-0.334,0.799,-0.342,-0.275,1.015,997.812,708.249,0.943,930.069,706.748,0.939,1092.833,534.917,1.115,838.841,540.599,1.144,1200.488,315.724,1.058,751.647,391.409,1.269,1306.634,142.307,0.799,639.271,282.669,1.015,-0.029,-0.967,1.402,0.000,-4.478,0.000,-0.020,0.010,-0.040,0.064,-0.902,1.664
0723_085331_0118.png,0.009,0.165,0.945,-0.058,0.168,0.952,0.128,-0.001,1.146,-0.173,-0.009,1.109,0.255,-0.215,1.236,-0.229,-0.261,1.034,0.368,-0.274,1.001,-0.067,-0.324,0.829,969.109,705.893,0.945,902.338,707.715,0.952,1066.143,539.495,1.146,811.983,532.296,1.109,1155.807,374.752,1.236,749.856,299.922,1.034,1309.305,279.780,1.001,882.998,168.585,0.829,-0.033,-0.971,1.403,0.000,-351.733,0.000,-0.020,0.036,-0.022,-0.077,-0.851,1.290
0723_085331_0119.png,0.028,0.185,0.925,-0.039,0.184,0.921,0.138,0.005,1.121,-0.165,0.003,1.108,0.099,-0.174,0.917,-0.149,-0.234,0.979,0.059,-0.348,0.720,-0.094,-0.346,0.752,988.459,730.162,0.925,919.465,729.931,0.921,1076.771,544.648,1.121,818.793,542.279,1.108,1062.637,359.604,0.917,815.274,312.883,0.979,1037.870,79.398,0.720,841.695,101.987,0.752,-0.030,-0.971,1.403,0.000,-356.439,0.000,-0.018,-0.042,0.017,0.250,-1.049,1.231
0723_085331_0120.png,0.016,0.156,0.936,-0.051,0.157,0.935,0.119,-0.012,1.146,-0.175,-0.024,1.091,0.275,-0.213,1.063,-0.288,-0.230,0.964,0.362,-0.316,0.845,-0.327,-0.346,0.736,976.101,698.705,0.936,908.557,699.841,0.935,1059.127,530.186,1.146,807.076,518.860,1.091,1205.802,349.793,1.063,675.478,312.610,0.964,1367.684,183.979,0.845,538.142,93.378,0.736,-0.034,-0.958,1.400,0.000,-348.165,0.000,-0.011,0.005,0.025,0.273,-0.936,1.390
0723_085331_0121.png,0.067,0.166,0.954,0.001,0.162,0.947,0.183,-0.021,1.085,-0.102,-0.003,1.165,0.309,-0.254,1.091,-0.262,-0.187,1.268,0.321,-0.323,0.831,-0.308,-0.274,1.017,1026.753,705.199,0.954,961.306,702.999,0.947,1120.795,521.177,1.085,876.656,537.535,1.165,1229.474,318.600,1.091,763.265,399.657,1.268,1327.153,170.907,0.831,672.068,283.742,1.017,-0.039,-0.964,1.402,0.000,-14.924,0.000,-0.001,0.038,-0.026,-0.028,-0.690,1.430
0723_085331_0122.png,0.006,0.187,0.924,-0.059,0.190,0.934,0.130,0.005,1.124,-0.165,-0.001,1.096,0.128,-0.171,0.926,-0.306,-0.218,1.187,0.123,-0.343,0.732,-0.381,-0.294,0.957,966.337,732.411,0.924,900.336,733.707,0.934,1070.046,544.592,1.124,816.454,539.163,1.096,1091.406,363.980,0.926,714.994,365.138,1.187,1119.260,94.394,0.732,581.092,247.429,0.957,-0.032,-0.976,1.404,0.000,-353.311,0.000,0.000,-0.018,0.046,-0.283,-0.779,1.313
0723_085331_0123.png,-0.003,0.181,0.928,-0.067,0.184,0.937,0.109,-0.001,1.137,-0.176,-0.011,1.090,0.087,-0.207,0.973,-0.342,-0.219,1.053,-0.012,-0.349,0.784,-0.447,-0.331,0.849,956.485,725.558,0.928,892.145,726.963,0.937,1051.270,539.518,1.137,806.432,530.051,1.090,1044.672,337.624,0.973,651.622,342.238,1.053,945.544,116.330,0.784,459.715,169.498,0.849,-0.026,-0.966,1.402,0.000,-349.207,0.000,0.026,-0.022,0.032,-0.141,-0.795,1.131
0723_085331_0124.png,0.030,0.166,0.928,-0.037,0.166,0.930,0.157,-0.016,1.090,-0.144,-0.004,1.139,0.214,-0.273,1.034,-0.258,-0.225,1.041,0.063,-0.321,0.829,-0.165,-0.322,0.819,991.059,710.361,0.928,921.838,709.414,0.930,1097.315,526.302,1.090,839.710,536.316,1.139,1156.931,289.407,1.034,724.627,334.833,1.041,1032.462,172.181,0.829,768.281,166.146,0.819,-0.023,-0.964,1.402,0.000,-8.319,0.000,-0.029,-0.009,0.031,-0.201,-1.008,1.276
0723_085331_0125.png,-0.005,0.173,0.925,-0.071,0.175,0.930,0.100,0.001,1.145,-0.190,-0.015,1.076,0.243,-0.195,1.040,-0.178,-0.263,0.983,0.332,-0.320,0.838,-0.137,-0.346,0.747,954.404,717.448,0.925,887.113,719.451,0.930,1043.391,540.875,1.145,792.136,526.959,1.076,1181.713,361.296,1.040,787.832,285.609,0.983,1336.447,176.969,0.838,785.912,98.909,0.747,-0.023,-0.967,1.402,0.000,-345.165,0.000,-0.007,-0.015,0.039,0.107,-0.957,1.165
0723_085331_0126.png,0.030,0.181,0.931,-0.036,0.182,0.932,0.149,-0.008,1.105,-0.145,-0.004,1.123,0.095,-0.183,0.908,-0.317,-0.185,1.029,0.041,-0.352,0.715,-0.446,-0.323,0.854,990.238,725.337,0.931,923.731,725.230,0.932,1087.830,532.962,1.105,837.296,536.514,1.123,1059.711,348.664,0.908,666.908,368.778,1.029,1015.036,71.173,0.715,463.885,180.138,0.854,-0.032,-0.965,1.402,0.000,-2.366,0.000,0.010,-0.022,0.033,-0.086,-0.827,1.089
0723_085331_0127.png,0.040,0.185,0.945,-0.026,0.182,0.938,0.154,-0.002,1.105,-0.143,0.006,1.141,0.102,-0.184,0.898,-0.243,-0.185,1.304,0.052,-0.362,0.697,-0.290,-0.267,1.053,1000.566,725.798,0.945,933.926,724.438,0.938,1092.588,538.085,1.105,840.558,545.092,1.141,1068.109,344.803,0.898,782.883,405.046,1.304,1031.229,46.000,0.697,697.986,298.853,1.053,-0.026,-0.972,1.404,0.000,-5.960,0.000,-0.009,0.002,-0.019,0.162,-0.748,1.333
0723_085331_0128.png,-0.008,0.154,0.932,-0.070,0.159,0.940,0.098,-0.006,1.149,-0.180,-0.020,1.091,0.224,-0.222,1.235,-0.217,-0.274,1.021,0.331,-0.291,1.009,-0.064,-0.344,0.824,952.253,697.400,0.932,889.140,700.640,0.940,1040.749,534.712,1.149,803.081,522.845,1.091,1132.202,368.824,1.235,758.116,284.697,1.021,1271.815,265.603,1.009,886.007,143.471,0.824,-0.025,-0.963,1.401,0.000,-346.761,0.000,0.044,0.013,0.014,-0.060,-1.084,1.195
0723_085331_0129.png,0.045,0.169,0.928,-0.022,0.165,0.925,0.168,0.000,1.096,-0.130,0.012,1.149,0.178,-0.244,1.222,-0.304,-0.180,1.241,0.179,-0.297,0.955,-0.345,-0.288,0.994,1006.385,713.199,0.928,937.707,710.130,0.925,1105.308,540.159,1.096,852.535,550.271,1.149,1098.731,350.160,1.222,727.268,402.262,1.241,1138.276,244.360,0.955,630.471,264.890,0.994,-0.031,-0.973,1.404,0.000,-9.233,0.000,-0.018,-0.015,-0.036,-0.026,-1.297,1.379
0723_085331_0130.png,0.041,0.153,0.949,-0.024,0.150,0.943,0.155,-0.019,1.107,-0.139,-0.010,1.148,0.231,-0.265,1.034,-0.314,-0.211,1.161,0.236,-0.338,0.778,-0.406,-0.299,0.927,1001.334,693.244,0.949,935.580,690.848,0.943,1092.999,523.549,1.107,844.700,531.942,1.148,1172.523,296.592,1.034,703.157,367.150,1.161,1248.362,126.568,0.778,543.471,233.589,0.927,-0.026,-0.963,1.401,0.000,-6.972,0.000,0.000,0.039,-0.013,0.141,-1.028,1.192
0723_085331_0131.png,0.020,0.178,0.928,-0.048,0.179,0.933,0.149,-0.005,1.107,-0.158,0.000,1.130,0.282,-0.233,1.195,-0.177,-0.246,1.016,0.388,-0.288,0.959,-0.052,-0.332,0.798,980.150,722.355,0.928,910.610,722.492,0.933,1088.313,535.581,1.107,827.273,540.147,1.130,1184.192,354.502,1.195,794.261,310.080,1.016,1345.082,253.979,0.959,898.125,144.934,0.798,-0.023,-0.966,1.402,0.000,-3.249,0.000,-0.037,-0.026,0.005,-0.248,-0.972,1.174
0723_085331_0132.png,0.023,0.185,0.935,-0.041,0.186,0.937,0.133,0.000,1.133,-0.156,-0.004,1.113,0.224,-0.260,1.112,-0.319,-0.192,1.228,0.094,-0.330,0.891,-0.293,-0.307,0.986,983.096,728.406,0.935,917.910,728.943,0.937,1071.205,540.304,1.133,826.562,536.310,1.113,1151.229,317.415,1.112,712.590,391.336,1.228,1060.820,187.916,0.891,677.162,244.362,0.986,-0.036,-0.962,1.401,0.000,-354.686,0.000,0.025,-0.034,-0.019,0.064,-0.755,1.414
0723_085331_0133.png,0.044,0.184,0.945,-0.024,0.183,0.942,0.162,-0.005,1.117,-0.141,-0.001,1.137,0.250,-0.265,1.080,-0.197,-0.236,0.998,0.248,-0.331,0.817,-0.181,-0.349,0.751,1004.005,724.922,0.945,936.203,724.375,0.942,1097.857,535.429,1.117,841.883,539.311,1.137,1179.752,306.846,1.080,771.965,315.431,0.998,1249.305,154.129,0.817,731.153,98.430,0.751,-0.039,-0.963,1.402,0.000,-2.658,0.000,-0.023,-0.015,-0.034,0.073,-0.717,1.295
0723_085331_0134.png,0.037,0.152,0.936,-0.030,0.150,0.935,0.161,-0.012,1.106,-0.139,-0.001,1.151,0.295,-0.234,1.179,-0.214,-0.195,0.962,0.388,-0.296,0.932,-0.224,-0.352,0.737,997.464,694.355,0.936,929.111,692.215,0.935,1098.653,529.782,1.106,845.557,538.897,1.151,1197.833,351.269,1.179,748.068,347.475,0.962,1356.153,238.217,0.932,670.226,86.091,0.737,-0.027,-0.964,1.402,0.000,-7.754,0.000,-0.022,0.012,-0.038,-0.091,-1.230,1.468
0723_085331_0135.png,0.051,0.162,0.931,-0.015,0.157,0.925,0.166,-0.013,1.085,-0.131,0.000,1.140,0.163,-0.270,1.151,-0.295,-0.206,1.100,0.145,-0.298,0.899,-0.257,-0.308,0.870,1012.318,704.998,0.931,944.603,701.854,0.925,1105.663,528.944,1.085,851.040,540.069,1.140,1094.658,316.555,1.151,704.907,362.382,1.100,1113.359,224.713,0.899,679.156,203.517,0.870,-0.031,-0.972,1.404,0.000,-9.641,0.000,-0.018,0.014,0.040,0.146,-1.168,1.258
0723_085331_0136.png,0.053,0.179,0.931,-0.011,0.174,0.921,0.163,-0.012,1.085,-0.122,0.002,1.143,0.177,-0.264,1.202,-0.260,-0.220,1.075,0.174,-0.310,0.945,-0.183,-0.334,0.854,1014.300,722.372,0.931,949.084,719.593,0.921,1103.133,529.792,1.085,858.610,541.438,1.143,1100.039,330.881,1.202,730.355,345.066,1.075,1135.058,228.068,0.945,756.161,168.407,0.854,-0.032,-0.964,1.402,0.000,-10.655,0.000,0.019,-0.032,0.014,0.205,-0.906,1.490
0723_085331_0137.png,0.050,0.179,0.942,-0.015,0.177,0.938,0.167,-0.018,1.089,-0.119,-0.004,1.150,0.213,-0.273,1.177,-0.288,-0.207,1.210,0.220,-0.314,0.916,-0.369,-0.296,0.975,1010.377,720.702,0.942,944.983,719.643,0.938,1105.501,524.417,1.089,861.443,536.716,1.150,1131.926,319.125,1.177,733.946,376.998,1.210,1188.629,213.772,0.916,600.061,250.997,0.975,-0.033,-0.959,1.401,0.000,-11.062,0.000,0.015,-0.014,-0.002,-0.031,-0.657,1.377
0723_085331_0138.png,0.044,0.154,0.942,-0.023,0.153,0.944,0.171,-0.021,1.093,-0.125,-0.006,1.154,0.279,-0.262,1.073,-0.245,-0.218,1.038,0.296,-0.322,0.817,-0.167,-0.326,0.809,1004.118,695.811,0.942,936.663,694.517,0.944,1108.549,522.119,1.093,857.281,534.678,1.154,1207.211,307.551,1.073,735.188,340.324,1.038,1304.170,165.499,0.817,764.177,156.441,0.809,-0.032,-0.964,1.402,0.000,-10.853,0.000,-0.017,0.036,-0.003,-0.228,-0.861,1.636
0723_085331_0139.png,0.016,0.172,0.935,-0.047,0.175,0.942,0.141,-0.009,1.117,-0.147,-0.006,1.129,0.234,-0.221,1.262,-0.317,-0.181,1.012,0.395,-0.280,1.065,-0.444,-0.335,0.838,976.461,715.447,0.935,912.353,716.246,0.942,1079.732,532.208,1.117,835.955,534.613,1.129,1136.411,373.735,1.262,661.932,370.105,1.012,1313.067,290.070,1.065,456.249,159.921,0.838,-0.029,-0.961,1.401,0.000,-1.277,0.000,0.029,-0.012,-0.007,-0.318,-0.810,1.435
0723_085331_0140.png,0.009,0.150,0.926,-0.056,0.154,0.930,0.114,-0.001,1.146,-0.173,-0.015,1.084,0.164,-0.237,1.039,-0.275,-0.203,1.244,0.018,-0.325,0.845,-0.408,-0.274,1.034,969.288,694.326,0.926,902.848,697.836,0.930,1054.967,539.327,1.146,808.146,526.843,1.084,1110.463,323.231,1.039,750.010,384.472,1.244,979.829,173.713,0.845,584.310,288.148,1.034,-0.037,-0.969,1.403,0.000,-346.405,0.000,0.008,0.013,0.028,0.079,-1.242,1.419
0723_085331_0141.png,0.021,0.171,0.945,-0.044,0.170,0.942,0.128,-0.005,1.129,-0.163,-0.007,1.119,0.138,-0.183,0.915,-0.310,-0.228,1.089,0.149,-0.356,0.706,-0.257,-0.328,0.851,980.696,711.961,0.945,915.843,711.744,0.942,1067.630,536.039,1.129,821.942,534.165,1.119,1103.004,350.085,0.915,689.681,341.385,1.089,1160.379,60.059,0.706,673.039,173.122,0.851,-0.025,-0.968,1.403,0.000,-356.919,0.000,0.022,0.017,-0.004,0.196,-0.809,1.365
0723_085331_0142.png,0.043,0.165,0.938,-0.024,0.162,0.933,0.158,-0.012,1.091,-0.141,-0.001,1.139,0.124,-0.244,0.976,-0.316,-0.202,1.152,-0.017,-0.329,0.778,-0.402,-0.288,0.927,1003.216,707.034,0.938,935.563,704.928,0.933,1097.998,529.749,1.091,842.678,539.415,1.139,1080.995,302.066,0.976,698.687,373.299,1.152,939.556,138.360,0.778,547.237,244.726,0.927,-0.025,-0.974,1.404,0.000,-8.211,0.000,-0.020,0.029,0.033,0.106,-0.859,1.640
0723_085331_0143.png,0.036,0.175,0.934,-0.027,0.175,0.933,0.151,-0.010,1.105,-0.131,-0.003,1.132,0.066,-0.188,0.917,-0.279,-0.219,1.075,-0.014,-0.363,0.736,-0.255,-0.340,0.846,996.921,718.728,0.934,932.832,718.064,0.933,1089.875,531.565,1.105,849.614,537.112,1.132,1028.696,345.095,0.917,712.929,346.573,1.075,941.552,70.200,0.736,673.017,157.644,0.846,-0.034,-0.964,1.402,0.000,-4.572,0.000,0.045,-0.016,0.011,-0.039,-0.880,1.276
0723_085331_0144.png,0.021,0.155,0.945,-0.044,0.156,0.948,0.141,-0.017,1.128,-0.156,-0.017,1.128,0.197,-0.188,0.918,-0.336,-0.208,1.064,0.252,-0.354,0.712,-0.449,-0.319,0.851,981.629,696.098,0.945,915.493,696.645,0.948,1078.988,525.604,1.128,828.273,525.537,1.128,1164.245,345.037,0.918,659.277,354.335,1.064,1296.527,66.853,0.712,457.990,183.804,0.851,-0.030,-0.957,1.400,0.000,-358.765,0.000,-0.001,0.022,-0.008,-0.092,-0.954,1.138
0723_085331_0145.png,-0.004,0.177,0.933,-0.070,0.180,0.940,0.107,0.004,1.146,-0.185,-0.007,1.098,0.107,-0.233,1.008,-0.292,-0.239,1.195,-0.015,-0.343,0.800,-0.312,-0.303,0.938,955.661,720.052,0.933,889.479,721.881,0.940,1049.120,542.917,1.146,799.748,533.544,1.098,1061.163,320.231,1.008,727.423,350.038,1.195,942.122,132.689,0.800,643.360,232.275,0.938,-0.022,-0.967,1.402,0.000,-349.320,0.000,0.002,-0.011,-0.011,-0.021,-0.881,1.251
0723_085331_0146.png,0.050,0.172,0.932,-0.014,0.170,0.931,0.172,-0.014,1.084,-0.111,0.000,1.149,0.242,-0.274,1.045,-0.210,-0.218,1.024,0.249,-0.345,0.793,-0.148,-0.346,0.805,1011.290,715.614,0.932,945.566,713.886,0.931,1110.539,527.290,1.084,868.251,540.404,1.149,1180.584,291.146,1.045,765.258,338.066,1.024,1258.066,125.735,0.793,785.095,131.827,0.805,-0.037,-0.964,1.402,0.000,-12.147,0.000,0.022,-0.012,0.004,-0.187,-0.980,1.182
0723_085331_0147.png,0.025,0.193,0.930,-0.040,0.194,0.930,0.136,0.010,1.129,-0.159,0.006,1.114,0.105,-0.177,0.917,-0.197,-0.251,1.013,0.077,-0.360,0.711,-0.075,-0.353,0.797,985.826,737.714,0.930,918.777,738.002,0.930,1074.850,548.332,1.129,824.150,545.442,1.114,1069.312,356.726,0.917,775.006,304.642,1.013,1062.750,58.635,0.711,870.093,118.673,0.797,-0.034,-0.970,1.403,0.000,-355.781,0.000,0.004,-0.043,-0.024,0.117,-0.806,1.498
0723_085331_0148.png,0.042,0.157,0.942,-0.022,0.155,0.939,0.161,-0.016,1.106,-0.125,-0.005,1.153,0.259,-0.263,1.045,-0.191,-0.185,0.942,0.286,-0.349,0.789,-0.259,-0.360,0.738,1002.618,698.882,0.942,937.440,696.856,0.939,1098.659,526.057,1.106,856.719,535.680,1.153,1195.428,301.129,1.045,767.326,353.544,0.942,1304.754,119.412,0.789,626.762,76.059,0.738,-0.032,-0.959,1.401,0.000,-8.532,0.000,0.021,0.009,-0.039,-0.075,-1.084,1.298
0723_085331_0149.png,0.052,0.152,0.941,-0.015,0.149,0.937,0.172,-0.027,1.082,-0.123,-0.010,1.155,0.172,-0.287,1.036,-0.264,-0.188,1.295,-0.014,-0.311,0.855,-0.315,-0.256,1.051,1012.596,693.573,0.941,944.845,691.031,0.937,1111.440,516.044,1.082,859.009,531.445,1.155,1118.305,276.866,1.036,766.047,401.709,1.295,944.029,193.877,0.855,674.747,308.851,1.051,-0.029,-0.961,1.401,0.000,-13.149,0.000,-0.025,0.032,0.019,-0.052,-0.947,1.369
0723_085331_0150.png,-0.005,0.179,0.920,-0.071,0.183,0.929,0.116,0.005,1.134,-0.182,-0.004,1.092,0.260,-0.228,1.143,-0.311,-0.227,1.199,0.327,-0.307,0.907,-0.380,-0.294,0.958,954.988,724.586,0.920,887.550,726.911,0.929,1057.530,544.328,1.134,801.295,536.191,1.092,1176.680,350.205,1.143,713.384,359.625,1.199,1303.036,218.473,0.907,582.409,247.855,0.958,-0.023,-0.970,1.403,0.000,-350.713,0.000,-0.016,-0.032,0.024,-0.193,-0.944,1.447
0723_085331_0151.png,0.048,0.186,0.935,-0.015,0.184,0.931,0.165,-0.011,1.081,-0.113,0.003,1.144,0.132,-0.252,0.967,-0.188,-0.222,1.021,0.090,-0.367,0.740,-0.095,-0.346,0.816,1009.120,729.292,0.935,944.689,728.343,0.931,1105.018,530.229,1.081,866.061,542.817,1.144,1089.774,292.605,0.967,784.939,333.522,1.021,1075.115,68.396,0.740,848.893,137.228,0.816,-0.034,-0.968,1.403,0.000,-11.940,0.000,0.039,-0.018,0.019,-0.102,-0.667,1.445
0723_085331_0152.png,0.027,0.168,0.936,-0.038,0.167,0.932,0.136,-0.004,1.118,-0.158,-0.004,1.115,0.136,-0.239,1.001,-0.316,-0.214,1.163,-0.018,-0.331,0.817,-0.397,-0.297,0.935,987.131,710.676,0.936,920.813,710.197,0.932,1075.610,536.810,1.118,825.043,536.216,1.115,1089.553,312.682,1.001,701.458,364.997,1.163,938.925,154.408,0.817,556.529,238.162,0.935,-0.028,-0.973,1.404,0.000,-358.230,0.000,0.009,0.015,0.033,0.200,-1.012,1.233
0723_085331_0153.png,0.012,0.181,0.943,-0.053,0.183,0.949,0.131,0.005,1.133,-0.163,0.003,1.123,0.214,-0.177,0.933,-0.314,-0.172,1.259,0.296,-0.354,0.739,-0.335,-0.285,1.012,972.114,722.031,0.943,906.842,722.955,0.949,1070.339,544.074,1.133,822.141,542.156,1.123,1177.630,359.538,0.933,723.051,410.016,1.259,1341.240,84.219,0.739,645.316,271.686,1.012,-0.027,-0.973,1.404,0.000,-356.820,0.000,0.008,0.011,-0.037,-0.141,-0.771,1.363
0723_085331_0154.png,0.059,0.169,0.935,-0.005,0.163,0.926,0.172,-0.008,1.082,-0.115,0.008,1.154,0.158,-0.226,0.919,-0.237,-0.202,1.034,0.122,-0.366,0.695,-0.212,-0.336,0.807,1020.436,711.782,0.935,954.595,707.259,0.926,1111.114,532.830,1.082,865.444,546.952,1.154,1123.354,305.853,0.919,741.713,354.065,1.034,1127.277,39.050,0.695,710.496,144.241,0.807,-0.032,-0.974,1.404,0.000,-13.319,0.000,0.003,0.008,-0.007,0.174,-1.174,1.214
0723_085331_0155.png,0.000,0.160,0.924,-0.066,0.164,0.932,0.116,-0.002,1.140,-0.178,-0.014,1.086,0.148,-0.242,1.039,-0.335,-0.234,1.072,-0.015,-0.319,0.851,-0.401,-0.317,0.840,960.015,704.380,0.924,893.127,707.403,0.932,1056.870,538.278,1.140,803.750,527.418,1.086,1095.882,318.116,1.039,663.246,332.649,1.072,943.689,183.255,0.851,506.415,180.950,0.840,-0.030,-0.969,1.403,0.000,-348.262,0.000,-0.009,0.002,0.042,-0.099,-0.998,1.587
0723_085331_0156.png,0.013,0.150,0.939,-0.051,0.153,0.946,0.134,-0.014,1.134,-0.158,-0.018,1.120,0.228,-0.233,1.007,-0.310,-0.227,1.053,0.252,-0.347,0.769,-0.376,-0.332,0.820,973.325,691.637,0.939,908.742,693.560,0.946,1072.016,527.941,1.134,826.152,525.091,1.120,1174.989,320.230,1.007,680.509,334.945,1.053,1270.921,111.475,0.769,523.673,155.409,0.820,-0.033,-0.959,1.401,0.000,-356.037,0.000,0.018,0.022,-0.004,-0.225,-1.097,1.147
0723_085331_0157.png,0.034,0.179,0.926,-0.029,0.179,0.929,0.162,-0.005,1.091,-0.120,0.008,1.147,0.089,-0.192,0.895,-0.235,-0.236,1.203,0.022,-0.376,0.705,-0.230,-0.315,0.947,995.295,724.231,0.926,929.904,723.245,0.929,1100.980,535.911,1.091,860.332,546.865,1.147,1054.839,336.448,0.895,773.945,353.522,1.203,989.368,33.211,0.705,728.825,223.455,0.947,-0.031,-0.967,1.402,0.000,-10.436,0.000,0.031,-0.033,-0.020,-0.342,-0.958,1.511
0723_085331_0158.png,0.021,0.164,0.932,-0.046,0.165,0.932,0.132,0.002,1.135,-0.167,-0.004,1.110,0.265,-0.193,1.268,-0.251,-0.216,0.961,0.286,-0.278,1.018,-0.254,-0.352,0.733,981.227,707.402,0.932,913.334,708.323,0.932,1070.906,541.324,1.135,817.039,536.401,1.110,1159.065,395.133,1.268,711.445,326.037,0.961,1227.020,280.358,1.018,631.137,83.981,0.733,-0.032,-0.970,1.403,0.000,-353.897,0.000,-0.011,0.002,-0.006,0.127,-1.129,1.378
0723_085331_0159.png,0.042,0.159,0.946,-0.025,0.158,0.945,0.163,-0.014,1.118,-0.138,-0.008,1.145,0.234,-0.274,1.117,-0.213,-0.227,0.990,0.056,-0.305,0.916,-0.134,-0.347,0.758,1002.191,699.522,0.946,934.904,698.604,0.945,1098.482,527.900,1.118,845.570,533.326,1.145,1159.150,306.416,1.117,755.623,321.818,0.990,1017.956,223.109,0.916,792.394,104.166,0.758,-0.037,-0.959,1.401,0.000,-4.082,0.000,-0.017,0.017,-0.040,-0.027,-1.040,1.114
0723_085331_0160.png,0.011,0.144,0.931,-0.052,0.148,0.935,0.118,-0.008,1.141,-0.166,-0.017,1.100,0.227,-0.240,1.204,-0.315,-0.192,1.229,0.244,-0.299,0.953,-0.339,-0.291,0.991,971.568,687.506,0.931,907.040,690.109,0.935,1058.545,533.417,1.141,816.885,525.108,1.100,1139.592,350.707,1.204,716.097,391.768,1.229,1203.252,241.494,0.953,635.216,261.113,0.991,-0.034,-0.965,1.402,0.000,-350.477,0.000,0.034,0.024,0.019,0.030,-1.248,1.359
0723_085331_0161.png,0.052,0.160,0.929,-0.010,0.156,0.924,0.166,-0.016,1.089,-0.114,-0.004,1.142,0.193,-0.271,1.009,-0.139,-0.215,0.981,0.173,-0.355,0.766,-0.086,-0.357,0.773,1013.725,703.611,0.929,949.275,700.657,0.924,1104.744,525.616,1.089,865.205,536.460,1.142,1141.568,284.908,1.009,825.571,331.955,0.981,1174.746,99.157,0.766,853.642,101.122,0.773,-0.039,-0.963,1.402,0.000,-9.870,0.000,0.041,-0.008,0.023,0.055,-1.215,1.233
0723_085331_0162.png,0.048,0.179,0.926,-0.018,0.175,0.921,0.166,-0.009,1.086,-0.125,0.005,1.148,0.227,-0.248,0.962,-0.144,-0.217,0.987,0.213,-0.365,0.723,-0.119,-0.355,0.759,1009.213,723.385,0.926,941.696,720.524,0.921,1105.423,532.073,1.086,856.850,544.332,1.148,1184.642,295.162,0.962,821.140,330.729,0.987,1239.863,60.349,0.723,811.293,95.719,0.759,-0.030,-0.962,1.401,0.000,-11.205,0.000,-0.002,-0.046,-0.011,0.032,-1.132,1.149
0723_085331_0163.png,0.006,0.155,0.943,-0.061,0.158,0.951,0.132,-0.009,1.135,-0.170,-0.011,1.125,0.186,-0.199,1.308,-0.243,-0.184,0.919,0.228,-0.260,1.050,-0.315,-0.352,0.717,965.797,696.503,0.943,899.205,698.288,0.951,1070.689,532.868,1.135,816.213,530.892,1.125,1095.355,395.415,1.308,708.228,349.366,0.919,1166.404,304.891,1.050,542.355,72.896,0.717,-0.024,-0.965,1.402,0.000,-356.913,0.000,-0.018,0.031,-0.024,-0.241,-0.957,1.418
0723_085331_0164.png,0.050,0.152,0.940,-0.018,0.150,0.940,0.176,-0.019,1.089,-0.120,-0.003,1.159,0.243,-0.272,1.030,-0.220,-0.198,0.993,0.109,-0.326,0.806,-0.239,-0.339,0.765,1010.127,693.930,0.940,941.986,691.573,0.940,1113.551,523.212,1.089,861.728,537.437,1.159,1184.247,289.091,1.030,749.217,350.790,0.993,1088.956,155.449,0.806,663.354,118.746,0.765,-0.032,-0.965,1.402,0.000,-12.498,0.000,-0.025,0.034,-0.018,-0.194,-1.039,1.465
0723_085331_0165.png,0.022,0.174,0.929,-0.046,0.175,0.932,0.147,0.000,1.113,-0.160,0.003,1.124,0.224,-0.216,1.260,-0.264,-0.242,1.069,0.346,-0.267,1.031,-0.101,-0.312,0.871,982.168,717.964,0.929,912.590,718.174,0.932,1085.688,540.169,1.113,824.323,542.229,1.124,1129.169,376.775,1.260,724.767,324.478,1.069,1278.771,293.991,1.031,850.184,199.699,0.871,-0.026,-0.973,1.404,0.000,-0.852,0.000,-0.036,-0.007,0.008,-0.123,-1.032,1.303
0723_085331_0166.png,0.031,0.170,0.940,-0.033,0.169,0.938,0.148,-0.014,1.096,-0.139,-0.005,1.138,0.274,-0.248,1.088,-0.283,-0.223,1.097,0.215,-0.326,0.850,-0.317,-0.321,0.862,991.799,711.989,0.940,926.755,711.044,0.938,1088.504,527.439,1.096,844.190,536.001,1.138,1199.323,323.035,1.088,715.139,346.578,1.097,1201.173,175.666,0.850,610.254,186.476,0.862,-0.023,-0.968,1.402,0.000,-7.411,0.000,0.023,0.015,0.026,-0.065,-0.856,1.096
0723_085331_0167.png,0.033,0.183,0.936,-0.029,0.181,0.931,0.141,0.003,1.114,-0.143,0.006,1.127,0.134,-0.257,1.029,-0.122,-0.183,0.923,0.090,-0.358,0.787,-0.105,-0.369,0.725,993.909,725.935,0.936,929.887,724.887,0.931,1080.028,542.283,1.114,839.094,544.869,1.127,1084.030,302.378,1.029,834.124,351.485,0.923,1068.361,107.690,0.787,822.788,56.369,0.725,-0.030,-0.973,1.404,0.000,-1.616,0.000,0.043,-0.014,-0.009,0.191,-0.954,1.237
0723_085331_0168.png,-0.013,0.164,0.945,-0.077,0.169,0.958,0.104,-0.005,1.157,-0.184,-0.019,1.097,0.097,-0.242,1.022,-0.311,-0.209,1.230,0.039,-0.342,0.781,-0.435,-0.279,1.006,947.204,704.987,0.945,883.656,707.629,0.958,1045.711,535.699,1.157,800.074,523.485,1.097,1050.099,314.971,1.022,719.536,378.631,1.230,1007.939,123.357,0.781,548.659,275.952,1.006,-0.027,-0.962,1.401,0.000,-346.771,0.000,0.006,0.027,-0.021,-0.229,-0.719,1.329
0723_085331_0169.png,0.006,0.177,0.939,-0.062,0.179,0.942,0.120,0.000,1.147,-0.184,-0.011,1.100,0.107,-0.197,0.953,-0.259,-0.268,1.041,0.044,-0.346,0.738,-0.095,-0.322,0.835,966.527,719.402,0.939,897.835,720.500,0.942,1059.249,539.757,1.147,801.030,530.531,1.100,1067.068,343.494,0.953,723.367,294.977,1.041,1016.182,93.617,0.738,851.362,172.892,0.835,-0.027,-0.963,1.401,0.000,-349.917,0.000,-0.035,-0.010,-0.015,0.104,-0.791,1.247
0723_085331_0170.png,0.025,0.192,0.930,-0.042,0.193,0.933,0.150,0.001,1.105,-0.153,0.006,1.125,0.137,-0.180,0.906,-0.298,-0.224,1.092,0.121,-0.356,0.712,-0.207,-0.317,0.866,985.426,736.647,0.930,916.669,736.629,0.933,1089.094,541.159,1.105,830.228,545.044,1.125,1103.761,351.350,0.906,700.690,344.716,1.092,1122.241,64.978,0.712,732.243,191.561,0.866,-0.027,-0.973,1.404,0.000,-2.714,0.000,-0.024,-0.028,0.017,-0.159,-0.776,1.179
0723_085331_0171.png,0.055,0.178,0.948,-0.011,0.175,0.941,0.171,-0.011,1.102,-0.125,0.001,1.153,0.145,-0.252,0.962,-0.109,-0.191,0.945,0.107,-0.364,0.715,-0.060,-0.358,0.731,1015.223,718.568,0.948,948.582,716.780,0.941,1107.858,530.372,1.102,857.281,540.481,1.153,1103.621,291.420,0.962,850.554,347.960,0.945,1101.634,55.740,0.715,882.153,74.611,0.731,-0.036,-0.962,1.401,0.000,-8.875,0.000,-0.012,-0.004,-0.042,0.101,-0.793,1.245
0723_085331_0172.png,0.037,0.179,0.946,-0.028,0.178,0.945,0.157,-0.009,1.095,-0.133,0.002,1.142,0.202,-0.235,0.962,-0.256,-0.188,0.999,0.155,-0.352,0.734,-0.328,-0.336,0.795,997.584,720.170,0.946,932.136,719.565,0.945,1095.944,532.545,1.095,849.251,541.844,1.142,1159.410,307.823,0.962,716.196,360.841,0.999,1160.318,83.804,0.734,567.655,138.486,0.795,-0.027,-0.974,1.404,0.000,-8.282,0.000,0.011,0.026,0.011,-0.113,-0.636,1.341
0723_085331_0173.png,0.042,0.153,0.944,-0.023,0.149,0.940,0.159,-0.020,1.102,-0.128,-0.008,1.153,0.069,-0.194,0.902,-0.119,-0.186,0.931,-0.016,-0.364,0.706,-0.113,-0.359,0.716,1002.402,693.771,0.944,937.193,691.288,0.940,1097.142,522.637,1.102,854.453,533.069,1.153,1032.548,335.499,0.902,838.659,350.545,0.931,938.118,49.546,0.706,810.084,63.165,0.716,-0.028,-0.959,1.400,0.000,-9.165,0.000,0.018,0.021,-0.025,-0.009,-1.047,1.391
0723_085331_0174.png,0.052,0.179,0.933,-0.015,0.174,0.923,0.165,-0.008,1.091,-0.133,0.005,1.149,0.287,-0.253,1.153,-0.273,-0.192,1.014,0.345,-0.312,0.897,-0.361,-0.337,0.804,1012.765,722.779,0.933,944.935,719.407,0.923,1104.208,532.820,1.091,850.326,544.268,1.149,1196.363,331.651,1.153,703.755,359.650,1.014,1326.104,209.334,0.897,533.079,141.688,0.804,-0.027,-0.963,1.401,0.000,-10.177,0.000,-0.023,-0.038,-0.020,0.236,-1.041,1.301
0723_085331_0175.png,0.039,0.169,0.940,-0.026,0.167,0.934,0.150,-0.009,1.108,-0.144,-0.004,1.131,0.188,-0.193,1.299,-0.199,-0.216,0.980,0.286,-0.264,1.069,-0.137,-0.346,0.764,999.384,711.189,0.940,933.440,709.705,0.934,1088.504,532.093,1.108,838.776,536.840,1.131,1097.556,398.888,1.299,766.407,330.348,0.980,1214.420,304.955,1.069,789.829,109.571,0.764,-0.030,-0.969,1.403,0.000,-3.561,0.000,0.007,0.010,0.016,0.208,-0.955,1.217
0723_085331_0176.png,0.025,0.168,0.933,-0.039,0.167,0.930,0.133,0.000,1.133,-0.160,-0.002,1.123,0.083,-0.202,0.942,-0.308,-0.215,1.213,-0.012,-0.365,0.744,-0.431,-0.301,0.988,985.974,710.778,0.933,919.752,710.559,0.930,1071.628,539.930,1.133,824.807,537.926,1.123,1043.946,335.994,0.942,718.573,371.551,1.213,944.258,73.593,0.744,544.921,250.567,0.988,-0.030,-0.962,1.401,0.000,-356.760,0.000,0.014,-0.025,-0.041,0.187,-1.061,1.635
0723_085331_0177.png,0.013,0.178,0.933,-0.054,0.180,0.935,0.123,0.005,1.144,-0.177,-0.008,1.085,0.192,-0.223,1.026,-0.334,-0.216,1.169,0.107,-0.325,0.802,-0.252,-0.291,0.936,973.484,721.925,0.933,904.594,723.186,0.935,1062.539,544.220,1.144,804.596,532.586,1.085,1138.087,333.625,1.026,688.508,364.501,1.169,1086.758,154.214,0.802,703.479,244.769,0.936,-0.037,-0.973,1.404,0.000,-347.464,0.000,-0.033,0.001,0.025,0.167,-0.844,1.182
0723_085331_0178.png,0.022,0.156,0.946,-0.042,0.157,0.946,0.131,-0.014,1.132,-0.158,-0.018,1.114,0.213,-0.182,0.939,-0.152,-0.203,0.922,0.293,-0.346,0.751,-0.095,-0.359,0.721,981.817,697.175,0.946,917.281,697.527,0.946,1069.676,528.287,1.132,824.822,524.684,1.114,1175.469,355.400,0.939,803.555,330.319,0.922,1331.419,101.724,0.751,834.077,66.593,0.721,-0.032,-0.963,1.402,0.000,-355.286,0.000,0.025,0.036,0.018,0.124,-0.918,1.097
0723_085331_0179.png,0.015,0.188,0.943,-0.052,0.190,0.948,0.138,0.008,1.133,-0.166,0.006,1.124,0.080,-0.177,0.923,-0.315,-0.170,1.268,0.025,-0.357,0.718,-0.340,-0.278,1.017,975.054,730.080,0.943,907.715,730.789,0.948,1075.638,546.928,1.133,819.870,545.274,1.124,1042.231,357.708,0.923,724.020,412.646,1.268,992.963,66.573,0.718,641.761,279.989,1.017,-0.028,-0.974,1.404,0.000,-357.123,0.000,-0.022,0.000,-0.044,-0.133,-0.761,1.170
0723_085331_0180.png,0.017,0.156,0.942,-0.048,0.158,0.945,0.132,-0.012,1.130,-0.160,-0.016,1.116,0.260,-0.232,1.056,-0.159,-0.211,0.934,0.311,-0.327,0.820,-0.103,-0.356,0.725,977.398,697.834,0.942,912.174,698.613,0.945,1071.023,529.592,1.130,823.434,526.743,1.116,1194.466,331.234,1.056,798.558,324.747,0.934,1320.888,160.874,0.820,824.348,72.357,0.725,-0.030,-0.965,1.402,0.000,-356.037,0.000,0.015,0.032,0.016,-0.019,-0.865,1.439
0723_085331_0181.png,-0.001,0.151,0.931,-0.065,0.155,0.939,0.115,-0.009,1.137,-0.174,-0.018,1.098,0.243,-0.235,1.179,-0.287,-0.245,1.028,0.135,-0.293,0.956,-0.317,-0.335,0.793,958.955,694.532,0.931,894.341,697.252,0.939,1055.926,532.694,1.137,809.630,524.600,1.098,1156.081,350.437,1.179,694.817,313.666,1.028,1094.133,248.331,0.956,579.725,137.695,0.793,-0.027,-0.966,1.402,0.000,-350.859,0.000,0.020,0.025,0.037,-0.144,-0.952,1.662
0723_085331_0182.png,0.023,0.156,0.933,-0.040,0.159,0.941,0.147,-0.007,1.120,-0.139,-0.004,1.133,0.185,-0.228,1.267,-0.278,-0.206,1.235,0.199,-0.293,1.007,-0.412,-0.290,1.022,983.045,699.192,0.933,919.273,700.428,0.941,1084.750,534.209,1.120,843.701,536.799,1.133,1098.819,369.141,1.267,746.169,381.350,1.235,1148.231,263.431,1.007,576.891,270.074,1.022,-0.036,-0.966,1.402,0.000,-1.519,0.000,0.037,0.011,-0.022,-0.309,-1.093,1.544
0723_085331_0183.png,0.053,0.187,0.923,-0.013,0.185,0.920,0.175,-0.007,1.075,-0.114,0.009,1.146,0.130,-0.223,0.920,-0.249,-0.181,1.298,0.056,-0.364,0.714,-0.291,-0.274,1.060,1014.607,732.596,0.923,946.648,730.818,0.920,1114.896,533.460,1.075,865.227,547.368,1.146,1093.832,309.246,0.920,777.442,407.176,1.298,1035.000,55.458,0.714,698.944,293.724,1.060,-0.037,-0.968,1.403,0.000,-12.925,0.000,-0.004,-0.043,0.016,-0.106,-0.828,1.595
0723_085331_0184.png,0.034,0.174,0.933,-0.032,0.172,0.927,0.148,-0.002,1.110,-0.152,0.003,1.134,0.246,-0.220,0.974,-0.135,-0.220,0.973,0.292,-0.351,0.745,-0.056,-0.351,0.753,995.031,717.700,0.933,927.225,715.908,0.927,1086.553,538.115,1.110,832.623,542.662,1.134,1200.072,325.512,0.974,828.515,325.432,0.973,1332.003,91.519,0.745,889.106,96.571,0.753,-0.025,-0.968,1.402,0.000,-3.406,0.000,-0.012,-0.020,-0.015,0.185,-1.063,1.386
0723_085331_0185.png,0.042,0.175,0.935,-0.024,0.173,0.930,0.159,-0.014,1.102,-0.138,-0.005,1.139,0.274,-0.262,1.148,-0.270,-0.242,1.098,0.125,-0.309,0.934,-0.140,-0.320,0.881,1003.169,718.252,0.935,935.816,716.855,0.930,1096.981,528.103,1.102,844.816,535.682,1.139,1187.237,323.244,1.148,726.128,330.018,1.098,1087.665,225.281,0.934,808.971,194.840,0.881,-0.031,-0.957,1.400,0.000,-6.212,0.000,-0.008,-0.031,-0.003,0.090,-0.848,1.445
0723_085331_0186.png,0.004,0.188,0.929,-0.059,0.190,0.932,0.101,0.012,1.146,-0.176,-0.003,1.082,0.220,-0.218,1.230,-0.204,-0.245,0.964,0.333,-0.300,1.009,-0.100,-0.365,0.758,964.538,732.805,0.929,900.133,734.318,0.932,1043.646,549.875,1.146,805.500,537.565,1.082,1129.875,371.350,1.230,758.448,298.858,0.964,1274.278,257.457,1.009,834.941,81.531,0.758,-0.031,-0.974,1.404,0.000,-345.506,0.000,0.042,-0.022,0.007,0.200,-0.845,1.207
0723_085331_0187.png,0.027,0.179,0.930,-0.041,0.180,0.930,0.140,0.001,1.135,-0.165,-0.006,1.104,0.222,-0.243,1.241,-0.304,-0.181,1.270,0.240,-0.285,0.980,-0.360,-0.276,1.030,987.284,722.957,0.930,917.828,723.668,0.930,1076.974,541.198,1.135,817.597,535.178,1.104,1130.455,353.876,1.241,732.387,404.528,1.270,1192.760,263.381,0.980,627.027,284.850,1.030,-0.039,-0.965,1.402,0.000,-352.952,0.000,-0.032,-0.031,-0.001,0.158,-0.928,1.334
0723_085331_0188.png,0.036,0.179,0.926,-0.030,0.178,0.927,0.164,-0.013,1.082,-0.127,0.002,1.150,0.281,-0.264,1.068,-0.092,-0.177,0.942,0.323,-0.337,0.816,-0.057,-0.353,0.740,996.887,724.267,0.926,928.839,722.942,0.927,1103.854,528.490,1.082,854.671,542.056,1.150,1210.542,304.476,1.068,867.027,361.158,0.942,1336.472,147.779,0.816,886.563,87.110,0.740,-0.025,-0.960,1.401,0.000,-12.273,0.000,-0.008,-0.042,-0.002,-0.294,-0.953,1.238
0723_085331_0189.png,0.007,0.168,0.931,-0.060,0.169,0.931,0.111,0.008,1.146,-0.184,-0.004,1.093,0.068,-0.171,0.937,-0.242,-0.226,1.236,0.026,-0.345,0.733,-0.239,-0.285,0.979,966.668,711.353,0.931,898.796,713.149,0.931,1052.006,546.310,1.146,799.777,536.143,1.093,1029.140,366.097,0.937,774.115,366.286,1.236,993.728,92.117,0.733,727.906,263.167,0.979,-0.026,-0.974,1.404,0.000,-348.506,0.000,-0.010,0.003,-0.001,0.215,-1.069,1.464
0723_085331_0190.png,0.018,0.168,0.936,-0.048,0.171,0.942,0.141,-0.005,1.124,-0.159,-0.007,1.115,0.207,-0.227,0.992,-0.317,-0.187,1.236,0.169,-0.340,0.762,-0.337,-0.279,0.995,978.094,711.088,0.936,911.169,712.130,0.942,1079.500,535.980,1.124,824.682,534.292,1.115,1157.975,322.738,0.992,716.114,396.214,1.236,1170.400,116.252,0.762,637.683,273.261,0.995,-0.033,-0.970,1.403,0.000,-357.170,0.000,-0.011,0.016,0.017,-0.166,-0.814,1.509
0723_085331_0191.png,0.012,0.176,0.921,-0.052,0.179,0.925,0.119,0.007,1.141,-0.169,-0.004,1.090,0.252,-0.219,1.225,-0.289,-0.203,1.243,0.396,-0.291,1.018,-0.244,-0.296,1.002,972.713,721.475,0.921,906.226,723.863,0.925,1059.280,546.098,1.141,812.756,536.283,1.090,1155.747,369.657,1.225,739.000,384.917,1.243,1329.976,268.467,1.018,728.380,259.381,1.002,-0.036,-0.969,1.403,0.000,-348.650,0.000,0.015,-0.035,0.007,0.051,-1.094,1.327
0723_085331_0192.png,0.062,0.173,0.936,0.000,0.167,0.923,0.168,-0.015,1.079,-0.106,0.002,1.152,0.298,-0.252,1.081,-0.132,-0.178,0.943,0.336,-0.341,0.838,-0.159,-0.355,0.741,1023.038,715.906,0.936,960.086,711.792,0.923,1108.504,526.660,1.079,872.565,541.477,1.152,1221.774,318.001,1.081,827.082,360.234,0.943,1341.045,152.827,0.838,755.624,84.002,0.741,-0.034,-0.964,1.402,0.000,-14.224,0.000,0.041,-0.016,0.001,0.250,-0.922,1.543
0723_085331_0193.png,0.022,0.152,0.931,-0.041,0.154,0.935,0.136,-0.009,1.129,-0.149,-0.011,1.120,0.063,-0.183,0.925,-0.321,-0.212,1.093,-0.005,-0.354,0.725,-0.428,-0.326,0.882,982.569,695.555,0.931,918.476,696.852,0.935,1074.217,532.485,1.129,833.809,530.551,1.120,1024.885,352.179,0.925,681.086,355.652,1.093,953.865,76.262,0.725,498.805,188.772,0.882,-0.036,-0.961,1.401,0.000,-356.847,0.000,0.042,0.001,-0.006,-0.072,-1.121,1.589
0723_085331_0194.png,0.028,0.149,0.937,-0.037,0.148,0.938,0.147,-0.010,1.116,-0.146,-0.005,1.135,0.169,-0.260,1.190,-0.305,-0.213,1.080,0.142,-0.299,0.931,-0.379,-0.322,0.850,988.810,691.062,0.937,922.775,690.359,0.938,1084.919,531.776,1.116,837.293,535.626,1.135,1094.896,331.994,1.190,691.348,352.260,1.080,1104.757,234.431,0.931,535.694,180.016,0.850,-0.029,-0.969,1.403,0.000,-2.688,0.000,0.011,0.033,-0.006,-0.046,-1.268,1.283
0723_085331_0195.png,0.025,0.177,0.925,-0.041,0.178,0.927,0.140,0.004,1.121,-0.157,0.002,1.114,0.189,-0.202,1.300,-0.161,-0.222,0.962,0.292,-0.271,1.069,-0.075,-0.354,0.753,985.211,722.079,0.925,917.665,722.514,0.927,1078.872,543.070,1.121,826.261,541.679,1.114,1098.418,392.559,1.300,800.867,320.842,0.962,1219.508,298.889,1.069,865.649,93.605,0.753,-0.033,-0.971,1.403,0.000,-357.402,0.000,0.000,-0.025,0.008,0.019,-1.084,1.281
0723_085331_0196.png,0.009,0.167,0.934,-0.054,0.169,0.936,0.107,0.000,1.145,-0.172,-0.012,1.093,0.050,-0.174,0.941,-0.283,-0.226,1.208,-0.004,-0.345,0.744,-0.366,-0.304,0.975,968.940,709.714,0.934,904.859,711.321,0.936,1048.680,540.302,1.145,810.182,529.876,1.093,1010.227,364.534,0.941,737.200,361.660,1.208,954.966,98.982,0.744,602.596,243.912,0.975,-0.031,-0.968,1.403,0.000,-347.958,0.000,0.043,0.005,0.009,0.217,-1.010,1.200
0723_085331_0197.png,0.009,0.169,0.934,-0.053,0.172,0.939,0.112,-0.002,1.147,-0.167,-0.014,1.093,0.050,-0.181,0.948,-0.314,-0.236,1.070,-0.008,-0.357,0.756,-0.376,-0.340,0.839,969.673,711.885,0.934,905.880,713.824,0.939,1052.818,538.265,1.147,814.770,527.406,1.093,1010.115,358.733,0.948,680.767,330.577,1.070,949.635,91.010,0.756,533.645,154.990,0.839,-0.037,-0.963,1.402,0.000,-347.616,0.000,0.042,-0.004,0.002,0.070,-0.867,1.378
0723_085331_0198.png,0.010,0.182,0.932,-0.055,0.186,0.942,0.130,0.003,1.140,-0.164,-0.004,1.106,0.139,-0.232,0.996,-0.226,-0.264,1.038,0.013,-0.348,0.792,-0.059,-0.338,0.843,970.047,725.976,0.932,904.648,727.772,0.942,1068.191,542.899,1.140,819.372,536.310,1.106,1093.078,318.496,0.996,753.163,297.903,1.038,975.653,122.035,0.792,893.557,158.847,0.843,-0.037,-0.966,1.402,0.000,-352.084,0.000,0.005,-0.023,-0.020,-0.214,-0.802,1.336
0723_085331_0199.png,0.022,0.170,0.928,-0.044,0.170,0.929,0.138,-0.005,1.119,-0.159,-0.006,1.114,0.234,-0.253,1.182,-0.319,-0.225,1.097,0.243,-0.302,0.928,-0.295,-0.321,0.859,982.596,714.008,0.928,915.085,714.319,0.929,1077.456,535.799,1.119,824.083,534.831,1.114,1148.525,336.182,1.182,683.801,345.143,1.097,1208.697,230.685,0.928,633.549,184.413,0.859,-0.029,-0.966,1.402,0.000,-357.872,0.000,-0.002,-0.016,0.023,0.014,-1.028,1.308
0723_085331_0200.png,0.012,0.159,0.934,-0.056,0.160,0.933,0.127,0.000,1.135,-0.180,-0.007,1.108,0.151,-0.267,1.140,-0.344,-0.203,1.200,0.097,-0.299,0.884,-0.241,-0.281,0.970,972.585,702.486,0.934,902.883,703.391,0.933,1066.401,539.674,1.135,805.164,534.354,1.108,1085.655,317.024,1.140,687.745,379.026,1.200,1064.313,217.916,0.884,723.496,264.858,0.970,-0.023,-0.971,1.403,0.000,-353.691,0.000,-0.040,0.012,0.003,0.120,-1.024,1.697
0723_085331_0201.png,0.039,0.184,0.929,-0.026,0.181,0.924,0.157,-0.008,1.089,-0.134,0.004,1.144,0.226,-0.204,1.280,-0.140,-0.207,0.970,0.194,-0.287,1.030,-0.067,-0.355,0.763,1000.024,728.332,0.929,932.742,726.508,0.924,1097.171,532.892,1.089,848.320,543.671,1.144,1127.829,388.628,1.280,822.415,337.482,0.970,1138.900,275.165,1.030,876.484,97.584,0.763,-0.024,-0.963,1.401,0.000,-9.717,0.000,0.000,-0.043,-0.003,0.009,-0.922,1.308
0723_085331_0202.png,0.025,0.185,0.934,-0.038,0.186,0.937,0.143,0.003,1.113,-0.142,0.007,1.129,0.203,-0.191,1.295,-0.118,-0.181,0.925,0.218,-0.288,1.048,-0.097,-0.365,0.728,985.107,728.747,0.934,921.005,728.798,0.937,1081.990,542.551,1.113,840.642,545.674,1.129,1108.834,399.490,1.295,838.990,354.149,0.925,1157.667,278.658,1.048,832.735,62.659,0.728,-0.030,-0.974,1.404,0.000,-2.196,0.000,0.040,-0.012,-0.010,-0.166,-0.884,1.159
0723_085331_0203.png,0.006,0.143,0.928,-0.062,0.147,0.933,0.122,-0.013,1.144,-0.181,-0.025,1.093,0.071,-0.192,0.953,-0.286,-0.220,1.247,-0.027,-0.336,0.757,-0.401,-0.268,1.016,966.299,686.750,0.928,897.257,689.569,0.933,1061.324,529.166,1.144,802.433,518.571,1.093,1030.647,348.528,0.953,742.122,371.905,1.247,926.526,118.068,0.757,585.213,288.799,1.016,-0.030,-0.957,1.400,0.000,-349.126,0.000,-0.035,0.006,0.029,0.015,-1.136,1.565
0723_085331_0204.png,0.051,0.175,0.944,-0.015,0.173,0.938,0.165,-0.015,1.097,-0.128,-0.005,1.140,0.155,-0.270,1.018,-0.250,-0.234,1.076,-0.001,-0.332,0.819,-0.121,-0.318,0.865,1011.211,716.128,0.944,945.181,715.037,0.938,1103.451,527.032,1.097,853.372,535.915,1.140,1104.465,287.732,1.018,738.890,333.168,1.076,958.853,154.190,0.819,826.762,190.635,0.865,-0.036,-0.965,1.402,0.000,-7.532,0.000,0.001,0.007,0.017,0.095,-0.693,1.374
0723_085331_0205.png,0.008,0.174,0.928,-0.059,0.177,0.934,0.126,0.005,1.138,-0.176,-0.005,1.095,0.052,-0.170,0.944,-0.294,-0.244,1.046,-0.022,-0.338,0.754,-0.322,-0.326,0.801,967.900,717.897,0.928,899.472,719.869,0.934,1065.459,544.091,1.138,807.199,535.630,1.095,1012.699,368.931,0.944,692.529,317.895,1.046,931.787,113.174,0.754,578.068,152.473,0.801,-0.032,-0.973,1.404,0.000,-350.482,0.000,-0.029,-0.003,0.016,-0.054,-0.877,1.573
0723_085331_0206.png,0.042,0.160,0.927,-0.024,0.158,0.926,0.164,-0.020,1.077,-0.121,-0.004,1.148,0.180,-0.212,1.269,-0.157,-0.208,0.985,0.215,-0.279,1.024,-0.083,-0.343,0.779,1002.637,704.124,0.927,935.860,701.859,0.926,1104.907,521.959,1.077,859.770,536.469,1.148,1095.149,380.969,1.269,808.263,339.084,0.985,1159.430,280.726,1.024,858.376,121.601,0.779,-0.028,-0.963,1.401,0.000,-13.045,0.000,0.009,-0.005,0.032,-0.184,-1.046,1.483
0723_085331_0207.png,0.023,0.158,0.940,-0.041,0.160,0.944,0.143,-0.011,1.123,-0.148,-0.009,1.129,0.214,-0.208,1.285,-0.203,-0.184,0.918,0.359,-0.267,1.074,-0.259,-0.355,0.714,983.407,700.263,0.940,918.493,700.842,0.944,1080.853,530.895,1.123,835.279,532.087,1.129,1118.380,385.881,1.285,749.631,348.969,0.918,1278.068,303.936,1.074,615.477,67.032,0.714,-0.032,-0.964,1.402,0.000,-0.023,0.000,0.021,0.021,-0.006,-0.134,-0.893,1.597
0723_085331_0208.png,-0.015,0.153,0.927,-0.078,0.160,0.939,0.097,0.002,1.152,-0.185,-0.012,1.089,0.128,-0.172,0.937,-0.304,-0.250,1.076,0.160,-0.342,0.729,-0.191,-0.330,0.852,945.008,697.386,0.927,881.424,702.499,0.939,1039.921,541.724,1.152,798.393,529.144,1.089,1089.805,365.651,0.937,690.991,318.733,1.076,1168.835,93.937,0.729,746.624,171.309,0.852,-0.025,-0.969,1.403,0.000,-345.877,0.000,0.026,0.014,-0.002,-0.209,-1.180,1.398
0723_085331_0209.png,0.046,0.148,0.932,-0.021,0.146,0.931,0.171,-0.019,1.090,-0.127,-0.005,1.150,0.164,-0.264,0.983,-0.123,-0.178,0.939,-0.001,-0.331,0.789,-0.118,-0.345,0.732,1007.329,691.315,0.932,938.605,688.815,0.931,1109.588,523.407,1.090,855.251,535.721,1.150,1118.184,284.402,0.983,834.933,359.744,0.939,958.591,141.422,0.789,806.162,91.776,0.732,-0.033,-0.964,1.402,0.000,-10.541,0.000,-0.025,0.018,0.007,-0.114,-1.114,1.707
0723_085331_0210.png,0.007,0.177,0.927,-0.059,0.179,0.930,0.112,0.007,1.151,-0.181,-0.007,1.090,0.205,-0.171,0.951,-0.286,-0.264,1.101,0.296,-0.346,0.757,-0.142,-0.323,0.881,967.497,721.105,0.927,899.699,723.362,0.930,1052.595,545.745,1.151,802.342,533.822,1.090,1164.909,368.619,0.951,713.206,311.584,1.101,1332.045,105.688,0.757,806.510,191.780,0.881,-0.032,-0.965,1.402,0.000,-346.748,0.000,-0.009,-0.034,-0.021,0.141,-0.941,1.532
0723_085331_0211.png,-0.006,0.148,0.932,-0.071,0.154,0.942,0.107,-0.005,1.154,-0.181,-0.017,1.100,0.217,-0.200,1.301,-0.284,-0.207,1.259,0.214,-0.277,1.043,-0.429,-0.276,1.048,953.512,691.012,0.932,888.745,695.459,0.942,1047.965,536.179,1.154,803.635,525.394,1.100,1118.385,393.888,1.301,745.229,383.547,1.259,1155.526,287.486,1.043,570.668,289.744,1.048,-0.027,-0.960,1.401,0.000,-348.051,0.000,0.014,0.008,-0.027,-0.147,-1.111,1.607
0723_085331_0212.png,0.023,0.161,0.939,-0.042,0.162,0.942,0.134,-0.006,1.131,-0.155,-0.012,1.107,0.144,-0.262,1.073,-0.313,-0.175,1.238,0.109,-0.327,0.828,-0.317,-0.282,1.006,983.025,702.958,0.939,918.022,703.896,0.942,1072.863,534.697,1.131,826.682,529.984,1.107,1087.703,308.149,1.073,719.652,405.423,1.238,1085.614,164.556,0.828,660.156,273.684,1.006,-0.038,-0.971,1.403,0.000,-354.104,0.000,0.022,0.034,0.030,0.035,-0.887,1.396
0723_085331_0213.png,0.034,0.179,0.933,-0.034,0.177,0.928,0.150,-0.003,1.103,-0.156,0.003,1.131,0.187,-0.187,1.303,-0.140,-0.175,0.927,0.226,-0.260,1.055,-0.122,-0.348,0.728,994.289,722.621,0.933,925.030,721.286,0.928,1089.340,537.227,1.103,828.849,542.608,1.131,1096.460,403.710,1.303,816.130,360.435,0.927,1164.081,305.510,1.055,800.724,86.112,0.728,-0.023,-0.971,1.403,0.000,-4.094,0.000,-0.035,-0.013,0.013,0.144,-0.821,1.665
0723_085331_0214.png,0.041,0.157,0.925,-0.025,0.156,0.928,0.169,-0.017,1.092,-0.126,-0.006,1.141,0.257,-0.274,1.076,-0.297,-0.208,1.209,0.121,-0.321,0.859,-0.215,-0.289,0.976,1002.098,701.157,0.925,933.979,700.120,0.928,1107.388,525.221,1.092,854.949,535.307,1.141,1187.465,298.093,1.076,726.732,376.715,1.209,1093.552,185.126,0.859,750.395,258.589,0.976,-0.037,-0.961,1.401,0.000,-8.556,0.000,-0.009,-0.013,0.019,-0.239,-1.098,1.611
0723_085331_0215.png,0.039,0.169,0.940,-0.023,0.168,0.938,0.155,-0.016,1.098,-0.124,-0.005,1.142,0.291,-0.236,1.042,-0.267,-0.186,1.273,0.365,-0.342,0.817,-0.275,-0.287,1.032,999.933,710.946,0.940,936.421,709.903,0.938,1094.307,526.518,1.098,856.588,535.442,1.142,1225.593,324.812,1.042,760.676,401.181,1.273,1384.435,142.010,0.817,706.232,276.009,1.032,-0.032,-0.964,1.402,0.000,-7.996,0.000,0.047,0.007,0.009,-0.081,-0.803,1.396
0723_085331_0216.png,0.057,0.165,0.944,-0.008,0.160,0.934,0.168,-0.018,1.087,-0.125,-0.004,1.150,0.174,-0.279,1.037,-0.169,-0.216,0.995,-0.015,-0.317,0.861,-0.062,-0.335,0.787,1017.671,706.212,0.944,952.000,703.102,0.934,1106.633,524.022,1.087,856.705,536.865,1.150,1119.820,283.870,1.037,798.475,333.234,0.995,942.914,189.716,0.861,884.569,135.306,0.787,-0.030,-0.966,1.402,0.000,-11.286,0.000,-0.009,0.021,0.013,0.256,-0.931,1.220
0723_085331_0217.png,0.034,0.162,0.924,-0.033,0.161,0.927,0.163,-0.011,1.098,-0.134,-0.001,1.142,0.079,-0.187,0.901,-0.189,-0.218,0.986,-0.004,-0.358,0.710,-0.115,-0.348,0.767,994.708,706.462,0.924,926.483,705.590,0.927,1101.024,530.116,1.098,848.638,539.023,1.142,1043.034,342.651,0.901,777.527,330.146,0.986,955.146,60.370,0.710,817.678,109.006,0.767,-0.032,-0.961,1.401,0.000,-7.589,0.000,-0.010,-0.025,-0.005,-0.249,-1.134,1.578
0723_085331_0218.png,0.018,0.163,0.930,-0.048,0.164,0.935,0.143,-0.011,1.112,-0.153,-0.007,1.129,0.063,-0.184,0.918,-0.290,-0.241,1.113,-0.017,-0.353,0.729,-0.140,-0.312,0.909,978.548,706.656,0.930,911.556,707.024,0.935,1082.743,530.405,1.112,830.903,533.992,1.129,1024.807,348.954,0.918,712.132,334.155,1.113,937.873,79.671,0.729,813.880,213.743,0.909,-0.025,-0.962,1.401,0.000,-2.341,0.000,-0.002,-0.010,0.008,-0.237,-1.088,1.237
0723_085331_0219.png,0.002,0.155,0.941,-0.064,0.157,0.943,0.107,-0.004,1.156,-0.186,-0.015,1.104,0.070,-0.183,0.934,-0.302,-0.244,1.011,0.037,-0.357,0.718,-0.324,-0.348,0.760,961.752,696.425,0.941,895.256,698.501,0.943,1047.749,537.013,1.156,799.808,526.665,1.104,1031.533,354.207,0.934,675.645,310.081,1.011,1009.502,66.675,0.718,554.674,103.925,0.760,-0.024,-0.961,1.401,0.000,-348.579,0.000,-0.002,0.017,-0.039,0.164,-1.035,1.410
0723_085331_0220.png,0.040,0.165,0.941,-0.025,0.161,0.935,0.153,-0.010,1.103,-0.134,0.001,1.149,0.136,-0.253,0.976,-0.154,-0.185,0.940,-0.017,-0.353,0.779,-0.169,-0.363,0.733,1000.136,706.512,0.941,934.988,703.810,0.935,1092.324,531.510,1.103,849.377,540.634,1.149,1092.716,292.996,0.976,803.968,352.631,0.940,939.721,108.842,0.779,740.619,68.710,0.733,-0.025,-0.966,1.402,0.000,-8.199,0.000,0.020,0.009,-0.029,0.091,-1.115,1.178
0723_085331_0221.png,0.012,0.163,0.929,-0.052,0.164,0.932,0.129,0.001,1.128,-0.162,-0.001,1.120,0.244,-0.225,1.026,-0.183,-0.228,0.966,0.294,-0.348,0.794,-0.163,-0.363,0.735,972.735,706.616,0.929,907.034,707.778,0.932,1068.668,540.791,1.128,822.618,539.313,1.120,1185.738,331.758,1.026,780.223,315.966,0.966,1312.630,123.311,0.794,748.709,69.925,0.735,-0.025,-0.969,1.403,0.000,-357.289,0.000,0.020,-0.008,-0.018,-0.081,-1.098,1.669
0723_085331_0222.png,0.017,0.160,0.936,-0.051,0.162,0.938,0.131,-0.006,1.146,-0.175,-0.017,1.098,0.221,-0.209,1.301,-0.354,-0.226,1.105,0.208,-0.258,1.042,-0.411,-0.307,0.860,977.493,703.048,0.936,907.899,704.656,0.938,1068.720,535.390,1.146,808.176,525.670,1.098,1121.517,387.046,1.301,655.791,345.851,1.105,1150.177,304.406,1.042,505.407,200.773,0.860,-0.037,-0.962,1.401,0.000,-349.727,0.000,-0.045,0.006,0.001,0.128,-0.991,1.301
0723_085331_0223.png,0.027,0.163,0.936,-0.037,0.164,0.938,0.141,-0.003,1.133,-0.152,-0.006,1.117,0.117,-0.182,0.918,-0.312,-0.220,1.094,0.095,-0.358,0.709,-0.292,-0.328,0.850,987.820,705.688,0.936,922.003,706.532,0.938,1078.044,537.759,1.133,830.749,534.814,1.117,1081.075,351.083,0.918,688.404,348.442,1.094,1088.167,59.671,0.709,633.040,173.520,0.850,-0.039,-0.967,1.403,0.000,-355.833,0.000,0.014,0.009,-0.013,0.029,-0.962,1.576
0723_085331_0224.png,0.025,0.174,0.918,-0.042,0.173,0.920,0.150,0.002,1.098,-0.147,0.010,1.134,0.134,-0.184,0.897,-0.271,-0.235,1.106,0.117,-0.365,0.701,-0.146,-0.318,0.889,985.524,720.142,0.918,916.838,719.046,0.920,1089.795,541.606,1.098,836.349,548.492,1.134,1101.862,345.138,0.897,726.961,338.218,1.106,1119.163,45.031,0.701,804.040,199.555,0.889,-0.023,-0.972,1.403,0.000,-5.908,0.000,-0.009,-0.038,0.001,-0.160,-1.251,1.440
0723_085331_0225.png,0.015,0.167,0.930,-0.050,0.168,0.932,0.128,0.000,1.126,-0.162,-0.002,1.117,0.133,-0.240,1.001,-0.258,-0.227,1.001,-0.015,-0.344,0.811,-0.295,-0.351,0.772,975.231,710.630,0.930,909.419,711.314,0.932,1068.354,540.374,1.126,821.673,538.544,1.117,1086.096,311.734,1.001,714.875,324.625,1.001,942.722,136.954,0.811,596.311,107.082,0.772,-0.025,-0.970,1.403,0.000,-356.934,0.000,0.020,-0.005,-0.002,-0.001,-1.080,1.460
0723_085331_0226.png,0.018,0.157,0.936,-0.049,0.159,0.940,0.135,-0.010,1.135,-0.165,-0.018,1.102,0.278,-0.217,1.049,-0.308,-0.187,1.251,0.346,-0.317,0.824,-0.367,-0.270,1.016,978.250,699.235,0.936,910.770,700.734,0.940,1073.456,531.278,1.135,817.876,524.506,1.102,1211.919,343.389,1.049,726.263,398.166,1.251,1359.760,174.687,0.824,616.809,287.509,1.016,-0.038,-0.965,1.402,0.000,-352.423,0.000,-0.017,0.023,0.033,-0.025,-0.955,1.270
0723_085331_0227.png,0.032,0.170,0.925,-0.035,0.168,0.924,0.156,-0.011,1.091,-0.143,-0.001,1.136,0.229,-0.216,0.935,-0.177,-0.223,0.995,0.252,-0.351,0.718,-0.053,-0.334,0.796,992.947,714.445,0.925,924.041,713.115,0.924,1095.682,530.216,1.091,839.960,539.411,1.136,1192.397,320.390,0.935,790.924,327.125,0.995,1293.769,74.822,0.718,897.154,140.949,0.796,-0.024,-0.966,1.402,0.000,-7.752,0.000,-0.019,-0.021,0.029,-0.098,-0.972,1.601
0723_085331_0228.png,0.027,0.170,0.939,-0.039,0.170,0.941,0.146,0.000,1.128,-0.153,0.001,1.131,0.217,-0.259,1.167,-0.291,-0.234,1.136,0.240,-0.314,0.900,-0.168,-0.311,0.906,987.194,711.700,0.939,920.174,711.942,0.941,1083.137,540.328,1.128,831.477,540.938,1.131,1136.757,329.276,1.167,716.487,344.323,1.136,1213.163,208.205,0.900,783.914,213.314,0.906,-0.033,-0.969,1.403,0.000,-359.449,0.000,-0.007,0.004,-0.043,-0.041,-1.040,1.289
