rolosa10/RGSpipe/dataset/synthetic_dataset/Coods3D_unique0722_174603.csv
filename,left_eye,left_eye,left_eye,right_eye,right_eye,right_eye,left_shoulder,left_shoulder,left_shoulder,right_shoulder,right_shoulder,right_shoulder,left_elbow,left_elbow,left_elbow,right_elbow,right_elbow,right_elbow,left_wrist,left_wrist,left_wrist,right_wrist,right_wrist,right_wrist,left_eye_2D,left_eye_2D,left_eye_2D,right_eye_2D,right_eye_2D,right_eye_2D,left_shoulder_2D,left_shoulder_2D,left_shoulder_2D,right_shoulder_2D,right_shoulder_2D,right_shoulder_2D,left_elbow_2D,left_elbow_2D,left_elbow_2D,right_elbow_2D,right_elbow_2D,right_elbow_2D,left_wrist_2D,left_wrist_2D,left_wrist_2D,right_wrist_2D,right_wrist_2D,right_wrist_2D,root_position,root_position,root_position,root_pitch,root_yaw,root_roll,root_scale,root_scale,root_scale,look_at,look_at,look_at
0722_174603_0001.png,-0.001,0.191,0.929,-0.069,0.193,0.933,0.107,0.011,1.150,-0.190,-0.004,1.083,0.255,-0.220,1.199,-0.190,-0.282,1.084,0.351,-0.293,0.962,-0.135,-0.327,0.827,958.857,735.449,0.929,890.162,736.930,0.933,1048.825,549.311,1.150,793.010,536.407,1.083,1162.136,365.614,1.199,793.489,292.557,1.084,1307.273,250.206,0.962,805.323,164.215,0.827,-0.027,-0.970,1.403,0.000,-345.858,0.000,-0.029,-0.034,-0.008,0.120,-0.809,1.174
0722_174603_0002.png,0.017,0.180,0.931,-0.047,0.182,0.938,0.139,0.002,1.125,-0.153,0.000,1.118,0.127,-0.237,0.991,-0.282,-0.209,1.239,-0.015,-0.348,0.799,-0.353,-0.293,0.998,977.632,723.449,0.931,912.259,724.607,0.938,1077.305,541.322,1.125,829.642,540.001,1.118,1082.328,312.980,0.991,743.527,379.708,1.239,942.530,125.341,0.799,623.005,260.578,0.998,-0.034,-0.969,1.403,0.000,-357.458,0.000,0.016,-0.018,-0.009,-0.235,-0.956,1.138
0722_174603_0003.png,0.042,0.185,0.946,-0.022,0.183,0.943,0.162,-0.005,1.091,-0.119,0.010,1.157,0.262,-0.254,1.080,-0.104,-0.177,0.941,0.163,-0.339,0.840,-0.093,-0.362,0.731,1002.695,725.682,0.946,938.091,724.335,0.943,1101.166,535.838,1.091,862.412,548.518,1.157,1190.673,316.055,1.080,855.076,360.891,0.941,1144.979,156.487,0.840,838.531,69.625,0.731,-0.026,-0.973,1.404,0.000,-12.367,0.000,0.028,0.010,-0.038,-0.167,-0.680,1.440
0722_174603_0004.png,0.031,0.189,0.931,-0.033,0.186,0.925,0.137,0.004,1.113,-0.151,0.007,1.125,0.089,-0.178,0.906,-0.228,-0.173,0.925,0.045,-0.358,0.706,-0.304,-0.350,0.732,991.203,732.665,0.931,926.000,731.484,0.925,1077.011,543.821,1.113,832.067,546.079,1.125,1053.531,352.878,0.906,726.120,362.028,0.925,1020.221,57.514,0.706,565.508,85.583,0.732,-0.025,-0.971,1.403,0.000,-1.237,0.000,0.028,-0.038,-0.008,0.250,-0.898,1.470
0722_174603_0005.png,0.006,0.155,0.940,-0.061,0.159,0.949,0.127,-0.006,1.147,-0.172,-0.014,1.114,0.188,-0.181,0.928,-0.351,-0.216,1.084,0.249,-0.350,0.715,-0.451,-0.317,0.853,965.728,696.697,0.940,899.279,699.406,0.949,1065.662,534.755,1.147,812.909,528.109,1.114,1153.095,354.695,0.928,652.016,350.075,1.084,1291.464,73.858,0.715,457.215,187.037,0.853,-0.032,-0.961,1.401,0.000,-352.368,0.000,-0.016,0.019,-0.032,-0.172,-0.956,1.527
0722_174603_0006.png,0.003,0.166,0.943,-0.061,0.169,0.952,0.119,-0.001,1.146,-0.170,-0.009,1.113,0.265,-0.211,1.053,-0.147,-0.250,0.982,0.335,-0.337,0.821,-0.088,-0.361,0.740,963.058,706.935,0.943,899.159,709.120,0.952,1058.390,539.195,1.146,814.949,532.718,1.113,1199.184,348.994,1.053,817.333,297.901,0.982,1347.321,150.004,0.821,847.436,76.420,0.740,-0.029,-0.967,1.402,0.000,-352.158,0.000,0.022,0.022,-0.035,-0.163,-0.930,1.156
0722_174603_0007.png,0.025,0.174,0.938,-0.043,0.175,0.942,0.151,-0.009,1.120,-0.156,-0.009,1.122,0.279,-0.234,1.036,-0.332,-0.203,1.207,0.324,-0.326,0.795,-0.287,-0.286,0.962,985.148,716.506,0.938,916.418,717.017,0.942,1088.158,532.253,1.120,827.338,532.566,1.122,1215.848,325.341,1.036,698.559,379.852,1.207,1347.753,149.918,0.795,676.214,257.279,0.962,-0.034,-0.963,1.401,0.000,-359.125,0.000,-0.036,-0.005,0.008,-0.143,-0.709,1.509
0722_174603_0008.png,0.001,0.178,0.930,-0.063,0.183,0.942,0.116,0.005,1.150,-0.172,-0.009,1.089,0.110,-0.172,0.933,-0.275,-0.253,1.024,0.106,-0.345,0.722,-0.171,-0.344,0.797,960.991,722.182,0.930,896.243,724.934,0.942,1055.704,544.469,1.150,809.764,532.410,1.089,1072.201,365.093,0.933,704.519,305.428,1.024,1099.049,86.024,0.722,756.480,129.881,0.797,-0.039,-0.967,1.403,0.000,-346.493,0.000,0.008,-0.014,-0.009,-0.201,-0.871,1.190
0722_174603_0009.png,0.014,0.180,0.929,-0.052,0.182,0.935,0.132,-0.003,1.132,-0.165,-0.008,1.109,0.228,-0.224,1.273,-0.113,-0.187,0.907,0.395,-0.274,1.073,-0.061,-0.362,0.711,974.420,724.068,0.929,907.401,725.135,0.935,1070.927,537.671,1.132,818.527,533.246,1.109,1130.553,372.653,1.273,841.987,343.928,0.907,1309.838,297.460,1.073,877.961,55.615,0.711,-0.032,-0.960,1.401,0.000,-354.439,0.000,-0.003,-0.038,-0.003,-0.091,-0.905,1.136
0722_174603_0010.png,0.045,0.175,0.942,-0.023,0.173,0.938,0.164,-0.011,1.094,-0.141,0.000,1.139,0.255,-0.242,0.997,-0.320,-0.193,1.076,0.266,-0.331,0.755,-0.410,-0.304,0.862,1004.992,716.861,0.942,936.250,715.738,0.938,1102.249,530.785,1.094,842.158,539.738,1.139,1202.877,308.872,0.997,677.641,369.404,1.076,1295.127,122.978,0.755,506.976,204.791,0.862,-0.029,-0.972,1.404,0.000,-7.398,0.000,-0.038,0.018,0.024,0.061,-0.721,1.431
0722_174603_0011.png,0.010,0.168,0.933,-0.056,0.172,0.941,0.136,0.002,1.129,-0.163,0.000,1.117,0.241,-0.245,1.151,-0.190,-0.186,0.916,0.112,-0.301,0.926,-0.194,-0.358,0.710,969.987,711.750,0.933,903.721,713.676,0.941,1074.234,541.945,1.129,821.609,539.661,1.117,1158.984,337.932,1.151,762.395,347.112,0.916,1075.407,230.599,0.926,699.925,60.519,0.710,-0.030,-0.973,1.404,0.000,-356.505,0.000,-0.005,0.010,-0.009,-0.256,-0.927,1.610
0722_174603_0012.png,0.014,0.175,0.919,-0.053,0.177,0.920,0.120,0.013,1.144,-0.177,0.000,1.088,0.236,-0.230,1.084,-0.251,-0.269,1.108,0.138,-0.326,0.856,-0.251,-0.328,0.849,974.938,720.943,0.919,905.671,723.458,0.920,1059.751,550.465,1.144,805.182,539.659,1.088,1167.012,337.897,1.084,744.325,308.889,1.108,1113.265,177.869,0.856,679.272,172.687,0.849,-0.035,-0.971,1.403,0.000,-347.788,0.000,-0.020,-0.041,-0.004,0.177,-1.197,1.452
0722_174603_0013.png,0.002,0.168,0.946,-0.063,0.170,0.950,0.111,-0.002,1.151,-0.179,-0.012,1.105,0.084,-0.225,0.991,-0.223,-0.251,0.979,0.028,-0.351,0.759,-0.102,-0.352,0.760,962.256,708.889,0.946,897.130,710.389,0.950,1051.567,538.346,1.151,805.810,529.309,1.105,1041.000,323.901,0.991,743.515,295.992,0.979,995.558,100.066,0.759,832.670,99.410,0.760,-0.026,-0.965,1.402,0.000,-349.711,0.000,0.011,0.020,-0.028,0.062,-0.797,1.307
0722_174603_0014.png,0.011,0.169,0.927,-0.053,0.172,0.932,0.125,0.000,1.134,-0.165,-0.006,1.109,0.230,-0.233,1.236,-0.309,-0.228,1.048,0.332,-0.296,1.000,-0.377,-0.340,0.818,971.601,713.300,0.927,905.837,715.009,0.932,1065.043,539.890,1.134,818.422,534.980,1.109,1136.924,361.081,1.236,679.796,333.085,1.048,1275.999,258.524,1.000,521.718,144.833,0.818,-0.030,-0.965,1.402,0.000,-353.798,0.000,0.018,-0.022,-0.006,-0.068,-1.113,1.239
0722_174603_0015.png,0.039,0.157,0.952,-0.026,0.154,0.947,0.154,-0.023,1.100,-0.135,-0.011,1.151,0.069,-0.192,0.901,-0.308,-0.187,1.043,-0.014,-0.357,0.708,-0.434,-0.319,0.851,998.768,696.501,0.952,933.768,694.752,0.947,1093.225,520.493,1.100,848.533,531.127,1.151,1032.392,337.358,0.901,679.476,369.094,1.043,941.719,60.010,0.708,474.995,183.200,0.851,-0.022,-0.962,1.401,0.000,-9.177,0.000,0.011,0.043,-0.004,0.020,-0.757,1.514
0722_174603_0016.png,0.000,0.174,0.929,-0.067,0.178,0.935,0.115,0.010,1.147,-0.186,-0.002,1.095,0.091,-0.206,0.978,-0.264,-0.259,1.043,-0.019,-0.340,0.772,-0.108,-0.325,0.836,959.963,718.211,0.929,891.453,720.811,0.935,1055.287,548.460,1.147,798.445,538.546,1.095,1048.054,340.090,0.978,718.964,303.890,1.043,936.383,121.028,0.772,837.371,170.133,0.836,-0.026,-0.974,1.404,0.000,-348.835,0.000,-0.030,-0.007,-0.016,-0.015,-1.112,1.117
0722_174603_0017.png,0.004,0.175,0.927,-0.062,0.180,0.937,0.129,0.009,1.135,-0.171,0.002,1.106,0.147,-0.223,0.993,-0.283,-0.247,1.102,0.121,-0.344,0.758,-0.142,-0.312,0.886,964.462,719.737,0.927,897.436,722.326,0.937,1068.170,547.717,1.135,812.919,542.095,1.106,1100.571,326.445,0.993,716.253,327.218,1.102,1112.444,108.234,0.758,807.353,204.709,0.886,-0.031,-0.976,1.404,0.000,-353.070,0.000,-0.016,-0.007,-0.009,-0.242,-0.964,1.551
0722_174603_0018.png,0.017,0.174,0.931,-0.048,0.175,0.933,0.132,0.002,1.123,-0.164,-0.002,1.108,0.273,-0.214,1.054,-0.262,-0.180,0.935,0.353,-0.322,0.836,-0.324,-0.347,0.747,977.724,717.777,0.931,910.738,718.360,0.933,1071.356,541.546,1.123,818.882,538.609,1.108,1206.195,347.357,1.054,693.904,356.944,0.935,1361.507,173.571,0.836,547.210,98.199,0.747,-0.028,-0.975,1.404,0.000,-355.851,0.000,0.002,0.004,0.027,0.037,-1.014,1.129
0722_174603_0019.png,0.013,0.157,0.937,-0.053,0.159,0.941,0.126,-0.011,1.141,-0.169,-0.020,1.101,0.157,-0.211,0.966,-0.289,-0.231,1.215,0.142,-0.347,0.745,-0.310,-0.288,0.963,973.184,699.607,0.937,906.754,701.137,0.941,1064.836,530.583,1.141,814.212,522.468,1.101,1114.678,332.598,0.966,733.724,359.551,1.215,1141.263,96.861,0.745,654.133,255.311,0.963,-0.034,-0.960,1.401,0.000,-351.053,0.000,-0.001,0.013,0.018,0.024,-0.823,1.630
0722_174603_0020.png,0.031,0.156,0.928,-0.035,0.156,0.928,0.151,-0.012,1.105,-0.148,-0.007,1.124,0.227,-0.221,1.254,-0.196,-0.227,0.992,0.352,-0.268,1.035,-0.080,-0.332,0.790,991.821,700.265,0.928,923.809,699.646,0.928,1089.854,529.947,1.105,834.877,533.985,1.124,1131.989,372.240,1.254,772.506,322.435,0.992,1282.988,293.545,1.035,863.303,140.784,0.790,-0.031,-0.968,1.403,0.000,-2.731,0.000,-0.008,0.007,0.044,-0.029,-1.119,1.495
0722_174603_0021.png,0.015,0.180,0.926,-0.050,0.181,0.932,0.138,0.003,1.115,-0.154,0.006,1.126,0.231,-0.250,1.172,-0.303,-0.223,1.131,0.245,-0.318,0.915,-0.224,-0.324,0.899,975.027,724.624,0.926,909.184,725.164,0.932,1077.437,542.735,1.115,830.151,544.988,1.126,1147.561,337.311,1.172,705.341,352.576,1.131,1214.905,209.686,0.915,723.160,197.463,0.899,-0.024,-0.971,1.403,0.000,-1.197,0.000,0.018,-0.026,-0.010,-0.227,-0.990,1.418
0722_174603_0022.png,0.037,0.183,0.936,-0.029,0.183,0.937,0.159,0.000,1.113,-0.141,0.005,1.133,0.291,-0.240,1.098,-0.179,-0.241,1.015,0.300,-0.326,0.844,-0.153,-0.347,0.770,997.835,726.372,0.936,930.233,726.091,0.937,1095.665,540.300,1.113,841.731,544.151,1.133,1211.875,332.549,1.098,792.606,314.361,1.015,1297.350,173.334,0.844,770.897,110.931,0.770,-0.037,-0.970,1.403,0.000,-2.742,0.000,-0.011,-0.014,-0.018,-0.066,-0.827,1.382
0722_174603_0023.png,0.062,0.154,0.942,-0.005,0.150,0.936,0.179,-0.028,1.079,-0.115,-0.010,1.157,0.130,-0.278,1.012,-0.310,-0.195,1.185,-0.014,-0.323,0.800,-0.255,-0.286,0.946,1022.166,695.478,0.942,954.627,692.632,0.936,1118.004,515.750,1.079,865.118,532.101,1.157,1081.960,278.594,1.012,711.028,383.819,1.185,943.402,155.741,0.800,703.778,252.654,0.946,-0.035,-0.961,1.401,0.000,-14.008,0.000,-0.028,0.030,0.017,0.030,-0.816,1.680
0722_174603_0024.png,0.032,0.171,0.943,-0.035,0.171,0.941,0.146,-0.002,1.125,-0.157,-0.004,1.117,0.160,-0.253,1.038,-0.259,-0.188,1.278,-0.019,-0.313,0.853,-0.304,-0.261,1.032,992.116,712.522,0.943,924.198,712.424,0.941,1083.558,538.020,1.125,825.914,536.480,1.117,1106.859,308.533,1.038,767.212,399.980,1.278,939.223,190.914,0.853,680.056,299.535,1.032,-0.036,-0.974,1.404,0.000,-357.317,0.000,-0.023,0.028,0.013,0.157,-0.868,1.186
0722_174603_0025.png,0.026,0.169,0.945,-0.038,0.170,0.947,0.139,-0.006,1.126,-0.149,-0.009,1.116,0.202,-0.208,1.281,-0.102,-0.185,0.918,0.256,-0.274,1.037,-0.057,-0.357,0.726,986.076,710.478,0.945,921.977,710.912,0.947,1077.018,534.638,1.126,833.016,532.600,1.116,1109.637,385.493,1.281,854.226,348.675,0.918,1195.189,288.746,1.037,884.810,72.824,0.726,-0.038,-0.971,1.403,0.000,-356.752,0.000,0.031,0.032,0.017,-0.001,-0.747,1.287
0722_174603_0026.png,0.003,0.161,0.935,-0.065,0.165,0.941,0.119,-0.001,1.153,-0.183,-0.014,1.093,0.155,-0.217,0.992,-0.173,-0.269,1.001,0.148,-0.338,0.755,-0.057,-0.333,0.771,962.873,703.997,0.935,894.385,706.792,0.941,1058.148,539.441,1.153,800.378,527.453,1.093,1108.651,331.732,0.992,795.325,284.894,1.001,1147.061,114.362,0.755,889.783,129.199,0.771,-0.033,-0.966,1.402,0.000,-347.361,0.000,-0.039,0.012,-0.007,-0.015,-0.966,1.389
0722_174603_0027.png,-0.012,0.182,0.931,-0.074,0.188,0.946,0.103,0.006,1.148,-0.178,-0.006,1.096,0.229,-0.237,1.153,-0.265,-0.257,1.165,0.129,-0.322,0.925,-0.279,-0.328,0.907,947.287,725.988,0.931,885.217,728.605,0.946,1045.344,544.572,1.148,805.896,534.385,1.096,1148.723,344.681,1.153,743.586,329.852,1.165,1092.284,208.702,0.925,667.731,196.193,0.907,-0.027,-0.966,1.402,0.000,-348.027,0.000,0.038,-0.022,-0.020,-0.317,-0.767,1.404
0722_174603_0028.png,0.042,0.167,0.942,-0.021,0.163,0.933,0.148,-0.013,1.102,-0.134,-0.005,1.137,0.188,-0.212,0.927,-0.241,-0.239,1.209,0.172,-0.367,0.718,-0.231,-0.304,0.957,1002.191,708.500,0.942,939.034,706.262,0.933,1087.397,528.387,1.102,847.810,535.483,1.137,1153.089,322.496,0.927,770.491,352.145,1.209,1187.283,53.692,0.718,730.698,237.680,0.957,-0.028,-0.966,1.402,0.000,-6.103,0.000,0.043,0.010,0.013,0.264,-0.950,1.246
0722_174603_0029.png,0.021,0.175,0.943,-0.043,0.175,0.942,0.131,-0.003,1.128,-0.157,-0.003,1.124,0.189,-0.181,0.916,-0.137,-0.185,0.908,0.248,-0.355,0.711,-0.122,-0.363,0.698,981.418,716.783,0.943,917.064,716.722,0.942,1070.482,537.860,1.128,827.546,537.189,1.124,1155.719,352.541,0.916,815.994,346.292,0.908,1291.450,65.792,0.711,793.395,45.158,0.698,-0.027,-0.967,1.402,0.000,-358.128,0.000,0.031,0.003,-0.020,0.096,-0.857,1.236
0722_174603_0030.png,0.047,0.169,0.929,-0.016,0.166,0.927,0.166,-0.013,1.074,-0.114,0.003,1.146,0.235,-0.210,1.242,-0.095,-0.173,0.946,0.397,-0.274,1.055,-0.076,-0.344,0.751,1008.563,713.126,0.929,943.083,710.848,0.927,1106.583,528.116,1.074,865.120,542.609,1.146,1139.877,379.140,1.242,864.062,366.285,0.946,1317.673,292.614,1.055,863.840,104.403,0.751,-0.031,-0.973,1.404,0.000,-13.632,0.000,0.025,0.008,0.040,-0.111,-0.924,1.514
0722_174603_0031.png,0.044,0.162,0.945,-0.019,0.159,0.938,0.153,-0.019,1.108,-0.132,-0.011,1.141,0.203,-0.223,1.275,-0.294,-0.194,1.027,0.241,-0.286,1.021,-0.407,-0.334,0.834,1004.387,703.136,0.945,940.492,701.277,0.938,1091.625,523.851,1.108,850.012,530.710,1.141,1111.711,373.789,1.275,687.945,360.588,1.027,1183.947,273.868,1.021,495.820,158.750,0.834,-0.032,-0.958,1.400,0.000,-5.669,0.000,0.032,0.008,-0.006,0.183,-0.880,1.371
0722_174603_0032.png,0.046,0.182,0.937,-0.020,0.180,0.935,0.167,-0.008,1.095,-0.127,0.003,1.143,0.243,-0.266,1.137,-0.165,-0.225,1.001,0.246,-0.316,0.878,-0.083,-0.346,0.781,1006.959,724.418,0.937,939.990,723.399,0.935,1104.862,533.411,1.095,854.448,542.890,1.143,1163.186,317.574,1.137,803.503,326.343,1.001,1226.164,197.148,0.878,858.991,118.872,0.781,-0.035,-0.968,1.403,0.000,-8.373,0.000,-0.003,-0.009,-0.002,-0.075,-0.809,1.229
0722_174603_0033.png,0.050,0.145,0.942,-0.017,0.140,0.936,0.168,-0.023,1.089,-0.127,-0.007,1.157,0.283,-0.225,1.207,-0.155,-0.230,1.010,0.390,-0.276,0.971,-0.051,-0.330,0.787,1010.250,686.402,0.942,942.862,682.628,0.936,1106.727,520.006,1.089,855.655,534.071,1.157,1182.662,362.613,1.207,814.404,323.466,1.010,1342.464,269.530,0.971,898.316,141.077,0.787,-0.026,-0.965,1.402,0.000,-12.182,0.000,-0.021,0.044,0.000,0.031,-1.124,1.457
0722_174603_0034.png,0.042,0.161,0.947,-0.026,0.160,0.945,0.160,-0.017,1.113,-0.144,-0.014,1.130,0.146,-0.277,1.143,-0.329,-0.186,1.219,0.103,-0.296,0.890,-0.264,-0.275,0.986,1002.087,701.455,0.947,934.272,700.972,0.945,1097.045,525.125,1.113,839.065,528.559,1.130,1081.782,309.276,1.143,703.176,394.780,1.219,1070.318,224.226,0.890,704.886,274.236,0.986,-0.039,-0.964,1.402,0.000,-2.039,0.000,-0.026,0.034,0.024,0.059,-0.809,1.209
0722_174603_0035.png,0.008,0.155,0.940,-0.057,0.157,0.942,0.107,-0.004,1.155,-0.178,-0.017,1.096,0.084,-0.179,0.936,-0.244,-0.172,1.303,0.065,-0.351,0.723,-0.312,-0.267,1.064,967.751,696.756,0.940,902.551,698.809,0.942,1047.850,537.049,1.155,805.712,525.222,1.096,1045.767,357.832,0.936,782.153,414.619,1.303,1045.914,77.675,0.723,681.333,300.991,1.064,-0.031,-0.964,1.402,0.000,-346.910,0.000,0.020,0.023,-0.019,0.231,-1.000,1.425
0722_174603_0036.png,0.046,0.158,0.937,-0.019,0.154,0.929,0.155,-0.012,1.103,-0.138,-0.005,1.132,0.097,-0.185,0.905,-0.306,-0.186,1.033,0.038,-0.353,0.713,-0.430,-0.317,0.849,1006.703,700.251,0.937,940.798,697.727,0.929,1093.888,529.908,1.103,844.057,535.862,1.132,1061.388,345.941,0.905,678.514,369.076,1.033,1010.574,69.305,0.713,478.561,184.554,0.849,-0.033,-0.970,1.403,0.000,-4.718,0.000,0.007,0.021,0.028,0.255,-1.109,1.398
0722_174603_0037.png,0.025,0.138,0.938,-0.039,0.138,0.940,0.147,-0.021,1.114,-0.144,-0.015,1.140,0.169,-0.273,1.188,-0.218,-0.220,0.979,0.140,-0.301,0.928,-0.244,-0.351,0.750,985.699,679.912,0.938,920.056,679.434,0.940,1085.511,521.802,1.114,839.643,527.264,1.140,1095.102,321.781,1.188,748.502,325.969,0.979,1103.735,231.376,0.928,650.910,94.743,0.750,-0.026,-0.958,1.400,0.000,-4.123,0.000,0.015,0.030,-0.004,-0.144,-1.167,1.592
0722_174603_0038.png,0.056,0.194,0.932,-0.010,0.190,0.922,0.168,-0.006,1.074,-0.123,0.011,1.147,0.253,-0.242,0.968,-0.133,-0.197,0.977,0.276,-0.353,0.734,-0.062,-0.345,0.773,1016.993,737.651,0.932,950.179,735.726,0.922,1109.094,534.465,1.074,858.304,548.724,1.147,1208.855,302.421,0.968,830.627,348.106,0.977,1317.799,83.180,0.734,883.723,115.054,0.773,-0.028,-0.971,1.403,0.000,-13.258,0.000,-0.012,-0.035,0.017,0.181,-0.736,1.433
0722_174603_0039.png,0.036,0.174,0.941,-0.030,0.173,0.941,0.160,-0.016,1.097,-0.135,-0.003,1.151,0.246,-0.270,1.149,-0.276,-0.235,1.187,0.082,-0.303,0.939,-0.329,-0.304,0.932,996.701,715.414,0.941,929.498,714.429,0.941,1098.872,526.275,1.097,848.782,537.118,1.151,1163.269,316.597,1.149,739.182,351.625,1.187,1043.476,232.937,0.939,624.307,229.661,0.932,-0.025,-0.959,1.400,0.000,-9.421,0.000,-0.010,-0.008,-0.022,-0.174,-0.814,1.205
0722_174603_0040.png,-0.004,0.164,0.929,-0.067,0.168,0.938,0.104,-0.005,1.146,-0.177,-0.020,1.081,0.045,-0.176,0.948,-0.221,-0.284,1.106,-0.015,-0.342,0.755,-0.194,-0.326,0.856,955.974,707.733,0.929,891.791,710.311,0.938,1046.446,535.673,1.146,803.955,522.183,1.081,1004.657,363.511,0.948,770.169,295.921,1.106,941.653,109.056,0.755,744.213,178.363,0.856,-0.031,-0.964,1.402,0.000,-345.420,0.000,0.025,0.001,0.037,-0.070,-0.830,1.522
0722_174603_0041.png,0.049,0.176,0.919,-0.016,0.174,0.920,0.174,-0.009,1.071,-0.107,0.008,1.145,0.232,-0.215,1.247,-0.188,-0.225,1.044,0.397,-0.281,1.061,-0.058,-0.335,0.851,1010.329,721.592,0.919,943.650,719.524,0.920,1114.104,531.939,1.071,870.809,546.614,1.145,1136.845,376.028,1.247,789.078,334.795,1.044,1316.059,288.050,1.061,895.320,166.128,0.851,-0.037,-0.971,1.403,0.000,-13.983,0.000,0.019,-0.026,0.030,-0.272,-1.057,1.424
0722_174603_0042.png,-0.008,0.159,0.931,-0.072,0.163,0.940,0.102,-0.006,1.149,-0.182,-0.021,1.086,0.079,-0.205,0.973,-0.277,-0.214,0.930,-0.014,-0.346,0.777,-0.314,-0.360,0.718,951.814,702.120,0.931,887.540,705.268,0.940,1044.692,534.773,1.149,801.063,521.908,1.086,1037.515,339.721,0.973,676.974,320.935,0.930,942.727,115.847,0.777,543.679,63.844,0.718,-0.027,-0.962,1.401,0.000,-346.109,0.000,0.020,0.006,0.020,-0.119,-0.977,1.267
0722_174603_0043.png,-0.003,0.173,0.934,-0.065,0.178,0.946,0.107,-0.001,1.150,-0.172,-0.015,1.089,0.246,-0.170,0.987,-0.126,-0.201,0.895,0.382,-0.335,0.829,-0.060,-0.372,0.702,957.204,716.331,0.934,894.431,718.777,0.946,1048.672,539.377,1.150,809.938,527.102,1.089,1196.737,376.448,0.987,825.601,326.486,0.895,1398.273,156.164,0.829,878.265,36.229,0.702,-0.035,-0.964,1.402,0.000,-346.190,0.000,0.036,-0.004,-0.001,-0.182,-0.818,1.152
0722_174603_0044.png,-0.001,0.160,0.936,-0.065,0.166,0.948,0.117,0.004,1.154,-0.173,-0.007,1.106,0.080,-0.174,0.930,-0.265,-0.259,1.072,0.047,-0.349,0.712,-0.095,-0.326,0.873,959.009,702.110,0.936,894.684,706.260,0.948,1056.619,543.096,1.154,811.437,533.788,1.106,1041.640,361.720,0.930,724.700,310.412,1.072,1022.819,73.954,0.712,856.790,184.815,0.873,-0.034,-0.969,1.403,0.000,-349.232,0.000,0.010,0.019,-0.044,-0.242,-1.031,1.467
0722_174603_0045.png,0.002,0.158,0.931,-0.062,0.164,0.941,0.119,0.000,1.148,-0.171,-0.011,1.103,0.255,-0.228,1.082,-0.163,-0.259,0.985,0.313,-0.332,0.840,-0.056,-0.356,0.758,962.314,701.917,0.931,897.204,705.645,0.941,1058.437,539.761,1.148,812.178,530.859,1.103,1183.787,339.586,1.082,802.543,290.094,0.985,1314.046,164.009,0.840,890.314,93.390,0.758,-0.034,-0.964,1.402,0.000,-349.813,0.000,0.010,-0.001,-0.025,-0.187,-1.081,1.478
0722_174603_0046.png,0.019,0.180,0.928,-0.048,0.181,0.927,0.132,0.000,1.124,-0.170,-0.005,1.101,0.222,-0.247,1.071,-0.255,-0.214,0.962,0.074,-0.316,0.868,-0.261,-0.344,0.743,979.356,724.929,0.928,910.543,725.333,0.927,1071.411,540.407,1.124,813.052,535.860,1.101,1157.435,320.350,1.071,707.647,328.004,0.962,1041.046,194.280,0.868,626.041,99.560,0.743,-0.028,-0.970,1.403,0.000,-354.366,0.000,-0.020,-0.023,0.036,0.141,-0.939,1.159
0722_174603_0047.png,0.036,0.173,0.931,-0.030,0.171,0.926,0.147,-0.003,1.110,-0.150,0.000,1.123,0.065,-0.178,0.921,-0.237,-0.199,0.966,-0.017,-0.349,0.737,-0.258,-0.348,0.754,996.487,717.139,0.931,929.195,715.937,0.926,1085.764,537.604,1.110,832.651,540.100,1.123,1026.748,355.945,0.921,726.326,344.492,0.966,938.365,89.933,0.737,635.125,100.998,0.754,-0.030,-0.970,1.403,0.000,-1.334,0.000,-0.002,-0.013,0.018,0.196,-0.949,1.605
0722_174603_0048.png,0.042,0.176,0.947,-0.022,0.175,0.947,0.162,-0.007,1.100,-0.122,0.004,1.148,0.123,-0.239,0.961,-0.273,-0.189,1.246,-0.017,-0.355,0.766,-0.453,-0.271,1.070,1002.389,716.710,0.947,938.031,715.894,0.947,1100.289,533.610,1.100,858.870,543.053,1.148,1081.551,303.596,0.961,751.297,395.828,1.246,938.975,99.592,0.766,557.130,299.275,1.070,-0.034,-0.973,1.404,0.000,-8.695,0.000,0.028,0.026,-0.019,-0.172,-0.725,1.374
0722_174603_0049.png,0.002,0.174,0.927,-0.065,0.179,0.939,0.126,0.004,1.148,-0.176,-0.008,1.098,0.053,-0.176,0.946,-0.235,-0.272,1.160,-0.018,-0.350,0.748,-0.213,-0.312,0.894,961.885,718.278,0.927,894.596,721.449,0.939,1064.040,543.038,1.148,807.948,533.316,1.098,1013.336,363.353,0.946,767.428,316.976,1.160,937.225,94.945,0.748,733.128,208.348,0.894,-0.036,-0.963,1.402,0.000,-349.248,0.000,-0.029,-0.028,-0.025,-0.232,-0.883,1.600
0722_174603_0050.png,0.019,0.151,0.933,-0.049,0.151,0.933,0.133,-0.007,1.138,-0.172,-0.011,1.119,0.295,-0.225,1.083,-0.166,-0.198,0.911,0.379,-0.319,0.843,-0.114,-0.362,0.698,978.967,693.561,0.933,909.731,694.265,0.933,1071.575,534.400,1.138,813.562,530.773,1.119,1218.809,342.826,1.083,786.374,332.884,0.911,1387.341,180.251,0.843,804.184,46.832,0.698,-0.027,-0.959,1.400,0.000,-355.351,0.000,-0.032,-0.005,-0.030,0.111,-1.269,1.441
0722_174603_0051.png,0.005,0.153,0.940,-0.062,0.156,0.944,0.119,-0.005,1.147,-0.180,-0.016,1.100,0.286,-0.214,1.137,-0.287,-0.239,0.999,0.383,-0.297,0.907,-0.259,-0.338,0.757,965.189,694.453,0.940,898.033,696.689,0.944,1058.276,535.828,1.147,804.858,526.381,1.100,1198.925,360.959,1.137,686.828,312.074,0.999,1361.187,228.844,0.907,634.808,115.378,0.757,-0.029,-0.968,1.403,0.000,-349.701,0.000,-0.017,0.038,0.002,0.029,-1.041,1.278
0722_174603_0052.png,0.005,0.172,0.932,-0.059,0.177,0.942,0.116,0.003,1.154,-0.170,-0.009,1.099,0.125,-0.178,0.929,-0.312,-0.222,1.196,0.138,-0.356,0.712,-0.385,-0.309,0.950,964.645,715.223,0.932,900.023,718.431,0.942,1055.404,542.666,1.154,812.901,531.892,1.099,1088.072,357.871,0.929,712.234,363.265,1.196,1144.447,64.391,0.712,574.512,230.863,0.950,-0.038,-0.962,1.401,0.000,-347.687,0.000,0.019,-0.020,-0.041,-0.135,-1.001,1.196
0722_174603_0053.png,0.053,0.171,0.934,-0.010,0.166,0.924,0.165,-0.013,1.079,-0.111,0.005,1.156,0.116,-0.246,0.943,-0.269,-0.199,1.233,-0.003,-0.370,0.739,-0.354,-0.297,0.999,1013.902,714.637,0.934,949.559,710.430,0.924,1105.312,528.508,1.079,869.040,543.778,1.156,1076.729,292.286,0.943,752.308,386.384,1.233,956.008,64.040,0.739,623.434,257.136,0.999,-0.027,-0.965,1.402,0.000,-14.779,0.000,0.035,-0.015,-0.013,0.096,-1.131,1.153
0722_174603_0054.png,-0.002,0.174,0.924,-0.069,0.178,0.932,0.109,0.005,1.150,-0.185,-0.011,1.080,0.255,-0.208,1.067,-0.268,-0.212,1.250,0.297,-0.322,0.837,-0.307,-0.282,1.000,957.566,719.161,0.924,889.947,721.986,0.932,1050.354,544.390,1.150,797.262,530.525,1.080,1186.981,355.015,1.067,756.181,378.859,1.250,1297.358,174.274,0.837,668.207,272.146,1.000,-0.031,-0.967,1.402,0.000,-345.119,0.000,-0.019,-0.022,0.012,-0.021,-0.847,1.675
0722_174603_0055.png,0.029,0.166,0.932,-0.038,0.166,0.932,0.148,-0.009,1.116,-0.156,-0.008,1.119,0.239,-0.258,1.177,-0.183,-0.246,1.002,0.242,-0.295,0.921,-0.086,-0.335,0.779,989.522,709.760,0.932,920.734,709.737,0.932,1086.119,532.323,1.116,827.338,532.922,1.119,1153.509,331.679,1.177,785.892,306.757,1.002,1209.891,235.689,0.921,855.388,130.852,0.779,-0.032,-0.965,1.402,0.000,-359.401,0.000,-0.025,-0.005,0.024,0.022,-1.024,1.203
0722_174603_0056.png,0.043,0.155,0.938,-0.020,0.153,0.939,0.161,-0.015,1.106,-0.120,-0.006,1.143,0.169,-0.195,0.895,-0.278,-0.200,1.225,0.179,-0.370,0.690,-0.358,-0.294,0.990,1003.880,696.644,0.938,940.003,695.465,0.939,1098.798,527.147,1.106,860.035,534.747,1.143,1139.369,333.103,0.895,744.115,384.732,1.225,1207.181,29.358,0.690,615.830,257.760,0.990,-0.040,-0.964,1.402,0.000,-6.620,0.000,0.043,0.021,-0.007,-0.123,-1.091,1.334
0722_174603_0057.png,0.035,0.151,0.934,-0.032,0.152,0.937,0.161,-0.013,1.114,-0.141,-0.008,1.136,0.270,-0.237,1.213,-0.269,-0.241,1.088,0.355,-0.286,0.966,-0.128,-0.312,0.873,995.596,693.849,0.934,927.530,693.820,0.937,1097.286,529.305,1.114,842.173,533.678,1.136,1171.652,354.398,1.213,724.444,329.423,1.088,1309.047,258.578,0.966,820.128,200.203,0.873,-0.038,-0.963,1.402,0.000,-3.044,0.000,-0.018,0.014,-0.008,-0.146,-1.066,1.691
0722_174603_0058.png,0.012,0.180,0.936,-0.055,0.182,0.939,0.128,0.008,1.138,-0.174,0.001,1.108,0.242,-0.240,1.150,-0.186,-0.219,0.944,0.081,-0.297,0.942,-0.161,-0.355,0.713,972.641,723.182,0.936,904.462,724.244,0.939,1066.984,546.390,1.138,810.484,540.809,1.108,1159.810,341.224,1.150,772.519,318.803,0.944,1042.261,239.853,0.942,745.033,65.855,0.713,-0.028,-0.974,1.404,0.000,-353.174,0.000,-0.023,-0.003,-0.018,0.041,-0.897,1.291
0722_174603_0059.png,0.023,0.172,0.940,-0.041,0.172,0.942,0.144,-0.010,1.109,-0.143,-0.003,1.139,0.254,-0.249,1.049,-0.296,-0.183,1.265,0.289,-0.344,0.802,-0.372,-0.286,1.031,983.339,713.833,0.940,918.617,713.524,0.942,1083.561,531.153,1.109,840.468,537.350,1.139,1190.449,313.770,1.049,737.103,402.094,1.265,1302.442,132.534,0.802,617.102,276.105,1.031,-0.023,-0.964,1.402,0.000,-5.158,0.000,0.027,0.001,-0.012,-0.184,-0.797,1.468
0722_174603_0060.png,0.042,0.172,0.929,-0.022,0.169,0.924,0.157,0.002,1.106,-0.132,0.010,1.142,0.256,-0.249,1.047,-0.207,-0.255,1.119,0.201,-0.351,0.801,-0.174,-0.335,0.862,1003.264,716.347,0.929,937.257,713.754,0.924,1094.713,541.638,1.106,850.083,548.533,1.142,1192.034,314.107,1.047,783.789,323.008,1.119,1198.293,123.308,0.801,768.260,170.629,0.862,-0.032,-0.971,1.403,0.000,-6.180,0.000,0.020,-0.023,-0.034,0.092,-1.194,1.502
0722_174603_0061.png,0.037,0.166,0.934,-0.027,0.164,0.931,0.151,-0.010,1.111,-0.137,-0.004,1.138,0.138,-0.278,1.049,-0.263,-0.212,1.013,0.100,-0.355,0.793,-0.335,-0.350,0.793,997.578,709.449,0.934,932.338,707.930,0.931,1089.068,531.534,1.111,845.817,537.017,1.138,1085.213,287.435,1.049,712.766,340.941,1.013,1079.583,114.521,0.793,558.213,120.146,0.793,-0.031,-0.960,1.401,0.000,-4.433,0.000,0.027,-0.020,-0.022,0.060,-1.154,1.153
0722_174603_0062.png,-0.011,0.163,0.944,-0.076,0.167,0.954,0.104,-0.005,1.152,-0.187,-0.018,1.095,0.044,-0.175,0.941,-0.352,-0.225,1.113,-0.014,-0.341,0.735,-0.435,-0.308,0.878,948.926,704.483,0.944,884.263,706.667,0.954,1045.985,536.003,1.152,797.787,524.435,1.095,1004.765,363.051,0.941,659.627,347.925,1.113,942.243,99.295,0.735,488.778,206.138,0.878,-0.024,-0.966,1.402,0.000,-347.480,0.000,0.000,0.034,-0.001,-0.124,-0.712,1.438
0722_174603_0063.png,0.047,0.157,0.933,-0.017,0.155,0.934,0.171,-0.015,1.092,-0.109,-0.001,1.153,0.140,-0.272,1.008,-0.092,-0.183,0.946,-0.018,-0.349,0.808,-0.078,-0.362,0.744,1007.947,699.958,0.933,942.912,698.070,0.934,1109.138,526.854,1.092,869.723,539.063,1.153,1091.638,283.441,1.008,867.295,355.653,0.946,939.309,129.886,0.808,860.004,77.209,0.744,-0.039,-0.964,1.402,0.000,-11.349,0.000,0.031,0.008,-0.017,-0.255,-1.109,1.469
0722_174603_0064.png,-0.012,0.163,0.933,-0.074,0.167,0.946,0.104,-0.012,1.145,-0.179,-0.025,1.087,0.219,-0.251,1.170,-0.202,-0.291,1.101,0.256,-0.308,0.925,-0.154,-0.325,0.853,948.051,705.721,0.933,885.474,707.991,0.946,1046.160,530.208,1.145,803.695,518.220,1.087,1137.767,336.249,1.170,785.688,288.875,1.101,1223.826,223.047,0.925,788.569,177.811,0.853,-0.027,-0.959,1.400,0.000,-347.113,0.000,0.028,0.005,0.037,-0.265,-0.758,1.325
0722_174603_0065.png,0.032,0.159,0.936,-0.033,0.159,0.937,0.148,-0.015,1.114,-0.141,-0.011,1.129,0.246,-0.200,0.948,-0.222,-0.254,1.053,0.292,-0.354,0.743,-0.220,-0.340,0.809,992.103,701.416,0.936,927.015,701.149,0.937,1086.284,527.345,1.114,841.238,530.432,1.129,1207.133,338.996,0.948,759.303,310.635,1.053,1333.961,86.425,0.743,701.287,139.801,0.809,-0.034,-0.962,1.401,0.000,-1.893,0.000,0.026,0.009,0.015,-0.051,-1.069,1.097
0722_174603_0066.png,0.044,0.164,0.927,-0.022,0.162,0.928,0.170,-0.014,1.087,-0.122,-0.001,1.148,0.233,-0.277,1.049,-0.107,-0.178,0.939,0.229,-0.336,0.793,-0.090,-0.351,0.736,1005.610,707.836,0.927,937.713,705.965,0.928,1108.851,527.354,1.087,858.703,539.571,1.148,1171.560,289.203,1.049,852.124,359.457,0.939,1235.016,136.519,0.793,843.160,86.136,0.736,-0.034,-0.963,1.402,0.000,-10.843,0.000,-0.007,-0.013,0.005,-0.187,-1.053,1.542
0722_174603_0067.png,0.056,0.154,0.946,-0.010,0.148,0.937,0.171,-0.020,1.089,-0.119,-0.003,1.162,0.294,-0.201,1.235,-0.277,-0.203,1.061,0.228,-0.282,0.987,-0.289,-0.328,0.821,1016.323,695.102,0.946,950.139,690.731,0.937,1108.931,522.957,1.089,862.250,537.780,1.162,1186.633,385.174,1.235,711.967,357.894,1.061,1179.282,268.118,0.987,625.617,160.307,0.821,-0.028,-0.964,1.402,0.000,-13.335,0.000,-0.009,0.032,-0.027,0.115,-1.062,1.407
0722_174603_0068.png,0.036,0.184,0.926,-0.031,0.183,0.927,0.158,-0.006,1.096,-0.141,0.001,1.127,0.208,-0.229,0.961,-0.191,-0.250,1.047,0.180,-0.347,0.739,-0.161,-0.331,0.807,996.613,728.603,0.926,928.170,728.218,0.927,1097.303,534.752,1.096,840.890,540.811,1.127,1165.674,313.929,0.961,786.441,313.222,1.047,1191.756,93.000,0.739,770.679,150.329,0.807,-0.033,-0.969,1.403,0.000,-4.796,0.000,-0.014,-0.029,0.038,-0.089,-0.758,1.578
0722_174603_0069.png,0.009,0.190,0.933,-0.056,0.193,0.941,0.131,0.009,1.132,-0.166,0.004,1.113,0.076,-0.172,0.921,-0.299,-0.227,1.177,0.023,-0.349,0.717,-0.196,-0.305,0.943,969.008,733.963,0.933,902.972,735.118,0.941,1069.867,547.302,1.132,818.517,543.726,1.113,1038.079,362.151,0.921,718.160,357.017,1.177,990.731,76.434,0.717,762.336,231.910,0.943,-0.029,-0.973,1.404,0.000,-355.093,0.000,0.000,-0.020,-0.020,-0.209,-0.763,1.326
0722_174603_0070.png,0.009,0.175,0.934,-0.058,0.178,0.940,0.129,0.005,1.140,-0.176,-0.005,1.098,0.253,-0.197,1.271,-0.264,-0.255,1.047,0.321,-0.265,1.027,-0.103,-0.315,0.846,969.590,718.560,0.934,900.892,720.238,0.940,1067.790,544.220,1.140,807.677,536.069,1.098,1149.571,392.324,1.271,720.358,308.620,1.047,1257.085,294.775,1.027,844.820,186.290,0.846,-0.033,-0.974,1.404,0.000,-350.833,0.000,-0.038,0.008,0.007,-0.050,-0.850,1.375
0722_174603_0071.png,0.032,0.166,0.928,-0.035,0.165,0.930,0.159,-0.016,1.087,-0.140,-0.003,1.139,0.215,-0.220,1.255,-0.158,-0.214,0.985,0.272,-0.271,1.010,-0.062,-0.333,0.778,992.995,710.025,0.928,924.328,709.039,0.930,1098.963,526.387,1.087,843.369,537.141,1.139,1123.274,373.642,1.255,807.452,333.558,0.985,1216.073,284.845,1.010,884.141,132.560,0.778,-0.024,-0.967,1.402,0.000,-9.110,0.000,-0.022,-0.001,0.040,-0.215,-0.971,1.349
0722_174603_0072.png,0.060,0.167,0.930,-0.007,0.162,0.924,0.181,-0.007,1.082,-0.114,0.011,1.159,0.233,-0.270,1.017,-0.246,-0.230,1.128,0.131,-0.342,0.776,-0.272,-0.317,0.872,1021.428,710.984,0.930,952.575,706.392,0.924,1119.130,533.998,1.082,866.574,548.967,1.159,1177.532,287.524,1.017,752.648,346.136,1.128,1120.989,120.609,0.776,662.907,194.201,0.872,-0.035,-0.970,1.403,0.000,-13.877,0.000,-0.029,-0.010,-0.033,0.017,-1.151,1.620
0722_174603_0073.png,0.058,0.168,0.937,-0.009,0.164,0.932,0.176,-0.012,1.075,-0.113,0.006,1.156,0.175,-0.238,1.209,-0.221,-0.210,1.043,0.177,-0.285,0.953,-0.134,-0.324,0.823,1018.438,710.642,0.937,951.243,707.601,0.932,1115.681,529.331,1.075,866.658,545.345,1.156,1097.592,352.499,1.209,758.108,348.124,1.043,1136.312,255.424,0.953,804.679,165.068,0.823,-0.032,-0.976,1.404,0.000,-14.804,0.000,-0.014,0.027,0.010,-0.030,-0.910,1.500
0722_174603_0074.png,0.027,0.181,0.930,-0.039,0.181,0.929,0.137,0.006,1.129,-0.160,0.001,1.110,0.287,-0.223,1.127,-0.249,-0.247,1.036,0.386,-0.314,0.898,-0.123,-0.339,0.822,987.371,725.024,0.930,919.963,725.402,0.929,1075.181,544.800,1.129,823.176,541.070,1.110,1202.503,351.455,1.127,731.688,313.205,1.036,1368.430,207.184,0.898,818.211,147.901,0.822,-0.035,-0.971,1.403,0.000,-354.992,0.000,-0.001,-0.025,-0.005,0.151,-0.900,1.580
0722_174603_0075.png,0.008,0.166,0.942,-0.060,0.167,0.946,0.130,-0.011,1.131,-0.177,-0.016,1.113,0.274,-0.238,1.163,-0.330,-0.238,1.102,0.328,-0.292,0.916,-0.234,-0.306,0.869,967.870,707.218,0.942,899.497,708.017,0.946,1069.719,530.409,1.131,809.007,526.734,1.113,1183.925,345.826,1.163,675.244,334.357,1.102,1300.691,236.800,0.916,703.734,205.374,0.869,-0.023,-0.963,1.401,0.000,-355.402,0.000,-0.036,0.016,0.017,-0.077,-0.691,1.565
0722_174603_0076.png,0.005,0.184,0.921,-0.060,0.188,0.927,0.113,0.015,1.145,-0.176,0.002,1.086,0.066,-0.172,0.949,-0.229,-0.255,1.183,0.020,-0.356,0.758,-0.204,-0.313,0.925,965.385,729.715,0.921,898.592,732.481,0.927,1053.578,552.663,1.145,805.747,541.505,1.086,1025.862,367.203,0.949,775.714,335.163,1.183,985.381,93.516,0.758,750.088,218.360,0.925,-0.034,-0.975,1.404,0.000,-347.016,0.000,0.006,-0.035,-0.003,0.017,-1.107,1.151
0722_174603_0077.png,0.052,0.171,0.942,-0.010,0.167,0.933,0.161,-0.018,1.084,-0.117,-0.004,1.147,0.229,-0.215,1.251,-0.201,-0.231,1.041,0.378,-0.280,1.054,-0.074,-0.336,0.847,1012.595,712.710,0.942,949.492,710.510,0.933,1100.910,524.001,1.084,863.356,536.994,1.147,1134.348,376.461,1.251,776.605,328.740,1.041,1300.847,287.835,1.054,877.384,162.902,0.847,-0.030,-0.966,1.402,0.000,-12.069,0.000,0.041,0.010,0.024,0.152,-0.763,1.426
0722_174603_0078.png,0.020,0.166,0.943,-0.045,0.167,0.947,0.136,-0.012,1.125,-0.155,-0.015,1.112,0.100,-0.181,0.920,-0.223,-0.250,1.016,0.064,-0.346,0.720,-0.082,-0.330,0.819,979.764,707.330,0.943,914.921,707.963,0.947,1075.067,529.566,1.125,827.350,526.885,1.112,1063.773,352.589,0.920,751.498,306.179,1.016,1045.155,83.492,0.720,864.856,156.987,0.819,-0.034,-0.966,1.402,0.000,-356.202,0.000,0.018,0.026,0.034,-0.079,-0.675,1.432
0722_174603_0079.png,0.045,0.170,0.924,-0.020,0.169,0.927,0.169,-0.012,1.083,-0.115,0.001,1.139,0.164,-0.273,1.027,-0.269,-0.198,1.236,-0.016,-0.331,0.855,-0.431,-0.277,1.055,1005.898,714.637,0.924,939.869,713.508,0.927,1108.515,529.845,1.083,863.944,541.092,1.139,1111.732,287.239,1.027,752.756,387.920,1.236,941.729,171.989,0.855,571.736,290.491,1.055,-0.040,-0.969,1.403,0.000,-10.262,0.000,0.023,-0.011,0.035,-0.285,-1.087,1.198
0722_174603_0080.png,0.050,0.183,0.933,-0.013,0.179,0.925,0.160,0.000,1.100,-0.123,0.009,1.137,0.196,-0.186,0.895,-0.272,-0.188,1.247,0.233,-0.369,0.698,-0.432,-0.286,1.064,1011.384,726.194,0.933,947.122,724.018,0.925,1098.356,540.248,1.100,857.432,547.489,1.137,1167.743,342.004,0.895,752.601,397.030,1.247,1277.825,36.502,0.698,573.960,284.780,1.064,-0.038,-0.973,1.404,0.000,-6.625,0.000,0.039,-0.021,-0.007,0.182,-1.061,1.147
0722_174603_0081.png,0.046,0.179,0.928,-0.019,0.178,0.927,0.169,-0.016,1.073,-0.119,0.001,1.144,0.248,-0.227,1.229,-0.268,-0.167,1.006,0.373,-0.284,1.011,-0.379,-0.323,0.838,1007.354,723.530,0.928,940.020,722.430,0.927,1109.737,526.014,1.073,860.973,540.577,1.144,1151.551,364.282,1.229,706.454,382.317,1.006,1310.633,273.321,1.011,529.810,173.777,0.838,-0.032,-0.967,1.402,0.000,-13.150,0.000,-0.001,-0.018,0.044,-0.196,-0.798,1.319
0722_174603_0082.png,0.019,0.170,0.933,-0.047,0.173,0.939,0.143,-0.003,1.121,-0.158,-0.005,1.111,0.152,-0.245,1.019,-0.266,-0.242,1.172,-0.020,-0.319,0.838,-0.278,-0.294,0.923,979.222,713.679,0.933,911.927,714.738,0.939,1081.201,537.488,1.121,824.893,535.673,1.111,1102.313,311.135,1.019,744.264,343.891,1.172,937.607,177.934,0.838,673.194,237.083,0.923,-0.034,-0.974,1.404,0.000,-357.044,0.000,-0.013,0.015,0.035,-0.195,-0.943,1.119
0722_174603_0083.png,0.028,0.168,0.929,-0.040,0.169,0.931,0.154,-0.004,1.113,-0.152,0.000,1.133,0.145,-0.250,0.989,-0.321,-0.207,1.062,-0.017,-0.337,0.793,-0.420,-0.321,0.841,988.694,712.510,0.929,919.351,712.332,0.931,1091.232,536.196,1.113,832.580,540.001,1.133,1099.790,299.777,0.989,672.464,354.676,1.062,939.130,135.818,0.793,485.003,176.289,0.841,-0.030,-0.964,1.402,0.000,-2.553,0.000,-0.031,-0.022,-0.016,-0.120,-1.098,1.415
0722_174603_0084.png,0.031,0.178,0.935,-0.033,0.178,0.933,0.139,0.002,1.129,-0.152,-0.002,1.112,0.137,-0.178,0.917,-0.294,-0.211,1.211,0.136,-0.354,0.711,-0.369,-0.297,0.974,991.995,720.694,0.935,926.190,720.860,0.933,1077.225,541.783,1.129,829.984,538.577,1.112,1101.937,355.393,0.917,729.354,374.490,1.211,1141.587,66.322,0.711,599.222,250.005,0.974,-0.039,-0.970,1.403,0.000,-355.509,0.000,0.018,-0.009,-0.001,0.181,-0.900,1.376
0722_174603_0085.png,0.022,0.165,0.949,-0.045,0.166,0.950,0.136,-0.006,1.137,-0.164,-0.011,1.114,0.234,-0.236,1.041,-0.222,-0.216,0.947,0.258,-0.328,0.796,-0.231,-0.349,0.718,982.048,705.189,0.949,915.269,705.699,0.950,1073.526,535.049,1.137,819.712,530.411,1.114,1173.455,324.765,1.041,737.093,323.087,0.947,1268.688,148.273,0.796,653.719,78.453,0.718,-0.034,-0.970,1.403,0.000,-354.309,0.000,-0.014,0.041,-0.001,0.100,-0.699,1.555
0722_174603_0086.png,0.026,0.164,0.928,-0.043,0.164,0.933,0.158,-0.014,1.098,-0.149,-0.004,1.141,0.128,-0.243,0.958,-0.287,-0.221,1.051,0.071,-0.344,0.724,-0.336,-0.321,0.815,986.268,707.651,0.928,916.269,707.169,0.933,1096.626,528.074,1.098,835.828,536.789,1.141,1086.942,299.129,0.958,700.352,340.295,1.051,1053.758,88.330,0.724,567.267,164.900,0.815,-0.023,-0.962,1.401,0.000,-7.042,0.000,-0.044,-0.012,0.007,-0.278,-1.044,1.399
0722_174603_0087.png,0.054,0.168,0.941,-0.010,0.164,0.933,0.167,-0.019,1.076,-0.118,-0.003,1.148,0.159,-0.275,1.020,-0.236,-0.167,0.978,-0.003,-0.326,0.830,-0.351,-0.326,0.810,1014.965,709.565,0.941,949.900,707.311,0.933,1107.237,522.999,1.076,862.651,537.833,1.148,1108.077,283.594,1.020,729.935,378.023,0.978,957.073,165.743,0.830,548.083,157.211,0.810,-0.030,-0.970,1.403,0.000,-13.466,0.000,0.011,0.025,0.039,0.086,-0.813,1.315
0722_174603_0088.png,0.033,0.178,0.938,-0.035,0.177,0.936,0.154,-0.004,1.110,-0.153,0.002,1.137,0.150,-0.275,1.150,-0.302,-0.221,1.069,0.106,-0.304,0.887,-0.257,-0.323,0.825,993.390,720.538,0.938,923.979,719.673,0.936,1092.139,536.277,1.110,831.649,541.461,1.137,1084.285,312.605,1.150,691.408,343.505,1.069,1073.629,213.752,0.887,663.927,167.946,0.825,-0.026,-0.967,1.402,0.000,-3.880,0.000,-0.040,-0.010,-0.018,0.026,-0.889,1.281
0722_174603_0089.png,0.036,0.162,0.937,-0.032,0.162,0.938,0.163,-0.018,1.097,-0.142,-0.008,1.140,0.183,-0.261,0.991,-0.180,-0.252,1.042,0.033,-0.325,0.787,-0.125,-0.320,0.798,996.606,704.523,0.937,927.231,703.839,0.938,1101.563,524.137,1.097,841.279,533.141,1.140,1135.862,289.287,0.991,796.090,310.043,1.042,999.561,147.136,0.787,810.951,157.921,0.798,-0.029,-0.963,1.401,0.000,-7.196,0.000,-0.040,0.013,0.022,-0.161,-0.853,1.475
0722_174603_0090.png,0.002,0.174,0.928,-0.064,0.179,0.940,0.129,0.007,1.139,-0.172,-0.003,1.097,0.185,-0.169,0.933,-0.157,-0.222,0.940,0.237,-0.339,0.732,-0.120,-0.353,0.715,962.316,718.569,0.928,895.715,721.568,0.940,1067.984,545.493,1.139,811.325,537.320,1.097,1148.362,368.144,0.933,801.296,315.537,0.940,1268.122,99.521,0.732,800.498,70.655,0.715,-0.036,-0.974,1.404,0.000,-350.659,0.000,-0.024,-0.002,0.006,-0.331,-0.974,1.271
0722_174603_0091.png,0.028,0.176,0.943,-0.037,0.176,0.943,0.141,-0.003,1.129,-0.152,-0.005,1.123,0.131,-0.240,0.991,-0.281,-0.225,1.209,-0.014,-0.347,0.795,-0.360,-0.300,0.965,987.886,717.083,0.943,922.466,717.252,0.943,1078.651,537.090,1.129,831.495,536.010,1.123,1086.031,309.271,0.991,739.360,362.967,1.209,942.914,125.371,0.795,605.375,244.041,0.965,-0.035,-0.966,1.402,0.000,-357.727,0.000,0.014,0.002,-0.020,0.052,-0.784,1.362
0722_174603_0092.png,0.023,0.152,0.937,-0.042,0.153,0.937,0.133,-0.012,1.130,-0.159,-0.016,1.114,0.173,-0.204,0.948,-0.283,-0.236,1.028,0.151,-0.353,0.735,-0.324,-0.337,0.793,983.388,694.807,0.937,917.381,695.299,0.937,1072.173,530.156,1.130,823.857,526.719,1.114,1133.422,335.756,0.948,698.466,322.018,1.028,1154.720,83.855,0.735,571.852,135.868,0.793,-0.033,-0.962,1.401,0.000,-355.467,0.000,0.012,0.017,0.015,0.106,-0.953,1.707
0722_174603_0093.png,0.028,0.159,0.937,-0.038,0.159,0.941,0.153,-0.016,1.102,-0.141,-0.008,1.139,0.277,-0.249,1.135,-0.233,-0.257,1.145,0.324,-0.309,0.887,-0.210,-0.308,0.892,988.280,701.471,0.937,921.976,701.143,0.941,1091.885,525.958,1.102,842.572,533.455,1.139,1192.024,331.438,1.135,766.462,326.880,1.145,1306.769,208.863,0.887,736.488,211.449,0.892,-0.027,-0.965,1.402,0.000,-6.142,0.000,0.004,0.022,0.017,-0.231,-0.908,1.444
0722_174603_0094.png,0.030,0.181,0.942,-0.036,0.181,0.943,0.147,0.001,1.126,-0.151,0.002,1.129,0.191,-0.195,1.308,-0.248,-0.221,0.997,0.299,-0.268,1.070,-0.227,-0.353,0.759,989.809,722.703,0.942,923.218,722.740,0.943,1084.136,541.266,1.126,833.057,541.945,1.129,1099.124,398.336,1.308,723.054,328.984,0.997,1225.857,302.257,1.070,675.571,97.222,0.759,-0.034,-0.969,1.403,0.000,-359.524,0.000,-0.003,-0.003,-0.037,-0.002,-0.874,1.122
0722_174603_0095.png,0.023,0.173,0.935,-0.041,0.174,0.938,0.139,-0.005,1.117,-0.147,-0.003,1.125,0.203,-0.206,1.287,-0.180,-0.182,0.917,0.332,-0.276,1.072,-0.213,-0.357,0.715,983.245,715.963,0.935,918.839,716.145,0.938,1078.431,535.484,1.117,835.437,537.075,1.125,1109.820,387.894,1.287,773.708,351.098,0.917,1254.207,295.233,1.072,676.911,65.177,0.715,-0.030,-0.968,1.403,0.000,-0.475,0.000,0.035,-0.001,0.006,-0.092,-0.850,1.422
0722_174603_0096.png,0.022,0.158,0.935,-0.042,0.157,0.934,0.134,-0.002,1.128,-0.159,-0.002,1.126,0.247,-0.236,1.049,-0.170,-0.185,0.912,0.200,-0.341,0.805,-0.184,-0.363,0.703,982.857,700.200,0.935,916.727,699.874,0.934,1072.896,538.529,1.128,825.567,538.247,1.126,1184.237,325.702,1.049,782.341,347.250,0.912,1196.095,137.256,0.805,711.498,48.691,0.703,-0.026,-0.968,1.403,0.000,-358.538,0.000,0.013,0.009,-0.026,0.107,-1.167,1.560
0722_174603_0097.png,0.032,0.176,0.942,-0.032,0.174,0.938,0.139,0.001,1.120,-0.148,0.001,1.124,0.196,-0.195,1.291,-0.149,-0.229,0.983,0.315,-0.271,1.071,-0.058,-0.353,0.771,991.910,717.310,0.942,927.629,716.704,0.938,1078.202,540.490,1.120,834.737,541.155,1.124,1104.513,396.715,1.291,816.233,318.641,0.983,1239.618,299.408,1.071,888.853,104.371,0.771,-0.032,-0.976,1.404,0.000,-359.528,0.000,0.033,0.018,-0.001,0.177,-0.807,1.522
0722_174603_0098.png,0.012,0.147,0.930,-0.054,0.150,0.936,0.130,-0.006,1.137,-0.168,-0.014,1.104,0.269,-0.233,1.156,-0.228,-0.264,1.166,0.331,-0.299,0.913,-0.191,-0.298,0.913,971.760,689.934,0.930,904.650,692.641,0.936,1068.383,534.783,1.137,815.345,528.221,1.104,1181.539,348.575,1.156,773.772,324.628,1.166,1304.125,228.737,0.913,761.099,229.837,0.913,-0.033,-0.967,1.402,0.000,-352.457,0.000,-0.008,0.022,0.017,-0.090,-1.204,1.491
0722_174603_0099.png,0.034,0.164,0.950,-0.033,0.163,0.948,0.151,-0.010,1.122,-0.148,-0.006,1.140,0.148,-0.250,0.986,-0.105,-0.184,0.924,-0.008,-0.341,0.783,-0.064,-0.356,0.713,993.861,703.966,0.950,927.144,703.196,0.948,1088.197,531.191,1.122,836.172,534.901,1.140,1102.894,298.455,0.986,852.281,351.177,0.924,950.715,125.851,0.783,874.857,64.786,0.713,-0.030,-0.964,1.402,0.000,-2.474,0.000,-0.012,0.025,-0.037,0.047,-0.833,1.469
0722_174603_0100.png,0.029,0.165,0.921,-0.035,0.164,0.923,0.151,-0.008,1.090,-0.135,0.002,1.132,0.209,-0.185,0.904,-0.122,-0.172,0.931,0.264,-0.359,0.723,-0.108,-0.342,0.734,989.982,709.892,0.921,923.866,708.725,0.923,1091.759,532.966,1.090,846.542,541.506,1.132,1180.007,344.949,0.904,835.101,364.190,0.931,1308.042,68.074,0.723,819.618,97.458,0.734,-0.026,-0.972,1.403,0.000,-7.570,0.000,0.025,-0.009,0.042,-0.175,-1.093,1.625
0722_174603_0101.png,0.035,0.191,0.933,-0.030,0.191,0.933,0.152,0.005,1.110,-0.139,0.010,1.131,0.112,-0.239,0.991,-0.279,-0.221,1.092,-0.016,-0.354,0.787,-0.320,-0.333,0.852,995.542,734.833,0.933,929.597,734.435,0.933,1090.560,544.585,1.110,843.315,548.548,1.131,1067.346,310.164,0.991,717.194,347.092,1.092,940.935,112.464,0.787,602.657,167.941,0.852,-0.035,-0.974,1.404,0.000,-3.048,0.000,0.017,-0.023,-0.016,-0.033,-0.732,1.632
0722_174603_0102.png,0.041,0.163,0.930,-0.024,0.161,0.927,0.156,-0.002,1.114,-0.136,0.004,1.138,0.249,-0.260,1.116,-0.119,-0.183,0.921,0.091,-0.322,0.907,-0.105,-0.365,0.710,1001.557,706.408,0.930,934.994,704.706,0.927,1093.346,538.429,1.114,845.980,543.052,1.138,1171.774,318.315,1.116,837.228,351.316,0.921,1055.799,202.545,0.907,819.895,50.643,0.710,-0.036,-0.967,1.402,0.000,-3.616,0.000,0.011,-0.014,-0.033,0.065,-1.228,1.541
0722_174603_0103.png,0.019,0.156,0.927,-0.047,0.159,0.934,0.144,-0.013,1.117,-0.154,-0.013,1.113,0.230,-0.228,1.253,-0.250,-0.211,1.268,0.342,-0.271,1.029,-0.276,-0.271,1.025,979.048,700.039,0.927,912.146,701.481,0.934,1082.715,529.347,1.117,828.558,528.634,1.113,1134.498,366.847,1.253,772.865,381.659,1.268,1276.093,289.281,1.029,704.134,288.378,1.025,-0.034,-0.965,1.402,0.000,-358.145,0.000,-0.004,0.006,0.047,-0.243,-1.037,1.441
0722_174603_0104.png,0.043,0.192,0.937,-0.023,0.190,0.935,0.166,0.001,1.096,-0.126,0.014,1.151,0.088,-0.186,0.893,-0.291,-0.171,1.019,0.015,-0.369,0.696,-0.410,-0.335,0.832,1003.948,734.930,0.937,936.922,733.626,0.935,1104.017,540.724,1.096,855.994,551.265,1.151,1053.896,342.079,0.893,688.336,380.328,1.019,980.734,35.985,0.696,491.387,157.588,0.832,-0.030,-0.971,1.403,0.000,-9.911,0.000,-0.001,-0.025,-0.043,-0.141,-0.862,1.119
0722_174603_0105.png,0.017,0.176,0.934,-0.048,0.177,0.938,0.137,-0.002,1.119,-0.154,0.000,1.127,0.172,-0.193,0.924,-0.276,-0.223,1.028,0.169,-0.366,0.718,-0.328,-0.345,0.798,977.102,719.375,0.934,911.704,719.757,0.938,1076.174,538.039,1.119,829.732,539.609,1.127,1137.024,340.932,0.924,704.873,333.911,1.028,1183.647,55.547,0.718,569.307,128.945,0.798,-0.025,-0.967,1.402,0.000,-0.448,0.000,0.020,-0.012,-0.010,-0.144,-0.837,1.550
0722_174603_0106.png,0.035,0.174,0.928,-0.029,0.173,0.930,0.155,-0.003,1.109,-0.132,0.003,1.136,0.293,-0.231,1.054,-0.218,-0.244,1.050,0.378,-0.344,0.828,-0.072,-0.343,0.853,995.342,717.904,0.928,929.976,717.354,0.930,1092.517,537.585,1.109,849.307,542.852,1.136,1224.839,331.930,1.054,762.798,318.870,1.050,1394.125,144.984,0.828,879.726,157.853,0.853,-0.036,-0.966,1.402,0.000,-4.362,0.000,0.030,-0.027,-0.021,-0.141,-1.101,1.297
0722_174603_0107.png,0.027,0.165,0.933,-0.038,0.165,0.934,0.143,-0.015,1.111,-0.148,-0.011,1.126,0.181,-0.259,1.227,-0.308,-0.196,1.240,0.171,-0.296,0.972,-0.357,-0.289,1.005,987.049,708.415,0.933,921.296,708.144,0.934,1082.192,527.357,1.111,834.934,530.333,1.126,1100.253,339.672,1.227,724.065,389.344,1.240,1126.976,250.585,0.972,622.603,266.313,1.005,-0.029,-0.960,1.401,0.000,-1.756,0.000,0.019,-0.009,0.025,-0.026,-0.897,1.426
0722_174603_0108.png,0.019,0.171,0.934,-0.047,0.174,0.942,0.146,0.005,1.133,-0.155,0.004,1.125,0.244,-0.248,1.157,-0.175,-0.247,1.005,0.116,-0.306,0.923,-0.057,-0.347,0.779,979.483,713.947,0.934,912.664,715.818,0.942,1082.227,544.567,1.133,829.275,543.062,1.125,1160.524,335.898,1.157,794.759,305.839,1.005,1079.130,224.533,0.923,890.348,115.662,0.779,-0.037,-0.971,1.403,0.000,-357.278,0.000,-0.012,-0.001,-0.047,-0.237,-0.965,1.618
0722_174603_0109.png,0.002,0.167,0.940,-0.062,0.170,0.947,0.118,-0.001,1.141,-0.170,-0.007,1.114,0.183,-0.258,1.087,-0.201,-0.274,1.098,0.183,-0.340,0.830,-0.153,-0.334,0.841,961.939,708.492,0.940,898.014,710.374,0.947,1057.983,539.231,1.141,814.821,534.148,1.114,1120.328,314.076,1.087,786.233,302.819,1.098,1169.965,150.998,0.830,786.455,161.686,0.841,-0.025,-0.968,1.402,0.000,-353.564,0.000,0.027,0.016,-0.025,-0.148,-0.886,1.426
0722_174603_0110.png,0.058,0.196,0.933,-0.008,0.193,0.924,0.172,-0.007,1.069,-0.117,0.011,1.148,0.196,-0.260,0.977,-0.226,-0.229,1.088,0.085,-0.345,0.761,-0.241,-0.323,0.849,1018.794,739.983,0.933,951.918,738.738,0.924,1112.836,533.480,1.069,862.723,549.031,1.148,1151.024,286.735,0.977,762.607,340.001,1.088,1066.551,108.787,0.761,690.075,177.916,0.849,-0.030,-0.973,1.404,0.000,-14.548,0.000,-0.011,-0.030,0.026,0.101,-0.668,1.302
0722_174603_0111.png,0.032,0.169,0.925,-0.033,0.169,0.928,0.158,-0.009,1.102,-0.134,-0.001,1.139,0.088,-0.232,0.957,-0.307,-0.194,1.227,-0.017,-0.361,0.749,-0.335,-0.300,0.984,992.946,713.696,0.925,926.109,713.112,0.928,1096.267,532.098,1.102,848.437,539.528,1.139,1047.134,309.755,0.957,722.248,389.258,1.227,937.876,82.433,0.749,636.600,250.303,0.984,-0.032,-0.961,1.401,0.000,-6.323,0.000,0.010,-0.035,-0.009,-0.232,-1.080,1.468
0722_174603_0112.png,0.059,0.172,0.933,-0.005,0.168,0.924,0.171,-0.014,1.073,-0.113,0.003,1.147,0.141,-0.255,0.970,-0.275,-0.156,1.004,-0.015,-0.339,0.786,-0.432,-0.311,0.864,1020.065,715.512,0.933,954.543,712.454,0.924,1111.556,527.600,1.073,866.173,542.607,1.147,1098.145,290.198,0.970,699.202,392.228,1.004,941.977,130.258,0.786,484.328,197.094,0.864,-0.033,-0.972,1.404,0.000,-13.897,0.000,0.009,0.004,0.036,0.125,-0.924,1.401
0722_174603_0113.png,0.043,0.156,0.937,-0.024,0.155,0.939,0.168,-0.012,1.104,-0.133,-0.004,1.141,0.188,-0.268,1.030,-0.271,-0.231,1.172,0.158,-0.330,0.777,-0.306,-0.295,0.920,1003.994,697.854,0.937,935.692,696.904,0.939,1105.046,529.337,1.104,848.980,536.849,1.141,1134.048,292.839,1.030,740.136,352.622,1.172,1153.696,136.045,0.777,643.058,235.055,0.920,-0.038,-0.969,1.403,0.000,-6.080,0.000,-0.024,0.029,0.002,-0.111,-0.962,1.690
0722_174603_0114.png,0.009,0.161,0.932,-0.055,0.165,0.941,0.128,-0.005,1.136,-0.164,-0.013,1.098,0.124,-0.189,0.947,-0.276,-0.214,1.232,0.075,-0.345,0.748,-0.308,-0.282,0.987,969.352,703.919,0.932,904.150,706.271,0.941,1066.827,536.227,1.136,817.984,528.586,1.098,1084.711,350.005,0.947,747.099,375.154,1.232,1055.149,100.983,0.748,663.331,268.002,0.987,-0.037,-0.970,1.403,0.000,-351.263,0.000,0.009,0.020,0.031,-0.164,-0.865,1.612
0722_174603_0115.png,0.053,0.163,0.925,-0.011,0.159,0.919,0.168,-0.016,1.071,-0.115,0.001,1.145,0.171,-0.279,1.035,-0.279,-0.156,1.005,-0.015,-0.321,0.867,-0.437,-0.309,0.867,1014.703,707.768,0.925,948.560,704.097,0.919,1109.287,526.074,1.071,864.407,541.047,1.145,1117.330,283.634,1.035,695.691,392.730,1.005,943.328,187.519,0.867,480.235,201.096,0.867,-0.032,-0.970,1.403,0.000,-13.787,0.000,0.013,-0.002,0.047,0.040,-1.064,1.606
0722_174603_0116.png,0.024,0.157,0.939,-0.041,0.158,0.942,0.147,-0.010,1.113,-0.150,-0.005,1.133,0.127,-0.197,0.919,-0.237,-0.176,0.936,0.059,-0.355,0.719,-0.322,-0.342,0.744,984.677,699.354,0.939,918.127,699.275,0.942,1085.454,531.743,1.113,834.358,535.771,1.133,1091.663,336.092,0.919,719.186,361.463,0.936,1038.349,70.470,0.719,548.354,103.243,0.744,-0.027,-0.970,1.403,0.000,-2.812,0.000,-0.001,0.034,0.005,-0.140,-0.979,1.472
0722_174603_0117.png,0.037,0.170,0.941,-0.029,0.169,0.939,0.154,-0.014,1.110,-0.145,-0.010,1.128,0.220,-0.239,0.985,-0.313,-0.212,1.072,0.187,-0.344,0.752,-0.354,-0.320,0.842,997.435,711.587,0.941,930.482,711.113,0.939,1091.462,527.687,1.110,837.910,531.313,1.128,1171.993,308.912,0.985,682.248,352.165,1.072,1196.917,104.836,0.752,560.246,178.971,0.842,-0.034,-0.963,1.401,0.000,-2.316,0.000,-0.007,0.006,0.023,0.058,-0.752,1.366
0722_174603_0118.png,0.012,0.148,0.938,-0.052,0.149,0.937,0.113,-0.005,1.143,-0.172,-0.014,1.106,0.229,-0.218,1.242,-0.265,-0.200,1.266,0.347,-0.284,1.017,-0.308,-0.280,1.019,971.946,689.552,0.938,907.273,690.800,0.937,1054.346,535.596,1.143,812.428,528.257,1.106,1135.678,372.777,1.242,761.013,389.932,1.266,1285.009,274.615,1.017,672.961,278.497,1.019,-0.027,-0.967,1.402,0.000,-351.361,0.000,0.032,0.032,-0.002,0.206,-1.138,1.543
0722_174603_0119.png,0.024,0.160,0.928,-0.041,0.160,0.926,0.129,-0.009,1.131,-0.163,-0.016,1.099,0.223,-0.223,1.272,-0.184,-0.209,0.922,0.381,-0.269,1.074,-0.150,-0.360,0.718,984.743,704.162,0.928,917.984,704.716,0.926,1068.139,532.570,1.131,818.690,526.122,1.099,1126.791,373.198,1.272,770.477,323.913,0.922,1296.800,302.341,1.074,761.086,63.722,0.718,-0.035,-0.961,1.401,0.000,-352.537,0.000,0.011,-0.014,0.037,0.245,-1.081,1.381
0722_174603_0120.png,0.025,0.175,0.930,-0.039,0.175,0.930,0.138,0.006,1.119,-0.151,0.007,1.127,0.243,-0.242,1.073,-0.226,-0.252,1.168,0.155,-0.342,0.840,-0.201,-0.322,0.910,985.099,718.954,0.930,919.686,718.604,0.930,1076.996,544.834,1.119,832.820,546.226,1.127,1175.111,325.281,1.073,775.724,334.647,1.168,1135.388,152.770,0.840,749.450,203.579,0.910,-0.028,-0.974,1.404,0.000,-0.321,0.000,0.028,-0.014,-0.022,0.029,-1.105,1.420
0722_174603_0121.png,0.047,0.181,0.944,-0.017,0.178,0.937,0.158,-0.001,1.107,-0.129,0.007,1.144,0.129,-0.272,1.079,-0.268,-0.221,1.180,0.073,-0.344,0.823,-0.343,-0.314,0.936,1007.488,722.695,0.944,943.093,720.812,0.937,1095.506,538.924,1.107,852.937,546.096,1.144,1073.206,300.367,1.079,743.825,362.041,1.180,1044.093,143.038,0.823,611.440,220.820,0.936,-0.033,-0.972,1.403,0.000,-6.449,0.000,0.026,0.000,-0.034,0.163,-0.804,1.529
0722_174603_0122.png,0.035,0.181,0.945,-0.031,0.181,0.945,0.155,-0.007,1.110,-0.138,0.000,1.142,0.181,-0.191,1.309,-0.314,-0.179,1.029,0.239,-0.272,1.058,-0.445,-0.328,0.845,994.886,722.429,0.945,928.973,722.017,0.945,1093.194,533.778,1.110,845.022,540.144,1.142,1091.752,401.541,1.309,669.932,374.678,1.029,1174.559,295.863,1.058,459.458,171.276,0.845,-0.031,-0.965,1.402,0.000,-5.279,0.000,0.005,-0.002,-0.026,-0.110,-0.686,1.360
0722_174603_0123.png,0.036,0.175,0.933,-0.028,0.175,0.936,0.156,-0.006,1.103,-0.129,0.001,1.131,0.235,-0.215,1.254,-0.284,-0.165,0.985,0.394,-0.278,1.062,-0.436,-0.326,0.844,996.362,717.944,0.933,931.801,717.758,0.936,1094.618,535.016,1.103,851.735,540.648,1.131,1138.026,376.990,1.254,685.994,380.988,0.985,1312.448,291.046,1.062,469.055,172.320,0.844,-0.038,-0.972,1.404,0.000,-4.689,0.000,0.035,0.002,0.017,-0.194,-0.873,1.360
0722_174603_0124.png,0.031,0.155,0.929,-0.034,0.154,0.927,0.145,-0.008,1.113,-0.150,-0.005,1.125,0.191,-0.257,1.028,-0.157,-0.183,0.922,0.044,-0.331,0.827,-0.163,-0.355,0.724,992.043,698.906,0.929,925.195,697.795,0.927,1083.480,533.359,1.113,833.352,535.808,1.125,1136.961,302.158,1.028,798.320,351.733,0.922,1010.658,159.617,0.827,746.129,73.078,0.724,-0.030,-0.968,1.402,0.000,-1.270,0.000,0.008,0.003,0.017,0.105,-1.186,1.588
0722_174603_0125.png,0.052,0.182,0.940,-0.015,0.178,0.932,0.170,-0.006,1.087,-0.128,0.010,1.157,0.183,-0.251,0.956,-0.306,-0.201,1.174,0.152,-0.357,0.708,-0.395,-0.296,0.935,1012.491,724.439,0.940,944.262,721.722,0.932,1108.701,534.449,1.087,854.883,548.099,1.157,1141.865,290.640,0.956,712.308,377.040,1.174,1164.583,60.887,0.708,557.891,239.339,0.935,-0.025,-0.970,1.403,0.000,-12.477,0.000,-0.032,-0.008,-0.032,0.079,-0.933,1.118
0722_174603_0126.png,0.023,0.180,0.928,-0.045,0.180,0.927,0.135,0.003,1.134,-0.168,-0.003,1.107,0.096,-0.197,0.948,-0.313,-0.241,1.093,0.005,-0.353,0.748,-0.215,-0.324,0.859,983.378,724.184,0.928,914.198,724.886,0.927,1073.368,542.554,1.134,815.684,537.373,1.107,1056.789,342.018,0.948,687.734,330.500,1.093,965.896,92.068,0.748,721.564,180.902,0.859,-0.034,-0.964,1.402,0.000,-353.691,0.000,-0.025,-0.041,-0.011,0.152,-1.055,1.178
0722_174603_0127.png,0.027,0.170,0.932,-0.040,0.170,0.934,0.149,-0.005,1.112,-0.151,-0.001,1.129,0.268,-0.204,1.252,-0.294,-0.213,1.040,0.292,-0.282,1.002,-0.365,-0.329,0.815,987.374,713.162,0.932,919.595,712.960,0.934,1087.123,536.003,1.112,832.786,539.415,1.129,1163.970,384.717,1.252,691.418,345.184,1.040,1237.528,272.481,1.002,534.662,156.622,0.815,-0.029,-0.969,1.403,0.000,-2.219,0.000,-0.011,-0.002,0.004,-0.078,-0.914,1.608
0722_174603_0128.png,-0.011,0.161,0.937,-0.077,0.166,0.948,0.107,0.004,1.158,-0.190,-0.012,1.088,0.231,-0.226,1.086,-0.184,-0.254,0.966,0.244,-0.316,0.835,-0.095,-0.346,0.732,949.326,703.141,0.937,882.776,706.966,0.948,1047.772,543.026,1.158,794.095,529.153,1.088,1162.194,342.324,1.086,778.997,290.129,0.966,1238.218,179.873,0.835,836.163,90.374,0.732,-0.029,-0.972,1.403,0.000,-345.214,0.000,-0.029,0.032,-0.014,-0.142,-0.955,1.333
0722_174603_0129.png,0.011,0.158,0.930,-0.052,0.162,0.939,0.125,-0.001,1.137,-0.158,-0.008,1.107,0.087,-0.203,0.962,-0.135,-0.189,0.898,-0.010,-0.355,0.772,-0.116,-0.366,0.696,971.040,701.799,0.930,907.492,704.580,0.939,1064.772,539.233,1.137,824.186,533.323,1.107,1045.720,338.890,0.962,816.652,340.425,0.898,947.077,103.104,0.772,801.742,40.414,0.696,-0.036,-0.970,1.403,0.000,-352.663,0.000,0.040,0.013,0.003,-0.179,-1.136,1.330
0722_174603_0130.png,0.031,0.147,0.941,-0.034,0.146,0.941,0.148,-0.016,1.118,-0.145,-0.013,1.132,0.193,-0.188,0.911,-0.237,-0.249,1.052,0.238,-0.355,0.710,-0.076,-0.322,0.860,990.932,688.233,0.941,925.282,687.845,0.941,1085.576,526.016,1.118,838.131,528.941,1.132,1161.629,343.671,0.911,745.349,315.097,1.052,1279.000,64.286,0.710,876.147,184.523,0.860,-0.032,-0.964,1.402,0.000,-1.687,0.000,0.013,0.036,0.007,-0.024,-1.084,1.424
0722_174603_0131.png,0.011,0.164,0.934,-0.054,0.167,0.941,0.135,-0.002,1.130,-0.160,-0.002,1.129,0.136,-0.245,0.993,-0.204,-0.267,1.063,-0.014,-0.349,0.793,-0.176,-0.346,0.803,970.903,707.513,0.934,905.157,709.004,0.941,1073.608,538.304,1.130,825.239,538.210,1.129,1090.000,305.128,0.993,777.304,301.378,1.063,943.596,121.567,0.793,751.951,130.377,0.803,-0.026,-0.965,1.402,0.000,-358.732,0.000,0.007,-0.005,-0.041,-0.253,-1.086,1.377
0722_174603_0132.png,0.021,0.156,0.928,-0.045,0.158,0.930,0.132,-0.003,1.139,-0.166,-0.011,1.105,0.284,-0.227,1.172,-0.222,-0.277,1.111,0.388,-0.299,0.939,-0.192,-0.323,0.852,981.646,699.721,0.928,913.733,701.415,0.930,1070.187,537.581,1.139,817.554,530.873,1.105,1190.134,355.608,1.172,769.967,302.577,1.111,1352.831,237.401,0.939,745.376,179.034,0.852,-0.037,-0.963,1.402,0.000,-352.227,0.000,-0.009,-0.010,-0.005,0.101,-1.187,1.519
0722_174603_0133.png,0.026,0.159,0.926,-0.041,0.158,0.923,0.139,-0.004,1.115,-0.163,-0.004,1.112,0.188,-0.176,0.923,-0.216,-0.242,1.012,0.231,-0.344,0.735,-0.068,-0.323,0.818,986.939,703.637,0.926,918.065,703.131,0.923,1078.673,536.900,1.115,820.644,536.312,1.112,1153.168,358.336,0.923,756.602,312.447,1.012,1258.583,94.913,0.735,880.485,163.974,0.818,-0.027,-0.972,1.403,0.000,-358.253,0.000,-0.018,0.000,0.042,0.165,-1.234,1.449
0722_174603_0134.png,-0.001,0.155,0.943,-0.068,0.158,0.945,0.104,-0.002,1.157,-0.190,-0.018,1.089,0.150,-0.236,1.037,-0.342,-0.223,1.154,-0.020,-0.316,0.847,-0.414,-0.293,0.910,959.084,696.776,0.943,891.851,698.870,0.945,1045.298,538.203,1.157,793.831,524.603,1.089,1097.934,323.056,1.037,678.104,356.585,1.154,938.014,185.239,0.847,527.340,234.316,0.910,-0.026,-0.969,1.403,0.000,-345.628,0.000,-0.017,0.044,-0.001,0.203,-0.904,1.447
0722_174603_0135.png,-0.007,0.163,0.923,-0.072,0.169,0.933,0.108,0.001,1.151,-0.184,-0.014,1.086,0.149,-0.172,0.938,-0.246,-0.228,1.247,0.189,-0.342,0.731,-0.262,-0.288,0.991,953.243,708.414,0.923,886.902,712.523,0.933,1049.121,540.965,1.151,798.990,527.981,1.086,1111.340,365.146,0.938,772.122,365.914,1.247,1206.037,95.207,0.731,708.738,263.120,0.991,-0.030,-0.963,1.401,0.000,-345.988,0.000,-0.008,-0.020,0.000,-0.160,-1.156,1.199
0722_174603_0136.png,0.043,0.176,0.928,-0.025,0.173,0.926,0.168,-0.011,1.076,-0.125,0.008,1.155,0.186,-0.182,1.290,-0.105,-0.173,0.947,0.312,-0.263,1.069,-0.083,-0.348,0.745,1003.683,720.201,0.928,934.822,717.730,0.926,1108.121,530.561,1.076,856.833,546.264,1.155,1096.861,405.625,1.290,854.892,366.600,0.947,1237.685,305.734,1.069,853.473,95.667,0.745,-0.023,-0.968,1.403,0.000,-14.406,0.000,-0.024,-0.018,-0.004,-0.170,-0.956,1.454
0722_174603_0137.png,0.040,0.158,0.935,-0.026,0.156,0.930,0.152,-0.011,1.110,-0.144,-0.005,1.133,0.190,-0.266,1.033,-0.281,-0.189,1.275,0.025,-0.329,0.838,-0.264,-0.275,1.028,1000.334,701.055,0.935,933.524,699.085,0.930,1090.184,530.787,1.110,839.043,535.432,1.133,1134.467,295.182,1.033,750.305,399.348,1.275,988.754,167.087,0.838,715.516,286.080,1.028,-0.031,-0.965,1.402,0.000,-3.407,0.000,0.000,0.005,0.005,0.184,-1.169,1.334
0722_174603_0138.png,0.062,0.159,0.940,-0.005,0.154,0.931,0.178,-0.019,1.091,-0.120,-0.004,1.156,0.237,-0.215,1.267,-0.181,-0.221,0.999,0.397,-0.262,1.056,-0.076,-0.338,0.781,1022.729,701.058,0.940,955.093,697.234,0.931,1115.061,523.212,1.091,861.442,536.487,1.156,1137.842,378.983,1.267,787.451,329.765,0.999,1317.625,304.099,1.056,868.014,128.787,0.781,-0.036,-0.960,1.401,0.000,-11.499,0.000,-0.027,0.004,-0.017,0.163,-1.125,1.215
0722_174603_0139.png,0.031,0.172,0.950,-0.037,0.172,0.951,0.153,-0.008,1.119,-0.152,-0.004,1.135,0.215,-0.211,1.275,-0.253,-0.209,0.984,0.268,-0.265,1.019,-0.267,-0.341,0.751,991.010,712.142,0.950,923.343,711.981,0.951,1089.931,533.220,1.119,832.895,536.422,1.135,1120.143,382.505,1.275,715.602,337.986,0.984,1209.924,292.860,1.019,622.283,107.693,0.751,-0.031,-0.969,1.403,0.000,-1.938,0.000,-0.027,0.028,-0.017,-0.050,-0.738,1.216
0722_174603_0140.png,0.038,0.174,0.929,-0.028,0.173,0.928,0.159,-0.010,1.094,-0.137,-0.001,1.131,0.117,-0.185,0.901,-0.262,-0.197,1.274,0.074,-0.354,0.713,-0.324,-0.270,1.039,998.949,717.795,0.929,931.226,716.965,0.928,1097.961,531.332,1.094,844.365,538.827,1.131,1083.677,345.107,0.901,764.157,392.685,1.274,1058.075,67.794,0.713,663.003,292.919,1.039,-0.032,-0.969,1.403,0.000,-6.191,0.000,-0.006,-0.009,0.041,-0.056,-0.806,1.685
0722_174603_0141.png,0.036,0.178,0.932,-0.030,0.175,0.926,0.148,-0.001,1.109,-0.151,0.003,1.128,0.241,-0.210,1.262,-0.244,-0.229,1.022,0.177,-0.281,1.018,-0.149,-0.337,0.802,996.665,721.173,0.932,929.106,719.709,0.926,1086.847,538.875,1.109,832.796,542.568,1.128,1141.641,381.881,1.262,733.313,327.244,1.022,1124.982,277.685,1.018,783.120,140.425,0.802,-0.028,-0.970,1.403,0.000,-2.553,0.000,-0.008,-0.018,0.006,0.214,-1.024,1.300
0722_174603_0142.png,-0.008,0.164,0.920,-0.070,0.171,0.935,0.107,0.000,1.152,-0.176,-0.015,1.085,0.165,-0.172,0.940,-0.261,-0.183,1.289,0.222,-0.340,0.734,-0.280,-0.286,1.046,951.954,709.143,0.920,888.372,714.145,0.935,1048.347,540.013,1.152,806.030,526.514,1.085,1126.691,366.320,0.940,767.156,404.740,1.289,1247.928,99.631,0.734,704.968,280.250,1.046,-0.036,-0.959,1.401,0.000,-345.157,0.000,0.020,-0.032,-0.004,-0.299,-1.056,1.470
0722_174603_0143.png,0.035,0.155,0.941,-0.029,0.152,0.937,0.149,-0.015,1.104,-0.138,-0.006,1.142,0.114,-0.191,0.897,-0.097,-0.181,0.936,0.081,-0.364,0.695,-0.059,-0.353,0.736,994.966,696.214,0.941,930.098,694.283,0.937,1088.409,527.456,1.104,845.267,535.138,1.142,1080.794,337.125,0.897,861.107,355.835,0.936,1071.004,42.209,0.695,883.224,84.420,0.736,-0.025,-0.967,1.402,0.000,-6.563,0.000,0.025,0.031,0.004,0.030,-1.029,1.480
0722_174603_0144.png,0.048,0.173,0.926,-0.017,0.170,0.923,0.170,-0.010,1.086,-0.114,0.005,1.152,0.236,-0.228,0.930,-0.114,-0.176,0.935,0.263,-0.374,0.707,-0.116,-0.354,0.724,1009.200,717.843,0.926,942.654,715.140,0.923,1108.814,531.312,1.086,866.041,544.400,1.152,1200.929,306.970,0.930,844.186,361.196,0.935,1314.207,36.594,0.707,807.758,75.465,0.724,-0.034,-0.962,1.401,0.000,-12.323,0.000,0.017,-0.037,-0.020,-0.146,-1.186,1.191
0722_174603_0145.png,0.010,0.146,0.930,-0.054,0.151,0.939,0.125,-0.009,1.139,-0.161,-0.018,1.100,0.092,-0.183,0.935,-0.252,-0.260,1.050,0.061,-0.352,0.736,-0.094,-0.326,0.859,969.854,689.689,0.930,905.781,693.138,0.939,1064.579,532.659,1.139,821.269,524.722,1.100,1054.038,354.281,0.935,731.616,304.425,1.050,1038.503,84.890,0.736,856.105,178.501,0.859,-0.039,-0.965,1.402,0.000,-350.926,0.000,0.028,0.023,0.023,-0.193,-1.190,1.317
0722_174603_0146.png,0.007,0.148,0.943,-0.057,0.151,0.947,0.117,-0.014,1.145,-0.171,-0.023,1.104,0.236,-0.227,1.041,-0.259,-0.261,1.032,0.282,-0.332,0.807,-0.123,-0.333,0.822,966.816,689.628,0.943,902.303,691.525,0.947,1056.943,528.735,1.145,812.789,520.225,1.104,1175.849,332.815,1.041,721.179,299.344,1.032,1292.705,148.308,0.807,818.125,155.462,0.822,-0.030,-0.961,1.401,0.000,-350.532,0.000,0.021,0.038,0.010,0.010,-0.825,1.720
0722_174603_0147.png,0.000,0.145,0.932,-0.066,0.149,0.937,0.115,-0.009,1.144,-0.183,-0.018,1.104,0.219,-0.254,1.171,-0.258,-0.249,0.987,0.242,-0.302,0.913,-0.173,-0.344,0.757,960.197,688.212,0.932,892.931,690.978,0.937,1055.436,532.828,1.144,802.624,524.545,1.104,1137.729,333.401,1.171,711.185,299.861,0.987,1212.170,225.191,0.913,742.864,108.086,0.757,-0.023,-0.961,1.401,0.000,-350.877,0.000,-0.012,0.015,0.000,-0.030,-1.228,1.369
0722_174603_0148.png,0.047,0.159,0.942,-0.018,0.156,0.936,0.162,-0.010,1.102,-0.130,0.000,1.145,0.195,-0.186,1.294,-0.231,-0.201,0.991,0.318,-0.259,1.072,-0.283,-0.342,0.772,1007.812,700.638,0.942,941.706,698.173,0.936,1100.220,530.993,1.102,851.933,539.692,1.145,1103.635,402.988,1.294,738.428,347.664,0.991,1242.365,310.567,1.072,611.761,118.845,0.772,-0.033,-0.971,1.403,0.000,-7.558,0.000,0.003,0.032,-0.007,0.086,-0.969,1.646
0722_174603_0149.png,0.036,0.163,0.933,-0.031,0.162,0.932,0.158,-0.016,1.103,-0.144,-0.010,1.131,0.235,-0.271,1.067,-0.255,-0.232,1.241,0.080,-0.313,0.862,-0.255,-0.279,0.988,996.832,706.095,0.933,928.332,705.373,0.932,1095.845,526.298,1.103,838.725,532.010,1.131,1169.373,298.667,1.067,764.948,361.946,1.241,1048.275,195.164,0.862,714.781,271.878,0.988,-0.032,-0.962,1.401,0.000,-4.232,0.000,-0.021,-0.003,0.029,-0.044,-1.042,1.134
0722_174603_0150.png,0.023,0.136,0.942,-0.043,0.135,0.939,0.130,-0.019,1.137,-0.168,-0.024,1.115,0.233,-0.222,1.265,-0.238,-0.254,1.004,0.352,-0.265,1.038,-0.098,-0.330,0.797,982.964,676.910,0.942,916.086,677.014,0.939,1068.874,524.512,1.137,817.071,519.811,1.115,1134.832,372.868,1.265,734.214,298.959,1.004,1282.808,297.610,1.038,843.349,145.670,0.797,-0.030,-0.958,1.400,0.000,-354.418,0.000,-0.006,0.040,0.011,0.238,-1.167,1.495
0722_174603_0151.png,0.056,0.164,0.932,-0.010,0.159,0.923,0.170,-0.016,1.079,-0.124,-0.001,1.148,0.203,-0.263,0.983,-0.136,-0.218,0.997,0.091,-0.339,0.763,-0.050,-0.335,0.781,1017.156,707.877,0.932,949.876,704.066,0.923,1109.682,525.492,1.079,857.378,539.500,1.148,1156.585,284.975,0.983,830.578,331.692,0.997,1073.289,117.505,0.763,899.676,131.835,0.781,-0.030,-0.966,1.402,0.000,-12.381,0.000,-0.018,-0.002,0.024,0.176,-1.130,1.239
0722_174603_0152.png,0.001,0.177,0.934,-0.063,0.180,0.941,0.115,0.003,1.138,-0.174,-0.006,1.096,0.183,-0.173,0.944,-0.161,-0.250,0.988,0.250,-0.346,0.755,-0.107,-0.350,0.755,961.102,720.433,0.934,896.280,722.071,0.941,1055.930,542.635,1.138,809.379,534.457,1.096,1144.396,365.215,0.944,804.801,299.302,0.988,1274.324,104.381,0.755,824.987,98.642,0.755,-0.028,-0.973,1.404,0.000,-350.425,0.000,0.018,0.005,0.017,-0.111,-0.852,1.136
0722_174603_0153.png,0.013,0.151,0.942,-0.052,0.154,0.950,0.140,-0.008,1.135,-0.159,-0.009,1.129,0.155,-0.257,1.025,-0.328,-0.215,1.081,-0.003,-0.332,0.820,-0.364,-0.323,0.834,973.486,692.197,0.942,907.574,694.240,0.950,1077.626,533.257,1.135,826.136,532.144,1.129,1103.804,301.195,1.025,671.824,350.570,1.081,957.091,154.870,0.820,544.565,171.913,0.834,-0.031,-0.965,1.402,0.000,-357.732,0.000,-0.008,0.036,-0.033,-0.258,-0.969,1.660
0722_174603_0154.png,0.045,0.170,0.933,-0.023,0.167,0.928,0.163,-0.003,1.107,-0.142,0.004,1.138,0.252,-0.257,1.056,-0.190,-0.174,0.929,0.270,-0.329,0.799,-0.236,-0.348,0.724,1005.712,713.148,0.933,936.473,711.198,0.928,1100.096,537.520,1.107,841.065,543.587,1.138,1186.580,308.185,1.056,765.034,361.635,0.929,1281.466,147.805,0.799,649.996,83.643,0.724,-0.034,-0.970,1.403,0.000,-4.820,0.000,-0.034,-0.008,-0.014,0.118,-1.082,1.477
0722_174603_0155.png,0.018,0.145,0.933,-0.046,0.146,0.936,0.132,-0.012,1.130,-0.155,-0.014,1.119,0.125,-0.239,0.988,-0.245,-0.240,1.223,-0.015,-0.346,0.796,-0.235,-0.297,0.968,978.398,687.330,0.933,913.688,688.708,0.936,1071.504,530.304,1.130,828.249,528.097,1.119,1079.866,309.639,0.988,769.179,353.246,1.223,942.547,126.864,0.796,729.296,248.263,0.968,-0.032,-0.962,1.401,0.000,-356.617,0.000,0.031,0.018,0.005,-0.073,-1.294,1.301
0722_174603_0156.png,0.036,0.170,0.940,-0.032,0.170,0.943,0.166,-0.014,1.096,-0.134,-0.001,1.154,0.182,-0.211,1.282,-0.234,-0.232,1.041,0.213,-0.271,1.020,-0.106,-0.328,0.822,996.397,712.444,0.940,928.046,711.661,0.943,1104.244,527.492,1.096,849.949,539.058,1.154,1094.988,383.524,1.282,745.972,328.163,1.041,1158.320,287.374,1.020,837.611,161.190,0.822,-0.027,-0.962,1.401,0.000,-10.012,0.000,-0.029,0.002,-0.027,-0.312,-0.867,1.239
0722_174603_0157.png,-0.015,0.155,0.929,-0.078,0.162,0.944,0.108,-0.004,1.150,-0.183,-0.018,1.087,0.251,-0.200,1.262,-0.260,-0.230,0.945,0.320,-0.274,1.023,-0.278,-0.353,0.717,945.033,698.425,0.929,881.262,703.090,0.944,1049.047,536.930,1.150,800.330,524.182,1.087,1148.875,389.029,1.262,698.405,308.079,0.945,1257.233,285.300,1.023,591.469,71.826,0.717,-0.029,-0.966,1.402,0.000,-346.362,0.000,-0.001,0.016,0.017,-0.361,-1.012,1.409
0722_174603_0158.png,0.011,0.188,0.929,-0.053,0.190,0.934,0.118,0.010,1.142,-0.168,-0.001,1.094,0.248,-0.209,1.044,-0.244,-0.226,1.237,0.293,-0.342,0.819,-0.260,-0.302,0.984,971.624,731.989,0.929,906.024,733.439,0.934,1058.362,548.086,1.142,813.533,538.841,1.094,1185.551,349.459,1.044,772.136,366.020,1.237,1300.558,142.900,0.819,708.689,247.970,0.984,-0.036,-0.971,1.403,0.000,-349.066,0.000,0.020,-0.028,-0.007,0.054,-0.757,1.571
0722_174603_0159.png,0.002,0.164,0.938,-0.066,0.166,0.943,0.118,-0.002,1.146,-0.186,-0.013,1.097,0.273,-0.212,1.075,-0.260,-0.171,1.297,0.348,-0.310,0.843,-0.281,-0.254,1.049,962.164,705.815,0.938,893.598,707.631,0.943,1058.231,538.192,1.146,799.055,528.347,1.097,1201.384,352.070,1.075,769.387,414.318,1.297,1352.154,190.814,0.843,704.993,309.591,1.049,-0.026,-0.968,1.403,0.000,-349.437,0.000,-0.038,0.021,0.007,0.025,-0.879,1.395
0722_174603_0160.png,-0.005,0.172,0.924,-0.072,0.177,0.933,0.110,0.004,1.151,-0.188,-0.011,1.085,0.177,-0.256,1.092,-0.261,-0.259,0.991,0.165,-0.324,0.836,-0.153,-0.343,0.764,954.723,717.003,0.924,886.557,720.140,0.933,1050.959,543.118,1.151,794.899,529.987,1.085,1113.957,317.306,1.092,709.910,291.155,0.991,1147.257,171.538,0.836,769.621,113.780,0.764,-0.029,-0.964,1.402,0.000,-346.020,0.000,-0.031,-0.027,-0.002,-0.078,-1.012,1.283
0722_174603_0161.png,0.055,0.155,0.946,-0.010,0.151,0.938,0.166,-0.023,1.091,-0.124,-0.011,1.147,0.226,-0.230,0.938,-0.279,-0.191,1.261,0.242,-0.352,0.711,-0.439,-0.259,1.070,1014.998,695.943,0.946,949.852,693.256,0.938,1104.687,519.581,1.091,857.375,531.194,1.147,1189.636,306.651,0.938,749.545,395.831,1.261,1283.413,69.122,0.711,569.703,309.791,1.070,-0.033,-0.964,1.402,0.000,-9.994,0.000,0.005,0.036,0.025,0.178,-0.934,1.275
0722_174603_0162.png,-0.003,0.160,0.922,-0.065,0.167,0.935,0.109,0.003,1.145,-0.169,-0.010,1.090,0.193,-0.251,1.106,-0.174,-0.194,0.891,0.210,-0.337,0.860,-0.181,-0.374,0.697,956.894,704.795,0.922,894.061,709.499,0.935,1050.528,542.076,1.145,812.191,531.213,1.090,1125.690,323.900,1.106,774.224,333.134,0.891,1192.545,167.525,0.860,713.531,30.263,0.697,-0.034,-0.968,1.403,0.000,-347.430,0.000,0.043,-0.008,0.007,-0.250,-1.151,1.449
0722_174603_0163.png,0.001,0.183,0.940,-0.064,0.185,0.942,0.107,0.011,1.152,-0.185,-0.001,1.099,0.188,-0.200,0.986,-0.274,-0.247,1.015,0.225,-0.353,0.760,-0.199,-0.351,0.773,961.455,724.898,0.940,895.001,726.341,0.942,1047.930,549.391,1.152,799.707,539.413,1.099,1141.106,346.969,0.986,703.082,308.524,1.015,1240.904,98.222,0.760,714.933,107.837,0.773,-0.025,-0.973,1.404,0.000,-348.378,0.000,0.000,-0.001,-0.040,0.153,-0.754,1.570
0722_174603_0164.png,0.051,0.166,0.934,-0.013,0.165,0.933,0.174,-0.014,1.086,-0.111,0.001,1.149,0.239,-0.241,0.959,-0.163,-0.212,0.992,0.252,-0.359,0.725,-0.082,-0.346,0.783,1012.250,709.565,0.934,946.252,707.828,0.933,1111.975,527.778,1.086,867.868,540.482,1.149,1197.079,300.717,0.959,803.610,337.009,0.992,1290.249,69.366,0.725,860.101,120.208,0.783,-0.039,-0.967,1.403,0.000,-11.665,0.000,0.016,0.006,0.005,-0.165,-0.869,1.678
0722_174603_0165.png,0.034,0.162,0.947,-0.034,0.161,0.947,0.155,-0.016,1.108,-0.146,-0.008,1.141,0.106,-0.217,0.934,-0.255,-0.207,1.277,0.021,-0.347,0.719,-0.273,-0.265,1.021,993.663,702.892,0.947,926.114,702.185,0.947,1093.258,526.526,1.108,837.952,533.305,1.141,1068.076,319.289,0.934,770.066,385.841,1.277,988.145,81.695,0.719,705.703,293.492,1.021,-0.027,-0.966,1.402,0.000,-5.299,0.000,-0.022,0.034,0.001,-0.054,-0.740,1.566
0722_174603_0166.png,0.052,0.175,0.947,-0.014,0.172,0.941,0.169,-0.009,1.093,-0.126,0.005,1.152,0.212,-0.193,1.278,-0.229,-0.226,1.051,0.374,-0.255,1.074,-0.096,-0.323,0.840,1012.489,715.388,0.947,945.609,713.424,0.941,1107.404,532.057,1.093,855.981,543.719,1.152,1117.762,396.063,1.278,752.939,335.752,1.051,1291.027,314.526,1.074,851.477,174.272,0.840,-0.031,-0.973,1.404,0.000,-10.471,0.000,-0.016,0.025,-0.016,0.050,-0.800,1.300
0722_174603_0167.png,0.060,0.168,0.923,-0.004,0.161,0.912,0.169,-0.016,1.069,-0.115,0.002,1.147,0.301,-0.255,1.059,-0.163,-0.185,0.967,0.359,-0.332,0.821,-0.169,-0.347,0.769,1021.281,713.258,0.923,955.419,708.163,0.912,1110.764,526.131,1.069,864.299,542.014,1.147,1230.491,310.835,1.059,799.514,358.496,0.967,1375.523,155.430,0.821,750.845,110.595,0.769,-0.030,-0.965,1.402,0.000,-14.598,0.000,0.003,-0.029,0.036,0.238,-1.127,1.550
0722_174603_0168.png,-0.003,0.148,0.925,-0.066,0.154,0.932,0.104,0.001,1.150,-0.179,-0.013,1.087,0.170,-0.258,1.147,-0.330,-0.210,1.185,0.149,-0.315,0.894,-0.278,-0.302,0.947,957.403,692.170,0.925,892.280,696.784,0.932,1046.165,540.803,1.150,803.083,528.390,1.087,1100.773,326.200,1.147,695.433,371.351,1.185,1118.036,204.696,0.894,680.374,236.513,0.947,-0.030,-0.969,1.403,0.000,-346.187,0.000,0.021,0.013,0.010,-0.039,-1.296,1.439
0722_174603_0169.png,0.027,0.181,0.934,-0.042,0.182,0.940,0.158,-0.004,1.113,-0.153,-0.001,1.125,0.080,-0.176,0.917,-0.288,-0.227,1.056,0.001,-0.343,0.726,-0.202,-0.318,0.825,987.595,724.178,0.934,917.948,724.601,0.940,1094.676,536.876,1.113,830.481,539.287,1.125,1043.288,357.089,0.917,700.221,335.237,1.056,961.882,91.201,0.726,727.112,173.754,0.825,-0.035,-0.969,1.403,0.000,-1.140,0.000,-0.047,-0.008,0.011,-0.233,-0.775,1.275
0722_174603_0170.png,0.008,0.160,0.931,-0.055,0.164,0.940,0.129,0.000,1.129,-0.158,-0.003,1.116,0.219,-0.216,1.254,-0.207,-0.183,0.911,0.276,-0.287,1.006,-0.257,-0.358,0.711,968.226,703.676,0.931,904.242,706.020,0.940,1069.021,540.026,1.129,825.146,537.529,1.116,1126.340,376.028,1.254,743.583,349.048,0.911,1220.703,269.200,1.006,616.188,60.432,0.711,-0.030,-0.973,1.404,0.000,-356.223,0.000,0.030,0.017,-0.002,-0.285,-1.115,1.382
0722_174603_0171.png,0.004,0.169,0.941,-0.060,0.173,0.948,0.115,0.002,1.149,-0.171,-0.008,1.107,0.158,-0.239,1.022,-0.226,-0.190,0.899,0.030,-0.344,0.812,-0.284,-0.368,0.699,963.962,711.340,0.941,899.771,713.505,0.948,1055.387,541.573,1.149,812.735,533.321,1.107,1107.049,317.242,1.022,720.719,339.180,0.899,995.227,137.648,0.812,574.064,39.821,0.699,-0.031,-0.968,1.403,0.000,-350.259,0.000,0.024,0.013,-0.033,-0.070,-0.863,1.365
0722_174603_0172.png,0.041,0.186,0.932,-0.023,0.185,0.931,0.163,0.002,1.094,-0.124,0.013,1.145,0.185,-0.266,1.032,-0.092,-0.174,0.936,0.032,-0.343,0.826,-0.063,-0.359,0.733,1002.315,730.059,0.932,936.104,728.679,0.931,1101.837,541.342,1.094,856.852,551.073,1.145,1130.731,294.678,1.032,866.242,362.878,0.936,996.684,145.665,0.826,877.741,74.826,0.733,-0.032,-0.974,1.404,0.000,-9.208,0.000,0.016,-0.019,-0.023,-0.149,-0.927,1.336
0722_174603_0173.png,0.016,0.177,0.930,-0.049,0.178,0.931,0.126,0.003,1.129,-0.165,-0.003,1.106,0.135,-0.266,1.095,-0.276,-0.231,1.016,0.084,-0.329,0.847,-0.319,-0.345,0.787,975.989,720.984,0.930,909.959,721.765,0.931,1066.191,542.193,1.129,818.343,537.737,1.106,1077.439,308.624,1.095,702.171,324.174,1.016,1053.780,170.361,0.847,575.220,122.850,0.787,-0.029,-0.971,1.403,0.000,-354.231,0.000,0.018,-0.013,0.014,0.062,-0.864,1.583
0722_174603_0174.png,0.017,0.168,0.922,-0.047,0.171,0.928,0.139,0.003,1.124,-0.154,0.002,1.118,0.128,-0.236,0.991,-0.281,-0.209,1.240,-0.015,-0.349,0.799,-0.353,-0.294,0.998,977.827,713.637,0.922,911.519,715.356,0.928,1077.794,542.957,1.124,829.086,541.796,1.118,1082.530,313.321,0.991,744.299,379.403,1.240,942.348,124.811,0.799,623.694,260.041,0.998,-0.033,-0.969,1.403,0.000,-357.619,0.000,0.013,-0.027,-0.010,-0.213,-1.232,1.376
0722_174603_0175.png,0.015,0.147,0.937,-0.052,0.150,0.942,0.130,-0.005,1.147,-0.170,-0.015,1.100,0.232,-0.210,1.274,-0.272,-0.211,0.944,0.396,-0.251,1.072,-0.321,-0.345,0.722,974.901,688.939,0.937,907.307,691.776,0.942,1067.620,536.247,1.147,813.300,526.759,1.100,1133.221,383.044,1.274,685.634,327.287,0.944,1311.181,317.172,1.072,537.038,86.070,0.722,-0.040,-0.969,1.403,0.000,-349.691,0.000,-0.022,0.041,0.005,0.002,-1.181,1.286
0722_174603_0176.png,-0.010,0.160,0.928,-0.076,0.166,0.936,0.098,0.009,1.158,-0.193,-0.006,1.092,0.157,-0.168,0.939,-0.295,-0.181,1.272,0.218,-0.341,0.726,-0.405,-0.274,1.043,949.549,703.666,0.928,882.868,708.155,0.936,1040.336,547.485,1.158,792.293,534.637,1.092,1119.361,369.710,0.939,739.068,404.622,1.272,1244.939,93.405,0.726,590.972,290.224,1.043,-0.023,-0.970,1.403,0.000,-345.612,0.000,-0.005,0.001,-0.038,-0.017,-1.125,1.625
0722_174603_0177.png,0.045,0.175,0.939,-0.023,0.173,0.936,0.167,-0.012,1.101,-0.136,-0.002,1.145,0.142,-0.257,0.980,-0.215,-0.176,0.941,-0.017,-0.339,0.778,-0.290,-0.345,0.741,1006.032,717.291,0.939,937.106,716.011,0.936,1104.565,529.738,1.101,846.738,538.602,1.145,1097.662,290.130,0.980,743.120,362.155,0.941,939.209,126.334,0.778,588.119,96.751,0.741,-0.033,-0.961,1.401,0.000,-7.353,0.000,-0.035,-0.014,-0.018,-0.004,-0.818,1.447
0722_174603_0178.png,0.031,0.153,0.935,-0.033,0.151,0.930,0.139,-0.011,1.112,-0.149,-0.007,1.127,0.118,-0.234,0.971,-0.315,-0.187,1.026,-0.017,-0.345,0.782,-0.439,-0.325,0.846,991.389,696.083,0.935,926.355,694.358,0.930,1078.996,530.637,1.112,834.043,533.712,1.127,1075.406,310.993,0.971,667.753,366.297,1.026,939.654,120.785,0.782,466.021,175.083,0.846,-0.026,-0.968,1.403,0.000,-1.925,0.000,0.027,0.019,0.023,0.198,-1.179,1.410
0722_174603_0179.png,0.047,0.170,0.930,-0.018,0.168,0.928,0.166,-0.019,1.077,-0.116,-0.003,1.146,0.174,-0.182,1.293,-0.142,-0.206,0.981,0.246,-0.273,1.066,-0.069,-0.346,0.781,1007.766,714.187,0.930,942.005,712.532,0.928,1106.787,523.104,1.077,863.996,537.279,1.146,1087.859,405.958,1.293,822.446,340.228,0.981,1179.267,296.585,1.066,876.503,118.613,0.781,-0.032,-0.964,1.402,0.000,-12.926,0.000,0.021,-0.009,0.037,-0.157,-0.952,1.123
0722_174603_0180.png,-0.014,0.152,0.930,-0.080,0.158,0.941,0.104,0.002,1.156,-0.192,-0.013,1.092,0.055,-0.172,0.939,-0.330,-0.225,1.182,0.008,-0.341,0.726,-0.408,-0.293,0.935,945.220,694.999,0.930,878.746,700.099,0.941,1045.437,541.673,1.156,792.595,528.961,1.092,1016.234,365.800,0.939,694.816,359.064,1.182,971.067,93.395,0.726,544.405,241.692,0.935,-0.024,-0.968,1.402,0.000,-346.323,0.000,-0.022,0.017,-0.019,-0.193,-1.150,1.497
0722_174603_0181.png,0.043,0.172,0.945,-0.025,0.171,0.942,0.165,-0.022,1.088,-0.135,-0.007,1.151,0.122,-0.268,0.992,-0.278,-0.209,1.263,0.060,-0.337,0.747,-0.303,-0.269,1.010,1003.398,713.432,0.945,935.135,712.511,0.942,1104.001,521.150,1.088,848.151,534.223,1.151,1077.205,282.701,0.992,750.556,382.303,1.263,1036.810,111.351,0.747,674.756,286.439,1.010,-0.024,-0.960,1.401,0.000,-11.059,0.000,-0.034,0.007,0.009,-0.065,-0.633,1.387
0722_174603_0182.png,0.038,0.190,0.928,-0.027,0.188,0.925,0.155,-0.001,1.091,-0.132,0.011,1.140,0.131,-0.244,0.969,-0.100,-0.170,0.931,-0.011,-0.355,0.778,-0.070,-0.347,0.729,998.450,734.446,0.928,932.142,733.001,0.925,1095.293,539.479,1.091,849.570,548.850,1.140,1088.613,300.765,0.969,857.558,366.225,0.931,946.281,106.111,0.778,868.844,86.819,0.729,-0.026,-0.972,1.403,0.000,-8.696,0.000,0.017,-0.035,0.000,-0.035,-0.933,1.188
0722_174603_0183.png,0.043,0.166,0.939,-0.025,0.164,0.935,0.159,-0.010,1.111,-0.145,-0.005,1.130,0.175,-0.266,1.037,-0.117,-0.179,0.925,-0.017,-0.314,0.861,-0.087,-0.347,0.724,1003.102,708.222,0.939,934.742,707.105,0.935,1095.890,531.615,1.111,837.635,535.541,1.130,1120.308,295.676,1.037,839.864,356.196,0.925,940.879,193.583,0.861,846.239,84.973,0.724,-0.036,-0.967,1.402,0.000,-2.602,0.000,-0.027,0.011,0.012,0.141,-0.953,1.329
0722_174603_0184.png,0.033,0.177,0.931,-0.034,0.178,0.937,0.163,-0.008,1.105,-0.143,-0.002,1.128,0.128,-0.246,0.990,-0.302,-0.206,1.223,0.070,-0.335,0.755,-0.430,-0.273,1.007,994.065,720.613,0.931,924.981,720.829,0.937,1100.335,533.450,1.105,839.361,538.095,1.128,1083.439,303.847,0.990,725.414,379.945,1.223,1048.536,118.641,0.755,553.591,281.917,1.007,-0.038,-0.968,1.403,0.000,-3.288,0.000,-0.034,-0.009,0.024,-0.256,-0.861,1.181
0722_174603_0185.png,0.006,0.165,0.930,-0.057,0.167,0.932,0.106,0.008,1.145,-0.174,-0.003,1.096,0.135,-0.236,1.029,-0.196,-0.246,0.977,-0.008,-0.343,0.842,-0.068,-0.358,0.776,966.098,708.315,0.930,901.825,710.625,0.932,1047.646,546.504,1.145,809.108,537.025,1.096,1084.630,322.300,1.029,769.700,300.816,0.977,950.877,152.821,0.842,876.737,101.250,0.776,-0.028,-0.975,1.404,0.000,-348.628,0.000,0.044,0.007,-0.007,0.141,-1.058,1.633
0722_174603_0186.png,0.056,0.141,0.939,-0.010,0.136,0.935,0.176,-0.023,1.086,-0.110,-0.006,1.162,0.143,-0.264,0.969,-0.251,-0.202,1.268,-0.008,-0.345,0.764,-0.262,-0.275,1.012,1016.525,682.874,0.939,950.216,678.568,0.935,1113.728,519.641,1.086,869.886,535.243,1.162,1100.416,280.602,0.969,771.775,388.698,1.268,950.591,110.074,0.764,713.359,281.559,1.012,-0.033,-0.963,1.402,0.000,-14.076,0.000,0.003,0.040,-0.016,-0.058,-1.148,1.681
0722_174603_0187.png,0.032,0.167,0.921,-0.034,0.167,0.923,0.158,-0.003,1.104,-0.139,0.005,1.138,0.196,-0.276,1.067,-0.216,-0.173,0.932,0.012,-0.327,0.879,-0.292,-0.348,0.733,992.905,712.622,0.921,924.678,711.662,0.923,1095.722,537.689,1.104,843.894,544.376,1.138,1134.744,293.949,1.067,739.754,363.371,0.932,973.398,186.212,0.879,581.522,88.990,0.733,-0.031,-0.965,1.402,0.000,-5.628,0.000,-0.005,-0.038,-0.018,-0.166,-1.257,1.494
0722_174603_0188.png,0.006,0.173,0.936,-0.059,0.177,0.947,0.132,-0.002,1.137,-0.165,-0.007,1.115,0.269,-0.230,1.070,-0.310,-0.237,1.133,0.274,-0.333,0.821,-0.166,-0.311,0.919,966.508,715.557,0.936,901.128,717.579,0.947,1070.679,538.142,1.137,819.409,533.776,1.115,1199.078,335.650,1.070,700.091,340.913,1.133,1277.783,154.667,0.821,787.893,218.119,0.919,-0.032,-0.964,1.402,0.000,-354.467,0.000,-0.004,-0.006,-0.022,-0.328,-0.867,1.252
0722_174603_0189.png,0.019,0.153,0.930,-0.048,0.155,0.932,0.137,-0.011,1.131,-0.167,-0.016,1.112,0.103,-0.210,0.952,-0.191,-0.267,1.016,0.010,-0.345,0.746,-0.054,-0.331,0.801,979.570,696.964,0.930,910.661,698.104,0.932,1075.281,530.409,1.131,817.121,526.508,1.112,1062.916,329.918,0.952,781.658,290.334,1.016,972.137,100.273,0.746,895.710,147.359,0.801,-0.031,-0.958,1.400,0.000,-355.159,0.000,-0.026,-0.008,0.011,0.012,-1.200,1.267
0722_174603_0190.png,0.005,0.171,0.928,-0.062,0.175,0.938,0.126,0.003,1.144,-0.174,-0.010,1.087,0.234,-0.234,1.083,-0.324,-0.236,1.081,0.105,-0.311,0.867,-0.371,-0.316,0.839,964.881,715.085,0.928,897.543,717.854,0.938,1064.694,542.726,1.144,808.085,531.587,1.087,1165.421,334.119,1.083,674.676,332.364,1.081,1074.855,198.756,0.867,539.938,181.569,0.839,-0.039,-0.971,1.403,0.000,-347.949,0.000,-0.028,0.001,0.022,-0.172,-0.897,1.418
0722_174603_0191.png,0.039,0.159,0.954,-0.026,0.156,0.947,0.150,-0.021,1.107,-0.142,-0.013,1.144,0.168,-0.268,1.009,-0.304,-0.223,1.127,0.133,-0.342,0.760,-0.209,-0.308,0.897,998.400,698.395,0.954,933.403,696.759,0.947,1088.997,521.778,1.107,841.596,529.470,1.144,1118.556,287.384,1.009,703.240,352.160,1.127,1125.979,111.343,0.760,738.000,213.872,0.897,-0.024,-0.962,1.401,0.000,-6.255,0.000,0.006,0.039,0.000,0.166,-0.787,1.265
0722_174603_0192.png,0.027,0.156,0.937,-0.037,0.157,0.942,0.152,-0.012,1.113,-0.137,-0.005,1.140,0.207,-0.221,1.268,-0.127,-0.185,0.927,0.241,-0.284,1.011,-0.120,-0.360,0.721,987.413,698.602,0.937,922.466,698.784,0.942,1089.993,530.061,1.113,845.720,535.552,1.140,1115.136,374.570,1.268,829.771,350.521,0.927,1186.609,272.591,1.011,801.834,64.398,0.721,-0.032,-0.964,1.402,0.000,-4.382,0.000,0.022,0.017,-0.018,-0.257,-0.971,1.649
0722_174603_0193.png,0.014,0.176,0.935,-0.051,0.179,0.944,0.140,0.003,1.123,-0.155,0.003,1.123,0.078,-0.176,0.916,-0.306,-0.219,1.092,0.019,-0.351,0.714,-0.260,-0.326,0.853,973.917,719.181,0.935,908.442,720.424,0.944,1078.384,542.336,1.123,828.507,542.440,1.123,1040.836,357.149,0.916,693.513,349.301,1.092,984.892,72.587,0.714,670.010,176.447,0.852,-0.030,-0.974,1.404,0.000,-358.935,0.000,0.006,0.007,-0.012,-0.309,-0.899,1.315
0722_174603_0194.png,0.036,0.167,0.936,-0.031,0.167,0.939,0.163,-0.010,1.099,-0.134,0.000,1.142,0.202,-0.267,1.033,-0.163,-0.245,1.036,0.043,-0.326,0.831,-0.109,-0.332,0.794,996.339,709.951,0.936,928.874,709.355,0.939,1100.941,531.522,1.099,848.343,540.193,1.142,1145.983,294.190,1.033,810.727,315.102,1.036,1009.385,167.348,0.831,829.789,142.735,0.794,-0.032,-0.970,1.403,0.000,-7.402,0.000,-0.011,0.014,0.003,-0.245,-0.945,1.339
0722_174603_0195.png,0.009,0.171,0.922,-0.056,0.175,0.928,0.125,0.010,1.140,-0.171,0.002,1.104,0.061,-0.181,0.947,-0.329,-0.224,1.097,-0.014,-0.357,0.753,-0.344,-0.331,0.850,969.490,716.352,0.922,902.106,719.188,0.928,1063.924,548.668,1.140,812.789,541.805,1.104,1021.492,358.278,0.947,674.872,345.928,1.097,942.124,89.424,0.753,575.256,169.440,0.850,-0.032,-0.970,1.403,0.000,-351.681,0.000,-0.003,-0.031,-0.026,-0.072,-1.136,1.623
0722_174603_0196.png,0.058,0.157,0.947,-0.007,0.150,0.936,0.167,-0.016,1.087,-0.121,0.000,1.157,0.097,-0.212,0.911,-0.276,-0.180,1.269,-0.017,-0.353,0.717,-0.426,-0.259,1.066,1017.874,697.322,0.947,952.956,692.753,0.936,1106.110,526.121,1.087,860.301,540.076,1.157,1061.388,319.172,0.911,752.941,405.224,1.269,937.319,71.716,0.717,580.317,308.686,1.066,-0.027,-0.972,1.403,0.000,-12.713,0.000,0.000,0.046,-0.005,0.231,-0.959,1.624
0722_174603_0197.png,0.012,0.188,0.932,-0.051,0.190,0.941,0.129,0.004,1.126,-0.155,0.000,1.111,0.163,-0.176,0.918,-0.286,-0.202,1.235,0.198,-0.351,0.717,-0.243,-0.302,0.996,971.836,731.258,0.932,908.611,732.201,0.941,1068.976,543.010,1.126,827.725,540.274,1.111,1128.832,358.060,0.918,739.911,384.341,1.235,1223.060,73.888,0.717,727.727,251.843,0.996,-0.032,-0.972,1.403,0.000,-355.904,0.000,0.044,-0.016,0.005,-0.228,-0.728,1.318
0722_174603_0198.png,0.013,0.191,0.930,-0.053,0.194,0.938,0.134,0.011,1.138,-0.167,0.005,1.107,0.277,-0.224,1.179,-0.292,-0.234,1.179,0.160,-0.304,0.949,-0.314,-0.308,0.920,973.584,735.684,0.930,905.847,737.133,0.938,1072.022,549.569,1.138,816.425,543.884,1.107,1183.181,359.556,1.179,724.434,351.440,1.179,1119.809,235.528,0.949,635.736,221.419,0.920,-0.035,-0.971,1.403,0.000,-352.966,0.000,-0.020,-0.033,-0.029,-0.136,-0.868,1.184
0722_174603_0199.png,0.049,0.144,0.949,-0.015,0.139,0.941,0.160,-0.029,1.099,-0.131,-0.017,1.149,0.215,-0.278,1.037,-0.319,-0.196,1.198,0.198,-0.332,0.785,-0.241,-0.288,0.967,1009.427,684.098,0.949,944.427,680.990,0.941,1098.640,515.164,1.099,851.917,525.801,1.149,1157.421,285.208,1.037,706.678,384.530,1.198,1199.948,137.174,0.785,723.099,256.886,0.967,-0.029,-0.958,1.400,0.000,-8.879,0.000,0.006,0.045,0.014,0.200,-1.026,1.288
0722_174603_0200.png,-0.005,0.175,0.925,-0.070,0.179,0.933,0.110,0.002,1.143,-0.182,-0.008,1.099,0.226,-0.242,1.209,-0.320,-0.188,1.259,0.245,-0.306,0.950,-0.337,-0.293,1.015,954.683,719.468,0.925,888.551,722.044,0.933,1051.844,541.820,1.143,802.527,533.127,1.099,1137.829,349.682,1.209,718.572,397.794,1.259,1204.907,233.729,0.950,644.549,265.385,1.015,-0.023,-0.962,1.401,0.000,-350.034,0.000,0.004,-0.037,-0.012,-0.140,-0.954,1.471
0722_174603_0201.png,0.048,0.170,0.940,-0.020,0.168,0.936,0.169,-0.011,1.088,-0.130,0.004,1.152,0.173,-0.253,1.196,-0.232,-0.202,1.007,0.166,-0.288,0.935,-0.223,-0.333,0.777,1008.629,712.363,0.940,940.102,710.211,0.936,1108.099,530.409,1.088,852.628,543.159,1.152,1097.174,338.566,1.196,741.136,349.695,1.007,1129.001,247.297,0.935,687.141,132.196,0.777,-0.028,-0.972,1.403,0.000,-11.269,0.000,-0.033,0.018,-0.004,-0.033,-0.902,1.357
0722_174603_0202.png,0.050,0.173,0.930,-0.013,0.169,0.924,0.163,-0.008,1.087,-0.115,0.005,1.143,0.179,-0.239,0.950,-0.118,-0.203,0.972,0.113,-0.368,0.733,-0.061,-0.359,0.771,1010.911,716.887,0.930,946.521,714.197,0.924,1102.637,532.713,1.087,863.953,543.957,1.143,1139.664,300.884,0.950,844.658,341.365,0.972,1106.721,62.838,0.733,884.860,97.909,0.771,-0.034,-0.970,1.403,0.000,-10.677,0.000,0.042,-0.013,0.011,0.045,-0.941,1.668
0722_174603_0203.png,0.026,0.180,0.939,-0.040,0.181,0.940,0.142,-0.003,1.121,-0.156,-0.006,1.110,0.086,-0.176,0.924,-0.159,-0.253,1.018,0.028,-0.344,0.731,-0.098,-0.332,0.784,986.122,722.784,0.939,919.237,723.052,0.940,1080.556,537.515,1.121,826.323,535.264,1.110,1048.250,358.404,0.924,811.959,303.886,1.018,996.631,92.238,0.731,840.519,137.317,0.784,-0.036,-0.973,1.404,0.000,-356.600,0.000,-0.005,0.009,0.036,0.016,-0.687,1.241
0722_174603_0204.png,0.002,0.162,0.933,-0.063,0.163,0.933,0.103,-0.001,1.145,-0.185,-0.015,1.084,0.086,-0.170,0.937,-0.246,-0.266,1.028,0.069,-0.334,0.734,-0.092,-0.324,0.832,962.313,704.834,0.933,895.880,706.384,0.933,1045.361,538.860,1.145,797.508,526.672,1.084,1047.639,367.075,0.937,732.140,294.149,1.028,1048.797,106.933,0.734,854.368,169.522,0.832,-0.024,-0.971,1.403,0.000,-346.733,0.000,0.008,0.018,0.036,0.252,-0.950,1.445
0722_174603_0205.png,0.030,0.170,0.930,-0.033,0.169,0.927,0.135,0.004,1.127,-0.150,0.002,1.117,0.229,-0.252,1.135,-0.135,-0.197,0.927,0.083,-0.322,0.928,-0.081,-0.371,0.729,990.937,713.836,0.930,926.158,713.591,0.927,1074.201,543.442,1.127,832.239,541.692,1.117,1151.692,328.997,1.135,821.920,337.629,0.927,1045.490,210.259,0.928,854.768,56.022,0.729,-0.035,-0.971,1.403,0.000,-356.955,0.000,0.038,-0.014,-0.013,0.199,-1.160,1.419
0722_174603_0206.png,0.040,0.176,0.930,-0.027,0.174,0.929,0.164,-0.014,1.073,-0.129,0.003,1.147,0.141,-0.248,0.953,-0.241,-0.240,1.186,0.091,-0.344,0.723,-0.223,-0.292,0.936,1001.072,719.972,0.930,932.639,718.511,0.929,1105.712,527.236,1.073,853.230,542.362,1.147,1100.760,292.339,0.953,766.634,347.841,1.186,1079.297,87.034,0.723,733.185,243.690,0.936,-0.023,-0.970,1.403,0.000,-13.546,0.000,-0.021,-0.004,0.036,-0.212,-0.906,1.122
0722_174603_0207.png,0.037,0.184,0.932,-0.030,0.183,0.932,0.156,0.001,1.109,-0.145,0.005,1.126,0.225,-0.250,1.194,-0.268,-0.222,1.042,0.268,-0.297,0.940,-0.196,-0.330,0.814,997.303,727.311,0.932,928.991,726.923,0.932,1094.148,541.067,1.109,837.408,544.412,1.126,1139.108,341.143,1.194,715.675,337.697,1.042,1231.465,239.080,0.940,730.606,154.685,0.814,-0.036,-0.974,1.404,0.000,-2.198,0.000,-0.018,-0.013,0.008,-0.002,-0.852,1.386
0722_174603_0208.png,0.057,0.174,0.933,-0.009,0.170,0.925,0.171,-0.016,1.081,-0.123,-0.002,1.145,0.130,-0.240,0.944,-0.306,-0.188,1.228,0.073,-0.350,0.719,-0.326,-0.284,0.991,1017.782,717.222,0.933,950.542,714.805,0.925,1110.398,525.571,1.081,857.456,538.546,1.145,1090.898,298.457,0.944,722.751,394.707,1.228,1056.579,77.538,0.719,647.534,267.711,0.991,-0.033,-0.964,1.402,0.000,-11.357,0.000,-0.016,-0.015,0.028,0.159,-0.947,1.166
0722_174603_0209.png,0.021,0.168,0.946,-0.046,0.168,0.944,0.130,-0.006,1.144,-0.169,-0.012,1.118,0.093,-0.184,0.920,-0.280,-0.206,1.273,0.060,-0.359,0.701,-0.438,-0.268,1.062,980.973,709.174,0.946,913.969,709.529,0.944,1067.780,534.890,1.144,815.932,529.657,1.118,1056.201,349.363,0.920,750.783,386.457,1.273,1040.736,53.539,0.701,568.153,299.854,1.062,-0.031,-0.958,1.400,0.000,-353.699,0.000,-0.011,-0.003,-0.043,0.211,-0.857,1.354
0722_174603_0210.png,0.033,0.155,0.935,-0.033,0.154,0.935,0.154,-0.011,1.104,-0.144,-0.004,1.134,0.169,-0.255,1.196,-0.278,-0.224,1.193,0.145,-0.287,0.942,-0.335,-0.288,0.950,993.320,697.574,0.935,925.997,696.596,0.935,1092.240,530.745,1.104,839.468,536.812,1.134,1094.433,336.972,1.196,738.443,361.243,1.193,1106.700,250.074,0.942,624.407,251.343,0.950,-0.029,-0.972,1.404,0.000,-4.780,0.000,-0.007,0.033,0.023,-0.059,-1.017,1.630
0722_174603_0211.png,0.015,0.165,0.930,-0.054,0.167,0.932,0.131,0.002,1.137,-0.176,-0.006,1.104,0.172,-0.251,1.050,-0.131,-0.229,0.958,-0.020,-0.312,0.869,-0.062,-0.343,0.730,974.849,708.917,0.930,905.055,710.387,0.932,1069.366,541.494,1.137,808.250,535.056,1.104,1115.543,312.271,1.050,829.468,312.305,0.958,938.478,198.870,0.869,879.620,93.406,0.730,-0.030,-0.969,1.403,0.000,-352.580,0.000,-0.040,-0.004,0.000,0.071,-1.127,1.326
0722_174603_0212.png,0.029,0.164,0.937,-0.035,0.162,0.933,0.138,-0.008,1.122,-0.153,-0.007,1.127,0.187,-0.222,1.282,-0.187,-0.232,0.976,0.218,-0.285,1.026,-0.086,-0.355,0.765,989.675,706.120,0.937,924.151,705.197,0.933,1077.403,532.805,1.122,831.276,533.956,1.127,1098.834,375.164,1.282,778.122,314.102,0.976,1162.149,276.022,1.026,852.842,98.563,0.765,-0.028,-0.962,1.401,0.000,0.011,0.000,0.020,-0.006,-0.009,0.172,-0.993,1.539
0722_174603_0213.png,0.048,0.167,0.932,-0.016,0.164,0.930,0.171,-0.015,1.091,-0.113,0.000,1.155,0.289,-0.261,1.073,-0.108,-0.184,0.940,0.270,-0.344,0.816,-0.106,-0.364,0.731,1009.432,710.126,0.932,943.399,707.778,0.930,1109.046,527.011,1.091,867.155,539.937,1.155,1216.054,308.300,1.073,850.822,353.902,0.940,1274.967,138.878,0.816,822.201,65.744,0.731,-0.035,-0.959,1.401,0.000,-11.957,0.000,0.019,-0.021,-0.028,-0.176,-1.122,1.203
0722_174603_0214.png,0.008,0.175,0.935,-0.055,0.177,0.938,0.115,0.003,1.138,-0.170,-0.005,1.104,0.195,-0.254,1.112,-0.254,-0.239,0.999,0.210,-0.335,0.861,-0.201,-0.358,0.769,968.398,718.252,0.935,904.051,719.463,0.938,1055.716,542.370,1.138,814.024,535.725,1.104,1127.035,322.625,1.112,718.235,312.653,0.999,1192.162,169.963,0.861,711.083,96.841,0.769,-0.027,-0.970,1.403,0.000,-351.838,0.000,0.036,-0.003,-0.005,0.070,-0.940,1.178
0722_174603_0215.png,0.005,0.157,0.938,-0.062,0.159,0.942,0.124,-0.007,1.140,-0.177,-0.013,1.112,0.100,-0.182,0.926,-0.149,-0.222,0.938,0.076,-0.353,0.718,-0.086,-0.354,0.714,965.150,698.979,0.938,897.814,700.742,0.942,1063.102,534.299,1.140,808.554,528.699,1.112,1062.289,352.813,0.926,809.153,314.819,0.938,1060.699,72.729,0.718,845.223,68.829,0.714,-0.024,-0.963,1.401,0.000,-353.415,0.000,-0.017,0.015,-0.010,-0.057,-0.903,1.706
0722_174603_0216.png,0.047,0.179,0.934,-0.021,0.177,0.930,0.165,-0.006,1.094,-0.136,0.004,1.138,0.202,-0.200,1.282,-0.229,-0.198,0.988,0.349,-0.260,1.070,-0.240,-0.338,0.769,1007.363,722.209,0.934,939.019,720.703,0.930,1103.185,534.662,1.094,846.590,543.315,1.138,1109.678,391.726,1.282,739.951,349.394,0.988,1269.805,309.091,1.070,663.458,121.483,0.769,-0.033,-0.971,1.403,0.000,-7.371,0.000,-0.023,-0.007,0.015,0.068,-0.891,1.309
0722_174603_0217.png,0.034,0.172,0.927,-0.033,0.171,0.924,0.149,0.005,1.119,-0.155,0.006,1.122,0.210,-0.230,0.992,-0.289,-0.219,1.039,0.169,-0.347,0.756,-0.347,-0.333,0.805,994.979,716.361,0.927,925.928,715.565,0.924,1086.281,544.465,1.119,828.826,545.172,1.122,1161.625,319.547,0.992,695.885,339.375,1.039,1172.998,103.313,0.756,550.653,146.684,0.805,-0.033,-0.973,1.404,0.000,-359.544,0.000,-0.022,-0.021,-0.011,0.157,-1.244,1.356
0722_174603_0218.png,0.034,0.169,0.937,-0.031,0.170,0.941,0.160,-0.016,1.099,-0.132,-0.008,1.137,0.233,-0.209,1.273,-0.136,-0.181,0.928,0.366,-0.270,1.058,-0.138,-0.350,0.723,994.811,711.767,0.937,928.706,711.695,0.941,1098.585,525.980,1.099,849.425,533.721,1.137,1134.212,383.834,1.273,820.931,354.300,0.928,1289.099,297.489,1.058,778.535,79.666,0.723,-0.034,-0.963,1.401,0.000,-6.394,0.000,0.006,0.004,0.021,-0.272,-0.760,1.421
0722_174603_0219.png,0.046,0.177,0.931,-0.019,0.174,0.928,0.165,-0.009,1.089,-0.123,0.003,1.144,0.245,-0.261,1.024,-0.153,-0.177,0.936,0.250,-0.348,0.776,-0.183,-0.352,0.734,1007.037,720.629,0.931,940.606,718.804,0.928,1103.933,531.947,1.089,857.573,542.905,1.144,1187.851,297.970,1.024,804.420,360.703,0.936,1265.859,113.810,0.776,723.520,83.577,0.734,-0.033,-0.967,1.402,0.000,-9.979,0.000,0.011,-0.018,0.005,-0.057,-1.033,1.066
0722_174603_0220.png,0.013,0.176,0.936,-0.052,0.178,0.940,0.127,0.003,1.136,-0.166,-0.002,1.111,0.135,-0.207,0.958,-0.282,-0.224,1.214,0.099,-0.357,0.739,-0.364,-0.297,0.972,973.016,718.617,0.936,907.127,719.831,0.940,1066.200,542.860,1.136,817.859,538.025,1.111,1093.873,334.730,0.958,739.008,364.874,1.214,1087.006,80.271,0.739,603.574,248.964,0.972,-0.030,-0.970,1.403,0.000,-353.842,0.000,0.010,-0.002,-0.015,-0.024,-0.874,1.421
0722_174603_0221.png,0.015,0.188,0.937,-0.053,0.190,0.945,0.144,0.006,1.128,-0.164,0.004,1.120,0.159,-0.247,1.021,-0.301,-0.210,1.225,-0.017,-0.325,0.830,-0.369,-0.282,0.975,974.845,730.216,0.937,906.540,731.145,0.945,1081.021,544.958,1.128,820.431,543.576,1.120,1107.874,309.506,1.021,726.581,377.269,1.225,939.973,167.177,0.830,599.812,264.709,0.975,-0.031,-0.973,1.404,0.000,-357.442,0.000,-0.038,-0.008,-0.024,-0.238,-0.720,1.393
0722_174603_0222.png,0.032,0.182,0.928,-0.032,0.179,0.922,0.142,-0.004,1.102,-0.147,0.002,1.128,0.114,-0.251,0.995,-0.313,-0.203,1.200,-0.017,-0.351,0.795,-0.304,-0.308,0.963,992.783,726.339,0.928,926.914,724.872,0.922,1082.669,536.734,1.102,836.148,541.831,1.128,1069.289,300.006,0.995,712.102,378.748,1.200,940.090,119.739,0.795,659.965,235.376,0.963,-0.024,-0.966,1.402,0.000,-4.085,0.000,0.022,-0.039,0.016,0.166,-0.887,1.612
0722_174603_0223.png,0.031,0.179,0.936,-0.034,0.178,0.934,0.146,-0.002,1.117,-0.152,0.000,1.125,0.122,-0.231,0.974,-0.236,-0.175,0.925,-0.017,-0.346,0.780,-0.318,-0.345,0.730,991.988,721.366,0.936,924.983,720.881,0.934,1083.959,538.679,1.117,831.828,540.251,1.125,1078.788,314.019,0.974,717.731,360.423,0.925,939.510,118.499,0.780,546.169,90.101,0.730,-0.031,-0.969,1.403,0.000,-0.417,0.000,-0.002,-0.011,-0.004,0.102,-0.835,1.505
0722_174603_0224.png,0.021,0.168,0.927,-0.045,0.169,0.929,0.140,-0.008,1.122,-0.159,-0.008,1.120,0.243,-0.232,1.005,-0.329,-0.222,1.090,0.279,-0.347,0.770,-0.382,-0.326,0.853,981.743,712.876,0.927,913.854,713.351,0.929,1078.983,533.483,1.122,825.190,533.169,1.120,1189.976,320.118,1.005,672.644,346.531,1.090,1304.232,110.720,0.770,533.811,176.270,0.853,-0.029,-0.958,1.400,0.000,-358.521,0.000,-0.008,-0.036,-0.002,-0.056,-1.145,1.124
0722_174603_0225.png,0.003,0.178,0.938,-0.064,0.181,0.944,0.119,0.006,1.150,-0.182,-0.006,1.099,0.149,-0.239,1.026,-0.236,-0.251,1.201,-0.017,-0.327,0.832,-0.210,-0.295,0.936,962.945,720.562,0.938,895.240,722.357,0.944,1058.168,544.652,1.150,802.745,534.927,1.099,1098.356,318.474,1.026,773.547,340.907,1.201,940.745,165.877,0.832,746.692,240.654,0.936,-0.030,-0.969,1.403,0.000,-349.140,0.000,-0.027,-0.002,-0.026,-0.018,-0.743,1.562
0722_174603_0226.png,0.066,0.169,0.945,0.000,0.162,0.932,0.177,-0.010,1.091,-0.120,0.005,1.157,0.314,-0.243,1.096,-0.088,-0.173,0.937,0.377,-0.315,0.843,-0.057,-0.346,0.723,1026.875,709.703,0.945,960.278,705.310,0.932,1114.603,531.325,1.091,860.969,544.246,1.157,1232.586,328.770,1.096,870.758,364.374,0.937,1385.047,184.368,0.843,885.552,84.455,0.723,-0.035,-0.970,1.403,0.000,-11.597,0.000,-0.028,0.016,-0.029,0.309,-1.001,1.408
0722_174603_0227.png,0.035,0.176,0.923,-0.031,0.175,0.923,0.153,0.002,1.107,-0.141,0.006,1.125,0.250,-0.225,1.233,-0.223,-0.237,1.036,0.374,-0.290,1.012,-0.098,-0.337,0.830,995.560,721.190,0.923,928.403,720.667,0.923,1091.346,541.398,1.107,841.136,544.871,1.125,1152.666,366.051,1.233,754.982,322.550,1.036,1311.592,267.214,1.012,847.539,154.294,0.830,-0.036,-0.972,1.404,0.000,-2.426,0.000,0.009,-0.028,0.009,-0.039,-1.153,1.309
0722_174603_0228.png,0.001,0.165,0.935,-0.066,0.169,0.943,0.119,0.000,1.149,-0.180,-0.011,1.099,0.227,-0.234,1.230,-0.312,-0.247,1.068,0.241,-0.286,0.968,-0.343,-0.326,0.814,960.780,707.812,0.935,893.719,710.543,0.943,1058.160,540.076,1.149,804.195,530.196,1.099,1135.413,359.041,1.230,681.867,320.089,1.068,1196.570,259.309,0.968,559.834,158.973,0.814,-0.031,-0.966,1.402,0.000,-349.137,0.000,-0.021,0.007,-0.016,-0.114,-0.991,1.226
