rolosa10/RGSpipe/dataset/synthetic_dataset/Coods3D_unique0722_164523.csv
filename,left_eye,left_eye,left_eye,right_eye,right_eye,right_eye,left_shoulder,left_shoulder,left_shoulder,right_shoulder,right_shoulder,right_shoulder,left_elbow,left_elbow,left_elbow,right_elbow,right_elbow,right_elbow,left_wrist,left_wrist,left_wrist,right_wrist,right_wrist,right_wrist,left_eye_2D,left_eye_2D,left_eye_2D,right_eye_2D,right_eye_2D,right_eye_2D,left_shoulder_2D,left_shoulder_2D,left_shoulder_2D,right_shoulder_2D,right_shoulder_2D,right_shoulder_2D,left_elbow_2D,left_elbow_2D,left_elbow_2D,right_elbow_2D,right_elbow_2D,right_elbow_2D,left_wrist_2D,left_wrist_2D,left_wrist_2D,right_wrist_2D,right_wrist_2D,right_wrist_2D,root_position,root_position,root_position,root_pitch,root_yaw,root_roll,root_scale,root_scale,root_scale,look_at,look_at,look_at
0722_164523_0001.png,0.020,0.166,0.948,-0.045,0.165,0.946,0.131,-0.011,1.125,-0.163,-0.011,1.122,0.081,-0.185,0.922,-0.335,-0.213,1.110,0.032,-0.354,0.724,-0.429,-0.309,0.886,980.484,706.350,0.948,915.113,706.060,0.946,1070.558,531.032,1.125,821.888,530.456,1.122,1043.147,349.575,0.922,673.230,357.119,1.110,1001.853,75.167,0.724,499.752,208.309,0.886,-0.023,-0.967,1.402,0.000,-358.260,0.000,0.011,0.030,0.010,0.157,-0.787,1.244
0722_164523_0002.png,-0.001,0.162,0.946,-0.066,0.165,0.954,0.113,-0.008,1.148,-0.177,-0.018,1.105,0.085,-0.184,0.934,-0.146,-0.236,0.945,0.060,-0.355,0.726,-0.091,-0.360,0.716,958.731,703.105,0.946,894.454,704.872,0.954,1053.193,533.253,1.148,807.698,524.551,1.105,1046.730,352.817,0.934,813.155,302.758,0.945,1039.009,74.294,0.726,839.512,61.570,0.716,-0.027,-0.963,1.401,0.000,-350.226,0.000,0.014,0.029,-0.011,-0.093,-0.775,1.231
0722_164523_0003.png,0.037,0.182,0.929,-0.026,0.181,0.929,0.156,0.001,1.094,-0.124,0.012,1.141,0.107,-0.226,0.951,-0.198,-0.230,1.040,-0.017,-0.365,0.763,-0.068,-0.345,0.847,997.501,726.489,0.929,932.919,725.130,0.929,1095.496,540.967,1.094,856.463,549.984,1.141,1067.012,314.018,0.951,779.262,329.520,1.040,938.451,85.783,0.763,883.678,152.486,0.847,-0.031,-0.976,1.404,0.000,-8.655,0.000,0.043,-0.014,-0.006,-0.159,-1.008,1.286
0722_164523_0004.png,0.034,0.166,0.927,-0.032,0.165,0.928,0.161,-0.001,1.099,-0.136,0.010,1.148,0.179,-0.214,0.917,-0.295,-0.210,1.095,0.151,-0.369,0.693,-0.264,-0.327,0.851,995.139,710.675,0.927,926.718,708.753,0.928,1099.167,539.098,1.099,847.506,548.495,1.148,1145.592,318.375,0.917,703.814,357.939,1.095,1166.602,34.211,0.693,665.176,174.917,0.851,-0.027,-0.971,1.403,0.000,-8.478,0.000,-0.014,-0.013,-0.036,-0.161,-1.178,1.638
0722_164523_0005.png,0.012,0.163,0.923,-0.053,0.166,0.927,0.124,0.002,1.135,-0.169,-0.007,1.097,0.204,-0.209,1.288,-0.180,-0.250,0.985,0.334,-0.267,1.072,-0.090,-0.349,0.764,972.327,708.105,0.923,905.341,710.395,0.927,1063.792,541.781,1.135,813.475,534.183,1.097,1110.270,385.390,1.288,786.353,299.016,0.985,1256.695,302.812,1.072,847.842,105.436,0.764,-0.033,-0.970,1.403,0.000,-351.157,0.000,0.005,-0.010,0.021,0.003,-1.181,1.393
0722_164523_0006.png,0.036,0.174,0.929,-0.027,0.172,0.926,0.146,-0.002,1.105,-0.137,0.003,1.125,0.236,-0.241,1.029,-0.276,-0.180,0.992,0.265,-0.348,0.797,-0.369,-0.343,0.814,996.963,718.255,0.929,932.468,717.130,0.926,1085.924,538.261,1.105,844.000,542.127,1.125,1178.019,316.865,1.029,695.458,367.031,0.992,1276.854,125.162,0.797,528.675,138.893,0.814,-0.033,-0.973,1.404,0.000,-2.914,0.000,0.042,-0.009,0.024,0.104,-1.077,1.236
0722_164523_0007.png,0.034,0.160,0.934,-0.031,0.158,0.933,0.154,-0.004,1.107,-0.135,0.005,1.145,0.256,-0.250,1.128,-0.308,-0.201,1.131,0.107,-0.316,0.916,-0.412,-0.313,0.908,994.579,702.668,0.934,928.787,700.860,0.933,1092.065,536.831,1.107,847.989,544.309,1.145,1176.115,329.016,1.128,701.165,371.249,1.131,1070.735,211.934,0.916,528.835,212.271,0.908,-0.028,-0.972,1.403,0.000,-6.648,0.000,0.019,0.013,-0.029,-0.086,-1.273,1.317
0722_164523_0008.png,0.031,0.171,0.929,-0.037,0.173,0.934,0.162,-0.006,1.109,-0.146,-0.002,1.128,0.129,-0.213,0.941,-0.322,-0.212,1.157,0.058,-0.344,0.725,-0.406,-0.293,0.923,992.092,715.580,0.929,922.453,716.013,0.934,1099.047,534.994,1.109,836.792,538.694,1.128,1089.979,324.486,0.941,695.051,365.897,1.157,1036.012,88.673,0.725,541.627,238.167,0.923,-0.038,-0.967,1.403,0.000,-2.382,0.000,-0.040,-0.011,0.011,-0.253,-1.002,1.271
0722_164523_0009.png,0.000,0.151,0.939,-0.066,0.155,0.947,0.122,-0.011,1.145,-0.179,-0.019,1.110,0.171,-0.240,1.008,-0.197,-0.268,1.008,0.038,-0.333,0.795,-0.164,-0.344,0.755,960.439,692.622,0.939,893.646,695.273,0.947,1061.270,531.268,1.145,806.881,524.115,1.110,1121.087,313.333,1.008,773.881,286.802,1.008,1005.974,141.885,0.795,753.601,106.654,0.755,-0.026,-0.959,1.401,0.000,-352.030,0.000,-0.020,0.022,-0.013,-0.170,-1.053,1.264
0722_164523_0010.png,0.033,0.179,0.942,-0.031,0.178,0.941,0.147,-0.010,1.115,-0.143,-0.007,1.127,0.089,-0.188,0.913,-0.234,-0.181,0.940,0.035,-0.362,0.716,-0.324,-0.352,0.758,993.685,720.436,0.942,928.884,720.186,0.941,1085.022,531.396,1.115,839.630,533.867,1.127,1053.196,344.041,0.913,722.931,356.308,0.940,1006.320,58.692,0.716,552.782,98.572,0.758,-0.034,-0.963,1.401,0.000,-1.318,0.000,0.025,-0.006,0.006,0.047,-0.675,1.325
0722_164523_0011.png,0.011,0.170,0.926,-0.055,0.174,0.935,0.133,-0.002,1.136,-0.166,-0.010,1.101,0.074,-0.176,0.930,-0.235,-0.254,1.003,0.014,-0.345,0.729,-0.099,-0.338,0.795,971.251,714.461,0.926,904.060,716.763,0.935,1071.441,538.050,1.136,816.773,531.120,1.101,1035.253,359.917,0.930,736.796,299.176,1.003,978.282,89.892,0.729,841.343,135.880,0.795,-0.037,-0.963,1.401,0.000,-352.054,0.000,-0.014,-0.023,0.008,-0.188,-0.921,1.525
0722_164523_0012.png,0.035,0.175,0.928,-0.032,0.174,0.925,0.145,0.008,1.129,-0.159,0.005,1.118,0.257,-0.236,1.203,-0.272,-0.244,1.171,0.125,-0.294,0.974,-0.308,-0.311,0.910,995.712,719.340,0.928,926.608,718.921,0.925,1082.445,546.458,1.129,825.034,544.432,1.118,1163.274,353.200,1.203,738.914,342.155,1.171,1082.059,252.833,0.974,638.162,215.206,0.910,-0.036,-0.970,1.403,0.000,-356.761,0.000,-0.025,-0.031,-0.031,0.244,-1.163,1.464
0722_164523_0013.png,0.039,0.169,0.937,-0.027,0.168,0.935,0.157,-0.013,1.101,-0.141,-0.007,1.130,0.193,-0.257,1.007,-0.273,-0.186,0.987,0.050,-0.326,0.806,-0.346,-0.330,0.790,999.731,711.739,0.937,932.312,710.946,0.935,1095.625,528.428,1.101,840.944,534.495,1.130,1142.548,297.484,1.007,697.090,360.969,0.987,1019.120,154.672,0.806,543.552,142.535,0.790,-0.032,-0.968,1.403,0.000,-4.678,0.000,-0.010,0.011,0.038,0.029,-0.856,1.228
0722_164523_0014.png,0.049,0.189,0.927,-0.017,0.188,0.926,0.173,-0.004,1.077,-0.115,0.013,1.150,0.101,-0.259,1.006,-0.223,-0.217,1.049,0.026,-0.349,0.769,-0.126,-0.334,0.833,1010.365,734.320,0.927,942.595,732.678,0.926,1113.122,536.226,1.077,864.900,550.407,1.150,1055.709,294.656,1.006,757.677,343.214,1.049,991.869,108.530,0.769,815.960,158.303,0.833,-0.033,-0.971,1.403,0.000,-13.457,0.000,-0.004,-0.033,-0.002,-0.202,-0.874,1.311
0722_164523_0015.png,0.055,0.164,0.929,-0.008,0.160,0.923,0.167,-0.013,1.083,-0.117,0.000,1.139,0.278,-0.201,1.239,-0.240,-0.178,0.993,0.257,-0.289,1.003,-0.316,-0.335,0.806,1016.590,708.300,0.929,951.415,705.251,0.923,1106.831,528.930,1.083,862.652,540.254,1.139,1173.113,385.333,1.239,729.701,369.229,0.993,1203.875,265.541,1.003,587.845,145.465,0.806,-0.038,-0.971,1.403,0.000,-10.309,0.000,0.025,0.004,0.042,0.121,-1.021,1.600
0722_164523_0016.png,0.032,0.162,0.937,-0.036,0.160,0.933,0.149,-0.008,1.111,-0.154,-0.002,1.136,0.214,-0.189,1.299,-0.275,-0.182,0.966,0.208,-0.263,1.044,-0.341,-0.340,0.761,992.073,704.828,0.937,923.589,703.333,0.933,1087.628,533.467,1.111,830.883,538.360,1.136,1116.387,401.384,1.299,689.758,361.273,0.966,1149.727,300.281,1.044,534.136,114.768,0.761,-0.024,-0.968,1.402,0.000,-3.603,0.000,-0.025,0.008,-0.009,0.087,-0.973,1.696
0722_164523_0017.png,0.040,0.189,0.930,-0.025,0.187,0.927,0.158,-0.008,1.096,-0.135,0.001,1.135,0.243,-0.269,1.152,-0.176,-0.179,0.936,0.088,-0.311,0.945,-0.215,-0.356,0.743,1001.266,733.079,0.930,934.273,732.278,0.927,1097.033,532.889,1.096,846.871,540.800,1.135,1160.693,317.630,1.152,781.525,357.654,0.936,1048.985,227.252,0.945,685.261,84.117,0.743,-0.031,-0.962,1.401,0.000,-6.765,0.000,0.004,-0.047,0.011,0.012,-0.742,1.405
0722_164523_0018.png,0.022,0.152,0.938,-0.045,0.152,0.938,0.138,-0.005,1.129,-0.162,-0.006,1.123,0.185,-0.180,0.919,-0.257,-0.249,1.059,0.231,-0.351,0.713,-0.092,-0.317,0.862,981.997,694.172,0.938,914.570,694.477,0.938,1075.869,535.855,1.129,822.517,534.686,1.123,1151.379,353.234,0.919,728.816,316.344,1.059,1268.144,72.215,0.713,858.222,190.035,0.862,-0.028,-0.970,1.403,0.000,-357.672,0.000,-0.010,0.029,-0.010,0.048,-1.204,1.365
0722_164523_0019.png,0.011,0.156,0.934,-0.054,0.158,0.938,0.123,-0.008,1.136,-0.169,-0.015,1.103,0.222,-0.234,1.235,-0.302,-0.245,1.117,0.240,-0.285,0.983,-0.151,-0.307,0.916,971.310,698.704,0.934,905.363,700.317,0.938,1063.269,533.536,1.136,814.587,526.932,1.103,1131.003,359.789,1.235,702.852,331.395,1.117,1192.569,264.575,0.983,803.544,221.783,0.916,-0.030,-0.966,1.402,0.000,-352.338,0.000,0.010,0.019,0.023,0.009,-1.039,1.322
0722_164523_0020.png,0.049,0.161,0.944,-0.016,0.154,0.933,0.161,-0.011,1.100,-0.132,0.002,1.157,0.296,-0.245,1.104,-0.301,-0.201,1.218,0.288,-0.325,0.842,-0.434,-0.286,0.995,1009.468,701.867,0.944,943.387,697.370,0.933,1098.930,530.250,1.100,851.069,541.482,1.157,1215.074,329.012,1.104,725.233,383.341,1.218,1285.582,172.562,0.842,545.311,266.682,0.995,-0.024,-0.965,1.402,0.000,-10.094,0.000,-0.007,0.013,-0.043,0.234,-1.079,1.548
0722_164523_0021.png,0.010,0.159,0.925,-0.057,0.161,0.928,0.129,-0.002,1.128,-0.174,-0.008,1.103,0.152,-0.239,1.012,-0.286,-0.212,0.973,-0.002,-0.323,0.818,-0.337,-0.338,0.755,969.928,703.676,0.925,901.103,705.419,0.928,1068.471,538.455,1.128,809.941,533.486,1.103,1102.514,315.833,1.012,680.093,332.742,0.973,957.364,164.395,0.818,535.747,114.341,0.755,-0.026,-0.970,1.403,0.000,-354.002,0.000,-0.023,-0.002,0.030,-0.044,-1.138,1.546
0722_164523_0022.png,0.038,0.178,0.943,-0.027,0.177,0.943,0.161,-0.002,1.102,-0.129,0.010,1.152,0.214,-0.203,1.268,-0.246,-0.169,0.966,0.272,-0.281,1.014,-0.364,-0.343,0.787,998.747,719.414,0.943,932.916,718.210,0.943,1098.992,538.684,1.102,853.825,548.221,1.152,1120.215,387.518,1.268,717.676,373.550,0.966,1214.846,276.233,1.014,520.423,125.153,0.787,-0.029,-0.975,1.404,0.000,-8.864,0.000,0.010,0.016,-0.042,-0.163,-0.807,1.533
0722_164523_0023.png,0.026,0.169,0.939,-0.037,0.170,0.942,0.149,-0.002,1.115,-0.138,0.004,1.141,0.228,-0.218,1.250,-0.300,-0.197,1.054,0.330,-0.291,1.012,-0.390,-0.336,0.839,986.671,711.466,0.939,922.238,711.337,0.942,1086.725,538.063,1.115,844.899,543.247,1.141,1133.412,373.731,1.250,689.400,362.656,1.054,1269.908,266.581,1.012,518.075,158.423,0.839,-0.029,-0.971,1.403,0.000,-4.314,0.000,0.030,0.011,-0.037,-0.209,-0.920,1.574
0722_164523_0024.png,0.017,0.172,0.947,-0.051,0.173,0.948,0.130,-0.003,1.148,-0.174,-0.011,1.111,0.061,-0.178,0.936,-0.279,-0.200,1.274,-0.006,-0.349,0.728,-0.449,-0.258,1.069,976.799,713.068,0.947,908.732,713.941,0.948,1067.752,537.630,1.148,811.314,530.378,1.111,1022.088,358.608,0.936,751.796,390.673,1.274,952.814,83.912,0.728,560.951,310.128,1.069,-0.033,-0.962,1.401,0.000,-351.805,0.000,-0.031,0.006,-0.038,0.126,-0.771,1.303
0722_164523_0025.png,0.024,0.163,0.933,-0.041,0.163,0.934,0.139,-0.005,1.120,-0.154,-0.006,1.118,0.245,-0.215,1.246,-0.247,-0.205,1.268,0.396,-0.272,1.044,-0.277,-0.277,1.022,984.868,705.815,0.933,918.653,706.043,0.934,1078.108,535.688,1.120,828.753,535.218,1.118,1146.710,375.633,1.246,774.584,385.911,1.268,1320.753,292.258,1.044,702.320,282.469,1.022,-0.031,-0.971,1.403,0.000,-358.355,0.000,0.012,0.014,0.022,0.018,-1.017,1.438
0722_164523_0026.png,0.035,0.164,0.927,-0.029,0.161,0.927,0.157,-0.014,1.075,-0.120,0.003,1.148,0.248,-0.214,1.228,-0.089,-0.173,0.946,0.395,-0.283,1.032,-0.060,-0.345,0.750,995.574,707.782,0.927,930.360,705.534,0.927,1099.098,527.835,1.075,861.007,542.575,1.148,1152.090,374.520,1.228,870.240,366.024,0.946,1324.418,279.038,1.032,883.850,101.945,0.750,-0.022,-0.972,1.403,0.000,-14.045,0.000,0.034,0.008,0.028,-0.259,-1.012,1.597
0722_164523_0027.png,0.046,0.167,0.945,-0.018,0.163,0.936,0.157,-0.015,1.099,-0.127,-0.004,1.151,0.168,-0.271,1.004,-0.247,-0.237,1.079,0.013,-0.348,0.802,-0.108,-0.330,0.876,1006.154,708.139,0.945,941.869,705.541,0.936,1096.149,526.615,1.099,855.426,537.107,1.151,1119.243,282.991,1.004,742.457,331.274,1.079,975.075,127.185,0.802,842.353,181.842,0.876,-0.027,-0.961,1.401,0.000,-9.487,0.000,0.027,0.005,-0.022,0.132,-0.917,1.344
0722_164523_0028.png,0.012,0.164,0.928,-0.054,0.166,0.935,0.137,-0.013,1.122,-0.162,-0.014,1.114,0.213,-0.184,0.932,-0.269,-0.254,1.054,0.274,-0.348,0.741,-0.130,-0.323,0.847,972.540,707.866,0.928,905.373,709.135,0.935,1076.207,529.293,1.122,821.293,527.697,1.114,1177.139,352.372,0.932,717.149,310.375,1.054,1311.778,93.632,0.741,814.392,177.637,0.847,-0.029,-0.959,1.400,0.000,-357.307,0.000,-0.009,-0.016,0.029,-0.224,-0.942,1.383
0722_164523_0029.png,0.027,0.181,0.931,-0.039,0.181,0.929,0.136,0.004,1.129,-0.158,0.001,1.116,0.279,-0.227,1.175,-0.183,-0.247,0.996,0.391,-0.309,0.946,-0.083,-0.358,0.773,987.086,724.664,0.931,920.328,724.802,0.929,1074.563,543.761,1.129,825.264,541.265,1.116,1185.400,355.921,1.175,784.992,303.947,0.996,1353.140,229.260,0.946,857.420,99.699,0.773,-0.033,-0.967,1.402,0.000,-356.236,0.000,0.008,-0.033,-0.022,0.159,-1.023,1.284
0722_164523_0030.png,0.013,0.163,0.929,-0.051,0.166,0.937,0.134,-0.007,1.127,-0.157,-0.011,1.106,0.218,-0.236,1.238,-0.300,-0.190,1.246,0.240,-0.287,0.989,-0.374,-0.282,1.019,973.763,706.498,0.929,908.662,708.378,0.937,1072.848,534.480,1.127,824.924,530.361,1.106,1127.309,358.566,1.238,730.737,395.080,1.246,1191.278,263.735,0.989,610.810,276.677,1.019,-0.035,-0.967,1.402,0.000,-354.725,0.000,0.018,0.005,0.033,-0.215,-0.971,1.397
0722_164523_0031.png,0.002,0.179,0.931,-0.065,0.182,0.941,0.126,0.000,1.144,-0.180,-0.012,1.092,0.177,-0.250,1.052,-0.170,-0.253,0.972,-0.008,-0.312,0.866,-0.125,-0.344,0.731,962.298,722.328,0.931,893.889,724.056,0.941,1064.822,539.747,1.144,803.454,529.394,1.092,1120.019,314.406,1.052,794.089,291.940,0.972,951.423,196.906,0.866,796.823,92.892,0.731,-0.034,-0.964,1.402,0.000,-348.994,0.000,-0.045,-0.017,0.011,-0.175,-0.776,1.244
0722_164523_0032.png,0.022,0.172,0.926,-0.044,0.174,0.929,0.136,-0.005,1.128,-0.161,-0.011,1.099,0.230,-0.239,1.042,-0.326,-0.193,1.224,0.148,-0.329,0.817,-0.288,-0.289,0.992,982.770,716.739,0.926,915.006,717.756,0.929,1074.783,536.100,1.128,820.522,530.274,1.099,1170.057,322.167,1.042,707.012,390.282,1.224,1132.063,157.295,0.817,683.999,262.839,0.992,-0.038,-0.964,1.402,0.000,-353.156,0.000,-0.006,-0.023,0.038,0.039,-1.024,1.074
0722_164523_0033.png,0.028,0.172,0.940,-0.037,0.174,0.946,0.155,-0.008,1.120,-0.141,-0.003,1.138,0.202,-0.205,1.303,-0.277,-0.225,1.045,0.329,-0.270,1.073,-0.234,-0.343,0.802,988.742,714.032,0.940,922.856,714.553,0.946,1091.626,533.630,1.120,842.586,537.186,1.138,1107.517,390.498,1.303,708.188,335.068,1.045,1251.415,300.833,1.073,682.113,133.085,0.802,-0.036,-0.961,1.401,0.000,-2.402,0.000,0.002,-0.007,-0.041,-0.275,-0.860,1.342
0722_164523_0034.png,0.033,0.183,0.928,-0.035,0.183,0.931,0.159,-0.003,1.104,-0.147,0.002,1.126,0.103,-0.225,0.966,-0.255,-0.249,1.128,-0.019,-0.337,0.765,-0.264,-0.310,0.877,993.428,727.201,0.928,924.099,727.134,0.931,1096.778,537.108,1.104,836.206,541.483,1.126,1061.233,318.553,0.966,744.750,329.814,1.128,936.607,121.502,0.765,673.687,204.283,0.877,-0.034,-0.970,1.403,0.000,-3.102,0.000,-0.031,-0.022,0.024,-0.148,-0.846,1.313
0722_164523_0035.png,0.026,0.163,0.931,-0.042,0.163,0.936,0.157,-0.012,1.093,-0.145,-0.001,1.141,0.166,-0.271,1.158,-0.171,-0.173,0.936,0.146,-0.296,0.901,-0.194,-0.340,0.734,986.217,706.091,0.931,917.389,705.572,0.936,1096.374,529.386,1.093,839.088,539.018,1.141,1096.185,317.668,1.158,785.996,364.020,0.936,1113.901,227.730,0.901,709.338,100.239,0.734,-0.022,-0.970,1.403,0.000,-8.089,0.000,-0.030,0.014,0.021,-0.319,-1.028,1.328
0722_164523_0036.png,0.018,0.149,0.947,-0.046,0.151,0.955,0.144,-0.023,1.122,-0.150,-0.021,1.131,0.225,-0.212,1.282,-0.262,-0.251,1.061,0.203,-0.268,1.029,-0.107,-0.318,0.862,978.566,689.382,0.947,913.807,690.395,0.955,1082.254,520.302,1.122,833.627,522.091,1.131,1127.228,383.047,1.282,725.002,315.380,1.061,1147.599,292.316,1.029,841.497,189.254,0.862,-0.031,-0.957,1.400,0.000,-0.524,0.000,0.008,0.043,0.010,-0.280,-0.766,1.521
0722_164523_0037.png,0.043,0.159,0.927,-0.021,0.156,0.927,0.166,-0.014,1.079,-0.117,0.002,1.145,0.228,-0.217,0.924,-0.273,-0.191,1.240,0.243,-0.358,0.712,-0.449,-0.266,1.071,1004.563,702.822,0.927,938.499,700.520,0.927,1105.989,528.043,1.079,862.596,541.340,1.145,1194.784,316.715,0.924,750.450,393.161,1.240,1284.287,62.168,0.712,561.148,303.513,1.071,-0.032,-0.973,1.404,0.000,-12.301,0.000,0.020,0.015,0.037,-0.183,-1.055,1.676
0722_164523_0038.png,0.018,0.175,0.942,-0.050,0.175,0.942,0.134,-0.007,1.125,-0.169,-0.010,1.112,0.287,-0.228,1.122,-0.299,-0.207,1.241,0.356,-0.301,0.885,-0.442,-0.266,1.030,977.941,716.427,0.942,910.024,716.603,0.942,1073.428,534.304,1.125,815.348,531.852,1.112,1203.324,346.668,1.122,730.519,381.577,1.241,1342.855,216.559,0.885,552.396,294.399,1.030,-0.026,-0.968,1.403,0.000,-356.471,0.000,-0.023,0.013,0.026,0.072,-0.731,1.174
0722_164523_0039.png,0.049,0.191,0.935,-0.015,0.187,0.925,0.160,-0.013,1.075,-0.121,0.004,1.150,0.105,-0.234,0.930,-0.118,-0.172,0.938,0.027,-0.370,0.721,-0.115,-0.344,0.733,1010.054,733.955,0.935,945.081,732.350,0.925,1101.849,528.769,1.075,860.308,543.698,1.150,1067.033,300.433,0.930,840.790,366.038,0.938,995.159,51.358,0.721,810.873,93.572,0.733,-0.023,-0.964,1.402,0.000,-14.092,0.000,0.020,-0.038,0.011,0.129,-0.708,1.297
0722_164523_0040.png,0.036,0.174,0.935,-0.030,0.174,0.938,0.164,-0.008,1.092,-0.131,0.003,1.141,0.274,-0.239,1.011,-0.131,-0.189,0.955,0.311,-0.335,0.773,-0.078,-0.345,0.752,996.791,716.819,0.935,929.508,716.359,0.938,1103.026,532.634,1.092,850.868,542.448,1.141,1218.043,315.455,1.011,829.428,351.702,0.955,1342.141,127.494,0.773,861.773,104.033,0.752,-0.032,-0.974,1.404,0.000,-8.607,0.000,-0.009,0.013,0.019,-0.308,-0.862,1.274
0722_164523_0041.png,0.018,0.163,0.928,-0.044,0.165,0.935,0.133,-0.005,1.128,-0.149,-0.008,1.116,0.194,-0.239,1.005,-0.293,-0.217,1.035,0.117,-0.357,0.784,-0.374,-0.347,0.822,978.688,706.511,0.928,915.163,708.121,0.935,1072.458,535.818,1.128,833.190,533.516,1.116,1143.374,314.105,1.005,690.815,340.467,1.035,1102.294,106.950,0.784,527.732,139.046,0.822,-0.036,-0.964,1.402,0.000,-356.426,0.000,0.049,-0.011,0.000,-0.161,-1.093,1.380
0722_164523_0042.png,0.031,0.164,0.937,-0.036,0.164,0.939,0.157,-0.017,1.106,-0.148,-0.011,1.133,0.172,-0.274,1.037,-0.216,-0.178,0.933,-0.009,-0.315,0.850,-0.279,-0.340,0.736,991.926,706.669,0.937,923.118,706.489,0.939,1095.330,525.358,1.106,835.888,530.955,1.133,1118.024,288.427,1.037,739.543,358.704,0.933,949.961,187.978,0.850,598.964,100.913,0.736,-0.030,-0.961,1.401,0.000,-4.052,0.000,-0.032,0.006,0.022,-0.136,-0.797,1.519
0722_164523_0043.png,-0.011,0.167,0.922,-0.075,0.172,0.931,0.102,0.001,1.142,-0.185,-0.013,1.080,0.071,-0.168,0.938,-0.284,-0.194,0.914,0.039,-0.333,0.738,-0.328,-0.357,0.721,948.584,712.234,0.922,883.329,715.444,0.931,1044.598,540.793,1.142,796.802,528.229,1.080,1032.234,369.218,0.938,664.861,337.967,0.914,1010.750,111.164,0.738,527.475,69.685,0.721,-0.024,-0.969,1.403,0.000,-346.268,0.000,0.010,-0.009,0.042,-0.154,-1.076,1.146
0722_164523_0044.png,0.039,0.171,0.932,-0.028,0.168,0.926,0.155,-0.012,1.098,-0.147,-0.003,1.135,0.086,-0.185,0.904,-0.275,-0.226,1.049,0.017,-0.353,0.715,-0.202,-0.326,0.820,1000.290,714.909,0.932,931.722,712.944,0.926,1094.041,529.705,1.098,836.569,537.293,1.135,1050.836,344.933,0.904,710.931,335.547,1.049,982.347,69.635,0.715,725.839,161.887,0.820,-0.025,-0.963,1.401,0.000,-6.115,0.000,-0.026,-0.021,0.017,0.167,-0.964,1.431
0722_164523_0045.png,-0.016,0.151,0.930,-0.082,0.158,0.943,0.105,-0.003,1.159,-0.192,-0.020,1.088,0.163,-0.175,0.944,-0.241,-0.283,1.041,0.219,-0.342,0.733,-0.055,-0.318,0.851,943.836,693.993,0.930,877.429,699.243,0.943,1046.092,537.230,1.159,791.762,522.739,1.088,1124.469,363.442,0.944,740.054,282.024,1.041,1244.443,96.136,0.733,897.989,184.120,0.851,-0.027,-0.961,1.401,0.000,-345.022,0.000,-0.032,0.008,-0.016,-0.233,-1.035,1.600
0722_164523_0046.png,0.030,0.173,0.932,-0.036,0.172,0.931,0.149,-0.008,1.102,-0.144,0.000,1.136,0.109,-0.236,0.962,-0.284,-0.209,1.240,0.021,-0.356,0.746,-0.352,-0.287,0.999,990.518,716.415,0.932,923.707,715.386,0.931,1088.967,533.260,1.102,839.698,540.090,1.136,1068.000,306.852,0.962,742.575,379.548,1.240,986.664,85.865,0.746,624.595,266.939,0.999,-0.025,-0.967,1.402,0.000,-5.703,0.000,0.006,-0.013,0.004,-0.067,-1.037,1.151
0722_164523_0047.png,0.029,0.152,0.929,-0.035,0.151,0.928,0.148,-0.013,1.106,-0.143,-0.005,1.138,0.239,-0.265,1.142,-0.194,-0.210,0.968,0.081,-0.308,0.937,-0.161,-0.355,0.750,989.994,695.751,0.929,923.645,694.205,0.928,1087.141,528.937,1.106,840.725,535.412,1.138,1159.323,319.291,1.142,769.819,333.461,0.968,1042.688,227.124,0.937,755.336,89.811,0.750,-0.025,-0.962,1.401,0.000,-5.293,0.000,0.015,-0.003,0.001,-0.041,-1.178,1.660
0722_164523_0048.png,0.001,0.159,0.934,-0.065,0.162,0.941,0.122,-0.010,1.135,-0.177,-0.017,1.102,0.079,-0.202,0.958,-0.330,-0.232,1.153,-0.023,-0.337,0.762,-0.398,-0.297,0.914,961.413,701.386,0.934,894.504,703.237,0.941,1062.016,531.872,1.135,806.836,525.014,1.102,1038.557,339.981,0.958,687.746,348.355,1.153,931.712,119.053,0.762,545.977,230.465,0.914,-0.025,-0.964,1.402,0.000,-352.308,0.000,-0.014,0.016,0.031,-0.128,-0.858,1.558
0722_164523_0049.png,0.039,0.182,0.940,-0.024,0.180,0.935,0.149,-0.006,1.108,-0.135,0.000,1.135,0.240,-0.262,1.084,-0.305,-0.197,1.202,0.248,-0.344,0.832,-0.313,-0.311,0.962,999.411,724.180,0.940,935.450,723.168,0.935,1088.050,534.584,1.108,847.246,539.898,1.135,1170.512,310.175,1.084,718.908,384.338,1.202,1243.847,146.314,0.832,650.925,232.456,0.962,-0.032,-0.965,1.402,0.000,-4.390,0.000,0.040,-0.017,-0.009,0.118,-0.758,1.437
0722_164523_0050.png,0.024,0.181,0.942,-0.040,0.180,0.938,0.131,0.001,1.126,-0.156,0.001,1.123,0.184,-0.197,1.303,-0.108,-0.182,0.913,0.240,-0.282,1.055,-0.064,-0.362,0.709,984.044,722.764,0.942,919.803,722.400,0.938,1070.392,541.032,1.126,827.909,540.545,1.123,1094.560,396.186,1.303,847.774,350.332,0.913,1176.578,285.943,1.055,873.930,54.537,0.709,-0.027,-0.970,1.403,0.000,-358.310,0.000,0.034,-0.004,-0.020,0.182,-0.830,1.310
0722_164523_0051.png,0.014,0.175,0.942,-0.052,0.176,0.943,0.127,-0.003,1.141,-0.172,-0.008,1.116,0.086,-0.182,0.920,-0.346,-0.218,1.075,0.048,-0.356,0.704,-0.448,-0.325,0.847,974.402,716.664,0.942,907.236,717.281,0.943,1065.721,537.664,1.141,813.064,532.831,1.116,1048.861,352.215,0.920,653.632,347.476,1.075,1024.507,58.720,0.704,456.749,174.907,0.847,-0.027,-0.961,1.401,0.000,-354.041,0.000,-0.012,-0.011,-0.037,0.099,-0.784,1.447
0722_164523_0052.png,0.033,0.175,0.934,-0.032,0.175,0.934,0.149,-0.001,1.117,-0.145,0.000,1.124,0.206,-0.180,0.916,-0.276,-0.201,1.248,0.262,-0.355,0.720,-0.436,-0.275,1.054,993.747,718.204,0.934,927.375,718.045,0.934,1086.709,538.783,1.117,837.103,540.135,1.124,1173.805,352.556,0.916,749.552,386.820,1.248,1305.840,70.909,0.720,566.614,292.219,1.054,-0.036,-0.971,1.403,0.000,-0.209,0.000,0.010,-0.004,0.003,0.024,-0.817,1.707
0722_164523_0053.png,0.018,0.168,0.931,-0.046,0.169,0.930,0.116,-0.001,1.146,-0.168,-0.012,1.098,0.195,-0.213,1.303,-0.260,-0.243,0.988,0.298,-0.282,1.067,-0.230,-0.365,0.752,978.507,711.356,0.931,913.183,712.717,0.930,1056.558,539.078,1.146,814.901,529.594,1.098,1102.567,384.620,1.303,709.254,305.853,0.988,1225.993,289.018,1.067,669.427,79.070,0.752,-0.035,-0.960,1.401,0.000,-349.096,0.000,0.030,-0.025,-0.012,0.265,-1.047,1.365
0722_164523_0054.png,0.002,0.156,0.943,-0.064,0.160,0.953,0.128,-0.011,1.147,-0.175,-0.020,1.107,0.150,-0.258,1.042,-0.272,-0.263,1.044,0.118,-0.331,0.788,-0.116,-0.320,0.835,962.434,697.495,0.943,895.938,700.013,0.953,1066.327,531.200,1.147,809.978,523.205,1.107,1096.548,304.588,1.042,712.433,300.800,1.044,1102.297,140.616,0.788,827.543,175.893,0.835,-0.033,-0.960,1.401,0.000,-351.314,0.000,-0.029,0.027,-0.009,-0.234,-0.795,1.528
0722_164523_0055.png,0.052,0.185,0.938,-0.016,0.183,0.934,0.174,-0.014,1.078,-0.126,0.003,1.153,0.139,-0.272,1.002,-0.264,-0.231,1.189,0.018,-0.334,0.777,-0.284,-0.292,0.934,1012.351,727.500,0.938,943.225,726.416,0.934,1113.417,527.811,1.078,856.346,542.861,1.153,1091.791,282.002,1.002,748.989,355.032,1.189,981.948,131.359,0.777,670.649,243.181,0.934,-0.029,-0.966,1.402,0.000,-13.275,0.000,-0.041,-0.014,0.007,-0.068,-0.632,1.466
0722_164523_0056.png,0.045,0.170,0.933,-0.020,0.167,0.929,0.162,-0.006,1.100,-0.129,0.004,1.142,0.102,-0.187,0.899,-0.294,-0.183,1.246,0.046,-0.365,0.702,-0.372,-0.287,1.013,1005.648,713.161,0.933,939.237,711.177,0.929,1100.078,534.876,1.100,852.913,543.161,1.142,1068.382,341.864,0.899,735.628,400.110,1.246,1021.942,46.399,0.702,611.206,270.543,1.013,-0.034,-0.969,1.403,0.000,-7.323,0.000,0.010,-0.007,-0.013,0.019,-0.960,1.689
0722_164523_0057.png,0.015,0.160,0.942,-0.051,0.160,0.942,0.126,-0.002,1.139,-0.172,-0.008,1.114,0.116,-0.180,0.921,-0.156,-0.245,0.984,0.106,-0.352,0.708,-0.056,-0.344,0.757,975.128,701.135,0.942,908.066,701.892,0.942,1065.178,538.409,1.139,812.725,533.411,1.114,1079.424,354.525,0.921,809.379,302.814,0.984,1102.622,66.771,0.708,889.747,107.504,0.757,-0.027,-0.970,1.403,0.000,-353.859,0.000,-0.009,0.029,-0.015,0.133,-0.968,1.521
0722_164523_0058.png,0.048,0.187,0.931,-0.019,0.186,0.933,0.177,-0.003,1.082,-0.115,0.013,1.153,0.123,-0.249,0.971,-0.265,-0.214,1.114,0.059,-0.355,0.733,-0.134,-0.315,0.903,1008.841,731.093,0.931,940.732,729.893,0.933,1115.625,537.298,1.082,865.150,550.923,1.153,1080.504,295.918,0.971,733.809,357.123,1.114,1036.009,79.336,0.733,818.923,208.661,0.903,-0.035,-0.973,1.404,0.000,-12.834,0.000,-0.014,-0.019,-0.018,-0.304,-0.792,1.522
0722_164523_0059.png,0.007,0.165,0.925,-0.059,0.168,0.928,0.118,0.008,1.141,-0.176,0.001,1.106,0.051,-0.176,0.941,-0.261,-0.250,1.027,-0.013,-0.357,0.747,-0.154,-0.347,0.799,966.914,709.987,0.925,899.728,712.358,0.928,1058.297,547.071,1.141,808.636,540.453,1.106,1011.309,362.093,0.941,718.348,308.716,1.027,943.530,85.539,0.747,776.598,126.737,0.799,-0.026,-0.970,1.403,0.000,-351.938,0.000,0.003,-0.020,-0.027,0.019,-1.267,1.443
0722_164523_0060.png,0.001,0.193,0.921,-0.065,0.195,0.928,0.116,0.012,1.136,-0.180,0.000,1.085,0.107,-0.209,0.986,-0.183,-0.265,1.026,0.071,-0.344,0.769,-0.130,-0.338,0.785,961.439,738.744,0.921,893.636,740.154,0.928,1056.921,550.098,1.136,801.809,540.391,1.085,1063.207,338.531,0.986,790.772,294.282,1.026,1048.349,115.084,0.769,802.174,130.222,0.785,-0.028,-0.975,1.404,0.000,-348.900,0.000,-0.013,-0.037,0.028,-0.035,-0.754,1.553
0722_164523_0061.png,0.020,0.166,0.926,-0.043,0.168,0.931,0.139,-0.002,1.116,-0.144,0.000,1.125,0.226,-0.234,1.008,-0.169,-0.185,0.920,0.251,-0.358,0.777,-0.197,-0.367,0.722,980.311,710.282,0.926,916.359,711.105,0.931,1078.719,537.966,1.116,838.540,539.738,1.125,1172.784,319.075,1.008,784.830,348.581,0.920,1267.474,101.966,0.777,700.051,56.994,0.722,-0.031,-0.968,1.403,0.000,-0.704,0.000,0.047,-0.013,0.001,-0.232,-1.187,1.291
0722_164523_0062.png,0.018,0.179,0.937,-0.045,0.180,0.938,0.125,-0.001,1.128,-0.160,-0.007,1.103,0.204,-0.183,0.953,-0.292,-0.189,1.247,0.251,-0.350,0.763,-0.395,-0.284,1.034,978.763,721.891,0.937,914.404,722.283,0.938,1065.769,538.952,1.128,822.307,534.089,1.103,1163.745,357.637,0.953,737.576,395.466,1.247,1272.842,103.706,0.763,596.559,278.801,1.034,-0.032,-0.972,1.404,0.000,-353.804,0.000,0.036,0.004,0.033,0.112,-0.694,1.444
0722_164523_0063.png,0.046,0.169,0.936,-0.021,0.164,0.928,0.161,-0.009,1.091,-0.141,0.004,1.145,0.268,-0.233,1.199,-0.199,-0.221,1.008,0.349,-0.285,0.952,-0.185,-0.332,0.771,1006.672,711.634,0.936,938.141,708.552,0.928,1100.539,532.404,1.091,842.986,543.059,1.145,1172.900,355.309,1.199,772.432,331.811,1.008,1308.072,254.976,0.952,731.597,129.984,0.771,-0.024,-0.971,1.403,0.000,-9.211,0.000,-0.035,0.004,0.005,0.170,-0.940,1.684
0722_164523_0064.png,0.035,0.159,0.944,-0.033,0.157,0.939,0.150,-0.016,1.114,-0.156,-0.011,1.136,0.175,-0.282,1.081,-0.263,-0.243,1.046,0.150,-0.321,0.821,-0.136,-0.322,0.826,995.301,700.481,0.944,926.922,698.883,0.939,1087.947,525.937,1.114,829.121,530.581,1.136,1113.610,292.094,1.081,720.651,319.004,1.046,1134.318,168.354,0.821,803.172,169.100,0.826,-0.024,-0.960,1.401,0.000,-3.176,0.000,-0.034,0.014,-0.003,0.200,-0.941,1.361
0722_164523_0065.png,-0.006,0.174,0.936,-0.069,0.178,0.943,0.098,0.003,1.150,-0.181,-0.011,1.091,0.184,-0.176,0.960,-0.318,-0.232,1.149,0.270,-0.351,0.777,-0.195,-0.317,0.932,954.326,717.131,0.936,890.815,719.020,0.943,1040.654,542.161,1.150,802.218,530.461,1.091,1141.927,365.593,0.960,696.690,347.658,1.149,1290.475,110.639,0.777,760.494,216.195,0.932,-0.025,-0.968,1.403,0.000,-346.569,0.000,0.040,0.004,-0.005,0.029,-0.709,1.627
0722_164523_0066.png,0.026,0.182,0.919,-0.040,0.184,0.924,0.151,0.005,1.115,-0.151,0.005,1.115,0.160,-0.261,1.047,-0.317,-0.214,1.093,0.134,-0.339,0.799,-0.345,-0.324,0.858,987.070,728.030,0.919,918.373,728.914,0.924,1088.737,544.409,1.115,831.585,544.422,1.115,1105.586,303.086,1.047,684.239,353.706,1.093,1120.016,136.156,0.799,577.788,181.055,0.858,-0.038,-0.971,1.403,0.000,-358.840,0.000,-0.016,-0.044,0.010,-0.159,-0.982,1.613
0722_164523_0067.png,0.022,0.170,0.933,-0.046,0.171,0.938,0.150,-0.011,1.118,-0.160,-0.009,1.123,0.166,-0.281,1.153,-0.249,-0.231,0.996,0.139,-0.301,0.893,-0.185,-0.336,0.764,982.443,713.066,0.933,912.907,713.629,0.938,1087.692,530.940,1.118,824.928,532.092,1.123,1096.554,308.105,1.153,722.439,319.811,0.996,1107.853,219.516,0.893,729.884,122.291,0.764,-0.030,-0.961,1.401,0.000,0.092,0.000,-0.043,-0.014,0.010,-0.161,-0.793,1.615
0722_164523_0068.png,0.018,0.156,0.953,-0.048,0.156,0.951,0.125,-0.015,1.140,-0.170,-0.021,1.115,0.257,-0.212,1.013,-0.332,-0.184,1.241,0.330,-0.333,0.790,-0.302,-0.279,0.998,977.742,695.654,0.953,912.124,695.795,0.951,1064.647,527.397,1.140,815.114,522.209,1.115,1201.686,341.144,1.013,705.773,398.782,1.241,1356.682,139.593,0.790,672.524,274.456,0.998,-0.028,-0.961,1.401,0.000,-353.861,0.000,0.002,0.042,0.001,0.227,-0.782,1.272
0722_164523_0069.png,0.014,0.172,0.936,-0.051,0.174,0.938,0.119,0.005,1.144,-0.170,-0.006,1.097,0.256,-0.212,1.220,-0.280,-0.217,1.220,0.395,-0.284,1.008,-0.310,-0.293,0.970,974.521,714.911,0.936,908.767,716.303,0.938,1059.041,543.958,1.144,813.062,534.911,1.097,1159.946,374.760,1.220,742.001,371.049,1.220,1332.429,271.593,1.008,655.621,252.287,0.970,-0.035,-0.973,1.404,0.000,-349.489,0.000,0.015,0.011,-0.002,0.156,-0.864,1.487
0722_164523_0070.png,0.008,0.175,0.924,-0.056,0.176,0.925,0.114,0.001,1.133,-0.174,-0.007,1.096,0.170,-0.233,1.015,-0.299,-0.230,1.203,0.079,-0.348,0.803,-0.217,-0.305,0.970,968.736,719.938,0.924,902.681,721.073,0.925,1055.316,540.844,1.133,809.128,533.657,1.096,1119.480,321.748,1.015,723.329,358.475,1.203,1053.209,128.525,0.803,747.529,241.322,0.970,-0.024,-0.966,1.402,0.000,-351.466,0.000,0.024,-0.033,0.023,0.140,-1.051,1.263
0722_164523_0071.png,0.010,0.174,0.929,-0.055,0.177,0.933,0.115,0.004,1.145,-0.172,-0.011,1.080,0.177,-0.256,1.177,-0.322,-0.235,1.094,0.159,-0.302,0.925,-0.380,-0.321,0.859,970.640,718.276,0.929,904.259,720.183,0.933,1055.337,543.448,1.145,808.138,530.420,1.080,1103.243,333.584,1.177,680.168,335.734,1.094,1123.462,229.488,0.925,539.308,184.816,0.859,-0.039,-0.972,1.404,0.000,-345.679,0.000,0.006,-0.001,0.030,0.131,-0.940,1.126
0722_164523_0072.png,0.045,0.174,0.933,-0.018,0.173,0.930,0.161,-0.007,1.092,-0.120,0.003,1.137,0.186,-0.189,0.899,-0.275,-0.181,1.247,0.212,-0.366,0.711,-0.404,-0.282,1.051,1005.988,717.838,0.933,941.681,716.485,0.930,1099.866,533.825,1.092,859.573,542.705,1.137,1157.198,340.288,0.899,750.213,401.739,1.247,1244.109,49.951,0.711,593.852,284.649,1.051,-0.037,-0.973,1.404,0.000,-8.155,0.000,0.042,0.004,0.025,-0.050,-0.909,1.387
0722_164523_0073.png,0.009,0.165,0.939,-0.057,0.167,0.944,0.128,0.003,1.137,-0.170,0.000,1.124,0.070,-0.181,0.929,-0.190,-0.189,0.912,0.016,-0.360,0.725,-0.190,-0.365,0.699,968.651,707.066,0.939,902.345,708.485,0.944,1066.709,542.617,1.137,816.509,540.027,1.124,1031.223,355.099,0.929,761.592,343.263,0.912,980.703,67.481,0.725,700.951,43.062,0.699,-0.024,-0.972,1.403,0.000,-356.163,0.000,-0.002,0.017,-0.044,-0.096,-0.976,1.592
0722_164523_0074.png,0.005,0.185,0.927,-0.060,0.190,0.939,0.128,0.006,1.138,-0.167,0.000,1.108,0.210,-0.258,1.179,-0.313,-0.224,1.185,0.227,-0.319,0.915,-0.390,-0.310,0.941,965.162,730.091,0.927,899.640,732.145,0.939,1066.642,545.344,1.138,817.108,539.680,1.108,1129.485,331.948,1.179,708.737,360.110,1.185,1195.969,208.284,0.915,565.359,226.237,0.941,-0.033,-0.965,1.402,0.000,-352.961,0.000,0.004,-0.040,-0.029,-0.265,-0.807,1.559
0722_164523_0075.png,0.017,0.153,0.939,-0.049,0.154,0.941,0.125,-0.003,1.147,-0.170,-0.012,1.109,0.251,-0.226,1.055,-0.330,-0.218,1.160,0.298,-0.332,0.812,-0.408,-0.301,0.917,976.994,694.469,0.939,910.317,696.152,0.941,1063.967,537.549,1.147,814.571,530.000,1.109,1186.582,336.237,1.055,689.267,361.137,1.160,1308.557,150.926,0.812,536.654,228.057,0.917,-0.034,-0.966,1.402,0.000,-351.322,0.000,-0.002,0.026,-0.023,0.133,-1.122,1.397
0722_164523_0076.png,0.027,0.156,0.935,-0.036,0.156,0.936,0.144,-0.018,1.111,-0.141,-0.014,1.129,0.277,-0.246,1.084,-0.185,-0.218,0.965,0.262,-0.333,0.842,-0.139,-0.357,0.753,987.317,698.240,0.935,923.132,698.077,0.936,1082.895,524.673,1.111,841.510,528.468,1.129,1202.749,324.588,1.084,777.599,325.686,0.965,1256.259,163.515,0.842,784.000,89.021,0.753,-0.031,-0.959,1.401,0.000,-2.613,0.000,0.040,0.007,0.021,-0.101,-0.952,1.538
0722_164523_0077.png,0.027,0.147,0.942,-0.037,0.145,0.939,0.135,-0.014,1.129,-0.154,-0.014,1.129,0.108,-0.249,0.992,-0.291,-0.242,1.133,-0.015,-0.350,0.780,-0.171,-0.313,0.908,987.718,688.024,0.942,922.857,687.120,0.939,1074.116,527.884,1.129,830.031,528.065,1.129,1063.650,301.794,0.992,715.607,336.724,1.133,942.086,113.120,0.780,780.859,211.987,0.908,-0.028,-0.959,1.401,0.000,-359.008,0.000,0.024,0.023,-0.017,0.184,-1.117,1.512
0722_164523_0078.png,0.006,0.152,0.930,-0.057,0.156,0.935,0.116,-0.002,1.137,-0.167,-0.010,1.103,0.207,-0.211,1.272,-0.224,-0.187,0.904,0.263,-0.283,1.028,-0.282,-0.360,0.710,965.849,695.776,0.930,901.838,698.383,0.935,1056.585,538.032,1.137,815.820,531.313,1.103,1114.618,381.881,1.272,724.014,342.857,0.904,1203.038,278.263,1.028,582.913,57.338,0.710,-0.028,-0.970,1.403,0.000,-351.873,0.000,0.040,0.018,0.012,-0.060,-1.202,1.413
0722_164523_0079.png,0.015,0.178,0.934,-0.048,0.179,0.937,0.128,0.001,1.123,-0.156,0.000,1.118,0.058,-0.178,0.924,-0.127,-0.186,0.919,-0.007,-0.354,0.731,-0.101,-0.369,0.726,974.921,720.801,0.934,910.967,721.339,0.937,1068.300,540.645,1.123,826.929,539.647,1.118,1019.987,356.610,0.924,828.412,347.251,0.919,950.732,78.815,0.731,827.548,56.921,0.726,-0.026,-0.971,1.403,0.000,-357.769,0.000,0.042,-0.005,0.001,-0.062,-0.851,1.431
0722_164523_0080.png,0.027,0.174,0.927,-0.039,0.174,0.926,0.137,0.010,1.131,-0.158,0.008,1.119,0.231,-0.203,1.279,-0.230,-0.179,0.913,0.363,-0.281,1.055,-0.302,-0.362,0.713,987.509,718.813,0.927,920.260,719.007,0.926,1075.402,548.800,1.131,825.585,546.651,1.119,1131.971,388.834,1.279,720.902,353.476,0.913,1287.443,286.664,1.055,557.841,57.976,0.713,-0.033,-0.973,1.404,0.000,-356.545,0.000,0.004,-0.027,-0.038,0.137,-1.166,1.550
0722_164523_0081.png,0.030,0.154,0.945,-0.036,0.153,0.943,0.145,-0.012,1.122,-0.155,-0.012,1.124,0.280,-0.222,1.201,-0.228,-0.262,1.127,0.389,-0.278,0.972,-0.198,-0.306,0.874,990.369,695.071,0.945,923.554,694.719,0.943,1082.526,529.561,1.122,829.085,529.941,1.124,1181.708,364.028,1.201,767.404,318.566,1.127,1340.543,267.777,0.972,744.155,207.381,0.874,-0.032,-0.969,1.403,0.000,-359.195,0.000,-0.008,0.045,0.018,0.111,-1.024,1.142
0722_164523_0082.png,0.033,0.152,0.935,-0.033,0.153,0.938,0.154,-0.017,1.113,-0.145,-0.015,1.124,0.303,-0.236,1.088,-0.128,-0.184,0.920,0.363,-0.311,0.852,-0.108,-0.347,0.721,993.372,694.877,0.935,926.079,694.990,0.938,1091.656,525.175,1.113,837.413,527.559,1.124,1224.842,333.549,1.088,828.191,350.215,0.920,1365.133,192.778,0.852,817.958,82.202,0.721,-0.037,-0.964,1.402,0.000,-1.086,0.000,-0.007,0.024,0.038,-0.094,-1.100,1.107
0722_164523_0083.png,0.018,0.176,0.935,-0.049,0.177,0.936,0.135,-0.003,1.134,-0.168,-0.007,1.118,0.194,-0.182,0.923,-0.279,-0.210,1.272,0.252,-0.357,0.718,-0.454,-0.269,1.074,978.790,719.179,0.935,910.504,719.720,0.936,1073.014,537.338,1.134,817.157,534.302,1.118,1159.819,352.256,0.923,751.111,382.927,1.272,1294.012,67.190,0.718,558.420,302.298,1.074,-0.028,-0.959,1.400,0.000,-355.850,0.000,-0.021,-0.031,-0.029,0.047,-0.830,1.580
0722_164523_0084.png,0.003,0.182,0.924,-0.064,0.185,0.931,0.123,0.006,1.136,-0.180,-0.003,1.097,0.084,-0.171,0.927,-0.251,-0.267,1.057,0.044,-0.343,0.724,-0.065,-0.318,0.875,962.916,727.747,0.924,894.125,729.523,0.931,1062.783,545.028,1.136,803.466,537.364,1.097,1046.226,364.336,0.927,734.396,300.035,1.057,1017.560,89.002,0.724,889.298,194.790,0.875,-0.026,-0.969,1.403,0.000,-351.241,0.000,-0.031,-0.035,0.008,-0.099,-0.932,1.311
0722_164523_0085.png,0.052,0.152,0.939,-0.014,0.149,0.937,0.174,-0.022,1.089,-0.113,-0.006,1.159,0.090,-0.248,0.960,-0.171,-0.209,0.984,-0.018,-0.354,0.739,-0.121,-0.348,0.761,1012.484,693.916,0.939,946.049,691.066,0.937,1111.612,520.873,1.089,866.942,535.328,1.159,1049.211,294.692,0.960,794.373,338.099,0.984,936.421,84.213,0.739,808.667,104.535,0.761,-0.034,-0.961,1.401,0.000,-12.977,0.000,0.003,0.021,-0.018,-0.118,-0.979,1.667
0722_164523_0086.png,0.049,0.178,0.943,-0.019,0.175,0.935,0.167,-0.012,1.091,-0.137,0.002,1.150,0.229,-0.246,1.212,-0.291,-0.219,1.098,0.242,-0.283,0.949,-0.182,-0.309,0.869,1009.633,719.388,0.943,940.709,717.470,0.935,1105.771,529.776,1.091,846.341,541.705,1.150,1139.503,346.862,1.212,708.172,350.079,1.098,1203.012,255.901,0.949,760.345,201.307,0.869,-0.025,-0.967,1.402,0.000,-10.251,0.000,-0.047,0.000,-0.008,0.114,-0.727,1.543
0722_164523_0087.png,0.002,0.161,0.936,-0.065,0.164,0.940,0.114,-0.002,1.149,-0.186,-0.015,1.093,0.123,-0.261,1.079,-0.293,-0.249,1.011,0.058,-0.317,0.830,-0.242,-0.335,0.768,962.411,703.869,0.936,894.123,705.884,0.940,1054.147,538.365,1.149,797.964,527.136,1.093,1068.233,310.410,1.079,684.292,305.769,1.011,1026.475,177.108,0.830,659.903,125.126,0.768,-0.027,-0.967,1.402,0.000,-348.034,0.000,-0.029,0.016,0.003,0.091,-0.871,1.624
0722_164523_0088.png,0.029,0.175,0.931,-0.036,0.173,0.928,0.143,-0.006,1.103,-0.147,0.001,1.131,0.285,-0.236,1.106,-0.215,-0.175,0.932,0.360,-0.324,0.873,-0.281,-0.346,0.737,989.137,718.284,0.931,923.327,717.063,0.928,1082.929,534.943,1.103,836.837,540.484,1.131,1204.860,337.089,1.106,740.962,361.686,0.932,1351.786,187.528,0.873,597.329,93.780,0.737,-0.023,-0.968,1.403,0.000,-4.510,0.000,0.021,-0.015,0.013,0.052,-1.026,1.219
0722_164523_0089.png,0.010,0.163,0.934,-0.053,0.165,0.938,0.121,0.001,1.139,-0.165,-0.004,1.117,0.133,-0.186,0.926,-0.183,-0.272,1.057,0.149,-0.368,0.719,-0.132,-0.351,0.802,970.614,705.475,0.934,906.141,707.091,0.938,1061.343,540.478,1.139,819.643,536.188,1.117,1096.885,349.313,0.926,795.646,295.663,1.057,1156.974,52.969,0.719,803.887,124.297,0.802,-0.027,-0.967,1.402,0.000,-354.323,0.000,0.033,0.001,-0.033,-0.026,-1.129,1.345
0722_164523_0090.png,0.017,0.174,0.925,-0.048,0.175,0.929,0.138,0.003,1.116,-0.153,0.005,1.126,0.199,-0.181,0.915,-0.186,-0.231,0.991,0.260,-0.361,0.720,-0.071,-0.353,0.786,977.235,718.681,0.925,911.219,719.219,0.929,1077.999,542.612,1.116,830.956,544.580,1.126,1166.856,351.695,0.915,781.655,318.306,0.991,1303.051,62.738,0.720,874.686,113.329,0.786,-0.026,-0.971,1.403,0.000,-0.897,0.000,0.019,-0.023,-0.011,-0.188,-1.113,1.427
0722_164523_0091.png,0.003,0.187,0.932,-0.061,0.190,0.942,0.122,0.003,1.129,-0.165,-0.001,1.113,0.178,-0.177,0.922,-0.321,-0.206,1.032,0.234,-0.354,0.723,-0.431,-0.340,0.834,962.657,731.086,0.932,898.733,732.172,0.942,1062.968,542.520,1.129,818.626,539.365,1.113,1143.039,357.348,0.922,663.661,350.506,1.032,1267.412,74.477,0.723,468.047,152.057,0.834,-0.024,-0.968,1.403,0.000,-355.510,0.000,0.030,-0.024,-0.007,-0.250,-0.717,1.403
0722_164523_0092.png,0.060,0.188,0.931,-0.005,0.185,0.925,0.178,-0.005,1.081,-0.106,0.011,1.153,0.217,-0.244,0.946,-0.266,-0.184,1.041,0.189,-0.373,0.712,-0.366,-0.337,0.843,1021.385,732.327,0.931,955.065,729.951,0.925,1116.724,535.302,1.081,872.980,549.263,1.153,1177.847,295.046,0.946,717.436,372.284,1.041,1212.107,41.949,0.712,547.372,160.227,0.843,-0.039,-0.968,1.403,0.000,-13.447,0.000,0.013,-0.037,-0.022,-0.029,-0.908,1.276
0722_164523_0093.png,0.031,0.168,0.934,-0.034,0.168,0.934,0.145,-0.002,1.121,-0.148,-0.002,1.123,0.210,-0.208,1.283,-0.180,-0.224,0.971,0.355,-0.270,1.073,-0.166,-0.356,0.742,991.613,711.493,0.934,925.618,711.325,0.934,1082.674,537.933,1.121,834.859,538.457,1.123,1115.746,385.909,1.283,783.426,320.553,0.971,1274.626,300.893,1.073,747.471,84.330,0.742,-0.035,-0.969,1.403,0.000,-359.364,0.000,0.015,0.000,-0.002,0.057,-0.986,1.489
0722_164523_0094.png,0.024,0.185,0.941,-0.042,0.185,0.940,0.141,-0.007,1.126,-0.161,-0.007,1.124,0.122,-0.279,1.072,-0.176,-0.238,0.972,0.061,-0.335,0.816,-0.074,-0.354,0.753,984.723,726.885,0.941,917.098,726.849,0.940,1078.800,534.298,1.126,823.763,534.032,1.124,1068.498,292.666,1.072,787.588,307.217,0.972,1030.583,149.425,0.816,866.875,92.800,0.753,-0.028,-0.957,1.400,0.000,-358.569,0.000,-0.016,-0.033,-0.021,0.073,-0.701,1.233
0722_164523_0095.png,0.048,0.171,0.937,-0.020,0.168,0.931,0.164,-0.012,1.102,-0.142,-0.003,1.139,0.154,-0.271,1.019,-0.182,-0.177,0.931,0.005,-0.329,0.808,-0.220,-0.346,0.728,1008.688,713.839,0.937,939.873,711.932,0.931,1101.373,529.704,1.102,841.744,537.086,1.139,1103.298,287.646,1.019,773.728,358.829,0.931,965.370,152.641,0.808,672.835,87.600,0.728,-0.032,-0.963,1.401,0.000,-5.863,0.000,-0.037,-0.012,0.001,0.193,-0.949,1.300
0722_164523_0096.png,0.010,0.151,0.944,-0.054,0.151,0.942,0.111,-0.010,1.146,-0.176,-0.019,1.107,0.122,-0.264,1.065,-0.238,-0.274,1.070,0.066,-0.335,0.817,-0.226,-0.338,0.814,970.432,691.707,0.944,905.652,692.465,0.942,1051.879,531.783,1.146,808.642,523.786,1.107,1068.620,303.791,1.065,748.282,296.347,1.070,1037.020,150.271,0.817,695.956,145.793,0.814,-0.024,-0.962,1.401,0.000,-350.881,0.000,0.025,0.031,-0.005,0.277,-1.001,1.432
0722_164523_0097.png,0.015,0.182,0.934,-0.052,0.184,0.937,0.129,0.001,1.139,-0.171,-0.007,1.101,0.220,-0.235,1.038,-0.236,-0.258,1.198,0.130,-0.333,0.808,-0.210,-0.298,0.938,975.529,725.761,0.934,907.563,726.697,0.937,1067.819,541.046,1.139,812.376,533.626,1.101,1161.461,324.245,1.038,772.347,335.452,1.198,1113.358,148.108,0.808,746.839,237.422,0.938,-0.034,-0.965,1.402,0.000,-351.508,0.000,-0.019,-0.023,-0.001,0.057,-0.784,1.278
0722_164523_0098.png,0.038,0.173,0.941,-0.027,0.171,0.937,0.154,-0.007,1.105,-0.133,0.003,1.150,0.266,-0.253,1.058,-0.249,-0.219,1.254,0.303,-0.346,0.804,-0.271,-0.297,0.992,998.310,715.161,0.941,932.980,713.163,0.937,1092.674,533.604,1.105,849.818,542.552,1.150,1198.754,312.927,1.058,771.176,373.885,1.254,1318.357,130.583,0.804,700.213,255.102,0.992,-0.025,-0.965,1.402,0.000,-8.106,0.000,0.019,-0.006,-0.044,0.014,-0.953,1.334
0722_164523_0099.png,0.045,0.182,0.941,-0.018,0.179,0.935,0.160,-0.010,1.093,-0.120,0.003,1.150,0.189,-0.243,0.950,-0.213,-0.250,1.100,0.132,-0.373,0.722,-0.205,-0.341,0.848,1005.683,724.026,0.941,941.306,722.431,0.935,1099.371,531.238,1.093,860.374,542.630,1.150,1148.648,296.574,0.950,775.686,323.884,1.100,1133.647,48.525,0.722,730.270,158.256,0.848,-0.029,-0.965,1.402,0.000,-10.732,0.000,0.034,-0.015,-0.020,-0.011,-0.754,1.400
0722_164523_0100.png,-0.008,0.144,0.931,-0.071,0.151,0.941,0.099,-0.007,1.157,-0.181,-0.022,1.090,0.238,-0.225,1.222,-0.321,-0.245,1.127,0.298,-0.297,0.973,-0.215,-0.320,0.895,951.492,687.597,0.931,887.748,692.590,0.941,1041.068,534.315,1.157,801.758,520.594,1.090,1145.056,365.180,1.222,688.904,332.775,1.127,1250.729,250.217,0.973,731.205,200.057,0.895,-0.029,-0.959,1.401,0.000,-345.094,0.000,0.029,0.013,-0.010,-0.119,-1.238,1.247
0722_164523_0101.png,0.032,0.166,0.941,-0.032,0.165,0.939,0.142,-0.004,1.129,-0.147,-0.003,1.130,0.143,-0.250,1.001,-0.230,-0.235,1.005,0.117,-0.365,0.754,-0.144,-0.356,0.777,992.181,707.560,0.941,927.476,707.129,0.939,1079.568,536.888,1.129,836.585,537.228,1.130,1095.749,302.334,1.001,742.343,317.607,1.005,1107.391,79.729,0.754,784.335,104.490,0.777,-0.035,-0.965,1.402,0.000,-359.180,0.000,0.028,0.003,-0.039,0.121,-1.076,1.225
0722_164523_0102.png,0.032,0.168,0.929,-0.035,0.166,0.928,0.151,-0.005,1.104,-0.148,0.001,1.128,0.131,-0.182,0.905,-0.220,-0.254,1.090,0.110,-0.355,0.710,-0.190,-0.319,0.842,992.518,711.476,0.929,924.609,710.506,0.928,1089.843,535.793,1.104,835.613,540.709,1.128,1097.729,348.228,0.905,768.316,318.229,1.090,1106.793,65.056,0.710,745.211,179.480,0.842,-0.028,-0.973,1.404,0.000,-3.725,0.000,-0.008,0.001,0.025,-0.003,-1.111,1.302
0722_164523_0103.png,0.058,0.163,0.954,-0.006,0.159,0.945,0.169,-0.023,1.093,-0.118,-0.009,1.154,0.089,-0.231,0.940,-0.202,-0.249,1.072,-0.018,-0.354,0.732,-0.180,-0.330,0.823,1018.040,702.436,0.954,953.930,700.278,0.945,1106.657,519.660,1.093,862.800,532.291,1.154,1049.963,306.094,0.940,780.739,318.903,1.072,936.897,79.564,0.732,752.075,158.299,0.823,-0.034,-0.962,1.401,0.000,-11.156,0.000,0.013,0.035,-0.001,0.173,-0.714,1.358
0722_164523_0104.png,0.023,0.181,0.932,-0.043,0.183,0.938,0.143,-0.004,1.122,-0.154,-0.008,1.106,0.159,-0.273,1.120,-0.258,-0.234,1.014,0.128,-0.315,0.870,-0.201,-0.338,0.790,983.067,725.150,0.932,916.515,725.775,0.938,1081.292,536.506,1.122,827.973,533.386,1.106,1094.632,308.060,1.120,717.962,320.428,1.014,1100.227,195.860,0.870,718.151,133.453,0.790,-0.039,-0.968,1.403,0.000,-355.750,0.000,0.000,-0.011,0.039,-0.132,-0.674,1.389
0722_164523_0105.png,0.027,0.155,0.940,-0.037,0.155,0.940,0.145,-0.015,1.112,-0.144,-0.009,1.137,0.273,-0.243,1.155,-0.298,-0.217,1.194,0.141,-0.306,0.938,-0.212,-0.297,0.960,987.144,697.217,0.940,922.163,696.613,0.940,1083.740,527.236,1.112,839.549,532.208,1.137,1184.336,340.189,1.155,722.822,367.433,1.194,1102.748,229.602,0.938,750.319,245.678,0.960,-0.026,-0.963,1.401,0.000,-3.791,0.000,0.024,0.022,0.000,-0.082,-0.998,1.422
0722_164523_0106.png,0.047,0.187,0.923,-0.020,0.183,0.916,0.164,-0.002,1.077,-0.131,0.013,1.144,0.271,-0.258,1.077,-0.277,-0.202,1.243,0.299,-0.329,0.827,-0.347,-0.282,1.006,1008.130,732.526,0.923,939.486,729.737,0.916,1105.001,538.289,1.077,851.057,551.138,1.144,1199.542,311.903,1.077,748.110,385.326,1.243,1304.100,162.082,0.827,631.578,273.871,1.006,-0.025,-0.974,1.404,0.000,-11.882,0.000,-0.021,-0.039,0.016,0.074,-0.898,1.707
0722_164523_0107.png,0.028,0.153,0.924,-0.037,0.154,0.927,0.148,-0.008,1.111,-0.146,-0.006,1.122,0.184,-0.231,1.262,-0.291,-0.191,1.255,0.197,-0.282,1.010,-0.398,-0.277,1.038,988.385,697.829,0.924,921.542,698.014,0.927,1086.386,532.791,1.111,836.416,535.047,1.122,1098.720,366.061,1.262,739.531,395.144,1.255,1145.201,274.885,1.010,594.914,286.104,1.038,-0.034,-0.967,1.402,0.000,-1.073,0.000,0.011,-0.002,0.028,-0.106,-1.294,1.413
0722_164523_0108.png,-0.014,0.172,0.931,-0.079,0.177,0.942,0.102,0.000,1.155,-0.191,-0.015,1.088,0.067,-0.174,0.936,-0.304,-0.214,1.240,0.034,-0.344,0.723,-0.440,-0.281,1.020,946.155,715.334,0.931,880.132,718.272,0.942,1043.667,540.127,1.155,792.856,526.744,1.088,1028.329,363.273,0.936,726.647,375.636,1.240,1004.507,88.100,0.723,549.937,278.203,1.020,-0.024,-0.961,1.401,0.000,-345.681,0.000,-0.013,-0.017,-0.014,-0.154,-0.868,1.318
0722_164523_0109.png,0.000,0.165,0.931,-0.064,0.168,0.941,0.125,-0.008,1.126,-0.167,-0.011,1.115,0.227,-0.233,1.238,-0.271,-0.208,1.269,0.313,-0.289,0.999,-0.334,-0.280,1.027,960.250,708.489,0.931,895.544,710.325,0.941,1065.510,532.904,1.126,817.301,530.621,1.115,1134.508,361.283,1.238,756.805,383.839,1.269,1258.013,264.907,0.999,650.804,280.237,1.027,-0.022,-0.963,1.401,0.000,-356.561,0.000,0.015,-0.005,0.014,-0.336,-0.953,1.316
0722_164523_0110.png,0.044,0.170,0.939,-0.023,0.168,0.938,0.168,-0.010,1.094,-0.127,0.004,1.153,0.246,-0.186,1.282,-0.226,-0.229,1.046,0.329,-0.269,1.040,-0.097,-0.327,0.831,1004.621,712.512,0.939,936.811,710.767,0.938,1106.332,531.437,1.094,854.902,543.226,1.153,1142.361,402.121,1.282,754.661,332.021,1.046,1261.099,294.005,1.040,848.530,166.207,0.831,-0.030,-0.968,1.403,0.000,-10.563,0.000,-0.017,0.009,-0.024,-0.143,-0.921,1.395
0722_164523_0111.png,0.042,0.185,0.941,-0.022,0.183,0.937,0.155,0.004,1.113,-0.132,0.010,1.139,0.141,-0.253,1.007,-0.142,-0.180,0.927,-0.002,-0.356,0.802,-0.156,-0.367,0.722,1002.436,727.205,0.941,937.940,726.058,0.937,1092.095,543.069,1.113,849.803,548.149,1.139,1092.956,301.309,1.007,814.615,355.165,0.927,958.204,118.033,0.802,755.187,57.066,0.722,-0.035,-0.974,1.404,0.000,-4.320,0.000,0.031,-0.005,-0.039,0.083,-0.797,1.525
0722_164523_0112.png,0.022,0.171,0.926,-0.045,0.172,0.927,0.141,-0.005,1.119,-0.162,-0.005,1.117,0.127,-0.236,0.981,-0.238,-0.259,1.049,-0.017,-0.339,0.787,-0.062,-0.323,0.863,982.945,716.174,0.926,913.979,716.434,0.927,1080.139,536.060,1.119,822.345,535.679,1.117,1083.276,310.887,0.981,744.737,305.385,1.049,939.311,129.629,0.787,892.046,184.031,0.863,-0.028,-0.963,1.401,0.000,-358.456,0.000,-0.021,-0.033,0.011,0.000,-1.054,1.373
0722_164523_0113.png,0.020,0.165,0.952,-0.046,0.166,0.956,0.140,-0.008,1.136,-0.161,-0.011,1.124,0.156,-0.251,1.017,-0.210,-0.212,0.941,-0.016,-0.327,0.825,-0.206,-0.355,0.711,980.206,704.583,0.952,913.925,705.315,0.956,1076.912,533.401,1.136,824.046,530.915,1.124,1106.031,305.168,1.017,748.076,325.502,0.941,941.479,163.748,0.825,684.752,65.623,0.711,-0.033,-0.966,1.402,0.000,-356.401,0.000,-0.013,0.039,-0.024,-0.051,-0.670,1.575
0722_164523_0114.png,0.021,0.161,0.933,-0.043,0.161,0.935,0.136,-0.005,1.120,-0.154,-0.006,1.117,0.258,-0.201,1.249,-0.183,-0.247,1.015,0.307,-0.282,1.011,-0.155,-0.343,0.779,981.444,703.661,0.933,916.003,704.153,0.935,1075.582,535.823,1.120,828.663,535.201,1.117,1156.393,387.280,1.249,788.185,308.408,1.015,1248.928,274.924,1.011,770.509,121.072,0.779,-0.030,-0.973,1.404,0.000,-358.196,0.000,0.022,0.022,0.027,-0.030,-0.992,1.544
0722_164523_0115.png,0.007,0.170,0.929,-0.060,0.171,0.932,0.119,-0.002,1.138,-0.179,-0.012,1.095,0.249,-0.218,1.047,-0.220,-0.271,1.033,0.310,-0.325,0.821,-0.054,-0.325,0.839,966.860,713.553,0.929,898.957,715.013,0.932,1059.051,538.410,1.138,804.472,529.882,1.095,1186.048,341.671,1.047,757.411,290.542,1.033,1319.704,163.127,0.821,898.330,171.189,0.839,-0.026,-0.965,1.402,0.000,-350.506,0.000,-0.013,-0.013,0.021,0.066,-0.891,1.550
0722_164523_0116.png,0.034,0.167,0.929,-0.031,0.165,0.929,0.158,-0.011,1.086,-0.127,0.004,1.150,0.165,-0.275,1.023,-0.263,-0.167,0.983,-0.017,-0.335,0.842,-0.395,-0.333,0.821,994.726,711.096,0.929,928.271,709.046,0.929,1098.210,530.533,1.086,854.591,543.259,1.150,1113.331,284.355,1.023,705.917,378.837,0.983,941.265,161.377,0.842,502.354,154.376,0.821,-0.022,-0.968,1.402,0.000,-11.828,0.000,0.014,-0.006,-0.003,-0.207,-1.001,1.605
0722_164523_0117.png,0.047,0.176,0.947,-0.016,0.172,0.938,0.157,-0.007,1.099,-0.126,0.005,1.151,0.161,-0.258,0.989,-0.295,-0.202,1.160,0.126,-0.364,0.741,-0.211,-0.315,0.932,1007.275,716.661,0.947,943.468,714.055,0.938,1095.765,533.954,1.099,856.051,544.264,1.151,1114.440,291.479,0.989,717.785,374.184,1.160,1121.656,73.245,0.741,744.748,218.958,0.932,-0.027,-0.970,1.403,0.000,-9.687,0.000,0.031,0.012,-0.031,0.165,-0.797,1.560
0722_164523_0118.png,0.047,0.170,0.937,-0.016,0.166,0.931,0.163,-0.013,1.086,-0.115,0.003,1.152,0.140,-0.281,1.056,-0.180,-0.178,0.949,0.101,-0.349,0.803,-0.244,-0.354,0.753,1008.098,712.355,0.937,943.665,709.591,0.931,1102.336,529.033,1.086,864.693,542.279,1.152,1085.679,287.350,1.056,780.172,362.083,0.949,1079.454,126.242,0.803,651.422,92.813,0.753,-0.029,-0.968,1.402,0.000,-12.621,0.000,0.036,0.003,-0.007,-0.025,-0.989,1.306
0722_164523_0119.png,0.015,0.159,0.939,-0.051,0.159,0.935,0.123,-0.008,1.134,-0.177,-0.015,1.104,0.222,-0.219,1.263,-0.244,-0.218,0.948,0.269,-0.268,1.016,-0.261,-0.345,0.725,975.507,701.394,0.939,907.763,701.601,0.935,1062.895,532.990,1.134,807.519,527.058,1.104,1127.444,375.094,1.263,714.795,321.259,0.948,1212.090,288.913,1.016,617.059,87.105,0.725,-0.024,-0.966,1.402,0.000,-353.150,0.000,-0.014,0.019,0.028,0.257,-0.929,1.482
0722_164523_0120.png,0.017,0.163,0.930,-0.046,0.166,0.938,0.141,-0.006,1.123,-0.149,-0.005,1.127,0.144,-0.254,1.006,-0.287,-0.199,1.255,0.118,-0.360,0.762,-0.253,-0.293,1.007,977.731,707.099,0.930,912.927,708.417,0.938,1079.279,535.311,1.123,834.501,536.173,1.127,1096.280,300.071,1.006,742.127,389.508,1.255,1106.700,90.112,0.762,721.443,263.475,1.007,-0.032,-0.963,1.402,0.000,0.288,0.000,0.025,-0.010,-0.016,-0.259,-1.007,1.592
0722_164523_0121.png,0.012,0.167,0.936,-0.053,0.170,0.939,0.117,-0.002,1.148,-0.172,-0.014,1.095,0.069,-0.180,0.945,-0.321,-0.237,1.080,0.023,-0.355,0.748,-0.374,-0.330,0.838,971.791,710.038,0.936,905.907,711.789,0.939,1056.749,538.739,1.148,810.829,528.043,1.095,1029.229,358.852,0.945,677.185,330.943,1.080,989.132,89.290,0.748,535.338,166.096,0.838,-0.036,-0.964,1.402,0.000,-348.102,0.000,0.011,0.002,-0.003,0.128,-0.907,1.320
0722_164523_0122.png,0.017,0.155,0.933,-0.048,0.157,0.938,0.135,-0.010,1.129,-0.160,-0.014,1.112,0.161,-0.248,1.015,-0.220,-0.262,1.037,0.011,-0.329,0.819,-0.054,-0.324,0.848,977.322,697.490,0.933,911.047,698.939,0.938,1073.689,531.607,1.129,823.205,528.162,1.112,1110.804,307.467,1.015,758.052,300.086,1.037,973.137,157.779,0.819,899.326,176.131,0.848,-0.033,-0.964,1.402,0.000,-355.468,0.000,0.005,0.015,0.022,-0.095,-1.102,1.264
0722_164523_0123.png,0.028,0.188,0.933,-0.038,0.188,0.932,0.146,0.003,1.112,-0.150,0.007,1.127,0.220,-0.245,1.208,-0.284,-0.225,1.069,0.261,-0.303,0.952,-0.320,-0.333,0.829,988.698,731.984,0.933,921.588,731.665,0.932,1085.100,542.555,1.112,833.343,545.546,1.127,1133.457,346.865,1.208,707.242,339.877,1.069,1220.276,237.162,0.952,592.872,157.543,0.829,-0.029,-0.972,1.403,0.000,-1.920,0.000,0.000,-0.025,-0.007,-0.018,-0.883,1.184
0722_164523_0124.png,0.051,0.170,0.932,-0.012,0.166,0.925,0.163,-0.012,1.081,-0.119,0.002,1.143,0.165,-0.273,1.147,-0.161,-0.175,0.945,0.147,-0.316,0.896,-0.201,-0.347,0.753,1012.230,713.414,0.932,947.474,710.502,0.925,1103.131,529.019,1.081,861.000,541.531,1.143,1096.778,313.448,1.147,798.105,364.313,0.945,1116.039,204.215,0.896,705.720,101.684,0.753,-0.031,-0.971,1.403,0.000,-11.619,0.000,0.027,0.003,0.033,0.118,-1.014,1.298
0722_164523_0125.png,0.041,0.148,0.933,-0.023,0.146,0.931,0.155,-0.013,1.106,-0.131,-0.007,1.134,0.068,-0.186,0.921,-0.235,-0.191,0.973,-0.017,-0.355,0.740,-0.288,-0.347,0.771,1001.932,690.733,0.933,936.878,688.980,0.931,1093.637,528.727,1.106,850.151,534.548,1.134,1030.047,347.896,0.921,730.149,352.988,0.973,938.460,84.335,0.740,604.852,112.461,0.771,-0.036,-0.968,1.403,0.000,-4.706,0.000,0.030,0.023,0.019,0.034,-1.256,1.452
0722_164523_0126.png,0.016,0.138,0.938,-0.051,0.140,0.942,0.138,-0.017,1.134,-0.167,-0.022,1.114,0.265,-0.223,1.241,-0.308,-0.208,1.239,0.391,-0.264,1.016,-0.233,-0.268,0.998,976.680,680.156,0.938,908.490,681.866,0.942,1075.266,525.525,1.134,817.430,521.278,1.114,1163.368,368.828,1.241,723.292,380.355,1.239,1325.859,292.645,1.016,738.117,284.437,0.998,-0.032,-0.960,1.401,0.000,-354.916,0.000,-0.028,0.036,0.017,-0.061,-1.110,1.545
0722_164523_0127.png,0.035,0.147,0.932,-0.029,0.145,0.931,0.154,-0.023,1.092,-0.132,-0.011,1.142,0.204,-0.216,0.919,-0.252,-0.233,1.067,0.201,-0.360,0.707,-0.131,-0.324,0.860,995.805,689.927,0.932,930.303,687.805,0.931,1093.678,520.148,1.092,850.327,530.555,1.142,1170.984,317.028,0.919,735.066,332.164,1.067,1229.521,55.869,0.707,815.367,181.637,0.860,-0.026,-0.961,1.401,0.000,-8.997,0.000,0.024,0.017,0.031,-0.092,-1.240,1.233
0722_164523_0128.png,-0.001,0.153,0.929,-0.065,0.157,0.936,0.111,0.003,1.148,-0.178,-0.006,1.109,0.071,-0.181,0.937,-0.243,-0.263,1.036,0.036,-0.362,0.733,-0.086,-0.342,0.831,959.177,696.121,0.929,893.703,699.679,0.936,1052.056,542.413,1.148,807.275,534.791,1.109,1032.456,356.085,0.937,736.826,298.810,1.036,1007.013,69.892,0.733,861.165,148.257,0.831,-0.024,-0.966,1.402,0.000,-350.929,0.000,0.017,0.001,-0.039,-0.079,-1.275,1.525
0722_164523_0129.png,0.064,0.176,0.947,-0.001,0.173,0.940,0.178,-0.017,1.084,-0.108,0.000,1.157,0.311,-0.250,1.079,-0.243,-0.183,1.299,0.374,-0.327,0.833,-0.290,-0.270,1.052,1023.917,717.136,0.947,958.594,715.357,0.940,1116.172,525.033,1.084,871.346,539.793,1.157,1234.483,319.254,1.079,781.756,405.790,1.299,1386.743,166.813,0.833,697.445,295.931,1.052,-0.038,-0.965,1.402,0.000,-13.538,0.000,0.005,0.009,-0.010,0.054,-0.650,1.468
0722_164523_0130.png,0.028,0.160,0.933,-0.038,0.158,0.928,0.136,-0.013,1.114,-0.160,-0.012,1.117,0.252,-0.226,1.234,-0.315,-0.220,1.192,0.156,-0.280,1.004,-0.419,-0.289,0.970,988.052,702.943,0.933,921.155,701.930,0.928,1076.427,528.872,1.114,823.888,529.603,1.117,1154.210,365.858,1.234,708.484,364.858,1.192,1107.288,274.653,1.004,549.505,256.744,0.970,-0.024,-0.964,1.402,0.000,-359.534,0.000,0.002,0.002,0.042,0.230,-0.978,1.554
0722_164523_0131.png,0.039,0.147,0.931,-0.027,0.146,0.931,0.160,-0.011,1.107,-0.137,-0.005,1.135,0.114,-0.204,0.925,-0.211,-0.234,1.020,0.019,-0.349,0.728,-0.077,-0.328,0.815,999.833,690.700,0.931,932.246,689.475,0.931,1097.220,530.507,1.107,844.833,536.153,1.135,1076.735,330.693,0.925,763.626,321.729,1.020,984.986,84.240,0.728,870.444,157.349,0.815,-0.036,-0.969,1.403,0.000,-4.370,0.000,-0.005,0.020,0.012,-0.043,-1.265,1.554
0722_164523_0132.png,0.036,0.144,0.937,-0.028,0.141,0.933,0.149,-0.022,1.102,-0.138,-0.014,1.138,0.239,-0.248,1.001,-0.292,-0.192,1.019,0.251,-0.344,0.764,-0.397,-0.327,0.827,996.260,686.274,0.937,931.211,684.076,0.933,1088.861,520.931,1.102,844.882,528.590,1.138,1186.963,304.533,1.001,687.849,360.853,1.019,1271.947,111.578,0.764,503.469,163.804,0.827,-0.026,-0.962,1.401,0.000,-6.301,0.000,0.025,0.029,0.028,0.062,-1.232,1.233
0722_164523_0133.png,0.032,0.157,0.931,-0.033,0.155,0.927,0.143,-0.005,1.116,-0.154,-0.005,1.118,0.123,-0.230,0.979,-0.108,-0.179,0.920,-0.019,-0.335,0.791,-0.062,-0.347,0.726,993.168,700.507,0.931,925.963,699.528,0.927,1081.532,535.633,1.116,828.977,536.041,1.118,1079.490,316.887,0.979,848.105,355.288,0.920,937.589,136.739,0.791,879.125,85.034,0.726,-0.031,-0.972,1.403,0.000,-359.234,0.000,0.001,0.011,0.029,0.203,-1.219,1.423
0722_164523_0134.png,0.002,0.157,0.948,-0.064,0.159,0.952,0.107,-0.004,1.161,-0.184,-0.019,1.094,0.240,-0.199,1.278,-0.354,-0.224,1.100,0.352,-0.266,1.043,-0.408,-0.314,0.853,961.802,697.128,0.948,895.593,699.339,0.952,1047.432,536.745,1.161,799.664,523.154,1.094,1138.647,392.127,1.278,654.193,346.645,1.100,1280.681,297.850,1.043,505.455,190.402,0.853,-0.032,-0.965,1.402,0.000,-345.540,0.000,-0.008,0.042,-0.024,0.167,-0.903,1.165
0722_164523_0135.png,-0.013,0.168,0.928,-0.079,0.172,0.936,0.102,-0.001,1.151,-0.195,-0.017,1.081,0.140,-0.172,0.941,-0.201,-0.287,1.055,0.174,-0.338,0.735,-0.164,-0.328,0.801,946.952,711.632,0.928,879.333,714.392,0.936,1044.358,538.958,1.151,788.487,524.805,1.081,1101.311,366.122,0.941,779.280,281.638,1.055,1184.583,103.273,0.735,765.560,150.720,0.801,-0.022,-0.963,1.401,0.000,-345.298,0.000,-0.029,-0.010,0.017,-0.069,-0.895,1.389
0722_164523_0136.png,0.007,0.172,0.942,-0.056,0.174,0.946,0.118,-0.006,1.139,-0.168,-0.012,1.112,0.145,-0.252,1.025,-0.264,-0.186,1.294,-0.007,-0.344,0.832,-0.283,-0.282,1.046,967.291,713.924,0.942,903.474,714.932,0.946,1058.519,535.228,1.139,816.756,529.920,1.112,1094.113,305.793,1.025,765.860,403.652,1.294,952.479,146.969,0.832,702.786,283.629,1.046,-0.026,-0.962,1.401,0.000,-353.401,0.000,0.034,0.000,-0.014,-0.029,-0.789,1.223
0722_164523_0137.png,0.022,0.171,0.949,-0.045,0.170,0.947,0.135,-0.009,1.126,-0.164,-0.010,1.121,0.261,-0.224,1.218,-0.332,-0.217,1.146,0.361,-0.281,0.983,-0.413,-0.298,0.911,981.618,711.054,0.949,915.067,710.931,0.947,1073.985,532.389,1.126,820.640,531.465,1.121,1163.522,365.254,1.218,684.846,359.916,1.146,1308.819,268.212,0.983,529.112,228.483,0.911,-0.025,-0.967,1.402,0.000,-357.928,0.000,-0.008,0.026,0.007,0.123,-0.679,1.382
0722_164523_0138.png,0.034,0.175,0.930,-0.032,0.175,0.931,0.157,-0.008,1.105,-0.142,-0.002,1.132,0.168,-0.278,1.162,-0.246,-0.229,1.026,0.149,-0.310,0.901,-0.175,-0.338,0.799,994.989,719.026,0.930,926.920,718.539,0.931,1095.189,533.159,1.105,840.657,538.698,1.132,1097.418,312.656,1.162,732.254,328.188,1.026,1116.966,212.871,0.901,751.804,137.108,0.799,-0.033,-0.964,1.402,0.000,-4.280,0.000,-0.012,-0.023,0.007,-0.101,-0.927,1.378
0722_164523_0139.png,0.028,0.166,0.938,-0.037,0.164,0.934,0.139,-0.010,1.120,-0.153,-0.008,1.130,0.218,-0.226,1.267,-0.207,-0.254,1.022,0.272,-0.288,1.013,-0.196,-0.354,0.775,988.164,707.858,0.938,922.395,706.970,0.934,1077.895,531.250,1.120,831.001,533.224,1.130,1123.827,370.332,1.267,767.876,303.597,1.022,1214.894,270.154,1.013,719.771,105.664,0.775,-0.026,-0.959,1.401,0.000,-0.802,0.000,0.015,-0.011,-0.014,0.134,-0.915,1.611
0722_164523_0140.png,0.019,0.163,0.946,-0.046,0.163,0.946,0.132,-0.009,1.130,-0.160,-0.009,1.130,0.168,-0.188,0.911,-0.294,-0.200,1.257,0.207,-0.363,0.698,-0.250,-0.286,1.005,978.781,703.692,0.946,913.835,703.622,0.946,1070.871,532.061,1.130,825.644,532.218,1.130,1135.637,343.372,0.911,737.348,388.646,1.257,1241.854,45.798,0.698,723.027,268.945,1.005,-0.023,-0.962,1.401,0.000,-358.986,0.000,0.019,0.017,-0.028,0.045,-0.864,1.464
0722_164523_0141.png,0.005,0.156,0.939,-0.062,0.159,0.944,0.119,-0.001,1.146,-0.179,-0.011,1.102,0.191,-0.234,1.033,-0.288,-0.253,1.100,0.075,-0.327,0.813,-0.141,-0.305,0.886,964.625,698.247,0.939,897.538,700.558,0.944,1059.099,538.963,1.146,805.791,530.285,1.102,1135.858,324.248,1.033,710.666,321.167,1.100,1047.218,157.444,0.813,809.015,213.220,0.886,-0.029,-0.971,1.403,0.000,-350.302,0.000,-0.016,0.034,-0.004,-0.006,-0.904,1.727
0722_164523_0142.png,0.004,0.149,0.937,-0.061,0.153,0.942,0.114,-0.001,1.151,-0.176,-0.012,1.103,0.091,-0.180,0.934,-0.142,-0.233,0.943,0.070,-0.355,0.722,-0.084,-0.360,0.713,963.744,691.690,0.937,898.050,694.873,0.942,1054.475,538.779,1.151,807.999,529.298,1.103,1052.288,356.327,0.934,816.801,305.403,0.943,1051.568,72.588,0.722,847.468,59.135,0.713,-0.030,-0.968,1.403,0.000,-349.291,0.000,0.007,0.030,-0.021,-0.011,-1.066,1.659
0722_164523_0143.png,0.050,0.154,0.928,-0.014,0.150,0.920,0.160,-0.022,1.090,-0.128,-0.011,1.138,0.204,-0.279,1.031,-0.308,-0.198,1.084,0.051,-0.331,0.834,-0.426,-0.313,0.891,1011.329,698.182,0.928,945.631,694.635,0.920,1099.739,520.984,1.090,852.851,531.087,1.138,1148.422,282.535,1.031,689.929,366.004,1.084,1017.711,162.470,0.834,505.501,206.176,0.891,-0.032,-0.958,1.400,0.000,-8.602,0.000,0.015,-0.015,0.040,0.218,-1.132,1.577
0722_164523_0144.png,0.020,0.163,0.941,-0.047,0.165,0.945,0.143,-0.006,1.133,-0.161,-0.008,1.124,0.169,-0.259,1.034,-0.317,-0.227,1.072,-0.016,-0.322,0.848,-0.375,-0.322,0.826,980.497,704.791,0.941,912.667,705.848,0.945,1080.056,534.783,1.133,823.469,532.921,1.124,1115.557,301.300,1.034,678.832,338.397,1.072,941.539,179.085,0.848,528.203,169.200,0.826,-0.033,-0.964,1.402,0.000,-357.023,0.000,-0.026,0.013,-0.025,-0.112,-1.001,1.173
0722_164523_0145.png,0.055,0.178,0.943,-0.010,0.172,0.933,0.168,-0.009,1.086,-0.115,0.008,1.161,0.160,-0.274,1.007,-0.258,-0.224,1.179,-0.018,-0.346,0.815,-0.306,-0.313,0.924,1015.385,719.429,0.943,950.217,715.809,0.933,1106.784,532.321,1.086,865.475,546.934,1.161,1111.123,281.545,1.007,752.194,359.513,1.179,939.129,136.463,0.815,644.852,217.614,0.924,-0.026,-0.968,1.403,0.000,-14.039,0.000,0.012,-0.002,-0.042,0.126,-0.970,1.176
0722_164523_0146.png,0.045,0.163,0.936,-0.023,0.161,0.937,0.172,-0.013,1.088,-0.123,0.004,1.160,0.163,-0.272,1.159,-0.233,-0.214,1.028,0.145,-0.307,0.892,-0.182,-0.337,0.791,1005.242,705.878,0.936,936.799,703.612,0.937,1110.667,528.648,1.088,859.500,542.924,1.160,1094.034,316.992,1.159,744.639,342.378,1.028,1114.532,212.578,0.892,740.972,134.802,0.791,-0.028,-0.966,1.402,0.000,-12.897,0.000,-0.024,0.010,-0.032,-0.223,-0.979,1.575
0722_164523_0147.png,0.050,0.160,0.945,-0.014,0.157,0.939,0.164,-0.015,1.093,-0.120,-0.002,1.149,0.206,-0.211,1.257,-0.270,-0.169,0.999,0.241,-0.278,1.007,-0.388,-0.328,0.825,1010.253,701.329,0.945,945.638,698.925,0.939,1102.730,527.157,1.093,860.375,538.534,1.149,1115.813,380.119,1.257,703.065,379.153,0.999,1187.061,277.491,1.007,512.306,162.506,0.825,-0.032,-0.971,1.403,0.000,-10.352,0.000,0.023,0.041,0.006,0.037,-0.834,1.686
0722_164523_0148.png,0.031,0.189,0.930,-0.034,0.189,0.931,0.150,-0.003,1.103,-0.143,0.002,1.123,0.082,-0.182,0.918,-0.239,-0.253,1.121,0.015,-0.356,0.738,-0.232,-0.322,0.874,991.452,733.718,0.930,924.903,733.573,0.931,1088.919,537.826,1.103,838.448,541.659,1.123,1044.933,351.775,0.918,756.978,325.374,1.121,978.869,80.818,0.738,707.203,190.322,0.874,-0.032,-0.970,1.403,0.000,-2.733,0.000,0.011,-0.028,0.031,-0.080,-0.780,1.142
0722_164523_0149.png,-0.007,0.145,0.933,-0.071,0.152,0.947,0.109,-0.005,1.156,-0.177,-0.021,1.089,0.147,-0.243,1.038,-0.345,-0.224,1.070,-0.015,-0.325,0.850,-0.433,-0.321,0.842,952.635,687.263,0.933,889.100,692.624,0.947,1049.309,535.607,1.156,805.802,522.009,1.089,1094.543,317.666,1.038,653.220,341.165,1.070,943.045,176.472,0.850,471.393,177.970,0.842,-0.036,-0.965,1.402,0.000,-345.385,0.000,0.012,0.035,0.000,-0.261,-1.119,1.379
0722_164523_0150.png,0.001,0.155,0.938,-0.065,0.158,0.941,0.106,-0.003,1.155,-0.184,-0.017,1.092,0.230,-0.204,1.277,-0.289,-0.263,1.091,0.199,-0.273,1.023,-0.117,-0.311,0.895,961.286,697.450,0.938,894.835,700.069,0.941,1047.583,537.594,1.155,799.778,524.863,1.092,1131.334,387.957,1.277,708.211,310.970,1.091,1144.698,286.467,1.023,835.639,209.058,0.895,-0.029,-0.965,1.402,0.000,-346.294,0.000,-0.002,0.023,-0.008,0.125,-0.999,1.416
0722_164523_0151.png,0.042,0.166,0.948,-0.023,0.165,0.946,0.157,-0.011,1.114,-0.133,-0.005,1.141,0.146,-0.262,1.010,-0.244,-0.233,1.218,0.001,-0.344,0.801,-0.230,-0.296,0.959,1001.681,706.395,0.948,936.692,705.456,0.946,1094.320,530.202,1.114,848.807,535.787,1.141,1097.406,293.367,1.010,769.403,358.394,1.218,961.773,131.971,0.801,731.373,246.476,0.959,-0.036,-0.966,1.402,0.000,-4.455,0.000,0.016,0.026,-0.021,0.017,-0.872,1.198
0722_164523_0152.png,-0.007,0.156,0.943,-0.074,0.161,0.953,0.110,-0.006,1.160,-0.187,-0.020,1.098,0.190,-0.199,1.323,-0.281,-0.196,1.274,0.234,-0.257,1.063,-0.463,-0.252,1.082,952.793,697.554,0.943,886.585,700.832,0.953,1050.132,535.349,1.160,798.065,522.812,1.098,1096.333,396.608,1.323,750.266,393.998,1.274,1169.681,309.609,1.063,553.463,318.670,1.082,-0.029,-0.960,1.401,0.000,-346.797,0.000,-0.023,0.026,-0.031,-0.133,-0.947,1.160
0722_164523_0153.png,0.048,0.158,0.943,-0.017,0.154,0.937,0.165,-0.021,1.078,-0.119,-0.003,1.158,0.225,-0.255,0.968,-0.170,-0.242,1.055,0.179,-0.350,0.729,-0.123,-0.327,0.813,1008.367,699.421,0.943,942.631,696.422,0.937,1105.148,521.355,1.078,862.198,537.750,1.158,1181.458,289.602,0.968,806.324,321.967,1.055,1193.160,83.705,0.729,815.641,157.044,0.813,-0.023,-0.968,1.403,0.000,-14.980,0.000,0.005,0.039,0.008,-0.049,-0.884,1.502
0722_164523_0154.png,0.034,0.170,0.924,-0.032,0.167,0.921,0.153,-0.001,1.101,-0.145,0.008,1.139,0.082,-0.183,0.900,-0.299,-0.212,1.206,0.012,-0.361,0.705,-0.376,-0.296,0.964,995.431,714.977,0.924,926.939,712.588,0.921,1092.477,538.904,1.101,839.369,546.363,1.139,1046.377,346.283,0.900,724.254,372.617,1.206,976.396,52.748,0.705,588.905,247.796,0.964,-0.024,-0.969,1.403,0.000,-6.419,0.000,-0.012,-0.031,-0.015,0.041,-1.176,1.619
0722_164523_0155.png,0.042,0.171,0.930,-0.021,0.168,0.926,0.156,-0.011,1.101,-0.127,-0.003,1.137,0.182,-0.212,1.289,-0.278,-0.199,1.247,0.222,-0.291,1.043,-0.440,-0.286,1.064,1003.261,714.485,0.930,938.660,712.889,0.926,1094.718,530.358,1.101,854.141,537.633,1.137,1094.143,383.290,1.289,748.308,388.144,1.247,1162.698,274.575,1.043,566.427,284.625,1.064,-0.035,-0.961,1.401,0.000,-6.329,0.000,0.041,-0.027,0.005,0.034,-0.983,1.485
0722_164523_0156.png,0.049,0.183,0.946,-0.016,0.181,0.943,0.168,-0.008,1.099,-0.121,0.004,1.153,0.268,-0.242,0.994,-0.304,-0.188,1.206,0.303,-0.357,0.749,-0.307,-0.302,0.958,1009.540,723.460,0.946,943.828,722.279,0.943,1105.799,532.721,1.099,860.414,543.368,1.153,1216.332,308.111,0.994,720.454,391.769,1.206,1344.656,87.473,0.749,655.651,239.812,0.958,-0.035,-0.966,1.402,0.000,-9.745,0.000,0.008,-0.002,-0.039,-0.070,-0.714,1.287
0722_164523_0157.png,0.033,0.175,0.946,-0.033,0.174,0.942,0.149,-0.005,1.119,-0.149,-0.001,1.136,0.177,-0.186,0.906,-0.254,-0.239,1.049,0.207,-0.363,0.700,-0.128,-0.332,0.829,993.585,716.324,0.946,927.053,715.544,0.942,1086.308,535.825,1.119,835.215,539.262,1.136,1146.211,344.322,0.906,730.016,323.196,1.049,1241.885,45.955,0.700,813.066,159.025,0.829,-0.029,-0.967,1.402,0.000,-2.286,0.000,-0.004,0.006,-0.030,0.091,-0.780,1.473
0722_164523_0158.png,0.008,0.196,0.924,-0.058,0.199,0.931,0.131,0.010,1.123,-0.168,0.007,1.107,0.223,-0.220,1.010,-0.203,-0.250,1.018,0.249,-0.343,0.781,-0.184,-0.347,0.777,968.079,741.991,0.924,900.654,742.904,0.931,1071.312,548.604,1.123,815.601,545.654,1.107,1169.477,333.007,1.010,769.994,306.788,1.018,1263.205,122.913,0.781,734.469,115.171,0.777,-0.026,-0.974,1.404,0.000,-355.776,0.000,-0.010,-0.042,0.010,-0.206,-0.771,1.399
0722_164523_0159.png,0.046,0.165,0.948,-0.020,0.165,0.948,0.169,-0.020,1.093,-0.124,-0.007,1.147,0.121,-0.248,0.968,-0.125,-0.202,0.964,0.071,-0.346,0.734,-0.074,-0.341,0.749,1006.569,705.935,0.948,940.240,705.312,0.948,1107.257,522.896,1.093,857.178,534.091,1.147,1079.226,296.448,0.968,836.604,341.203,0.964,1052.300,91.617,0.734,866.658,107.904,0.749,-0.035,-0.967,1.402,0.000,-9.626,0.000,-0.005,0.039,0.017,-0.185,-0.678,1.313
0722_164523_0160.png,0.047,0.149,0.930,-0.020,0.146,0.931,0.173,-0.029,1.073,-0.119,-0.011,1.153,0.305,-0.263,1.084,-0.177,-0.217,1.004,0.351,-0.312,0.837,-0.069,-0.327,0.795,1007.753,691.908,0.930,939.200,689.663,0.931,1113.663,514.092,1.073,861.479,530.979,1.153,1227.049,309.195,1.084,792.261,334.521,1.004,1358.725,185.470,0.837,877.742,149.225,0.795,-0.030,-0.959,1.401,0.000,-14.423,0.000,-0.024,0.016,0.040,-0.263,-1.124,1.274
0722_164523_0161.png,0.016,0.179,0.928,-0.051,0.182,0.937,0.142,-0.001,1.130,-0.161,-0.005,1.111,0.153,-0.239,0.995,-0.263,-0.260,1.073,0.013,-0.339,0.791,-0.086,-0.318,0.882,976.203,723.140,0.928,908.306,724.657,0.937,1079.720,539.091,1.130,822.012,535.436,1.111,1105.881,311.870,0.995,727.080,309.983,1.073,975.645,132.281,0.791,867.212,196.678,0.882,-0.037,-0.963,1.401,0.000,-355.247,0.000,-0.024,-0.032,-0.005,-0.232,-0.855,1.417
0722_164523_0162.png,0.002,0.147,0.931,-0.063,0.151,0.936,0.111,-0.011,1.145,-0.178,-0.022,1.097,0.081,-0.182,0.934,-0.349,-0.227,1.081,0.052,-0.350,0.728,-0.429,-0.322,0.852,962.190,690.354,0.931,896.400,693.083,0.936,1052.358,531.279,1.145,805.708,521.343,1.097,1042.849,354.345,0.934,653.044,340.597,1.081,1028.060,83.361,0.728,481.469,181.217,0.852,-0.027,-0.959,1.401,0.000,-349.173,0.000,0.012,0.010,0.015,0.015,-1.156,1.356
0722_164523_0163.png,0.029,0.179,0.942,-0.037,0.181,0.947,0.154,-0.009,1.120,-0.145,-0.006,1.133,0.194,-0.198,1.314,-0.133,-0.196,0.930,0.226,-0.271,1.057,-0.077,-0.360,0.720,988.821,720.987,0.942,922.426,721.334,0.947,1090.391,532.630,1.120,838.440,535.237,1.133,1100.310,396.890,1.314,823.900,339.205,0.930,1163.691,296.155,1.057,858.196,64.996,0.720,-0.036,-0.960,1.401,0.000,-1.402,0.000,-0.006,-0.011,-0.024,-0.208,-0.667,1.384
0722_164523_0164.png,0.027,0.166,0.929,-0.040,0.166,0.927,0.134,-0.004,1.128,-0.164,-0.010,1.099,0.194,-0.173,0.931,-0.143,-0.187,0.908,0.250,-0.338,0.739,-0.109,-0.354,0.718,987.230,709.548,0.929,919.341,709.921,0.927,1073.026,536.841,1.128,818.517,531.161,1.099,1158.375,362.931,0.931,810.168,343.859,0.908,1281.250,104.575,0.739,815.064,71.015,0.718,-0.035,-0.969,1.403,0.000,-353.281,0.000,-0.007,-0.004,0.044,0.229,-0.964,1.585
0722_164523_0165.png,-0.002,0.170,0.938,-0.068,0.173,0.944,0.110,0.002,1.147,-0.183,-0.010,1.096,0.047,-0.173,0.940,-0.238,-0.261,1.018,-0.015,-0.343,0.739,-0.083,-0.330,0.816,957.619,711.923,0.938,891.506,713.826,0.944,1051.537,541.253,1.147,801.204,531.211,1.096,1007.372,365.000,0.940,737.504,296.247,1.018,940.495,98.918,0.739,863.385,155.588,0.816,-0.025,-0.971,1.403,0.000,-348.784,0.000,-0.004,0.018,0.000,-0.018,-0.743,1.660
0722_164523_0166.png,0.037,0.173,0.940,-0.030,0.170,0.933,0.146,-0.002,1.116,-0.156,0.000,1.126,0.179,-0.193,1.304,-0.243,-0.248,1.061,0.228,-0.262,1.054,-0.067,-0.315,0.874,997.041,714.785,0.940,929.513,713.376,0.933,1084.654,537.872,1.116,828.579,539.843,1.126,1090.585,399.341,1.304,742.708,318.245,1.061,1165.649,303.838,1.054,886.792,197.084,0.874,-0.028,-0.972,1.403,0.000,-0.785,0.000,-0.018,0.006,0.002,0.289,-0.912,1.491
0722_164523_0167.png,0.039,0.181,0.937,-0.028,0.179,0.935,0.159,-0.007,1.101,-0.137,0.002,1.143,0.183,-0.218,1.277,-0.282,-0.189,1.275,0.213,-0.281,1.019,-0.412,-0.273,1.057,999.303,723.258,0.937,931.974,722.210,0.935,1097.705,533.582,1.101,846.314,541.921,1.143,1096.213,377.945,1.277,749.301,398.877,1.275,1158.476,277.309,1.019,588.736,294.019,1.057,-0.029,-0.965,1.402,0.000,-7.182,0.000,-0.008,-0.017,-0.017,-0.055,-0.840,1.276
0722_164523_0168.png,0.066,0.165,0.942,0.002,0.162,0.935,0.181,-0.022,1.075,-0.103,-0.004,1.155,0.194,-0.283,1.033,-0.078,-0.176,0.949,0.030,-0.323,0.837,-0.054,-0.344,0.747,1027.140,706.968,0.942,961.665,704.489,0.935,1120.257,520.271,1.075,875.534,536.746,1.155,1138.406,279.100,1.033,881.626,363.230,0.949,993.786,172.762,0.837,891.871,102.618,0.747,-0.040,-0.966,1.402,0.000,-14.938,0.000,0.005,0.022,0.021,0.019,-0.887,1.107
0722_164523_0169.png,-0.006,0.174,0.934,-0.073,0.178,0.942,0.109,0.008,1.153,-0.189,-0.007,1.086,0.095,-0.170,0.938,-0.199,-0.254,0.977,0.080,-0.341,0.728,-0.078,-0.341,0.757,953.573,716.684,0.934,886.284,719.391,0.942,1049.515,546.525,1.153,794.897,533.447,1.086,1056.259,368.141,0.938,765.998,292.238,0.977,1065.146,93.794,0.728,861.446,112.301,0.757,-0.029,-0.974,1.404,0.000,-345.802,0.000,-0.027,0.012,-0.004,-0.062,-0.905,1.203
0722_164523_0170.png,0.029,0.154,0.942,-0.035,0.153,0.939,0.143,-0.014,1.121,-0.148,-0.010,1.136,0.125,-0.260,1.004,-0.275,-0.245,1.100,-0.015,-0.347,0.795,-0.148,-0.321,0.879,989.466,695.559,0.942,924.180,694.583,0.939,1080.992,528.484,1.121,835.792,531.560,1.136,1078.351,294.159,1.004,722.122,328.208,1.100,941.755,125.502,0.795,799.887,192.487,0.879,-0.027,-0.960,1.401,0.000,-1.894,0.000,0.019,0.016,-0.021,0.070,-1.099,1.317
0722_164523_0171.png,0.050,0.170,0.931,-0.017,0.166,0.927,0.171,-0.011,1.076,-0.124,0.007,1.153,0.274,-0.260,1.067,-0.109,-0.182,0.961,0.304,-0.321,0.815,-0.049,-0.339,0.757,1010.984,713.741,0.931,942.369,710.677,0.927,1111.088,530.620,1.076,857.880,545.910,1.153,1204.057,308.135,1.067,852.260,359.396,0.961,1314.584,165.140,0.815,898.682,113.658,0.757,-0.027,-0.973,1.404,0.000,-13.900,0.000,-0.028,0.006,0.012,-0.049,-1.027,1.384
0722_164523_0172.png,0.033,0.169,0.952,-0.032,0.169,0.952,0.146,-0.009,1.133,-0.147,-0.009,1.130,0.104,-0.240,0.987,-0.266,-0.248,1.144,-0.014,-0.352,0.772,-0.291,-0.321,0.884,992.937,709.029,0.952,928.029,709.063,0.952,1082.511,532.784,1.133,836.166,532.133,1.130,1059.929,309.010,0.987,738.555,333.553,1.144,942.355,106.159,0.772,646.279,195.037,0.884,-0.039,-0.962,1.401,0.000,-358.175,0.000,0.013,0.021,-0.036,0.074,-0.735,1.321
0722_164523_0173.png,0.048,0.168,0.948,-0.017,0.166,0.943,0.164,-0.018,1.098,-0.125,-0.006,1.150,0.233,-0.226,0.937,-0.118,-0.181,0.931,0.261,-0.362,0.709,-0.113,-0.352,0.718,1007.926,708.377,0.948,942.612,706.935,0.943,1102.252,524.288,1.098,856.869,534.866,1.150,1196.425,310.389,0.937,839.195,355.055,0.931,1309.672,55.147,0.709,809.769,74.251,0.718,-0.032,-0.962,1.401,0.000,-9.276,0.000,0.010,0.018,-0.010,-0.004,-0.798,1.177
0722_164523_0174.png,0.057,0.168,0.941,-0.007,0.161,0.930,0.168,-0.013,1.084,-0.117,0.004,1.157,0.268,-0.247,0.992,-0.276,-0.210,1.113,0.297,-0.352,0.748,-0.199,-0.319,0.882,1017.615,709.477,0.941,952.381,705.151,0.930,1107.767,528.961,1.084,864.248,543.554,1.157,1216.992,303.359,0.992,724.179,360.143,1.113,1337.031,92.989,0.748,744.986,196.341,0.882,-0.028,-0.969,1.403,0.000,-13.666,0.000,0.007,0.011,-0.017,0.185,-1.093,1.187
0722_164523_0175.png,0.023,0.182,0.931,-0.043,0.183,0.931,0.134,0.000,1.127,-0.162,-0.005,1.107,0.186,-0.247,1.030,-0.177,-0.237,0.971,0.053,-0.336,0.823,-0.070,-0.350,0.762,983.245,726.263,0.931,915.905,726.649,0.931,1073.323,539.654,1.127,820.436,535.579,1.107,1131.381,311.476,1.030,786.479,307.736,0.971,1021.100,152.093,0.823,872.714,103.700,0.762,-0.033,-0.966,1.402,0.000,-354.754,0.000,-0.002,-0.027,0.015,0.120,-0.870,1.182
0722_164523_0176.png,0.006,0.161,0.939,-0.058,0.163,0.944,0.119,-0.009,1.137,-0.171,-0.016,1.108,0.184,-0.264,1.089,-0.246,-0.228,0.964,0.177,-0.330,0.837,-0.224,-0.355,0.737,966.560,703.071,0.939,901.475,704.367,0.944,1059.819,532.192,1.137,813.197,526.325,1.108,1120.341,309.535,1.089,717.182,314.794,0.964,1161.033,165.404,0.837,671.168,82.092,0.737,-0.026,-0.963,1.401,0.000,-353.034,0.000,0.017,0.016,0.009,-0.025,-0.852,1.431
0722_164523_0177.png,0.042,0.165,0.943,-0.023,0.162,0.939,0.161,-0.015,1.103,-0.129,-0.003,1.152,0.165,-0.280,1.153,-0.157,-0.235,1.001,0.145,-0.320,0.886,-0.060,-0.350,0.779,1002.497,706.090,0.943,936.668,704.211,0.939,1098.574,527.331,1.103,853.480,537.159,1.152,1096.529,308.882,1.153,811.169,317.234,1.001,1115.169,196.107,0.886,886.341,112.046,0.779,-0.029,-0.961,1.401,0.000,-8.666,0.000,0.010,0.006,-0.032,-0.040,-0.989,1.229
0722_164523_0178.png,0.064,0.158,0.933,-0.003,0.154,0.928,0.182,-0.024,1.071,-0.109,-0.005,1.152,0.245,-0.254,0.958,-0.257,-0.174,1.301,0.245,-0.343,0.720,-0.284,-0.255,1.063,1025.043,701.105,0.933,957.373,698.124,0.928,1121.911,518.755,1.071,869.981,535.594,1.152,1203.168,287.722,0.958,772.037,412.729,1.301,1283.928,87.374,0.720,705.853,311.676,1.063,-0.039,-0.965,1.402,0.000,-14.730,0.000,-0.020,0.016,0.041,-0.014,-0.964,1.475
0722_164523_0179.png,0.051,0.161,0.940,-0.014,0.159,0.938,0.171,-0.018,1.082,-0.109,0.000,1.158,0.274,-0.256,1.131,-0.148,-0.222,1.007,0.156,-0.313,0.901,-0.059,-0.343,0.791,1011.132,703.119,0.940,945.770,700.701,0.938,1110.501,524.393,1.082,870.279,539.747,1.158,1190.012,324.857,1.131,820.667,330.601,1.007,1125.089,210.078,0.901,889.016,127.322,0.791,-0.032,-0.968,1.403,0.000,-14.353,0.000,0.019,0.028,-0.008,-0.188,-0.945,1.371
0722_164523_0180.png,0.004,0.152,0.934,-0.061,0.155,0.938,0.109,-0.003,1.153,-0.178,-0.014,1.107,0.187,-0.200,1.319,-0.344,-0.224,1.079,0.253,-0.275,1.064,-0.424,-0.333,0.844,963.601,694.512,0.934,898.259,697.269,0.938,1049.713,537.547,1.153,806.908,528.350,1.107,1094.654,395.605,1.319,656.714,342.587,1.079,1186.004,293.992,1.064,482.835,164.752,0.844,-0.027,-0.960,1.401,0.000,-349.476,0.000,0.021,0.001,-0.042,0.070,-1.111,1.627
0722_164523_0181.png,0.035,0.162,0.931,-0.033,0.161,0.930,0.156,-0.003,1.110,-0.151,0.001,1.127,0.092,-0.201,0.941,-0.276,-0.179,1.286,-0.020,-0.337,0.746,-0.269,-0.259,1.040,995.663,705.433,0.931,926.008,704.648,0.930,1093.457,537.118,1.110,832.366,540.438,1.127,1052.851,336.524,0.941,756.136,408.005,1.286,934.786,110.427,0.746,714.260,303.044,1.040,-0.032,-0.974,1.404,0.000,-2.059,0.000,-0.036,0.012,0.016,0.026,-1.211,1.284
0722_164523_0182.png,0.039,0.140,0.937,-0.029,0.140,0.940,0.166,-0.017,1.110,-0.136,-0.009,1.144,0.133,-0.278,1.115,-0.310,-0.213,1.106,0.084,-0.308,0.857,-0.379,-0.308,0.867,999.370,682.367,0.937,931.007,681.633,0.940,1102.507,525.597,1.110,846.696,532.623,1.144,1073.787,302.726,1.115,693.583,357.051,1.106,1053.042,198.382,0.857,544.462,202.612,0.867,-0.037,-0.964,1.402,0.000,-5.503,0.000,-0.026,0.038,-0.009,-0.177,-1.258,1.442
0722_164523_0183.png,-0.006,0.166,0.944,-0.069,0.170,0.955,0.104,-0.003,1.157,-0.177,-0.018,1.095,0.085,-0.202,0.967,-0.282,-0.198,1.256,0.009,-0.355,0.762,-0.442,-0.272,1.064,953.545,706.858,0.944,890.836,709.405,0.955,1045.083,537.320,1.157,806.043,524.766,1.095,1043.423,341.506,0.967,746.419,389.767,1.256,971.037,96.910,0.762,565.224,297.144,1.064,-0.032,-0.964,1.402,0.000,-346.037,0.000,0.030,0.025,-0.020,-0.135,-0.718,1.403
0722_164523_0184.png,-0.009,0.179,0.929,-0.074,0.184,0.941,0.115,0.002,1.144,-0.183,-0.010,1.094,0.083,-0.177,0.934,-0.249,-0.272,1.045,0.050,-0.351,0.729,-0.071,-0.325,0.856,951.281,723.324,0.929,885.286,725.652,0.941,1055.888,541.372,1.144,801.314,531.473,1.094,1044.402,359.789,0.934,733.711,292.698,1.045,1025.239,82.477,0.729,881.597,178.733,0.856,-0.027,-0.964,1.402,0.000,-349.083,0.000,-0.018,-0.024,0.000,-0.289,-0.779,1.431
0722_164523_0185.png,0.033,0.156,0.935,-0.033,0.156,0.937,0.160,-0.010,1.104,-0.139,-0.001,1.144,0.173,-0.269,1.031,-0.156,-0.201,0.957,-0.016,-0.321,0.851,-0.119,-0.347,0.736,993.977,698.899,0.935,926.121,697.968,0.937,1097.497,531.065,1.104,844.315,538.941,1.144,1119.614,291.782,1.031,805.403,340.239,0.957,942.162,181.801,0.851,806.575,91.092,0.736,-0.029,-0.968,1.403,0.000,-6.573,0.000,-0.015,0.020,-0.010,-0.166,-1.012,1.719
0722_164523_0186.png,-0.012,0.172,0.926,-0.075,0.178,0.938,0.100,0.006,1.151,-0.184,-0.009,1.089,0.074,-0.170,0.934,-0.233,-0.171,1.305,0.051,-0.344,0.724,-0.302,-0.276,1.072,948.002,716.433,0.926,883.884,720.140,0.938,1042.360,544.780,1.151,799.628,532.537,1.089,1035.307,366.526,0.934,790.370,415.524,1.305,1026.982,88.651,0.724,691.788,295.124,1.072,-0.026,-0.967,1.402,0.000,-346.103,0.000,0.022,-0.018,-0.014,-0.184,-0.963,1.429
0722_164523_0187.png,0.027,0.185,0.934,-0.037,0.184,0.930,0.138,0.003,1.117,-0.155,0.004,1.123,0.136,-0.227,0.970,-0.152,-0.199,0.940,0.103,-0.359,0.742,-0.097,-0.363,0.737,987.947,728.218,0.934,921.761,727.600,0.930,1077.443,542.304,1.117,828.602,543.567,1.123,1093.042,316.995,0.970,806.307,338.369,0.940,1092.600,80.366,0.742,834.370,71.703,0.737,-0.026,-0.971,1.403,0.000,-0.142,0.000,0.013,-0.021,-0.004,0.156,-0.799,1.608
0722_164523_0188.png,0.034,0.187,0.940,-0.032,0.186,0.937,0.149,-0.006,1.117,-0.150,-0.004,1.127,0.100,-0.241,0.984,-0.294,-0.238,1.115,-0.017,-0.348,0.772,-0.317,-0.322,0.864,994.775,729.062,0.940,927.606,728.710,0.937,1086.698,535.016,1.117,833.037,537.033,1.127,1056.898,307.470,0.984,709.092,337.013,1.115,939.059,110.852,0.772,611.035,185.419,0.864,-0.032,-0.962,1.401,0.000,-0.824,0.000,-0.008,-0.029,-0.007,0.123,-0.657,1.410
0722_164523_0189.png,0.007,0.145,0.933,-0.057,0.150,0.939,0.111,-0.007,1.151,-0.170,-0.021,1.090,0.230,-0.213,1.262,-0.234,-0.165,1.302,0.399,-0.268,1.073,-0.304,-0.266,1.073,967.057,688.191,0.933,902.696,691.737,0.939,1051.362,534.480,1.151,811.469,522.067,1.090,1133.069,379.379,1.262,789.379,419.174,1.302,1313.158,302.362,1.073,690.529,304.577,1.073,-0.037,-0.964,1.402,0.000,-346.385,0.000,0.031,0.027,0.011,0.041,-1.145,1.418
0722_164523_0190.png,0.027,0.186,0.928,-0.039,0.185,0.926,0.146,0.001,1.105,-0.149,0.008,1.134,0.188,-0.198,1.299,-0.202,-0.218,0.984,0.299,-0.277,1.070,-0.207,-0.356,0.755,987.717,730.920,0.928,920.416,729.957,0.926,1085.215,540.761,1.105,834.994,546.340,1.134,1097.960,395.208,1.299,764.757,329.336,0.984,1225.411,293.485,1.070,699.591,91.086,0.755,-0.022,-0.968,1.403,0.000,-4.605,0.000,0.003,-0.041,-0.014,-0.017,-0.994,1.228
0722_164523_0191.png,0.001,0.164,0.936,-0.065,0.168,0.947,0.123,-0.009,1.147,-0.176,-0.023,1.088,0.182,-0.263,1.099,-0.295,-0.236,1.198,0.164,-0.312,0.847,-0.310,-0.285,0.945,961.244,706.515,0.936,894.830,708.629,0.947,1062.391,532.501,1.147,806.414,520.221,1.088,1117.680,312.348,1.099,725.353,352.194,1.198,1143.899,190.181,0.847,647.760,253.519,0.945,-0.038,-0.961,1.401,0.000,-347.373,0.000,-0.028,0.013,0.029,-0.206,-0.756,1.290
0722_164523_0192.png,0.044,0.165,0.936,-0.022,0.161,0.928,0.158,-0.013,1.095,-0.144,-0.003,1.137,0.140,-0.250,0.979,-0.282,-0.200,1.022,-0.005,-0.330,0.781,-0.350,-0.322,0.807,1005.107,707.564,0.936,936.993,705.001,0.928,1097.093,528.993,1.095,839.224,537.576,1.137,1095.636,297.630,0.979,697.597,354.208,1.022,953.469,138.513,0.781,548.098,161.057,0.807,-0.026,-0.969,1.403,0.000,-7.043,0.000,-0.028,0.009,0.030,0.233,-1.064,1.235
0722_164523_0193.png,0.009,0.166,0.944,-0.055,0.169,0.950,0.125,-0.006,1.134,-0.165,-0.011,1.112,0.107,-0.221,0.976,-0.247,-0.183,0.916,-0.016,-0.343,0.781,-0.328,-0.351,0.726,969.273,707.690,0.944,904.782,708.818,0.950,1065.157,535.072,1.134,818.751,530.790,1.112,1064.494,324.606,0.976,703.271,349.980,0.916,940.428,122.551,0.781,529.769,80.200,0.726,-0.028,-0.969,1.403,0.000,-354.525,0.000,0.018,0.032,0.007,-0.111,-0.819,1.144
0722_164523_0194.png,0.022,0.154,0.941,-0.043,0.155,0.944,0.144,-0.011,1.125,-0.149,-0.008,1.137,0.088,-0.188,0.907,-0.260,-0.245,1.061,0.037,-0.362,0.695,-0.117,-0.330,0.850,982.623,695.500,0.941,916.998,695.906,0.944,1082.029,530.937,1.125,834.952,533.422,1.137,1052.605,342.475,0.907,727.327,320.338,1.061,1010.248,44.404,0.695,828.634,170.972,0.850,-0.029,-0.962,1.401,0.000,-1.311,0.000,0.010,0.020,-0.033,-0.159,-1.053,1.463
0722_164523_0195.png,0.010,0.167,0.937,-0.056,0.169,0.938,0.115,0.002,1.146,-0.178,-0.009,1.096,0.089,-0.206,0.975,-0.231,-0.266,1.036,-0.018,-0.342,0.775,-0.061,-0.326,0.844,970.466,709.677,0.937,903.576,711.035,0.938,1055.467,541.866,1.146,805.440,532.045,1.096,1046.638,338.923,0.975,748.371,296.281,1.036,938.254,120.685,0.775,891.045,172.723,0.844,-0.030,-0.971,1.403,0.000,-348.964,0.000,-0.002,0.014,0.001,0.201,-0.869,1.601
0722_164523_0196.png,0.024,0.172,0.947,-0.042,0.172,0.946,0.139,-0.010,1.124,-0.158,-0.011,1.123,0.176,-0.271,1.076,-0.286,-0.234,1.048,0.158,-0.330,0.822,-0.320,-0.331,0.806,984.312,713.052,0.947,918.168,713.048,0.946,1077.772,531.307,1.124,826.343,531.100,1.123,1115.418,300.461,1.076,700.489,327.316,1.048,1142.932,158.557,0.822,582.313,150.029,0.806,-0.029,-0.964,1.402,0.000,-358.625,0.000,0.000,0.015,0.005,0.054,-0.691,1.288
0722_164523_0197.png,0.023,0.160,0.929,-0.043,0.163,0.937,0.151,-0.006,1.122,-0.150,-0.006,1.121,0.191,-0.264,1.057,-0.246,-0.182,1.302,0.005,-0.316,0.876,-0.310,-0.263,1.061,983.382,703.677,0.929,916.161,705.325,0.937,1087.837,535.330,1.122,833.153,535.218,1.121,1131.529,302.426,1.057,780.641,407.433,1.302,965.698,196.704,0.876,682.166,304.514,1.061,-0.039,-0.967,1.403,0.000,-358.718,0.000,-0.011,0.003,0.005,-0.274,-1.091,1.443
0722_164523_0198.png,0.052,0.178,0.920,-0.013,0.174,0.917,0.174,-0.008,1.076,-0.110,0.010,1.152,0.280,-0.219,1.229,-0.227,-0.168,0.972,0.263,-0.306,0.978,-0.341,-0.341,0.798,1014.166,724.295,0.920,946.774,720.987,0.917,1114.030,533.359,1.076,869.405,548.229,1.152,1176.714,370.145,1.229,738.346,376.071,0.972,1215.251,242.777,0.978,553.877,133.292,0.798,-0.035,-0.966,1.402,0.000,-14.195,0.000,0.008,-0.048,-0.007,-0.115,-1.177,1.289
0722_164523_0199.png,0.041,0.161,0.943,-0.025,0.158,0.939,0.157,-0.015,1.106,-0.135,-0.006,1.148,0.126,-0.216,0.916,-0.108,-0.184,0.933,0.050,-0.368,0.704,-0.083,-0.358,0.723,1000.967,702.253,0.943,934.936,700.275,0.939,1094.988,526.822,1.106,848.003,535.316,1.148,1090.927,315.393,0.916,850.304,352.851,0.933,1027.966,42.919,0.704,851.129,69.931,0.723,-0.028,-0.961,1.401,0.000,-7.235,0.000,0.005,0.010,-0.026,0.044,-0.886,1.653
0722_164523_0200.png,0.051,0.162,0.946,-0.014,0.158,0.939,0.163,-0.008,1.104,-0.130,0.001,1.145,0.181,-0.195,1.285,-0.212,-0.171,0.939,0.213,-0.268,1.032,-0.293,-0.338,0.738,1010.959,702.440,0.946,945.377,699.849,0.939,1100.472,532.782,1.104,852.475,540.904,1.145,1093.904,395.863,1.285,745.449,367.005,0.939,1156.253,293.366,1.032,582.033,104.809,0.738,-0.035,-0.974,1.404,0.000,-7.050,0.000,0.004,0.039,-0.013,0.160,-0.919,1.639
0722_164523_0201.png,0.028,0.165,0.936,-0.038,0.165,0.935,0.140,0.002,1.136,-0.156,0.000,1.125,0.191,-0.197,1.313,-0.203,-0.241,0.990,0.292,-0.271,1.069,-0.186,-0.360,0.741,988.491,707.549,0.936,921.710,707.897,0.935,1077.628,541.847,1.136,828.368,539.856,1.125,1098.040,397.006,1.313,764.939,308.229,0.990,1219.427,299.202,1.069,720.776,78.168,0.741,-0.035,-0.967,1.402,0.000,-356.776,0.000,0.002,-0.005,-0.050,0.100,-1.196,1.298
0722_164523_0202.png,0.046,0.167,0.932,-0.021,0.165,0.934,0.175,-0.010,1.091,-0.118,0.006,1.158,0.101,-0.253,0.976,-0.245,-0.231,1.211,-0.018,-0.354,0.751,-0.244,-0.300,0.947,1006.826,710.426,0.932,938.735,708.421,0.934,1112.811,531.641,1.091,863.301,544.911,1.158,1058.664,293.904,0.976,767.244,358.876,1.211,936.888,92.528,0.751,714.926,238.984,0.947,-0.034,-0.966,1.402,0.000,-12.172,0.000,-0.014,-0.007,-0.040,-0.270,-1.053,1.490
0722_164523_0203.png,0.023,0.191,0.932,-0.044,0.192,0.935,0.142,0.007,1.127,-0.159,0.005,1.114,0.166,-0.177,0.915,-0.275,-0.224,1.222,0.189,-0.357,0.710,-0.343,-0.295,0.974,983.075,735.130,0.932,915.277,735.710,0.935,1079.464,546.249,1.127,824.325,543.937,1.114,1132.016,356.056,0.915,746.099,365.901,1.222,1213.179,61.558,0.710,624.619,251.680,0.974,-0.035,-0.972,1.403,0.000,-356.453,0.000,-0.013,-0.030,-0.013,-0.043,-0.787,1.370
0722_164523_0204.png,0.023,0.167,0.935,-0.044,0.168,0.937,0.137,-0.003,1.135,-0.161,-0.009,1.109,0.278,-0.200,1.256,-0.242,-0.245,1.213,0.262,-0.282,1.006,-0.222,-0.292,0.955,983.215,709.642,0.935,915.863,710.668,0.937,1074.664,537.337,1.135,821.549,532.173,1.109,1170.066,388.326,1.256,770.303,347.779,1.213,1207.880,273.837,1.006,738.930,249.018,0.955,-0.038,-0.966,1.402,0.000,-353.739,0.000,-0.009,0.001,0.000,0.053,-0.868,1.620
0722_164523_0205.png,0.040,0.143,0.942,-0.024,0.140,0.937,0.153,-0.018,1.106,-0.133,-0.009,1.145,0.228,-0.221,1.250,-0.274,-0.227,1.088,0.280,-0.284,1.000,-0.178,-0.324,0.863,1000.262,684.698,0.942,935.799,681.879,0.937,1091.190,524.513,1.106,849.844,532.543,1.145,1133.693,371.672,1.250,720.487,341.778,1.088,1226.713,270.382,1.000,763.409,183.039,0.863,-0.028,-0.964,1.402,0.000,-6.875,0.000,0.030,0.038,-0.006,0.084,-1.174,1.538
0722_164523_0206.png,0.031,0.156,0.941,-0.038,0.156,0.945,0.160,-0.015,1.112,-0.148,-0.009,1.138,0.123,-0.253,0.993,-0.255,-0.241,1.053,0.062,-0.334,0.749,-0.105,-0.314,0.844,990.912,697.162,0.941,922.057,697.193,0.945,1096.550,527.290,1.112,836.602,532.638,1.138,1077.740,297.619,0.993,729.368,322.575,1.053,1038.289,115.802,0.749,841.563,186.066,0.844,-0.032,-0.964,1.402,0.000,-3.851,0.000,-0.039,0.029,-0.004,-0.213,-0.991,1.297
0722_164523_0207.png,0.057,0.169,0.943,-0.006,0.164,0.934,0.167,-0.014,1.089,-0.112,0.001,1.153,0.100,-0.194,0.886,-0.216,-0.166,0.953,0.038,-0.372,0.688,-0.319,-0.329,0.759,1017.630,710.134,0.943,953.873,706.957,0.934,1106.137,527.947,1.089,867.508,540.786,1.153,1067.546,331.274,0.886,744.827,374.082,0.953,1012.198,26.267,0.688,560.249,127.253,0.759,-0.034,-0.967,1.402,0.000,-12.092,0.000,0.033,0.012,-0.013,0.141,-0.839,1.632
0722_164523_0208.png,0.004,0.193,0.940,-0.061,0.194,0.944,0.114,0.008,1.141,-0.176,-0.001,1.105,0.199,-0.208,1.289,-0.183,-0.241,0.968,0.257,-0.284,1.037,-0.063,-0.360,0.758,964.295,735.103,0.940,898.926,735.791,0.944,1054.897,546.413,1.141,808.201,539.514,1.105,1106.582,386.691,1.289,780.618,303.541,0.968,1196.211,279.381,1.037,880.891,88.445,0.758,-0.024,-0.970,1.403,0.000,-351.586,0.000,0.014,-0.019,-0.025,0.049,-0.642,1.318
0722_164523_0209.png,0.003,0.177,0.929,-0.064,0.180,0.937,0.131,0.001,1.131,-0.177,-0.004,1.110,0.270,-0.224,1.216,-0.251,-0.240,0.993,0.390,-0.281,0.985,-0.163,-0.340,0.764,963.338,721.396,0.929,894.685,723.040,0.937,1070.020,540.912,1.131,808.773,536.899,1.110,1170.817,365.173,1.216,719.746,310.609,0.993,1336.154,268.581,0.985,757.534,117.091,0.764,-0.024,-0.967,1.402,0.000,-354.918,0.000,-0.038,-0.021,-0.004,-0.236,-0.914,1.324
0722_164523_0210.png,0.050,0.171,0.943,-0.018,0.169,0.939,0.172,-0.022,1.087,-0.131,-0.007,1.151,0.199,-0.198,1.288,-0.180,-0.175,0.942,0.343,-0.253,1.069,-0.226,-0.338,0.737,1010.736,712.057,0.943,941.917,710.827,0.939,1110.250,521.105,1.087,852.097,534.411,1.151,1107.051,393.466,1.288,777.825,363.106,0.942,1265.144,315.106,1.069,668.400,103.325,0.737,-0.030,-0.960,1.401,0.000,-11.180,0.000,-0.042,0.005,0.009,-0.021,-0.663,1.505
0722_164523_0211.png,0.044,0.177,0.941,-0.021,0.174,0.936,0.160,-0.016,1.098,-0.132,-0.005,1.145,0.077,-0.191,0.899,-0.295,-0.203,1.053,-0.003,-0.362,0.706,-0.365,-0.332,0.832,1004.725,718.409,0.941,938.591,717.090,0.936,1098.456,525.995,1.098,850.450,535.590,1.145,1041.533,338.002,0.899,693.790,356.769,1.053,956.045,52.276,0.706,542.912,161.242,0.832,-0.030,-0.958,1.400,0.000,-8.263,0.000,0.004,-0.018,-0.007,0.064,-0.779,1.250
0722_164523_0212.png,0.046,0.164,0.929,-0.022,0.161,0.929,0.175,-0.010,1.090,-0.127,0.005,1.154,0.093,-0.245,0.972,-0.176,-0.235,1.026,-0.016,-0.344,0.746,-0.149,-0.337,0.778,1007.460,707.429,0.929,937.489,705.013,0.929,1112.603,531.264,1.090,855.335,543.851,1.154,1050.714,300.049,0.972,796.875,322.564,1.026,939.164,102.101,0.746,777.547,128.448,0.778,-0.032,-0.966,1.402,0.000,-11.082,0.000,-0.040,-0.008,-0.022,-0.177,-1.207,1.328
0722_164523_0213.png,-0.001,0.158,0.928,-0.064,0.163,0.938,0.106,-0.003,1.149,-0.173,-0.018,1.083,0.187,-0.205,1.304,-0.231,-0.274,1.036,0.235,-0.273,1.060,-0.058,-0.332,0.855,958.917,701.777,0.928,895.180,705.426,0.938,1047.711,537.754,1.149,807.972,524.309,1.083,1096.125,390.427,1.304,747.573,288.960,1.036,1171.045,294.766,1.060,895.380,170.760,0.855,-0.036,-0.966,1.402,0.000,-345.202,0.000,0.032,0.008,0.022,-0.087,-0.969,1.521
0722_164523_0214.png,0.048,0.185,0.944,-0.017,0.182,0.936,0.164,-0.007,1.097,-0.130,0.006,1.151,0.195,-0.280,1.115,-0.283,-0.215,1.089,0.189,-0.331,0.848,-0.224,-0.330,0.850,1008.852,726.342,0.944,942.357,724.487,0.936,1101.844,534.164,1.097,852.690,544.764,1.151,1126.449,301.545,1.115,712.500,351.840,1.089,1172.189,169.175,0.848,709.240,171.273,0.850,-0.028,-0.966,1.402,0.000,-9.593,0.000,-0.006,-0.014,-0.034,0.115,-0.806,1.197
0722_164523_0215.png,0.008,0.196,0.932,-0.058,0.199,0.940,0.122,0.014,1.143,-0.171,0.003,1.098,0.275,-0.215,1.161,-0.289,-0.246,1.125,0.390,-0.307,0.937,-0.161,-0.318,0.901,968.106,739.714,0.932,901.751,741.023,0.940,1061.789,551.307,1.143,811.561,542.894,1.098,1184.955,363.645,1.161,716.008,332.516,1.125,1356.277,228.076,0.937,790.567,203.832,0.901,-0.035,-0.974,1.404,0.000,-349.975,0.000,-0.001,-0.028,-0.021,-0.071,-0.763,1.154
0722_164523_0216.png,0.023,0.161,0.947,-0.044,0.161,0.947,0.136,-0.011,1.132,-0.164,-0.014,1.115,0.067,-0.179,0.927,-0.235,-0.239,0.992,-0.002,-0.342,0.726,-0.130,-0.334,0.773,982.734,701.234,0.947,915.832,701.459,0.947,1073.907,531.151,1.132,819.715,527.676,1.115,1028.523,356.374,0.927,734.725,310.755,0.992,957.675,92.485,0.726,799.810,128.727,0.773,-0.031,-0.967,1.402,0.000,-355.494,0.000,-0.012,0.039,0.015,0.130,-0.768,1.471
0722_164523_0217.png,0.023,0.165,0.932,-0.041,0.164,0.931,0.132,0.000,1.127,-0.156,0.000,1.124,0.173,-0.264,1.062,-0.315,-0.216,1.150,0.163,-0.352,0.807,-0.404,-0.318,0.918,983.472,707.984,0.932,918.357,707.772,0.931,1071.463,540.229,1.127,828.409,539.648,1.124,1114.577,303.712,1.062,699.815,361.114,1.150,1152.150,124.628,0.807,541.531,211.050,0.918,-0.028,-0.967,1.402,0.000,-358.215,0.000,0.031,-0.010,-0.026,0.111,-1.152,1.493
0722_164523_0218.png,0.036,0.190,0.932,-0.031,0.190,0.933,0.156,0.000,1.109,-0.145,0.003,1.121,0.207,-0.249,1.018,-0.197,-0.254,1.057,0.082,-0.333,0.805,-0.158,-0.330,0.812,996.737,733.759,0.932,928.650,733.669,0.933,1093.897,540.228,1.109,837.178,542.722,1.121,1153.029,307.682,1.018,782.798,311.012,1.057,1056.979,146.951,0.805,775.360,154.006,0.812,-0.038,-0.972,1.404,0.000,-1.327,0.000,-0.015,-0.022,0.020,-0.023,-0.670,1.531
0722_164523_0219.png,0.006,0.173,0.925,-0.059,0.176,0.933,0.123,-0.004,1.130,-0.170,-0.012,1.094,0.178,-0.175,0.934,-0.240,-0.198,1.284,0.228,-0.341,0.741,-0.289,-0.274,1.047,965.929,718.263,0.925,899.697,719.796,0.933,1063.740,536.423,1.130,812.273,529.158,1.094,1140.822,362.073,0.934,782.434,393.642,1.284,1251.935,102.746,0.741,697.216,291.201,1.047,-0.030,-0.965,1.402,0.000,-351.691,0.000,0.004,-0.019,0.045,-0.133,-0.832,1.445
0722_164523_0220.png,0.056,0.152,0.939,-0.011,0.147,0.930,0.169,-0.023,1.093,-0.133,-0.011,1.146,0.213,-0.254,0.966,-0.143,-0.214,0.973,0.196,-0.341,0.723,-0.093,-0.339,0.749,1016.912,694.271,0.939,949.049,690.739,0.930,1107.205,519.647,1.093,849.328,530.698,1.146,1169.430,290.111,0.966,820.096,331.294,0.973,1217.262,91.159,0.723,841.648,110.338,0.749,-0.032,-0.959,1.401,0.000,-9.022,0.000,-0.035,0.014,0.019,0.257,-1.046,1.471
0722_164523_0221.png,0.020,0.162,0.923,-0.046,0.164,0.929,0.148,-0.005,1.114,-0.153,-0.003,1.124,0.138,-0.239,0.981,-0.132,-0.181,0.918,-0.007,-0.338,0.786,-0.110,-0.354,0.717,980.703,706.581,0.923,912.521,707.618,0.929,1086.802,535.496,1.114,830.647,537.517,1.124,1093.719,308.196,0.981,823.308,352.613,0.918,951.507,130.405,0.786,814.488,70.711,0.717,-0.031,-0.966,1.402,0.000,-0.813,0.000,-0.015,-0.016,0.012,-0.262,-1.198,1.414
0722_164523_0222.png,0.042,0.164,0.950,-0.025,0.164,0.952,0.170,-0.017,1.106,-0.132,-0.007,1.151,0.269,-0.264,1.067,-0.181,-0.260,1.067,0.289,-0.324,0.806,-0.121,-0.323,0.813,1002.472,703.955,0.950,934.755,703.511,0.952,1106.153,525.158,1.106,850.659,534.179,1.151,1199.524,304.528,1.067,798.465,308.582,1.067,1300.571,157.688,0.806,818.196,161.740,0.813,-0.035,-0.963,1.401,0.000,-7.414,0.000,-0.030,0.032,-0.024,-0.207,-0.709,1.470
0722_164523_0223.png,0.031,0.170,0.931,-0.036,0.168,0.928,0.149,-0.007,1.103,-0.153,-0.001,1.131,0.101,-0.229,0.962,-0.178,-0.225,0.989,0.035,-0.343,0.739,-0.059,-0.335,0.783,992.071,713.385,0.931,923.269,712.039,0.928,1088.790,533.922,1.103,831.115,539.458,1.131,1059.589,313.856,0.962,788.652,323.367,0.989,1004.753,98.670,0.739,888.395,133.058,0.783,-0.023,-0.969,1.403,0.000,-4.225,0.000,-0.024,-0.008,0.018,0.073,-1.043,1.347
0722_164523_0224.png,0.009,0.164,0.928,-0.059,0.167,0.930,0.121,0.007,1.145,-0.183,-0.003,1.103,0.089,-0.191,0.951,-0.330,-0.234,1.133,0.007,-0.350,0.745,-0.388,-0.312,0.880,968.734,708.517,0.928,899.298,710.725,0.930,1060.398,545.809,1.145,802.557,537.632,1.103,1049.109,348.882,0.951,682.926,343.560,1.133,969.058,93.342,0.745,540.544,203.361,0.880,-0.027,-0.969,1.403,0.000,-350.671,0.000,-0.033,-0.014,-0.027,0.095,-1.212,1.439
0722_164523_0225.png,-0.005,0.167,0.924,-0.070,0.172,0.934,0.115,0.000,1.139,-0.180,-0.012,1.089,0.203,-0.217,1.280,-0.185,-0.255,0.982,0.237,-0.271,1.031,-0.151,-0.346,0.746,954.914,711.659,0.924,888.509,714.645,0.934,1056.124,539.831,1.139,802.506,529.817,1.089,1111.171,379.059,1.280,780.806,293.159,0.982,1178.217,290.514,1.031,767.099,98.579,0.746,-0.027,-0.968,1.403,0.000,-349.005,0.000,-0.010,-0.008,0.030,-0.224,-1.053,1.196
0722_164523_0226.png,0.037,0.180,0.937,-0.026,0.179,0.935,0.154,-0.010,1.098,-0.128,0.000,1.140,0.110,-0.234,0.952,-0.210,-0.170,0.937,-0.012,-0.364,0.759,-0.292,-0.337,0.740,998.038,722.761,0.937,933.789,721.846,0.935,1093.299,531.706,1.098,853.432,540.128,1.140,1070.294,306.144,0.952,747.177,367.547,0.937,944.668,84.442,0.759,585.195,107.634,0.740,-0.030,-0.965,1.402,0.000,-7.594,0.000,0.040,-0.015,0.000,-0.085,-0.833,1.179
0722_164523_0227.png,0.025,0.161,0.936,-0.042,0.162,0.938,0.142,-0.004,1.133,-0.161,-0.010,1.107,0.086,-0.176,0.932,-0.166,-0.257,1.011,0.029,-0.343,0.734,-0.107,-0.332,0.769,985.899,703.546,0.936,917.681,704.649,0.938,1078.902,536.560,1.133,821.805,531.332,1.107,1047.511,359.835,0.932,803.949,297.776,1.011,997.313,95.861,0.734,827.469,129.947,0.769,-0.040,-0.970,1.403,0.000,-353.775,0.000,-0.023,0.021,0.017,0.051,-1.010,1.307
0722_164523_0228.png,-0.005,0.189,0.929,-0.070,0.192,0.939,0.111,0.006,1.139,-0.180,-0.007,1.085,0.232,-0.226,1.081,-0.269,-0.249,1.178,0.148,-0.323,0.858,-0.292,-0.305,0.929,954.420,733.000,0.929,889.074,734.154,0.939,1052.485,544.925,1.139,802.219,534.192,1.085,1164.038,341.631,1.081,742.712,339.442,1.178,1124.406,182.319,0.858,661.446,228.145,0.929,-0.028,-0.972,1.404,0.000,-347.942,0.000,0.003,-0.016,0.031,-0.162,-0.648,1.360
0722_164523_0229.png,0.013,0.176,0.927,-0.051,0.179,0.934,0.127,0.002,1.133,-0.160,-0.006,1.098,0.148,-0.178,0.930,-0.190,-0.259,1.012,0.169,-0.355,0.733,-0.055,-0.345,0.810,973.191,720.481,0.927,908.351,722.329,0.934,1066.558,541.781,1.133,821.560,534.902,1.098,1111.542,357.704,0.930,781.749,296.725,1.012,1179.398,79.743,0.733,895.361,134.999,0.810,-0.038,-0.970,1.403,0.000,-351.722,0.000,0.026,-0.015,0.020,-0.129,-0.945,1.252
