rolosa10/RGSpipe/dataset/synthetic_dataset/Coods3D_unique0722_182514.csv
filename,left_eye,left_eye,left_eye,right_eye,right_eye,right_eye,left_shoulder,left_shoulder,left_shoulder,right_shoulder,right_shoulder,right_shoulder,left_elbow,left_elbow,left_elbow,right_elbow,right_elbow,right_elbow,left_wrist,left_wrist,left_wrist,right_wrist,right_wrist,right_wrist,left_eye_2D,left_eye_2D,left_eye_2D,right_eye_2D,right_eye_2D,right_eye_2D,left_shoulder_2D,left_shoulder_2D,left_shoulder_2D,right_shoulder_2D,right_shoulder_2D,right_shoulder_2D,left_elbow_2D,left_elbow_2D,left_elbow_2D,right_elbow_2D,right_elbow_2D,right_elbow_2D,left_wrist_2D,left_wrist_2D,left_wrist_2D,right_wrist_2D,right_wrist_2D,right_wrist_2D,root_position,root_position,root_position,root_pitch,root_yaw,root_roll,root_scale,root_scale,root_scale,look_at,look_at,look_at
0722_182514_0001.png,0.039,0.161,0.945,-0.027,0.159,0.941,0.153,-0.009,1.114,-0.144,-0.005,1.134,0.276,-0.243,1.129,-0.147,-0.206,0.954,0.320,-0.308,0.878,-0.086,-0.348,0.740,998.948,701.776,0.945,932.426,700.598,0.941,1090.855,532.034,1.114,838.943,536.079,1.134,1192.576,335.633,1.129,813.061,334.779,0.954,1306.200,206.977,0.878,849.610,92.461,0.740,-0.033,-0.971,1.403,0.000,-2.822,0.000,-0.005,0.038,0.002,0.120,-1.022,1.128
0722_182514_0002.png,0.049,0.170,0.947,-0.014,0.166,0.939,0.160,-0.009,1.095,-0.123,0.004,1.151,0.129,-0.244,0.965,-0.286,-0.160,0.997,-0.017,-0.351,0.771,-0.447,-0.320,0.848,1009.665,710.492,0.947,945.634,707.839,0.939,1099.379,531.984,1.095,858.431,542.991,1.151,1087.602,299.014,0.965,686.986,386.933,0.997,938.835,107.289,0.771,458.723,181.607,0.848,-0.029,-0.974,1.404,0.000,-10.272,0.000,0.026,0.032,-0.012,0.134,-0.912,1.231
0722_182514_0003.png,0.030,0.174,0.937,-0.035,0.173,0.934,0.144,0.000,1.122,-0.152,0.002,1.129,0.092,-0.222,0.963,-0.226,-0.179,0.925,0.026,-0.358,0.738,-0.299,-0.356,0.726,990.866,717.085,0.937,924.001,716.462,0.934,1082.381,539.871,1.122,831.631,541.417,1.129,1050.456,320.981,0.963,727.841,355.488,0.925,993.126,78.601,0.738,568.460,73.511,0.726,-0.030,-0.968,1.403,0.000,-0.408,0.000,0.000,-0.010,-0.027,0.101,-0.905,1.612
0722_182514_0004.png,0.043,0.160,0.927,-0.021,0.157,0.923,0.158,-0.013,1.090,-0.125,-0.001,1.141,0.273,-0.232,1.202,-0.236,-0.246,1.170,0.392,-0.299,0.983,-0.231,-0.314,0.920,1003.829,704.518,0.927,938.459,701.583,0.923,1097.683,528.406,1.090,855.721,538.863,1.141,1176.016,356.235,1.202,767.893,340.182,1.170,1338.984,251.052,0.983,721.671,215.259,0.920,-0.030,-0.965,1.402,0.000,-9.483,0.000,0.030,-0.011,0.019,0.026,-1.165,1.517
0722_182514_0005.png,0.042,0.151,0.953,-0.021,0.147,0.943,0.150,-0.022,1.109,-0.138,-0.013,1.147,0.157,-0.269,1.006,-0.239,-0.256,1.157,-0.016,-0.336,0.819,-0.220,-0.312,0.899,1002.288,690.907,0.953,938.529,688.086,0.943,1088.401,520.911,1.109,845.482,528.889,1.147,1108.134,285.191,1.006,763.674,329.211,1.157,941.647,149.388,0.819,726.952,210.232,0.899,-0.025,-0.960,1.401,0.000,-6.646,0.000,0.022,0.041,-0.010,0.257,-0.876,1.563
0722_182514_0006.png,0.011,0.162,0.926,-0.054,0.165,0.929,0.118,-0.002,1.143,-0.172,-0.012,1.096,0.102,-0.181,0.938,-0.265,-0.267,1.063,0.086,-0.356,0.739,-0.119,-0.330,0.854,971.057,706.445,0.926,904.402,708.705,0.929,1058.058,538.581,1.143,810.469,529.347,1.096,1063.184,356.350,0.938,723.143,300.996,1.063,1071.214,81.133,0.739,827.350,172.457,0.854,-0.032,-0.962,1.401,0.000,-349.586,0.000,0.010,-0.022,0.002,0.082,-1.128,1.422
0722_182514_0007.png,0.051,0.165,0.935,-0.016,0.163,0.935,0.178,-0.017,1.084,-0.112,0.000,1.160,0.135,-0.285,1.060,-0.296,-0.198,1.195,0.096,-0.337,0.800,-0.425,-0.289,0.977,1011.467,707.344,0.935,943.643,705.332,0.935,1116.383,524.774,1.084,867.864,540.138,1.160,1081.533,284.021,1.060,724.283,382.286,1.195,1074.410,139.549,0.800,546.730,258.680,0.977,-0.034,-0.962,1.401,0.000,-13.895,0.000,-0.013,0.001,-0.021,-0.253,-0.905,1.606
0722_182514_0008.png,0.054,0.162,0.923,-0.011,0.159,0.920,0.174,-0.012,1.085,-0.114,0.001,1.144,0.190,-0.195,1.289,-0.277,-0.204,1.084,0.307,-0.273,1.070,-0.280,-0.327,0.856,1015.821,706.979,0.923,948.761,703.960,0.920,1112.479,529.310,1.085,865.232,541.213,1.144,1100.451,396.039,1.289,716.665,361.253,1.084,1232.948,297.787,1.070,649.123,177.073,0.856,-0.041,-0.966,1.402,0.000,-10.782,0.000,0.009,-0.020,0.016,-0.039,-1.209,1.507
0722_182514_0009.png,0.009,0.170,0.942,-0.054,0.172,0.949,0.122,-0.007,1.138,-0.164,-0.014,1.108,0.213,-0.247,1.060,-0.291,-0.238,1.035,0.087,-0.333,0.849,-0.322,-0.343,0.797,969.171,711.670,0.942,905.421,712.803,0.949,1062.035,533.832,1.138,819.086,527.636,1.108,1151.170,318.449,1.060,692.813,321.826,1.035,1057.619,167.357,0.849,576.321,131.247,0.797,-0.032,-0.963,1.402,0.000,-352.582,0.000,0.030,0.013,0.004,-0.084,-0.706,1.333
0722_182514_0010.png,0.060,0.194,0.931,-0.006,0.189,0.922,0.176,0.001,1.079,-0.115,0.018,1.153,0.272,-0.245,1.173,-0.241,-0.200,1.037,0.338,-0.311,0.920,-0.223,-0.340,0.807,1021.793,738.165,0.931,954.227,735.067,0.922,1115.503,540.954,1.079,865.247,555.021,1.153,1180.863,341.701,1.173,738.965,356.514,1.037,1309.234,218.082,0.920,697.061,139.410,0.807,-0.033,-0.974,1.404,0.000,-13.541,0.000,-0.014,-0.037,-0.025,0.120,-0.984,1.160
0722_182514_0011.png,0.046,0.171,0.920,-0.019,0.167,0.917,0.168,-0.004,1.082,-0.123,0.011,1.145,0.279,-0.245,1.017,-0.248,-0.232,1.125,0.320,-0.345,0.777,-0.280,-0.321,0.880,1007.966,716.832,0.920,939.880,713.554,0.917,1107.524,536.635,1.082,857.991,548.851,1.145,1220.898,310.718,1.017,750.646,343.778,1.125,1351.652,118.219,0.777,657.899,193.640,0.880,-0.031,-0.972,1.403,0.000,-11.372,0.000,-0.003,-0.029,0.004,-0.062,-1.293,1.352
0722_182514_0012.png,0.054,0.162,0.943,-0.012,0.160,0.940,0.174,-0.017,1.092,-0.120,-0.004,1.150,0.182,-0.269,1.005,-0.255,-0.183,1.292,0.016,-0.327,0.811,-0.303,-0.262,1.047,1014.822,703.676,0.943,947.980,701.903,0.940,1111.481,524.999,1.092,860.835,536.772,1.150,1131.977,285.729,1.005,772.033,405.193,1.292,978.824,155.927,0.811,684.955,302.092,1.047,-0.038,-0.967,1.403,0.000,-10.272,0.000,-0.009,0.030,0.006,-0.033,-0.796,1.613
0722_182514_0013.png,0.017,0.172,0.933,-0.049,0.174,0.941,0.143,-0.005,1.128,-0.158,-0.007,1.118,0.272,-0.241,1.172,-0.199,-0.255,1.014,0.338,-0.304,0.923,-0.079,-0.341,0.793,977.537,715.029,0.933,910.634,716.329,0.941,1080.215,536.091,1.128,826.043,534.293,1.118,1180.366,344.217,1.172,773.061,300.675,1.014,1308.588,226.888,0.923,865.515,130.887,0.793,-0.035,-0.964,1.402,0.000,-357.056,0.000,-0.011,-0.011,-0.007,-0.210,-0.797,1.642
0722_182514_0014.png,0.001,0.170,0.932,-0.067,0.172,0.934,0.111,0.003,1.152,-0.192,-0.011,1.093,0.189,-0.245,1.244,-0.287,-0.246,0.983,0.171,-0.282,0.979,-0.259,-0.347,0.736,961.387,713.026,0.932,891.927,715.054,0.934,1051.507,542.082,1.152,793.227,530.416,1.093,1104.610,353.117,1.244,682.058,302.413,0.983,1126.019,266.512,0.979,625.407,91.934,0.736,-0.024,-0.964,1.402,0.000,-347.530,0.000,-0.039,-0.016,-0.016,0.151,-0.985,1.388
0722_182514_0015.png,0.014,0.174,0.944,-0.053,0.177,0.950,0.131,0.000,1.147,-0.169,-0.008,1.112,0.088,-0.179,0.925,-0.133,-0.219,0.929,0.047,-0.353,0.709,-0.057,-0.361,0.706,973.908,715.484,0.944,907.011,716.962,0.950,1068.964,540.051,1.147,815.695,533.154,1.112,1050.522,356.172,0.925,823.480,316.174,0.929,1023.620,66.149,0.709,883.715,53.766,0.706,-0.036,-0.965,1.402,0.000,-351.986,0.000,-0.018,0.006,-0.040,-0.056,-0.832,1.118
0722_182514_0016.png,0.041,0.166,0.941,-0.022,0.164,0.935,0.153,-0.011,1.097,-0.132,-0.001,1.137,0.098,-0.187,0.899,-0.208,-0.235,1.044,0.046,-0.359,0.706,-0.061,-0.328,0.856,1001.936,708.161,0.941,937.702,706.336,0.935,1092.202,530.806,1.097,849.792,538.831,1.137,1063.800,342.328,0.899,770.334,325.473,1.044,1021.442,56.735,0.706,892.710,175.913,0.856,-0.029,-0.973,1.404,0.000,-7.057,0.000,0.032,0.028,0.025,0.108,-0.895,1.419
0722_182514_0017.png,0.014,0.163,0.930,-0.053,0.165,0.931,0.121,-0.001,1.146,-0.178,-0.015,1.084,0.077,-0.171,0.939,-0.352,-0.224,1.096,0.031,-0.336,0.736,-0.444,-0.307,0.868,974.340,706.639,0.930,905.528,708.484,0.931,1060.083,539.107,1.146,804.159,526.693,1.084,1037.868,366.327,0.939,654.311,345.711,1.096,999.836,106.385,0.736,473.379,203.655,0.868,-0.036,-0.968,1.403,0.000,-346.914,0.000,-0.027,0.003,0.029,0.221,-1.062,1.222
0722_182514_0018.png,0.050,0.164,0.941,-0.014,0.160,0.933,0.164,-0.016,1.084,-0.118,0.000,1.153,0.218,-0.266,1.007,-0.290,-0.199,1.189,0.120,-0.346,0.778,-0.378,-0.294,0.961,1010.757,705.687,0.941,945.924,702.617,0.933,1103.522,525.730,1.084,862.334,539.671,1.153,1166.071,289.196,1.007,727.919,380.484,1.189,1106.547,117.075,0.778,586.040,248.752,0.961,-0.027,-0.968,1.403,0.000,-12.931,0.000,0.021,0.022,0.005,0.054,-0.896,1.544
0722_182514_0019.png,-0.005,0.184,0.922,-0.069,0.189,0.936,0.112,0.006,1.147,-0.176,-0.009,1.081,0.206,-0.245,1.091,-0.209,-0.273,1.014,0.072,-0.323,0.880,-0.075,-0.346,0.802,954.697,729.573,0.922,890.068,732.132,0.936,1052.527,544.811,1.147,805.272,531.686,1.081,1139.133,326.855,1.091,763.493,283.742,1.014,1038.200,190.737,0.880,871.357,129.320,0.802,-0.036,-0.966,1.402,0.000,-345.502,0.000,0.005,-0.038,0.011,-0.249,-0.757,1.524
0722_182514_0020.png,0.021,0.165,0.938,-0.044,0.168,0.946,0.146,-0.012,1.119,-0.148,-0.010,1.125,0.248,-0.244,1.203,-0.186,-0.252,1.016,0.149,-0.293,0.967,-0.055,-0.338,0.807,980.796,707.537,0.938,915.739,708.478,0.946,1083.760,529.856,1.119,835.315,531.129,1.125,1156.315,347.129,1.203,786.136,304.279,1.016,1106.662,251.856,0.967,894.814,142.201,0.807,-0.034,-0.963,1.402,0.000,-0.084,0.000,0.012,0.012,0.010,-0.301,-0.860,1.227
0722_182514_0021.png,0.042,0.170,0.937,-0.025,0.169,0.935,0.163,-0.007,1.103,-0.141,0.000,1.134,0.223,-0.208,1.268,-0.186,-0.225,0.998,0.390,-0.254,1.067,-0.051,-0.327,0.796,1002.999,712.760,0.937,934.153,711.808,0.935,1100.741,534.240,1.103,841.504,540.223,1.134,1127.440,383.937,1.268,782.897,325.713,0.998,1307.930,313.777,1.067,898.634,149.314,0.796,-0.035,-0.973,1.404,0.000,-4.645,0.000,-0.031,0.014,0.016,0.010,-0.883,1.481
0722_182514_0022.png,0.055,0.162,0.950,-0.012,0.160,0.949,0.178,-0.023,1.089,-0.116,-0.007,1.159,0.279,-0.258,1.008,-0.190,-0.233,1.032,0.296,-0.338,0.755,-0.071,-0.328,0.812,1014.571,701.672,0.950,947.526,700.350,0.949,1115.408,519.551,1.089,865.117,534.198,1.159,1223.643,296.202,1.008,784.446,324.932,1.032,1332.652,114.131,0.755,876.542,155.765,0.812,-0.035,-0.963,1.401,0.000,-12.779,0.000,-0.019,0.038,-0.011,-0.175,-0.707,1.420
0722_182514_0023.png,0.045,0.169,0.945,-0.017,0.166,0.937,0.152,-0.014,1.104,-0.129,-0.006,1.139,0.232,-0.216,1.261,-0.219,-0.172,0.937,0.396,-0.277,1.074,-0.309,-0.334,0.743,1005.586,709.951,0.945,942.617,708.162,0.937,1091.302,527.586,1.104,852.517,534.631,1.139,1134.623,377.230,1.261,738.217,365.690,0.937,1310.597,295.185,1.074,564.882,113.011,0.743,-0.033,-0.964,1.402,0.000,-6.055,0.000,0.046,0.010,0.005,0.216,-0.885,1.172
0722_182514_0024.png,0.013,0.181,0.933,-0.052,0.183,0.936,0.130,0.009,1.129,-0.162,0.008,1.124,0.278,-0.208,1.045,-0.140,-0.181,0.907,0.377,-0.340,0.829,-0.123,-0.367,0.696,973.078,725.005,0.933,907.357,725.708,0.936,1069.472,547.330,1.129,822.871,546.547,1.124,1212.931,350.795,1.045,813.038,349.749,0.907,1393.079,149.618,0.829,792.568,38.172,0.696,-0.024,-0.973,1.404,0.000,-357.987,0.000,0.016,-0.017,-0.042,-0.078,-0.897,1.626
0722_182514_0025.png,0.039,0.170,0.932,-0.028,0.169,0.932,0.164,-0.015,1.088,-0.131,-0.001,1.147,0.263,-0.265,1.050,-0.317,-0.193,1.201,0.169,-0.329,0.815,-0.244,-0.292,0.970,999.807,713.594,0.932,931.822,712.256,0.932,1103.460,527.284,1.088,851.664,539.186,1.147,1197.863,300.047,1.050,709.317,387.197,1.201,1157.671,155.529,0.815,720.776,253.448,0.970,-0.028,-0.964,1.402,0.000,-10.440,0.000,-0.013,-0.009,0.009,-0.181,-0.888,1.490
0722_182514_0026.png,0.025,0.177,0.934,-0.043,0.178,0.939,0.154,-0.007,1.103,-0.150,-0.001,1.131,0.153,-0.261,1.021,-0.287,-0.206,1.245,0.001,-0.324,0.818,-0.349,-0.272,1.003,985.314,720.598,0.934,916.860,720.715,0.939,1092.773,533.908,1.103,834.033,539.471,1.131,1102.080,296.498,1.021,740.760,382.404,1.245,961.689,162.817,0.818,628.788,281.714,1.003,-0.027,-0.970,1.403,0.000,-4.231,0.000,-0.028,0.000,0.022,-0.263,-0.785,1.342
0722_182514_0027.png,0.032,0.164,0.920,-0.033,0.163,0.921,0.150,-0.008,1.105,-0.139,-0.003,1.128,0.264,-0.243,1.201,-0.300,-0.213,1.075,0.357,-0.308,0.967,-0.339,-0.335,0.849,992.691,709.450,0.920,926.270,708.593,0.921,1088.853,532.943,1.105,842.583,537.686,1.128,1168.714,347.709,1.201,694.572,351.569,1.075,1311.372,237.596,0.967,580.538,164.919,0.849,-0.032,-0.962,1.401,0.000,-3.643,0.000,0.023,-0.039,0.014,-0.059,-1.243,1.428
0722_182514_0028.png,-0.006,0.139,0.940,-0.072,0.145,0.950,0.105,-0.011,1.164,-0.185,-0.027,1.094,0.227,-0.236,1.228,-0.178,-0.262,0.957,0.279,-0.287,0.969,-0.097,-0.358,0.718,953.522,680.443,0.940,888.038,685.079,0.950,1046.020,531.161,1.164,799.184,516.742,1.094,1136.201,356.809,1.228,783.516,279.157,0.957,1233.674,258.372,0.969,831.533,66.211,0.718,-0.032,-0.957,1.400,0.000,-345.051,0.000,-0.007,0.038,-0.025,-0.083,-1.099,1.381
0722_182514_0029.png,0.011,0.152,0.943,-0.056,0.154,0.945,0.126,-0.009,1.138,-0.175,-0.015,1.111,0.271,-0.230,1.146,-0.278,-0.247,1.033,0.161,-0.294,0.917,-0.172,-0.325,0.806,970.721,693.412,0.943,903.339,694.523,0.945,1064.997,532.776,1.138,809.894,527.379,1.111,1184.878,349.243,1.146,704.224,312.423,1.033,1126.933,235.132,0.917,756.632,156.899,0.806,-0.025,-0.968,1.403,0.000,-353.655,0.000,-0.018,0.044,0.008,0.056,-1.061,1.139
0722_182514_0030.png,0.019,0.174,0.933,-0.044,0.176,0.941,0.138,-0.008,1.126,-0.147,-0.009,1.120,0.268,-0.246,1.141,-0.117,-0.192,0.916,0.335,-0.327,0.898,-0.090,-0.372,0.718,978.973,717.042,0.933,915.264,718.182,0.941,1076.902,533.455,1.126,834.889,532.278,1.120,1183.609,335.003,1.141,838.318,340.596,0.916,1314.797,193.815,0.898,840.220,47.521,0.718,-0.036,-0.959,1.401,0.000,-357.624,0.000,0.037,-0.022,-0.007,-0.251,-0.853,1.288
0722_182514_0031.png,0.022,0.158,0.931,-0.043,0.159,0.934,0.140,-0.012,1.118,-0.155,-0.013,1.113,0.169,-0.275,1.150,-0.257,-0.238,1.022,0.145,-0.306,0.899,-0.179,-0.333,0.802,982.360,701.398,0.931,915.777,702.110,0.934,1079.142,529.890,1.118,827.752,528.898,1.113,1099.421,312.538,1.150,721.018,318.717,1.022,1112.806,216.635,0.899,748.025,144.440,0.802,-0.033,-0.965,1.402,0.000,-357.866,0.000,0.007,0.009,0.043,-0.076,-1.043,1.319
0722_182514_0032.png,0.019,0.183,0.934,-0.045,0.185,0.940,0.141,0.000,1.123,-0.150,0.001,1.125,0.087,-0.182,0.912,-0.308,-0.207,1.048,0.037,-0.361,0.708,-0.386,-0.341,0.829,979.286,725.910,0.934,914.447,726.711,0.940,1079.085,540.267,1.123,833.605,540.643,1.125,1050.461,350.617,0.912,680.649,352.105,1.048,1009.919,55.274,0.708,517.127,148.955,0.829,-0.032,-0.966,1.402,0.000,-359.219,0.000,0.023,-0.023,-0.023,-0.246,-0.884,1.156
0722_182514_0033.png,0.001,0.161,0.927,-0.064,0.164,0.935,0.125,-0.003,1.127,-0.174,-0.009,1.103,0.116,-0.232,0.999,-0.311,-0.234,1.060,0.008,-0.332,0.790,-0.254,-0.320,0.829,961.372,705.068,0.927,894.455,707.312,0.935,1065.688,537.050,1.127,810.225,532.173,1.103,1070.808,319.491,0.999,680.759,330.123,1.060,969.039,140.010,0.790,668.927,172.744,0.829,-0.024,-0.971,1.403,0.000,-354.064,0.000,-0.010,0.010,0.039,-0.229,-1.044,1.425
0722_182514_0034.png,0.023,0.172,0.941,-0.044,0.173,0.945,0.149,-0.003,1.120,-0.152,0.001,1.138,0.289,-0.235,1.132,-0.300,-0.202,1.239,0.356,-0.313,0.879,-0.440,-0.277,1.019,983.068,713.563,0.941,915.844,713.734,0.945,1086.163,537.560,1.120,832.829,541.180,1.138,1202.872,342.536,1.132,730.016,385.266,1.239,1344.964,202.085,0.879,549.072,281.279,1.019,-0.027,-0.968,1.403,0.000,-2.467,0.000,-0.015,0.007,-0.040,-0.183,-0.865,1.497
0722_182514_0035.png,0.025,0.178,0.925,-0.041,0.179,0.924,0.131,0.006,1.138,-0.164,-0.003,1.102,0.170,-0.268,1.101,-0.302,-0.226,1.199,0.141,-0.333,0.844,-0.209,-0.304,0.961,985.858,722.871,0.925,917.895,723.908,0.924,1069.904,544.717,1.138,818.202,537.811,1.102,1106.999,308.394,1.101,720.590,360.457,1.199,1119.403,164.194,0.844,752.584,238.880,0.961,-0.038,-0.965,1.402,0.000,-351.789,0.000,-0.004,-0.045,-0.013,0.213,-1.127,1.244
0722_182514_0036.png,0.039,0.162,0.926,-0.026,0.159,0.921,0.152,-0.010,1.096,-0.141,-0.003,1.128,0.252,-0.250,1.043,-0.303,-0.181,1.251,0.282,-0.331,0.806,-0.343,-0.280,1.023,1000.132,706.008,0.926,933.312,703.856,0.921,1091.724,531.437,1.096,841.177,537.810,1.128,1189.585,311.698,1.043,729.897,402.546,1.251,1292.394,149.544,0.806,640.994,280.015,1.023,-0.029,-0.970,1.403,0.000,-5.158,0.000,0.008,-0.003,0.047,0.146,-1.226,1.297
0722_182514_0037.png,0.035,0.164,0.942,-0.033,0.161,0.938,0.154,-0.013,1.103,-0.150,-0.004,1.142,0.076,-0.227,0.958,-0.331,-0.198,1.079,-0.008,-0.340,0.735,-0.434,-0.307,0.862,995.271,705.244,0.942,926.742,703.555,0.938,1092.724,528.704,1.103,834.883,536.695,1.142,1035.359,314.473,0.958,668.513,365.650,1.079,949.941,99.376,0.735,481.680,201.241,0.862,-0.021,-0.967,1.402,0.000,-6.459,0.000,-0.034,0.021,0.001,0.066,-0.983,1.187
0722_182514_0038.png,0.000,0.165,0.935,-0.063,0.169,0.944,0.112,-0.001,1.142,-0.170,-0.009,1.108,0.141,-0.179,0.925,-0.287,-0.247,1.069,0.172,-0.353,0.715,-0.181,-0.341,0.844,959.842,707.832,0.935,896.846,710.323,0.944,1053.384,539.280,1.142,814.346,532.439,1.108,1104.538,356.414,0.925,704.400,320.733,1.069,1189.031,70.329,0.715,756.601,155.680,0.844,-0.027,-0.966,1.402,0.000,-351.657,0.000,0.043,0.006,-0.017,-0.172,-1.047,1.122
0722_182514_0039.png,0.038,0.154,0.935,-0.030,0.152,0.934,0.163,-0.015,1.095,-0.138,-0.003,1.148,0.207,-0.258,0.988,-0.190,-0.236,1.023,0.099,-0.336,0.761,-0.075,-0.328,0.802,998.549,696.616,0.934,929.571,694.658,0.934,1101.634,526.833,1.095,845.368,537.483,1.148,1159.648,291.852,0.988,783.781,320.939,1.023,1083.248,120.374,0.761,871.145,150.879,0.802,-0.026,-0.967,1.402,0.000,-9.009,0.000,-0.031,0.020,0.002,-0.117,-1.111,1.489
0722_182514_0040.png,0.036,0.168,0.938,-0.030,0.166,0.933,0.152,-0.016,1.105,-0.149,-0.009,1.134,0.249,-0.263,1.163,-0.165,-0.182,0.927,0.119,-0.295,0.939,-0.178,-0.349,0.724,996.710,710.086,0.938,929.015,708.842,0.933,1090.570,526.473,1.105,835.453,532.348,1.134,1163.484,324.721,1.163,791.002,353.556,0.927,1080.152,240.829,0.939,725.758,81.333,0.724,-0.026,-0.960,1.401,0.000,-4.432,0.000,-0.016,-0.006,0.015,0.124,-0.890,1.317
0722_182514_0041.png,0.018,0.153,0.930,-0.048,0.155,0.934,0.139,-0.006,1.126,-0.162,-0.009,1.114,0.175,-0.241,1.006,-0.284,-0.220,1.003,0.039,-0.330,0.800,-0.323,-0.335,0.774,978.563,696.041,0.930,910.700,697.433,0.934,1077.377,534.873,1.126,821.903,532.563,1.114,1125.036,312.318,1.006,691.221,331.559,1.003,1006.193,148.497,0.800,563.714,128.722,0.774,-0.032,-0.968,1.403,0.000,-356.580,0.000,-0.014,0.014,0.017,-0.088,-1.147,1.550
0722_182514_0042.png,0.025,0.163,0.942,-0.041,0.163,0.940,0.139,0.000,1.132,-0.160,-0.002,1.127,0.178,-0.256,1.194,-0.314,-0.219,1.071,0.166,-0.301,0.927,-0.309,-0.329,0.822,985.198,704.847,0.942,918.270,704.815,0.940,1076.576,539.678,1.132,824.991,538.724,1.127,1101.994,335.719,1.194,681.268,345.622,1.071,1130.115,230.867,0.927,602.699,158.714,0.822,-0.030,-0.970,1.403,0.000,-357.860,0.000,-0.006,0.020,-0.034,0.098,-1.020,1.490
0722_182514_0043.png,0.053,0.175,0.932,-0.011,0.170,0.923,0.162,-0.002,1.097,-0.124,0.007,1.138,0.146,-0.256,1.001,-0.223,-0.244,1.161,-0.016,-0.346,0.818,-0.200,-0.318,0.910,1013.801,718.366,0.932,949.040,715.395,0.923,1100.090,538.131,1.097,856.672,546.056,1.138,1098.625,297.246,1.001,777.374,339.858,1.161,940.981,137.289,0.818,751.051,207.638,0.910,-0.037,-0.973,1.404,0.000,-7.199,0.000,0.029,-0.012,0.002,0.235,-1.132,1.304
0722_182514_0044.png,0.011,0.168,0.931,-0.056,0.170,0.934,0.127,-0.005,1.137,-0.177,-0.015,1.093,0.052,-0.173,0.940,-0.287,-0.234,0.986,-0.025,-0.334,0.748,-0.286,-0.336,0.753,971.681,711.874,0.931,902.688,713.153,0.934,1066.128,535.758,1.137,806.359,526.922,1.093,1012.917,365.126,0.940,683.501,313.978,0.986,928.796,115.426,0.748,598.928,115.452,0.753,-0.032,-0.965,1.402,0.000,-350.489,0.000,-0.033,-0.004,0.037,0.055,-0.859,1.424
0722_182514_0045.png,-0.005,0.177,0.939,-0.070,0.182,0.951,0.117,0.005,1.149,-0.179,-0.005,1.103,0.094,-0.208,0.972,-0.256,-0.183,1.290,-0.007,-0.348,0.765,-0.323,-0.269,1.044,955.084,719.323,0.939,889.984,721.679,0.951,1056.775,544.289,1.149,805.957,535.467,1.103,1052.298,336.690,0.972,771.585,405.506,1.290,950.789,107.510,0.765,665.477,295.189,1.044,-0.029,-0.970,1.403,0.000,-349.867,0.000,-0.008,0.008,-0.028,-0.257,-0.767,1.347
0722_182514_0046.png,0.040,0.159,0.922,-0.026,0.155,0.918,0.161,-0.018,1.076,-0.133,-0.002,1.146,0.179,-0.286,1.040,-0.094,-0.173,0.940,-0.015,-0.316,0.870,-0.053,-0.338,0.739,1001.678,703.913,0.922,932.968,700.537,0.918,1102.502,523.831,1.076,849.994,538.059,1.146,1123.286,278.926,1.040,864.797,365.126,0.940,943.723,194.233,0.870,891.580,105.339,0.739,-0.022,-0.963,1.401,0.000,-12.463,0.000,-0.018,-0.020,0.035,-0.034,-1.114,1.701
0722_182514_0047.png,0.006,0.184,0.932,-0.057,0.188,0.943,0.122,0.007,1.134,-0.160,0.000,1.103,0.085,-0.170,0.925,-0.279,-0.194,1.249,0.051,-0.344,0.722,-0.450,-0.279,1.078,965.616,728.118,0.932,902.859,729.741,0.943,1062.439,545.592,1.134,821.869,539.808,1.103,1047.265,365.151,0.925,747.651,392.058,1.249,1027.001,87.277,0.722,562.759,293.414,1.078,-0.033,-0.975,1.404,0.000,-352.612,0.000,0.043,-0.006,0.004,-0.254,-0.757,1.370
0722_182514_0048.png,0.046,0.178,0.927,-0.020,0.176,0.926,0.172,-0.013,1.078,-0.119,0.004,1.153,0.132,-0.227,0.913,-0.126,-0.195,0.966,0.064,-0.365,0.697,-0.082,-0.348,0.753,1007.645,722.382,0.927,939.097,720.464,0.926,1112.116,528.545,1.078,861.425,543.569,1.153,1097.832,303.586,0.913,835.705,348.370,0.966,1046.660,42.356,0.697,856.512,99.952,0.753,-0.030,-0.963,1.402,0.000,-13.658,0.000,-0.017,-0.031,-0.002,-0.219,-0.976,1.236
0722_182514_0049.png,0.041,0.186,0.936,-0.027,0.185,0.934,0.161,0.002,1.109,-0.145,0.008,1.134,0.207,-0.187,1.303,-0.146,-0.193,0.945,0.212,-0.265,1.046,-0.094,-0.349,0.730,1001.429,728.737,0.936,932.210,727.890,0.934,1098.178,541.676,1.109,838.244,546.563,1.134,1111.245,403.433,1.303,812.549,345.194,0.945,1152.381,299.173,1.046,837.869,85.639,0.730,-0.034,-0.973,1.404,0.000,-3.720,0.000,-0.036,-0.014,-0.017,0.050,-0.896,1.194
0722_182514_0050.png,0.031,0.166,0.928,-0.032,0.165,0.929,0.146,-0.009,1.112,-0.141,-0.007,1.123,0.125,-0.228,0.961,-0.199,-0.251,1.030,0.017,-0.356,0.766,-0.056,-0.341,0.836,992.129,709.532,0.928,926.987,709.309,0.929,1084.671,532.182,1.112,840.613,534.346,1.123,1084.089,314.571,0.961,775.790,308.092,1.030,981.670,97.747,0.766,896.347,152.857,0.836,-0.035,-0.964,1.402,0.000,-1.027,0.000,0.033,-0.014,0.021,-0.021,-1.140,1.135
0722_182514_0051.png,0.003,0.158,0.924,-0.064,0.163,0.934,0.128,0.000,1.137,-0.174,-0.009,1.097,0.258,-0.228,1.202,-0.284,-0.247,1.039,0.122,-0.278,0.983,-0.303,-0.326,0.794,962.818,702.458,0.924,895.189,706.044,0.934,1067.183,540.334,1.137,809.082,532.360,1.097,1163.925,359.847,1.202,699.741,313.652,1.039,1078.259,270.696,0.983,597.250,149.542,0.794,-0.033,-0.971,1.403,0.000,-351.079,0.000,-0.027,0.006,0.024,-0.259,-1.203,1.306
0722_182514_0052.png,0.048,0.177,0.943,-0.016,0.173,0.935,0.156,-0.004,1.113,-0.132,0.001,1.137,0.294,-0.232,1.063,-0.243,-0.176,1.307,0.372,-0.338,0.829,-0.300,-0.276,1.064,1008.499,718.008,0.943,944.073,716.294,0.935,1093.629,536.322,1.113,849.693,541.225,1.137,1222.653,332.319,1.063,783.025,412.020,1.307,1385.996,152.767,0.829,692.208,293.187,1.064,-0.038,-0.968,1.403,0.000,-3.932,0.000,0.025,-0.003,-0.024,0.240,-0.873,1.405
0722_182514_0053.png,0.031,0.176,0.936,-0.036,0.176,0.939,0.155,-0.015,1.102,-0.145,-0.009,1.126,0.237,-0.259,1.035,-0.317,-0.184,1.245,0.122,-0.323,0.818,-0.315,-0.277,1.011,991.103,718.384,0.936,923.528,718.441,0.939,1093.857,526.987,1.102,837.720,532.108,1.126,1177.693,302.158,1.035,717.797,399.586,1.245,1101.679,164.120,0.818,663.974,279.423,1.011,-0.032,-0.964,1.402,0.000,-3.701,0.000,-0.014,-0.002,0.045,-0.172,-0.648,1.379
0722_182514_0054.png,0.015,0.156,0.926,-0.052,0.159,0.931,0.134,0.000,1.136,-0.168,-0.005,1.112,0.059,-0.176,0.929,-0.252,-0.190,1.296,-0.014,-0.348,0.726,-0.305,-0.269,1.045,975.236,699.899,0.926,906.897,702.128,0.931,1071.889,540.123,1.136,816.636,535.396,1.112,1020.325,359.669,0.929,775.356,400.623,1.296,941.661,84.882,0.726,682.852,295.057,1.045,-0.032,-0.966,1.402,0.000,-354.142,0.000,-0.018,-0.010,-0.016,-0.061,-1.243,1.574
0722_182514_0055.png,0.009,0.160,0.933,-0.059,0.162,0.934,0.119,0.001,1.147,-0.183,-0.010,1.102,0.079,-0.175,0.929,-0.242,-0.170,1.313,0.039,-0.346,0.717,-0.297,-0.258,1.066,969.117,702.726,0.933,900.187,704.494,0.934,1058.413,540.564,1.147,801.708,531.754,1.102,1040.405,360.739,0.929,784.974,417.114,1.313,1011.525,81.305,0.717,695.370,309.692,1.066,-0.026,-0.966,1.402,0.000,-350.226,0.000,-0.029,0.001,-0.017,0.167,-1.189,1.275
0722_182514_0056.png,0.056,0.173,0.933,-0.007,0.168,0.924,0.169,-0.015,1.078,-0.108,0.002,1.152,0.228,-0.213,1.260,-0.194,-0.231,1.045,0.393,-0.280,1.075,-0.064,-0.340,0.850,1017.542,716.437,0.933,952.997,713.133,0.924,1109.169,526.393,1.078,870.994,541.387,1.152,1132.233,379.450,1.260,783.035,329.509,1.045,1308.006,291.923,1.075,888.635,159.516,0.850,-0.033,-0.963,1.402,0.000,-14.246,0.000,0.033,-0.019,0.005,0.071,-0.981,1.343
0722_182514_0057.png,-0.004,0.175,0.919,-0.068,0.182,0.931,0.112,0.016,1.148,-0.177,0.003,1.094,0.233,-0.224,1.078,-0.241,-0.237,0.970,0.170,-0.338,0.842,-0.179,-0.365,0.739,955.881,720.711,0.919,890.314,725.407,0.931,1053.145,553.083,1.148,805.954,542.859,1.094,1165.855,342.315,1.078,724.135,307.525,0.970,1152.329,157.604,0.842,729.384,70.251,0.739,-0.032,-0.973,1.404,0.000,-347.914,0.000,0.007,-0.032,-0.031,-0.238,-1.169,1.457
0722_182514_0058.png,0.018,0.177,0.921,-0.048,0.179,0.925,0.139,0.002,1.115,-0.157,0.002,1.114,0.266,-0.238,1.168,-0.265,-0.232,1.030,0.340,-0.308,0.929,-0.294,-0.340,0.797,978.305,722.914,0.921,910.864,723.709,0.925,1078.655,541.522,1.115,825.863,541.440,1.114,1176.613,345.996,1.168,715.088,326.081,1.030,1308.466,224.352,0.929,609.347,134.856,0.797,-0.029,-0.970,1.403,0.000,-358.744,0.000,0.002,-0.035,0.020,-0.159,-1.154,1.154
0722_182514_0059.png,0.029,0.161,0.952,-0.036,0.161,0.951,0.145,-0.020,1.118,-0.150,-0.016,1.133,0.246,-0.261,1.148,-0.259,-0.256,1.150,0.245,-0.307,0.892,-0.255,-0.307,0.894,988.972,701.261,0.952,923.664,700.958,0.951,1083.136,523.054,1.118,834.276,526.190,1.133,1163.360,323.700,1.148,745.506,328.498,1.150,1221.246,212.916,0.892,689.199,213.291,0.894,-0.028,-0.960,1.401,0.000,-1.838,0.000,0.007,0.034,0.009,0.022,-0.659,1.385
0722_182514_0060.png,-0.012,0.165,0.938,-0.076,0.170,0.948,0.100,0.003,1.154,-0.187,-0.010,1.095,0.138,-0.224,1.008,-0.341,-0.226,1.071,0.022,-0.340,0.800,-0.418,-0.326,0.837,948.323,707.645,0.938,883.900,710.705,0.948,1042.728,542.862,1.154,797.880,531.317,1.095,1090.551,328.556,1.008,657.041,339.340,1.071,986.232,135.421,0.800,484.628,169.506,0.837,-0.024,-0.971,1.403,0.000,-346.995,0.000,0.012,0.025,-0.018,-0.112,-0.866,1.468
0722_182514_0061.png,0.047,0.173,0.935,-0.019,0.169,0.929,0.162,0.003,1.113,-0.137,0.010,1.141,0.152,-0.259,1.017,-0.272,-0.212,1.228,0.000,-0.343,0.806,-0.354,-0.293,0.979,1008.139,715.602,0.935,940.554,713.254,0.929,1098.447,542.510,1.113,845.876,548.013,1.141,1102.091,297.918,1.017,749.667,375.755,1.228,959.861,135.071,0.806,616.319,255.366,0.979,-0.036,-0.972,1.404,0.000,-4.526,0.000,-0.012,-0.010,-0.046,0.163,-1.078,1.615
0722_182514_0062.png,-0.009,0.141,0.930,-0.074,0.148,0.942,0.113,-0.006,1.155,-0.183,-0.021,1.090,0.193,-0.202,1.314,-0.277,-0.193,1.267,0.235,-0.255,1.061,-0.454,-0.252,1.076,950.698,683.854,0.930,884.802,689.598,0.942,1052.677,535.169,1.155,799.833,521.792,1.090,1099.584,394.074,1.314,752.245,394.961,1.267,1170.619,311.687,1.061,558.693,317.317,1.076,-0.033,-0.964,1.402,0.000,-346.088,0.000,-0.022,0.028,0.003,-0.257,-1.168,1.561
0722_182514_0063.png,0.051,0.155,0.947,-0.016,0.151,0.939,0.166,-0.018,1.107,-0.138,-0.008,1.148,0.183,-0.279,1.043,-0.228,-0.176,0.939,-0.016,-0.314,0.864,-0.316,-0.339,0.734,1011.470,696.043,0.947,943.835,693.263,0.939,1102.286,524.697,1.107,846.070,532.967,1.148,1126.492,285.532,1.043,728.805,361.230,0.939,942.692,194.689,0.864,550.535,100.489,0.734,-0.033,-0.961,1.401,0.000,-6.652,0.000,-0.031,0.024,-0.020,0.223,-1.068,1.216
0722_182514_0064.png,0.056,0.182,0.930,-0.010,0.178,0.922,0.171,-0.015,1.083,-0.123,-0.001,1.143,0.228,-0.246,0.955,-0.251,-0.215,1.269,0.214,-0.357,0.722,-0.274,-0.282,1.020,1017.354,725.953,0.930,949.971,723.983,0.922,1110.095,526.977,1.083,857.697,539.139,1.143,1187.332,295.235,0.955,772.117,378.667,1.269,1242.292,70.396,0.722,704.495,277.043,1.020,-0.035,-0.960,1.401,0.000,-10.666,0.000,-0.011,-0.043,0.021,0.148,-0.922,1.110
0722_182514_0065.png,0.008,0.170,0.938,-0.055,0.171,0.938,0.110,-0.002,1.138,-0.172,-0.009,1.105,0.189,-0.230,1.254,-0.170,-0.255,0.995,0.208,-0.296,1.000,-0.124,-0.360,0.758,967.879,712.549,0.938,904.083,713.346,0.938,1052.061,538.584,1.138,812.310,532.013,1.105,1103.484,365.365,1.254,797.478,295.992,0.995,1157.665,258.439,1.000,805.108,88.513,0.758,-0.023,-0.968,1.402,0.000,-351.973,0.000,0.044,0.005,0.003,0.164,-0.869,1.395
0722_182514_0066.png,0.032,0.159,0.931,-0.033,0.158,0.928,0.140,-0.006,1.124,-0.152,-0.008,1.117,0.232,-0.242,1.223,-0.322,-0.216,1.130,0.310,-0.296,0.979,-0.415,-0.312,0.905,992.497,702.344,0.931,926.198,701.975,0.928,1078.757,534.623,1.124,830.557,533.340,1.117,1140.616,351.856,1.223,688.737,357.851,1.130,1260.773,252.441,0.979,523.982,212.023,0.905,-0.035,-0.964,1.402,0.000,-357.541,0.000,0.015,-0.007,0.008,0.185,-1.178,1.421
0722_182514_0067.png,0.059,0.153,0.938,-0.006,0.147,0.930,0.173,-0.023,1.081,-0.116,-0.006,1.153,0.124,-0.222,0.911,-0.092,-0.177,0.946,0.037,-0.356,0.707,-0.067,-0.343,0.744,1020.169,694.688,0.938,954.084,690.597,0.930,1111.835,520.212,1.081,864.067,534.986,1.153,1089.772,308.629,0.911,867.281,362.063,0.946,1009.827,61.253,0.707,873.753,101.883,0.744,-0.033,-0.965,1.402,0.000,-13.069,0.000,-0.004,0.025,0.020,0.133,-1.051,1.524
0722_182514_0068.png,0.015,0.164,0.927,-0.052,0.166,0.932,0.136,-0.007,1.131,-0.166,-0.012,1.110,0.087,-0.181,0.921,-0.250,-0.186,1.308,0.038,-0.350,0.716,-0.293,-0.266,1.061,975.636,708.290,0.927,907.332,709.802,0.932,1074.538,533.712,1.131,817.792,529.606,1.110,1050.133,353.098,0.921,778.310,404.744,1.308,1010.246,75.940,0.716,697.707,301.301,1.061,-0.032,-0.959,1.400,0.000,-354.890,0.000,-0.020,-0.024,0.006,-0.089,-0.953,1.639
0722_182514_0069.png,0.004,0.150,0.937,-0.063,0.153,0.939,0.107,0.000,1.160,-0.187,-0.014,1.099,0.175,-0.174,0.939,-0.358,-0.223,1.090,0.245,-0.343,0.724,-0.444,-0.319,0.850,963.970,691.927,0.937,896.585,694.861,0.939,1047.574,540.013,1.160,798.488,527.909,1.099,1137.671,363.980,0.939,647.857,345.136,1.090,1281.192,89.677,0.724,462.883,182.541,0.850,-0.028,-0.964,1.402,0.000,-346.814,0.000,-0.011,0.017,-0.043,0.199,-1.216,1.387
0722_182514_0070.png,0.018,0.167,0.926,-0.047,0.167,0.929,0.137,-0.006,1.115,-0.157,-0.003,1.126,0.222,-0.226,0.980,-0.239,-0.245,1.031,0.251,-0.355,0.752,-0.114,-0.340,0.821,978.243,711.441,0.926,911.437,711.507,0.929,1077.198,535.121,1.115,827.722,537.325,1.126,1175.711,321.089,0.980,739.450,314.027,1.031,1278.043,91.169,0.752,828.051,146.456,0.821,-0.023,-0.963,1.401,0.000,-1.047,0.000,0.009,-0.025,0.000,-0.106,-1.200,1.176
0722_182514_0071.png,0.006,0.160,0.940,-0.061,0.162,0.944,0.124,-0.002,1.140,-0.179,-0.009,1.110,0.160,-0.238,1.014,-0.334,-0.178,1.248,0.133,-0.334,0.768,-0.306,-0.273,1.002,966.166,701.557,0.940,898.269,703.120,0.944,1063.183,538.004,1.140,806.440,532.094,1.110,1110.268,316.502,1.014,705.588,404.192,1.248,1124.164,126.489,0.768,669.516,280.670,1.002,-0.024,-0.970,1.403,0.000,-353.074,0.000,-0.026,0.028,-0.008,-0.012,-1.032,1.247
0722_182514_0072.png,0.057,0.168,0.929,-0.010,0.164,0.922,0.172,-0.010,1.085,-0.127,0.002,1.138,0.107,-0.183,0.898,-0.090,-0.170,0.936,0.039,-0.350,0.716,-0.050,-0.336,0.739,1018.155,711.778,0.929,950.019,708.961,0.922,1110.562,530.832,1.085,853.915,541.408,1.138,1072.983,346.028,0.898,868.741,366.855,0.936,1011.990,75.267,0.716,896.067,107.022,0.739,-0.037,-0.972,1.404,0.000,-9.117,0.000,-0.022,-0.001,0.041,0.161,-1.013,1.562
0722_182514_0073.png,0.052,0.184,0.935,-0.016,0.181,0.929,0.172,-0.011,1.076,-0.124,0.007,1.155,0.126,-0.271,1.006,-0.226,-0.247,1.142,-0.015,-0.334,0.790,-0.202,-0.308,0.885,1012.564,727.047,0.935,943.911,725.076,0.929,1112.017,530.098,1.076,858.249,545.869,1.155,1078.644,283.767,1.006,771.412,334.709,1.142,941.451,138.288,0.790,743.087,208.519,0.885,-0.026,-0.968,1.403,0.000,-14.307,0.000,-0.033,-0.017,-0.003,-0.028,-0.760,1.436
0722_182514_0074.png,0.008,0.182,0.931,-0.058,0.184,0.940,0.136,-0.005,1.123,-0.166,-0.006,1.118,0.167,-0.235,0.980,-0.210,-0.260,1.024,0.069,-0.347,0.761,-0.073,-0.337,0.811,968.343,725.602,0.931,900.986,726.544,0.940,1075.430,535.584,1.123,818.551,534.591,1.118,1121.633,311.738,0.980,764.675,298.455,1.024,1046.784,106.319,0.761,874.562,144.516,0.811,-0.025,-0.960,1.401,0.000,-357.860,0.000,-0.019,-0.033,-0.001,-0.290,-0.763,1.335
0722_182514_0075.png,-0.020,0.176,0.930,-0.085,0.182,0.945,0.099,0.006,1.156,-0.194,-0.010,1.089,0.044,-0.171,0.940,-0.359,-0.230,1.087,-0.010,-0.343,0.730,-0.446,-0.323,0.850,939.561,720.289,0.930,874.384,723.632,0.945,1041.587,544.576,1.156,790.666,531.328,1.089,1004.050,367.141,0.940,645.585,339.096,1.087,947.071,92.969,0.730,460.443,177.979,0.850,-0.023,-0.965,1.402,0.000,-345.549,0.000,-0.014,-0.017,-0.026,-0.266,-0.822,1.432
0722_182514_0076.png,-0.005,0.151,0.940,-0.068,0.156,0.951,0.115,-0.010,1.142,-0.172,-0.017,1.110,0.187,-0.195,1.312,-0.337,-0.217,1.057,0.248,-0.266,1.066,-0.434,-0.326,0.840,955.341,692.915,0.940,892.353,695.839,0.951,1055.622,531.570,1.142,812.632,525.002,1.110,1095.343,398.516,1.312,656.845,344.861,1.057,1180.786,302.659,1.066,468.846,170.351,0.840,-0.025,-0.964,1.402,0.000,-352.275,0.000,0.028,0.035,0.000,-0.270,-0.910,1.530
0722_182514_0077.png,0.019,0.183,0.927,-0.047,0.184,0.927,0.124,0.015,1.141,-0.170,0.006,1.102,0.247,-0.214,1.237,-0.208,-0.259,1.026,0.397,-0.288,1.024,-0.055,-0.345,0.820,979.352,728.018,0.927,911.845,729.327,0.927,1063.252,552.671,1.141,813.356,545.327,1.102,1150.283,375.352,1.237,767.564,299.703,1.026,1328.614,272.575,1.024,895.921,140.331,0.820,-0.034,-0.974,1.404,0.000,-351.009,0.000,0.001,-0.032,-0.030,0.197,-1.043,1.480
0722_182514_0078.png,0.021,0.149,0.944,-0.043,0.150,0.945,0.130,-0.009,1.142,-0.161,-0.014,1.117,0.162,-0.205,0.950,-0.184,-0.253,0.991,0.133,-0.358,0.730,-0.088,-0.353,0.761,981.596,690.236,0.944,916.448,691.192,0.945,1068.314,532.869,1.142,823.225,527.973,1.117,1122.481,334.757,0.950,783.521,297.104,0.991,1133.804,73.549,0.730,850.356,99.448,0.761,-0.035,-0.964,1.402,0.000,-353.938,0.000,0.017,0.036,-0.020,0.117,-1.037,1.493
0722_182514_0079.png,0.057,0.161,0.937,-0.010,0.157,0.931,0.173,-0.021,1.086,-0.125,-0.007,1.145,0.164,-0.286,1.099,-0.239,-0.223,1.045,0.128,-0.310,0.847,-0.141,-0.321,0.826,1017.624,703.149,0.937,950.077,700.687,0.931,1111.093,521.925,1.086,856.223,534.129,1.145,1101.922,292.945,1.099,742.312,336.885,1.045,1103.764,191.643,0.847,797.364,170.626,0.826,-0.036,-0.964,1.402,0.000,-10.343,0.000,-0.022,0.015,0.033,0.118,-0.899,1.500
0722_182514_0080.png,0.040,0.170,0.928,-0.026,0.168,0.928,0.165,-0.010,1.088,-0.126,0.004,1.148,0.144,-0.258,0.978,-0.275,-0.201,1.251,-0.017,-0.344,0.787,-0.438,-0.273,1.056,1000.658,713.963,0.928,933.114,712.201,0.928,1104.195,531.028,1.088,855.457,542.941,1.148,1100.170,289.043,0.978,751.067,387.177,1.251,939.424,124.756,0.787,565.805,294.310,1.056,-0.029,-0.967,1.402,0.000,-10.789,0.000,-0.002,-0.014,-0.001,-0.207,-1.066,1.359
0722_182514_0081.png,0.001,0.182,0.932,-0.064,0.184,0.938,0.109,0.002,1.148,-0.181,-0.012,1.082,0.216,-0.215,1.033,-0.244,-0.255,0.983,0.260,-0.333,0.806,-0.137,-0.346,0.765,961.018,725.432,0.932,894.648,726.761,0.938,1050.573,542.058,1.148,801.404,529.020,1.082,1159.269,342.316,1.033,724.145,293.201,0.983,1266.565,147.459,0.806,790.005,109.249,0.765,-0.032,-0.967,1.402,0.000,-345.834,0.000,-0.002,-0.015,0.016,0.044,-0.688,1.395
0722_182514_0082.png,0.028,0.174,0.934,-0.040,0.175,0.940,0.158,-0.008,1.105,-0.146,-0.003,1.127,0.228,-0.226,1.246,-0.151,-0.203,0.954,0.319,-0.271,1.008,-0.097,-0.342,0.744,988.043,717.091,0.934,919.977,717.505,0.940,1095.651,533.067,1.105,837.034,537.408,1.127,1133.670,367.194,1.246,809.843,337.855,0.954,1260.377,284.231,1.008,835.650,103.365,0.744,-0.034,-0.971,1.403,0.000,-3.024,0.000,-0.024,0.007,0.031,-0.285,-0.755,1.483
0722_182514_0083.png,0.025,0.182,0.937,-0.044,0.182,0.936,0.144,0.002,1.124,-0.166,0.001,1.117,0.089,-0.202,0.953,-0.292,-0.227,1.204,-0.021,-0.338,0.751,-0.310,-0.285,0.947,985.188,724.289,0.937,915.307,724.402,0.936,1081.661,541.951,1.124,818.215,540.505,1.117,1048.447,338.234,0.953,729.051,360.770,1.204,933.431,111.915,0.751,649.117,253.638,0.947,-0.030,-0.972,1.404,0.000,-357.415,0.000,-0.045,-0.006,0.000,0.078,-0.799,1.438
0722_182514_0084.png,0.022,0.170,0.933,-0.044,0.170,0.930,0.128,-0.005,1.132,-0.170,-0.013,1.096,0.234,-0.233,1.049,-0.177,-0.261,1.005,0.160,-0.323,0.823,-0.055,-0.332,0.792,982.816,713.469,0.933,914.923,713.792,0.930,1067.687,536.079,1.132,812.599,528.836,1.096,1172.250,329.067,1.049,792.065,293.314,1.005,1144.473,166.688,0.823,894.104,142.090,0.792,-0.033,-0.967,1.402,0.000,-351.824,0.000,-0.012,-0.003,0.040,0.291,-0.894,1.332
0722_182514_0085.png,-0.001,0.168,0.935,-0.064,0.173,0.945,0.110,0.001,1.146,-0.172,-0.012,1.090,0.129,-0.224,1.005,-0.264,-0.202,0.927,0.012,-0.341,0.806,-0.299,-0.361,0.723,959.032,711.346,0.935,895.614,713.873,0.945,1051.191,540.812,1.146,809.884,529.656,1.090,1082.401,327.896,1.005,689.347,332.470,0.927,974.341,138.335,0.806,567.123,65.542,0.723,-0.034,-0.971,1.403,0.000,-347.340,0.000,0.030,0.018,0.013,-0.137,-0.866,1.238
0722_182514_0086.png,0.000,0.170,0.937,-0.067,0.173,0.942,0.109,0.001,1.154,-0.185,-0.015,1.084,0.099,-0.210,0.987,-0.144,-0.244,0.949,-0.018,-0.334,0.784,-0.078,-0.348,0.719,960.063,712.378,0.937,892.734,714.388,0.942,1050.081,540.838,1.154,797.532,526.800,1.084,1055.123,337.931,0.987,815.755,295.876,0.949,938.711,134.361,0.784,857.108,78.904,0.719,-0.032,-0.968,1.403,0.000,-345.143,0.000,-0.021,0.012,0.006,0.079,-0.795,1.374
0722_182514_0087.png,0.042,0.177,0.929,-0.026,0.176,0.929,0.165,-0.007,1.092,-0.138,0.002,1.133,0.196,-0.261,1.016,-0.239,-0.248,1.129,0.183,-0.332,0.771,-0.221,-0.304,0.880,1002.573,720.802,0.929,933.368,719.841,0.929,1103.394,533.804,1.092,844.328,541.975,1.133,1143.799,295.756,1.016,758.259,331.402,1.129,1185.387,130.522,0.771,720.768,211.065,0.880,-0.033,-0.972,1.404,0.000,-6.784,0.000,-0.029,-0.008,0.034,-0.071,-0.943,1.238
0722_182514_0088.png,0.025,0.165,0.935,-0.041,0.164,0.932,0.136,0.000,1.132,-0.162,-0.001,1.125,0.291,-0.226,1.117,-0.211,-0.258,1.031,0.386,-0.319,0.880,-0.057,-0.339,0.824,985.160,707.360,0.935,917.890,707.047,0.932,1073.872,540.101,1.132,822.702,538.774,1.125,1207.737,348.019,1.117,765.183,301.885,1.031,1377.153,194.538,0.880,894.552,148.174,0.824,-0.028,-0.965,1.402,0.000,-357.479,0.000,-0.004,-0.010,-0.039,0.175,-1.211,1.305
0722_182514_0089.png,0.026,0.171,0.937,-0.038,0.170,0.934,0.140,-0.005,1.113,-0.150,0.000,1.134,0.060,-0.185,0.918,-0.254,-0.211,0.995,-0.015,-0.362,0.729,-0.313,-0.352,0.776,986.792,713.645,0.937,921.351,712.593,0.934,1079.657,535.633,1.113,834.474,539.748,1.134,1022.640,348.188,0.918,716.847,338.421,0.995,940.533,67.619,0.729,576.078,108.723,0.776,-0.023,-0.967,1.402,0.000,-3.067,0.000,0.022,-0.004,-0.013,0.059,-1.063,1.134
0722_182514_0090.png,0.005,0.167,0.921,-0.059,0.171,0.929,0.116,0.001,1.140,-0.170,-0.011,1.089,0.243,-0.219,1.054,-0.176,-0.245,0.959,0.304,-0.334,0.832,-0.075,-0.358,0.750,964.868,712.114,0.921,899.406,715.210,0.929,1056.909,540.781,1.140,811.221,530.575,1.089,1179.470,342.848,1.054,785.794,297.435,0.959,1307.850,158.161,0.832,864.559,86.582,0.750,-0.034,-0.966,1.402,0.000,-348.472,0.000,0.019,-0.023,0.021,-0.108,-1.153,1.191
0722_182514_0091.png,0.003,0.176,0.929,-0.065,0.179,0.932,0.109,0.005,1.151,-0.188,-0.011,1.080,0.237,-0.215,1.256,-0.346,-0.237,1.084,0.382,-0.267,1.044,-0.415,-0.318,0.843,962.603,720.479,0.929,893.787,722.299,0.932,1049.865,543.895,1.151,794.372,529.892,1.080,1139.219,377.286,1.256,656.545,331.704,1.084,1307.919,297.062,1.044,492.164,181.625,0.843,-0.030,-0.968,1.403,0.000,-345.141,0.000,-0.029,-0.016,0.011,0.176,-0.847,1.445
0722_182514_0092.png,0.025,0.149,0.932,-0.040,0.150,0.936,0.146,-0.012,1.116,-0.147,-0.011,1.121,0.080,-0.183,0.925,-0.249,-0.223,1.006,0.014,-0.349,0.740,-0.211,-0.337,0.782,985.579,691.770,0.932,919.567,692.570,0.936,1084.830,529.873,1.116,835.360,531.036,1.121,1042.538,352.096,0.925,725.154,329.021,1.006,978.578,91.776,0.740,702.959,129.831,0.782,-0.035,-0.969,1.403,0.000,0.029,0.000,0.012,0.031,0.035,-0.171,-1.214,1.254
0722_182514_0093.png,0.045,0.159,0.936,-0.022,0.157,0.933,0.165,-0.024,1.088,-0.134,-0.010,1.146,0.193,-0.279,1.016,-0.242,-0.215,1.016,0.174,-0.333,0.765,-0.213,-0.330,0.788,1005.660,701.601,0.936,937.245,699.686,0.933,1104.475,519.133,1.088,848.748,531.323,1.146,1140.988,278.958,1.016,733.585,338.880,1.016,1176.385,126.075,0.765,703.058,141.668,0.788,-0.028,-0.959,1.401,0.000,-10.141,0.000,-0.028,0.006,0.027,-0.008,-0.917,1.411
0722_182514_0094.png,0.015,0.180,0.929,-0.050,0.182,0.935,0.132,-0.003,1.128,-0.161,-0.008,1.102,0.246,-0.244,1.190,-0.314,-0.231,1.084,0.141,-0.299,0.960,-0.378,-0.326,0.854,975.665,724.107,0.929,909.597,725.106,0.935,1071.333,537.870,1.128,821.187,532.725,1.102,1156.362,345.222,1.190,684.248,337.400,1.084,1099.738,244.017,0.960,538.789,176.758,0.854,-0.035,-0.966,1.402,0.000,-353.684,0.000,0.009,-0.022,0.027,-0.102,-0.809,1.240
0722_182514_0095.png,0.029,0.151,0.937,-0.037,0.151,0.937,0.147,-0.013,1.113,-0.151,-0.010,1.126,0.181,-0.196,1.297,-0.226,-0.249,1.048,0.229,-0.258,1.053,-0.052,-0.313,0.865,989.435,693.437,0.937,922.321,693.082,0.937,1085.722,528.913,1.113,832.558,531.439,1.126,1092.890,396.214,1.297,755.302,313.709,1.048,1166.577,307.273,1.053,902.942,195.938,0.865,-0.030,-0.969,1.403,0.000,-1.270,0.000,-0.005,0.035,0.031,-0.009,-1.124,1.293
0722_182514_0096.png,0.039,0.149,0.939,-0.029,0.147,0.937,0.163,-0.020,1.093,-0.136,-0.006,1.155,0.134,-0.275,1.014,-0.295,-0.223,1.174,-0.016,-0.327,0.802,-0.310,-0.293,0.919,999.508,691.158,0.939,931.029,688.661,0.937,1101.818,522.209,1.093,847.999,534.861,1.155,1086.075,282.207,1.014,721.094,359.463,1.174,941.422,152.662,0.802,639.090,236.591,0.919,-0.022,-0.963,1.401,0.000,-10.807,0.000,-0.029,0.030,-0.007,-0.098,-1.018,1.661
0722_182514_0097.png,-0.012,0.140,0.936,-0.077,0.147,0.950,0.112,-0.011,1.159,-0.184,-0.025,1.095,0.262,-0.228,1.202,-0.275,-0.257,1.181,0.314,-0.287,0.947,-0.280,-0.294,0.918,947.909,681.858,0.936,882.934,687.442,0.950,1052.267,531.288,1.159,800.203,518.073,1.095,1167.364,359.282,1.202,738.231,333.374,1.181,1274.895,252.213,0.947,670.057,234.970,0.918,-0.032,-0.958,1.400,0.000,-346.401,0.000,-0.023,0.033,-0.014,-0.327,-1.076,1.494
0722_182514_0098.png,0.042,0.168,0.948,-0.025,0.166,0.944,0.162,-0.017,1.105,-0.138,-0.007,1.148,0.202,-0.282,1.129,-0.157,-0.182,0.930,0.198,-0.317,0.863,-0.176,-0.352,0.717,1002.579,708.741,0.948,935.288,707.449,0.944,1099.164,525.311,1.105,846.062,534.226,1.148,1129.981,302.001,1.129,799.772,353.814,0.930,1178.519,190.879,0.863,727.075,72.679,0.717,-0.029,-0.959,1.401,0.000,-7.389,0.000,-0.019,0.009,-0.021,0.014,-0.813,1.216
0722_182514_0099.png,0.060,0.171,0.931,-0.007,0.167,0.927,0.183,-0.011,1.080,-0.112,0.007,1.157,0.313,-0.252,1.095,-0.207,-0.163,0.953,0.366,-0.319,0.841,-0.300,-0.327,0.754,1021.714,714.274,0.931,953.013,710.915,0.927,1120.980,530.484,1.080,868.352,545.791,1.157,1231.913,321.564,1.095,753.061,377.839,0.953,1374.131,178.889,0.841,581.192,126.873,0.754,-0.037,-0.968,1.403,0.000,-13.982,0.000,-0.027,-0.009,-0.016,-0.065,-1.164,1.120
0722_182514_0100.png,-0.005,0.175,0.931,-0.070,0.178,0.936,0.097,0.008,1.151,-0.188,-0.006,1.092,0.164,-0.169,0.940,-0.284,-0.194,1.266,0.232,-0.342,0.735,-0.439,-0.276,1.070,954.467,718.486,0.931,888.849,720.756,0.936,1040.307,546.204,1.151,796.373,534.689,1.092,1126.026,369.112,0.940,746.912,394.098,1.266,1259.530,98.309,0.735,569.709,294.515,1.070,-0.022,-0.969,1.403,0.000,-346.797,0.000,0.018,-0.012,-0.021,0.102,-0.885,1.572
0722_182514_0101.png,0.027,0.167,0.925,-0.039,0.167,0.925,0.141,-0.008,1.119,-0.157,-0.009,1.115,0.179,-0.264,1.037,-0.268,-0.194,1.289,0.009,-0.329,0.850,-0.278,-0.276,1.044,987.551,711.565,0.925,919.580,711.542,0.925,1079.848,533.296,1.119,825.911,532.570,1.115,1123.692,298.399,1.037,762.478,396.915,1.289,969.930,171.752,0.850,706.880,288.425,1.044,-0.031,-0.960,1.401,0.000,-358.120,0.000,-0.005,-0.032,0.020,0.085,-1.028,1.547
0722_182514_0102.png,0.028,0.160,0.927,-0.037,0.160,0.929,0.150,-0.008,1.104,-0.143,-0.002,1.130,0.253,-0.250,1.054,-0.270,-0.211,1.026,0.281,-0.332,0.811,-0.320,-0.334,0.805,988.859,704.053,0.927,922.125,703.466,0.929,1088.869,532.885,1.104,839.562,538.264,1.130,1188.557,314.572,1.054,709.344,344.324,1.026,1289.080,150.926,0.811,581.804,145.790,0.805,-0.029,-0.970,1.403,0.000,-4.224,0.000,0.010,0.002,0.023,-0.134,-1.207,1.304
0722_182514_0103.png,0.001,0.155,0.935,-0.062,0.159,0.944,0.116,-0.012,1.142,-0.171,-0.021,1.100,0.261,-0.235,1.142,-0.277,-0.252,1.020,0.170,-0.311,0.912,-0.300,-0.344,0.779,961.163,697.360,0.935,897.074,699.976,0.944,1056.925,530.270,1.142,812.468,521.545,1.100,1177.639,344.537,1.142,701.930,305.295,1.020,1137.604,216.081,0.912,593.967,120.041,0.779,-0.031,-0.959,1.401,0.000,-350.284,0.000,0.022,0.013,0.017,-0.187,-1.021,1.101
0722_182514_0104.png,-0.001,0.178,0.932,-0.063,0.182,0.945,0.113,0.001,1.145,-0.168,-0.011,1.090,0.092,-0.173,0.934,-0.318,-0.231,1.061,0.074,-0.344,0.729,-0.329,-0.340,0.825,959.113,721.544,0.932,896.386,723.535,0.945,1053.669,540.832,1.145,813.196,530.058,1.090,1054.201,363.383,0.934,674.977,333.201,1.061,1056.633,90.749,0.729,581.196,148.371,0.825,-0.036,-0.967,1.402,0.000,-347.684,0.000,0.035,-0.006,0.011,-0.223,-0.702,1.426
0722_182514_0105.png,0.025,0.166,0.935,-0.043,0.165,0.931,0.137,0.000,1.128,-0.172,-0.004,1.111,0.167,-0.243,1.021,-0.337,-0.219,1.084,0.003,-0.317,0.825,-0.412,-0.308,0.849,985.414,708.694,0.935,915.612,708.514,0.931,1075.465,540.032,1.128,812.960,536.690,1.111,1115.411,313.543,1.021,664.168,347.745,1.084,963.104,174.931,0.825,498.312,195.457,0.849,-0.028,-0.973,1.404,0.000,-355.595,0.000,-0.041,0.010,0.013,0.238,-1.001,1.568
0722_182514_0106.png,0.045,0.156,0.942,-0.020,0.154,0.939,0.160,-0.012,1.106,-0.130,-0.004,1.141,0.208,-0.194,0.910,-0.261,-0.185,1.279,0.212,-0.360,0.703,-0.326,-0.269,1.038,1004.976,697.222,0.942,939.467,695.570,0.939,1097.948,529.410,1.106,851.502,536.398,1.141,1177.664,337.065,0.910,766.226,402.040,1.279,1246.002,53.716,0.703,661.076,293.557,1.038,-0.036,-0.970,1.403,0.000,-5.832,0.000,0.014,0.037,0.001,0.028,-1.024,1.433
0722_182514_0107.png,0.058,0.152,0.947,-0.008,0.147,0.939,0.173,-0.025,1.091,-0.120,-0.009,1.158,0.252,-0.262,1.169,-0.134,-0.203,0.966,0.099,-0.288,0.955,-0.080,-0.346,0.747,1018.359,692.180,0.947,952.107,688.687,0.939,1110.633,518.384,1.091,861.554,532.254,1.158,1164.841,326.668,1.169,827.641,339.681,0.966,1058.075,253.285,0.955,858.303,99.097,0.747,-0.032,-0.960,1.401,0.000,-12.025,0.000,-0.012,0.035,-0.009,0.123,-1.055,1.152
0722_182514_0108.png,0.043,0.162,0.923,-0.022,0.157,0.919,0.164,-0.010,1.082,-0.122,0.006,1.153,0.302,-0.247,1.094,-0.211,-0.164,0.948,0.373,-0.328,0.852,-0.298,-0.331,0.750,1004.183,706.860,0.923,936.746,702.762,0.919,1104.352,530.923,1.082,859.070,544.940,1.153,1222.921,325.360,1.094,748.296,375.266,0.948,1376.571,173.701,0.852,581.725,120.775,0.750,-0.025,-0.966,1.402,0.000,-13.090,0.000,0.004,-0.023,-0.009,-0.075,-1.294,1.509
0722_182514_0109.png,0.036,0.154,0.936,-0.030,0.151,0.933,0.151,-0.004,1.115,-0.143,0.002,1.141,0.142,-0.188,0.900,-0.211,-0.260,1.123,0.135,-0.367,0.691,-0.167,-0.322,0.863,996.231,696.281,0.936,929.504,694.207,0.933,1089.160,536.433,1.115,840.411,541.545,1.141,1109.937,341.590,0.900,781.700,320.129,1.123,1146.043,34.829,0.691,775.775,185.441,0.863,-0.029,-0.970,1.403,0.000,-4.047,0.000,0.003,0.016,-0.034,0.077,-1.265,1.541
0722_182514_0110.png,0.032,0.159,0.928,-0.031,0.155,0.922,0.141,-0.012,1.101,-0.143,-0.005,1.131,0.129,-0.256,0.995,-0.307,-0.214,1.150,0.005,-0.351,0.793,-0.398,-0.311,0.930,992.836,702.481,0.928,928.057,700.004,0.922,1082.175,529.463,1.101,840.168,535.690,1.131,1083.444,294.905,0.995,705.962,362.774,1.150,965.433,118.417,0.793,553.289,222.311,0.930,-0.023,-0.964,1.402,0.000,-5.169,0.000,0.038,-0.011,0.028,0.161,-1.246,1.362
0722_182514_0111.png,-0.002,0.170,0.934,-0.069,0.173,0.939,0.109,0.000,1.145,-0.188,-0.013,1.088,0.277,-0.202,1.212,-0.307,-0.244,1.161,0.195,-0.283,0.979,-0.183,-0.291,0.938,957.677,713.173,0.934,890.127,714.849,0.939,1050.660,539.971,1.145,796.054,528.535,1.088,1177.548,381.712,1.212,708.858,340.473,1.161,1149.469,264.558,0.979,774.272,244.803,0.938,-0.024,-0.969,1.403,0.000,-347.693,0.000,-0.019,0.008,0.022,0.056,-0.809,1.447
0722_182514_0112.png,0.064,0.162,0.938,-0.002,0.156,0.927,0.174,-0.025,1.075,-0.118,-0.007,1.152,0.295,-0.263,1.038,-0.223,-0.251,1.125,0.325,-0.327,0.790,-0.191,-0.306,0.876,1024.546,703.879,0.938,958.275,700.243,0.927,1114.245,517.646,1.075,862.362,533.849,1.152,1230.260,298.759,1.038,771.927,327.678,1.125,1350.809,146.369,0.790,752.612,207.258,0.876,-0.032,-0.961,1.401,0.000,-14.034,0.000,-0.021,0.005,0.033,0.243,-0.901,1.492
0722_182514_0113.png,0.016,0.175,0.925,-0.051,0.175,0.923,0.122,0.007,1.136,-0.177,-0.003,1.093,0.181,-0.259,1.125,-0.250,-0.240,0.985,0.157,-0.314,0.872,-0.171,-0.344,0.761,976.150,719.594,0.925,907.245,720.713,0.923,1061.823,545.757,1.136,805.822,537.281,1.093,1112.991,320.808,1.125,718.832,308.226,0.985,1131.558,197.814,0.872,746.450,110.774,0.761,-0.029,-0.972,1.404,0.000,-350.327,0.000,-0.018,-0.023,0.018,0.235,-1.022,1.551
0722_182514_0114.png,0.007,0.161,0.926,-0.059,0.164,0.929,0.117,-0.004,1.143,-0.178,-0.018,1.081,0.160,-0.246,1.050,-0.228,-0.171,1.297,-0.023,-0.313,0.874,-0.301,-0.259,1.068,967.619,705.572,0.926,899.574,707.903,0.929,1057.008,536.858,1.143,802.978,524.123,1.081,1104.929,317.204,1.050,792.751,414.360,1.297,935.357,199.387,0.874,692.422,308.957,1.068,-0.034,-0.965,1.402,0.000,-346.645,0.000,-0.017,-0.004,0.044,0.090,-1.010,1.421
0722_182514_0115.png,0.025,0.170,0.942,-0.044,0.170,0.940,0.143,-0.007,1.126,-0.166,-0.007,1.127,0.189,-0.198,1.315,-0.303,-0.243,1.087,0.283,-0.256,1.069,-0.168,-0.314,0.865,985.045,711.998,0.942,915.832,711.714,0.940,1080.423,533.700,1.126,819.616,533.878,1.127,1096.838,397.078,1.315,695.085,327.695,1.087,1211.721,312.775,1.069,775.412,194.977,0.865,-0.025,-0.962,1.401,0.000,-358.998,0.000,-0.040,-0.003,-0.019,0.103,-0.790,1.623
0722_182514_0116.png,0.040,0.151,0.932,-0.027,0.150,0.931,0.161,-0.010,1.110,-0.142,-0.005,1.135,0.176,-0.248,1.231,-0.227,-0.190,0.955,0.166,-0.281,0.971,-0.249,-0.345,0.742,1000.756,694.268,0.932,932.025,692.998,0.931,1097.743,531.132,1.110,840.916,536.167,1.135,1096.197,348.580,1.231,733.848,351.110,0.955,1123.111,265.051,0.971,640.345,98.252,0.742,-0.036,-0.967,1.402,0.000,-3.694,0.000,-0.024,0.013,0.002,0.008,-1.190,1.598
0722_182514_0117.png,0.022,0.176,0.939,-0.046,0.177,0.942,0.144,-0.010,1.125,-0.161,-0.011,1.120,0.147,-0.186,0.915,-0.333,-0.216,1.188,0.150,-0.356,0.709,-0.268,-0.296,0.945,981.970,718.156,0.939,913.815,718.577,0.942,1081.293,531.681,1.125,823.369,530.729,1.120,1113.231,347.077,0.915,693.484,367.395,1.188,1160.613,62.114,0.709,689.771,241.679,0.945,-0.031,-0.958,1.400,0.000,-357.921,0.000,-0.026,-0.017,-0.002,-0.078,-0.794,1.111
0722_182514_0118.png,0.031,0.168,0.929,-0.034,0.168,0.934,0.158,-0.005,1.102,-0.134,0.003,1.137,0.215,-0.236,0.974,-0.276,-0.188,1.009,0.187,-0.355,0.741,-0.369,-0.335,0.811,991.343,711.558,0.929,924.989,711.357,0.934,1096.223,535.485,1.102,847.957,542.543,1.137,1170.034,309.641,0.974,700.218,362.479,1.009,1199.444,84.757,0.741,527.192,146.785,0.811,-0.033,-0.971,1.403,0.000,-6.041,0.000,0.009,0.001,0.002,-0.269,-0.961,1.655
0722_182514_0119.png,0.030,0.157,0.944,-0.037,0.157,0.942,0.143,-0.012,1.132,-0.162,-0.017,1.112,0.125,-0.256,1.032,-0.185,-0.254,0.998,0.077,-0.325,0.787,-0.138,-0.331,0.756,990.670,698.437,0.944,922.306,698.527,0.942,1080.344,529.609,1.132,821.410,525.601,1.112,1075.222,303.914,1.032,783.311,297.845,0.998,1053.134,147.313,0.787,786.992,123.334,0.756,-0.037,-0.964,1.402,0.000,-355.085,0.000,-0.030,0.031,0.021,0.209,-0.927,1.215
0722_182514_0120.png,0.036,0.176,0.923,-0.030,0.174,0.922,0.159,-0.003,1.087,-0.136,0.010,1.141,0.270,-0.253,1.089,-0.228,-0.247,1.146,0.176,-0.322,0.855,-0.209,-0.311,0.894,997.164,720.855,0.923,928.664,718.884,0.922,1099.510,537.809,1.087,846.860,548.361,1.141,1196.085,318.900,1.089,770.776,335.098,1.146,1155.293,181.824,0.855,737.127,209.176,0.894,-0.025,-0.974,1.404,0.000,-9.564,0.000,-0.012,-0.019,0.012,-0.102,-1.008,1.674
0722_182514_0121.png,0.046,0.169,0.920,-0.018,0.165,0.914,0.160,-0.008,1.084,-0.127,0.004,1.137,0.281,-0.239,1.179,-0.276,-0.223,1.142,0.389,-0.306,0.955,-0.175,-0.313,0.923,1007.892,714.768,0.920,941.292,711.271,0.914,1100.348,533.324,1.084,853.456,543.740,1.137,1187.099,347.558,1.179,730.120,354.480,1.142,1347.582,235.499,0.955,780.087,218.116,0.923,-0.031,-0.968,1.403,0.000,-9.460,0.000,0.015,-0.035,0.031,0.123,-1.280,1.374
0722_182514_0122.png,0.034,0.175,0.931,-0.030,0.175,0.933,0.152,-0.007,1.114,-0.138,-0.004,1.125,0.161,-0.225,0.954,-0.182,-0.265,1.062,0.146,-0.364,0.732,-0.134,-0.341,0.816,994.822,718.424,0.931,929.168,718.464,0.933,1089.694,534.185,1.114,843.088,536.445,1.125,1120.605,315.661,0.954,796.746,302.501,1.062,1149.362,67.653,0.732,803.597,143.059,0.816,-0.039,-0.964,1.402,0.000,-1.123,0.000,0.022,-0.021,0.008,-0.079,-0.917,1.317
0722_182514_0123.png,0.056,0.172,0.932,-0.011,0.169,0.927,0.177,-0.012,1.082,-0.115,0.005,1.155,0.234,-0.269,1.003,-0.224,-0.235,1.081,0.159,-0.348,0.760,-0.236,-0.330,0.831,1017.054,715.870,0.932,949.202,712.895,0.927,1115.370,529.168,1.082,865.675,543.845,1.155,1181.526,285.054,1.003,762.662,332.875,1.081,1158.953,103.750,0.760,689.678,162.108,0.831,-0.034,-0.965,1.402,0.000,-13.426,0.000,-0.014,-0.015,-0.013,-0.053,-1.094,1.131
0722_182514_0124.png,0.052,0.170,0.935,-0.013,0.167,0.930,0.167,-0.012,1.086,-0.123,0.000,1.139,0.123,-0.236,0.959,-0.102,-0.172,0.935,0.074,-0.348,0.737,-0.079,-0.338,0.736,1013.035,712.394,0.935,946.928,710.459,0.930,1105.949,529.406,1.086,857.170,540.028,1.139,1081.767,305.773,0.959,856.665,365.326,0.935,1055.633,90.802,0.737,858.567,102.844,0.736,-0.036,-0.973,1.404,0.000,-9.416,0.000,0.007,0.015,0.040,0.073,-0.859,1.520
0722_182514_0125.png,0.032,0.179,0.939,-0.035,0.178,0.936,0.145,-0.005,1.126,-0.159,-0.006,1.122,0.135,-0.194,0.924,-0.285,-0.214,0.992,0.085,-0.359,0.716,-0.346,-0.344,0.765,992.501,721.305,0.939,924.151,720.971,0.936,1082.716,535.653,1.126,825.249,534.869,1.122,1099.031,340.261,0.924,686.472,334.847,0.992,1072.941,63.003,0.716,530.528,112.407,0.765,-0.033,-0.961,1.401,0.000,-358.065,0.000,-0.025,-0.024,-0.016,0.199,-0.853,1.213
0722_182514_0126.png,0.013,0.173,0.927,-0.054,0.176,0.930,0.128,0.005,1.136,-0.174,-0.005,1.094,0.184,-0.168,0.934,-0.170,-0.202,0.914,0.236,-0.337,0.736,-0.112,-0.353,0.712,973.244,717.985,0.927,904.495,719.663,0.930,1066.861,544.114,1.136,809.180,535.975,1.094,1147.189,368.623,0.934,782.959,330.139,0.914,1264.386,105.170,0.736,811.007,67.980,0.712,-0.033,-0.973,1.404,0.000,-350.773,0.000,-0.025,-0.009,0.022,0.037,-0.934,1.556
0722_182514_0127.png,0.028,0.156,0.933,-0.035,0.156,0.931,0.137,-0.012,1.120,-0.150,-0.013,1.116,0.111,-0.235,0.981,-0.291,-0.238,1.121,0.011,-0.351,0.777,-0.316,-0.321,0.880,988.906,699.367,0.933,924.208,699.175,0.931,1075.948,529.488,1.120,832.619,528.685,1.116,1067.871,312.210,0.981,713.210,338.194,1.121,973.126,110.125,0.777,618.346,193.366,0.880,-0.033,-0.963,1.401,0.000,-358.024,0.000,0.036,0.005,0.030,0.127,-1.056,1.441
0722_182514_0128.png,0.002,0.179,0.927,-0.063,0.182,0.934,0.117,0.009,1.144,-0.177,0.001,1.106,0.173,-0.192,0.954,-0.321,-0.226,1.173,0.182,-0.363,0.738,-0.410,-0.313,0.932,961.892,723.301,0.927,895.411,725.709,0.934,1057.087,547.824,1.144,807.886,540.691,1.106,1132.438,348.451,0.954,699.862,356.944,1.173,1194.210,72.120,0.738,541.801,220.345,0.932,-0.026,-0.968,1.403,0.000,-351.373,0.000,0.003,-0.032,-0.038,-0.104,-1.106,1.156
0722_182514_0129.png,0.008,0.177,0.925,-0.058,0.180,0.934,0.135,-0.004,1.120,-0.165,-0.007,1.110,0.139,-0.251,1.016,-0.209,-0.247,1.001,0.000,-0.334,0.814,-0.184,-0.342,0.764,968.328,722.028,0.925,901.297,723.282,0.934,1074.343,536.288,1.120,818.827,534.306,1.110,1090.343,304.818,1.016,761.622,305.130,1.001,959.578,149.466,0.814,731.158,114.256,0.764,-0.027,-0.965,1.402,0.000,-356.884,0.000,-0.009,-0.028,0.028,-0.286,-0.873,1.340
0722_182514_0130.png,0.035,0.175,0.934,-0.031,0.174,0.934,0.155,-0.011,1.104,-0.142,-0.004,1.132,0.223,-0.256,1.206,-0.152,-0.221,0.975,0.255,-0.297,0.951,-0.092,-0.349,0.757,995.422,718.024,0.934,928.128,717.446,0.934,1093.358,530.651,1.104,840.720,536.465,1.132,1135.503,338.394,1.206,811.381,324.752,0.975,1215.080,242.749,0.951,844.768,101.242,0.757,-0.031,-0.964,1.402,0.000,-4.532,0.000,-0.004,-0.013,0.016,-0.050,-0.847,1.312
0722_182514_0131.png,0.064,0.162,0.946,0.001,0.156,0.933,0.171,-0.021,1.086,-0.113,-0.005,1.153,0.215,-0.235,0.930,-0.252,-0.225,1.095,0.221,-0.363,0.701,-0.116,-0.316,0.892,1024.742,702.555,0.946,961.163,698.599,0.933,1109.587,521.820,1.086,866.696,535.748,1.153,1179.925,299.746,0.930,740.819,344.125,1.095,1260.214,48.021,0.701,836.751,202.952,0.892,-0.034,-0.964,1.402,0.000,-12.610,0.000,0.015,0.022,0.006,0.311,-0.912,1.423
0722_182514_0132.png,-0.010,0.187,0.926,-0.075,0.194,0.943,0.111,0.015,1.156,-0.182,-0.001,1.086,0.160,-0.168,0.940,-0.328,-0.236,1.073,0.208,-0.347,0.731,-0.388,-0.332,0.827,949.299,732.270,0.926,884.263,735.795,0.943,1051.757,552.416,1.156,800.734,539.157,1.086,1121.802,370.191,0.940,669.274,330.726,1.073,1230.796,89.226,0.731,513.635,158.265,0.827,-0.036,-0.972,1.404,0.000,-345.099,0.000,-0.017,-0.028,-0.032,-0.332,-0.805,1.473
0722_182514_0133.png,0.057,0.182,0.935,-0.008,0.179,0.927,0.170,-0.017,1.070,-0.115,0.001,1.147,0.176,-0.231,1.238,-0.178,-0.212,1.010,0.182,-0.285,0.989,-0.184,-0.336,0.790,1018.011,724.524,0.935,952.225,723.077,0.927,1111.125,525.016,1.070,864.354,540.764,1.147,1095.282,362.343,1.238,792.481,340.025,1.010,1134.797,266.407,0.989,738.119,134.843,0.790,-0.031,-0.968,1.403,0.000,-14.373,0.000,0.003,-0.008,0.045,0.085,-0.708,1.276
0722_182514_0134.png,0.044,0.187,0.929,-0.021,0.185,0.927,0.166,-0.009,1.080,-0.118,0.008,1.153,0.150,-0.288,1.098,-0.227,-0.179,0.981,0.118,-0.341,0.838,-0.297,-0.350,0.784,1004.952,731.460,0.929,938.210,729.763,0.927,1106.035,532.259,1.080,862.427,546.524,1.153,1090.084,290.743,1.098,739.684,366.139,0.981,1093.893,152.621,0.838,599.381,115.838,0.784,-0.027,-0.964,1.402,0.000,-13.532,0.000,0.011,-0.041,-0.015,-0.154,-0.773,1.580
0722_182514_0135.png,0.046,0.169,0.938,-0.020,0.168,0.938,0.170,-0.018,1.090,-0.118,-0.003,1.155,0.290,-0.209,1.242,-0.273,-0.204,1.051,0.241,-0.292,0.992,-0.303,-0.335,0.820,1006.372,711.778,0.938,939.785,710.385,0.938,1108.382,524.336,1.090,862.439,537.506,1.155,1181.967,380.227,1.242,713.408,355.454,1.051,1190.499,260.463,0.992,608.549,151.575,0.820,-0.032,-0.959,1.401,0.000,-11.833,0.000,0.003,-0.006,-0.017,-0.217,-0.850,1.375
0722_182514_0136.png,0.061,0.167,0.934,-0.004,0.162,0.927,0.177,-0.012,1.076,-0.109,0.006,1.154,0.141,-0.270,1.013,-0.247,-0.216,1.095,-0.016,-0.333,0.814,-0.135,-0.314,0.879,1022.238,709.816,0.934,955.875,706.086,0.927,1116.484,529.022,1.076,870.560,544.632,1.154,1092.406,286.585,1.013,745.662,352.131,1.095,941.186,151.269,0.814,814.406,200.396,0.879,-0.035,-0.973,1.404,0.000,-14.580,0.000,0.001,0.014,0.008,0.036,-1.022,1.453
0722_182514_0137.png,0.006,0.183,0.941,-0.061,0.185,0.947,0.123,0.003,1.142,-0.177,-0.007,1.098,0.148,-0.238,1.024,-0.296,-0.234,1.182,-0.019,-0.323,0.835,-0.312,-0.294,0.926,966.365,724.397,0.941,899.247,725.349,0.947,1062.740,542.379,1.142,807.178,533.850,1.098,1097.052,319.014,1.024,721.595,351.765,1.182,938.052,172.339,0.835,639.282,237.836,0.926,-0.031,-0.972,1.403,0.000,-350.392,0.000,-0.021,0.008,0.003,-0.036,-0.640,1.287
0722_182514_0138.png,0.055,0.165,0.932,-0.009,0.161,0.928,0.175,-0.013,1.084,-0.104,0.004,1.158,0.284,-0.261,1.068,-0.110,-0.195,0.963,0.325,-0.343,0.816,-0.073,-0.362,0.754,1016.398,708.545,0.932,950.725,704.994,0.928,1113.649,529.026,1.084,874.177,543.619,1.158,1213.309,307.701,1.068,851.062,347.632,0.963,1339.040,140.238,0.816,868.450,83.720,0.754,-0.037,-0.965,1.402,0.000,-13.942,0.000,0.025,-0.009,-0.026,-0.112,-1.207,1.228
0722_182514_0139.png,0.020,0.154,0.942,-0.048,0.156,0.949,0.150,-0.014,1.124,-0.158,-0.012,1.131,0.144,-0.248,0.989,-0.339,-0.211,1.083,-0.019,-0.328,0.790,-0.432,-0.308,0.852,979.850,695.632,0.942,911.612,696.711,0.949,1087.137,528.394,1.124,827.247,529.900,1.131,1098.257,301.545,0.989,662.463,354.699,1.083,937.677,145.218,0.790,477.513,196.009,0.852,-0.030,-0.963,1.401,0.000,-0.241,0.000,-0.038,0.030,-0.011,-0.261,-0.938,1.401
0722_182514_0140.png,0.022,0.161,0.950,-0.044,0.162,0.949,0.129,-0.009,1.147,-0.166,-0.018,1.109,0.142,-0.232,0.991,-0.166,-0.241,0.952,0.113,-0.346,0.751,-0.095,-0.357,0.722,982.127,701.462,0.950,915.964,702.131,0.949,1067.103,532.604,1.147,817.432,524.860,1.109,1096.255,317.326,0.991,794.655,299.722,0.952,1102.484,102.311,0.751,834.979,70.527,0.722,-0.038,-0.962,1.401,0.000,-351.309,0.000,-0.003,0.030,-0.014,0.217,-0.776,1.389
0722_182514_0141.png,0.058,0.184,0.935,-0.006,0.181,0.926,0.169,-0.011,1.071,-0.113,0.006,1.145,0.220,-0.239,0.949,-0.084,-0.171,0.947,0.201,-0.355,0.726,-0.053,-0.343,0.754,1019.008,727.283,0.935,953.980,725.519,0.926,1110.292,529.960,1.071,865.952,544.622,1.145,1180.577,300.676,0.949,875.769,367.979,0.947,1223.050,74.731,0.726,892.650,107.235,0.754,-0.033,-0.974,1.404,0.000,-13.761,0.000,0.015,-0.004,0.043,0.120,-0.778,1.193
0722_182514_0142.png,0.022,0.146,0.938,-0.042,0.146,0.938,0.135,-0.014,1.123,-0.157,-0.015,1.121,0.137,-0.252,1.010,-0.310,-0.222,1.067,0.002,-0.335,0.807,-0.372,-0.323,0.838,982.582,687.790,0.938,917.062,687.845,0.938,1074.245,528.075,1.123,827.122,527.579,1.121,1088.772,303.043,1.010,684.017,341.816,1.067,962.342,145.133,0.807,537.526,173.536,0.838,-0.028,-0.966,1.402,0.000,-358.343,0.000,0.018,0.036,0.023,0.055,-1.186,1.268
0722_182514_0143.png,0.003,0.174,0.924,-0.063,0.176,0.926,0.112,0.002,1.135,-0.183,-0.008,1.089,0.225,-0.236,1.213,-0.225,-0.251,0.986,0.239,-0.290,0.965,-0.214,-0.346,0.751,963.494,719.007,0.924,895.560,720.430,0.926,1054.019,541.738,1.135,800.080,532.650,1.089,1135.980,355.383,1.213,742.768,298.505,0.986,1195.779,253.946,0.965,688.670,102.535,0.751,-0.022,-0.969,1.403,0.000,-349.817,0.000,-0.007,-0.021,0.038,0.119,-1.023,1.252
0722_182514_0144.png,0.022,0.163,0.936,-0.046,0.162,0.931,0.131,-0.003,1.128,-0.174,-0.006,1.114,0.148,-0.254,1.032,-0.300,-0.201,1.254,-0.019,-0.319,0.837,-0.244,-0.271,1.009,981.985,705.555,0.936,912.994,705.050,0.931,1070.878,537.195,1.128,811.315,534.516,1.114,1096.149,306.300,1.032,732.939,387.642,1.254,938.048,177.064,0.837,730.302,284.875,1.009,-0.022,-0.969,1.403,0.000,-356.235,0.000,-0.031,0.006,0.009,0.265,-1.024,1.563
0722_182514_0145.png,0.031,0.157,0.934,-0.034,0.157,0.937,0.155,-0.010,1.104,-0.133,-0.001,1.142,0.286,-0.219,1.197,-0.168,-0.182,0.940,0.190,-0.298,0.964,-0.196,-0.356,0.739,991.396,699.868,0.934,925.963,699.152,0.937,1093.325,531.771,1.104,848.970,539.401,1.142,1187.186,365.779,1.197,789.933,355.646,0.940,1147.112,246.133,0.964,707.722,81.744,0.739,-0.030,-0.970,1.403,0.000,-6.622,0.000,0.021,0.022,-0.004,-0.238,-1.149,1.339
0722_182514_0146.png,0.033,0.160,0.923,-0.035,0.160,0.923,0.155,-0.008,1.113,-0.149,-0.004,1.128,0.192,-0.208,1.305,-0.317,-0.223,1.104,0.302,-0.266,1.069,-0.291,-0.320,0.860,993.837,704.925,0.923,924.245,704.466,0.923,1092.459,533.422,1.113,834.124,536.437,1.128,1099.932,388.642,1.305,686.628,348.111,1.104,1228.253,303.537,1.069,638.540,185.610,0.860,-0.034,-0.960,1.401,0.000,-1.743,0.000,-0.026,-0.034,-0.002,-0.031,-1.262,1.485
0722_182514_0147.png,-0.008,0.158,0.944,-0.073,0.162,0.953,0.109,-0.003,1.152,-0.185,-0.015,1.101,0.225,-0.207,1.269,-0.227,-0.257,0.991,0.376,-0.261,1.057,-0.077,-0.336,0.786,952.217,699.418,0.944,887.041,702.083,0.953,1049.704,537.384,1.152,800.330,527.116,1.101,1128.990,385.070,1.269,742.194,293.832,0.991,1298.330,304.835,1.057,866.766,133.414,0.786,-0.025,-0.968,1.403,0.000,-348.698,0.000,-0.004,0.042,-0.013,-0.120,-0.808,1.531
0722_182514_0148.png,0.022,0.172,0.922,-0.042,0.174,0.928,0.146,-0.005,1.113,-0.145,-0.003,1.120,0.064,-0.183,0.926,-0.233,-0.216,0.981,-0.016,-0.357,0.745,-0.276,-0.354,0.765,983.057,717.051,0.922,917.099,717.882,0.928,1084.380,535.593,1.113,836.547,537.172,1.120,1025.585,351.974,0.926,733.720,331.049,0.981,939.923,84.113,0.745,617.388,99.700,0.765,-0.034,-0.964,1.402,0.000,-0.430,0.000,0.020,-0.034,0.016,-0.248,-1.092,1.280
0722_182514_0149.png,0.013,0.173,0.931,-0.052,0.174,0.933,0.124,-0.007,1.133,-0.168,-0.014,1.102,0.211,-0.252,1.060,-0.277,-0.228,1.237,0.080,-0.330,0.850,-0.308,-0.294,0.988,973.080,716.549,0.931,906.824,717.461,0.933,1063.640,534.143,1.133,814.748,527.738,1.102,1149.001,314.272,1.060,746.773,364.301,1.237,1049.384,171.245,0.850,663.103,257.449,0.988,-0.030,-0.959,1.401,0.000,-352.518,0.000,0.011,-0.025,0.020,0.050,-0.781,1.581
0722_182514_0150.png,0.018,0.173,0.944,-0.045,0.174,0.948,0.131,-0.006,1.128,-0.153,-0.008,1.118,0.232,-0.244,1.066,-0.241,-0.249,1.184,0.131,-0.336,0.843,-0.236,-0.312,0.929,977.629,714.225,0.944,914.519,714.802,0.948,1070.041,535.304,1.128,829.609,533.281,1.118,1166.620,322.407,1.066,766.044,340.351,1.184,1108.122,160.827,0.843,718.795,220.803,0.929,-0.032,-0.969,1.403,0.000,-356.731,0.000,0.043,0.020,0.003,-0.065,-0.658,1.516
0722_182514_0151.png,0.038,0.171,0.922,-0.029,0.170,0.922,0.161,-0.007,1.102,-0.141,-0.001,1.130,0.115,-0.215,0.936,-0.247,-0.233,1.034,0.016,-0.353,0.736,-0.158,-0.335,0.810,999.663,716.440,0.922,930.288,715.521,0.922,1099.002,533.775,1.102,841.368,539.336,1.130,1076.669,321.440,0.936,732.722,326.198,1.034,981.102,83.909,0.736,774.641,146.810,0.810,-0.035,-0.962,1.401,0.000,-4.253,0.000,-0.022,-0.042,0.012,-0.053,-1.200,1.227
0722_182514_0152.png,0.034,0.179,0.934,-0.033,0.179,0.937,0.159,-0.002,1.110,-0.139,0.005,1.140,0.244,-0.204,1.278,-0.299,-0.195,1.032,0.346,-0.279,1.038,-0.410,-0.333,0.826,994.281,722.465,0.934,926.779,722.095,0.937,1096.134,538.209,1.110,843.921,544.022,1.140,1141.912,388.114,1.278,684.529,360.347,1.032,1277.124,284.256,1.038,487.456,155.977,0.826,-0.033,-0.967,1.402,0.000,-4.739,0.000,-0.009,-0.020,-0.035,-0.175,-0.919,1.364
0722_182514_0153.png,0.033,0.161,0.934,-0.034,0.161,0.934,0.154,-0.017,1.098,-0.146,-0.009,1.134,0.191,-0.197,1.292,-0.251,-0.222,1.020,0.305,-0.256,1.068,-0.203,-0.328,0.794,993.269,704.398,0.934,925.038,703.541,0.934,1093.782,524.889,1.098,837.569,532.315,1.134,1100.765,394.604,1.292,725.667,333.244,1.020,1231.700,311.927,1.068,716.517,146.675,0.794,-0.026,-0.964,1.402,0.000,-5.845,0.000,-0.019,0.010,0.039,-0.059,-0.851,1.623
0722_182514_0154.png,0.001,0.154,0.940,-0.067,0.156,0.942,0.112,-0.005,1.154,-0.192,-0.018,1.098,0.200,-0.231,1.030,-0.231,-0.275,1.148,0.111,-0.328,0.796,-0.206,-0.300,0.885,961.024,695.693,0.940,892.052,697.790,0.942,1052.187,535.941,1.154,793.957,524.609,1.098,1144.176,326.796,1.030,768.584,311.932,1.148,1092.039,148.689,0.796,738.226,217.498,0.885,-0.024,-0.963,1.401,0.000,-348.131,0.000,-0.040,0.023,-0.013,0.152,-1.085,1.199
0722_182514_0155.png,0.045,0.161,0.933,-0.023,0.159,0.930,0.164,-0.008,1.106,-0.144,-0.002,1.131,0.169,-0.266,1.040,-0.323,-0.201,1.082,-0.018,-0.310,0.857,-0.397,-0.306,0.857,1005.626,704.160,0.933,936.077,702.671,0.930,1100.746,532.939,1.106,839.261,538.030,1.131,1114.348,296.469,1.040,676.163,363.647,1.082,940.537,196.037,0.857,519.696,199.836,0.857,-0.036,-0.970,1.403,0.000,-3.700,0.000,-0.039,0.012,0.018,0.102,-1.102,1.409
0722_182514_0156.png,0.003,0.157,0.924,-0.061,0.160,0.929,0.114,-0.009,1.136,-0.176,-0.019,1.093,0.173,-0.230,1.006,-0.327,-0.240,1.141,0.173,-0.341,0.778,-0.397,-0.312,0.906,963.524,701.248,0.924,897.249,703.367,0.929,1055.059,532.554,1.136,806.688,523.829,1.093,1123.352,322.719,1.006,687.561,340.211,1.141,1171.352,123.593,0.778,543.274,212.616,0.906,-0.025,-0.960,1.401,0.000,-350.328,0.000,0.013,-0.014,0.039,0.010,-1.010,1.645
0722_182514_0157.png,0.011,0.153,0.948,-0.055,0.156,0.952,0.122,-0.008,1.152,-0.171,-0.019,1.108,0.269,-0.230,1.158,-0.226,-0.231,0.944,0.137,-0.300,0.936,-0.229,-0.360,0.706,970.989,693.496,0.948,905.510,695.425,0.952,1060.364,533.028,1.152,813.249,524.025,1.108,1180.605,350.747,1.158,731.903,307.068,0.944,1099.234,235.430,0.936,652.221,55.127,0.706,-0.035,-0.962,1.401,0.000,-350.012,0.000,0.003,0.040,-0.025,0.045,-0.858,1.489
0722_182514_0158.png,0.051,0.188,0.930,-0.015,0.185,0.924,0.168,-0.011,1.078,-0.124,0.005,1.145,0.157,-0.270,0.996,-0.217,-0.237,1.064,-0.017,-0.336,0.812,-0.221,-0.332,0.823,1011.830,732.453,0.930,944.058,730.947,0.924,1108.501,530.567,1.078,856.751,543.972,1.145,1109.772,282.105,0.996,766.494,328.058,1.064,940.553,146.464,0.812,704.954,156.090,0.823,-0.030,-0.965,1.402,0.000,-12.113,0.000,-0.013,-0.040,0.017,0.031,-0.709,1.591
0722_182514_0159.png,0.057,0.169,0.937,-0.010,0.164,0.929,0.172,-0.014,1.082,-0.127,0.001,1.149,0.218,-0.246,0.958,-0.252,-0.212,1.258,0.211,-0.344,0.718,-0.247,-0.269,1.004,1018.104,710.985,0.937,950.239,707.842,0.929,1111.012,527.715,1.082,854.692,541.122,1.149,1176.940,295.928,0.958,769.704,379.456,1.258,1239.653,84.668,0.718,726.567,285.643,1.004,-0.030,-0.970,1.403,0.000,-11.725,0.000,-0.033,0.011,0.019,0.184,-0.985,1.277
0722_182514_0160.png,0.023,0.186,0.940,-0.042,0.187,0.942,0.145,0.002,1.116,-0.151,0.007,1.137,0.283,-0.230,1.066,-0.215,-0.245,1.040,0.354,-0.335,0.825,-0.062,-0.338,0.839,983.541,728.660,0.940,917.238,728.503,0.942,1083.310,541.987,1.116,833.934,545.919,1.137,1212.173,335.048,1.066,763.097,315.957,1.040,1368.291,153.581,0.825,889.798,157.329,0.839,-0.025,-0.971,1.403,0.000,-2.927,0.000,0.003,-0.011,-0.038,-0.122,-0.749,1.447
0722_182514_0161.png,0.033,0.172,0.927,-0.031,0.172,0.925,0.145,-0.006,1.110,-0.143,-0.004,1.120,0.136,-0.248,0.997,-0.301,-0.217,1.178,-0.016,-0.344,0.815,-0.384,-0.306,0.952,993.614,716.859,0.927,928.065,716.293,0.925,1083.932,534.437,1.110,838.255,536.584,1.120,1089.255,303.180,0.997,717.091,364.888,1.178,940.817,138.218,0.815,576.829,234.625,0.952,-0.034,-0.966,1.402,0.000,-1.017,0.000,0.029,-0.023,0.029,0.080,-1.049,1.241
0722_182514_0162.png,0.003,0.180,0.926,-0.062,0.183,0.932,0.118,0.010,1.136,-0.174,0.004,1.106,0.192,-0.201,1.298,-0.288,-0.237,1.039,0.308,-0.277,1.069,-0.224,-0.346,0.803,962.817,724.773,0.926,896.846,726.821,0.932,1058.737,548.776,1.136,810.766,543.070,1.106,1100.867,393.053,1.298,696.653,323.502,1.039,1233.672,293.926,1.069,694.412,129.925,0.803,-0.025,-0.973,1.404,0.000,-352.782,0.000,0.013,-0.025,-0.017,-0.119,-1.121,1.125
0722_182514_0163.png,0.035,0.181,0.928,-0.032,0.179,0.925,0.154,-0.008,1.091,-0.145,0.002,1.134,0.161,-0.260,1.000,-0.237,-0.239,1.061,-0.002,-0.329,0.811,-0.074,-0.318,0.871,995.976,725.442,0.928,927.460,724.197,0.925,1094.571,533.330,1.091,838.668,541.980,1.134,1113.405,292.973,1.000,748.023,325.625,1.061,957.757,153.770,0.811,878.928,193.244,0.871,-0.024,-0.969,1.403,0.000,-7.329,0.000,-0.018,-0.024,0.031,0.013,-0.919,1.226
0722_182514_0164.png,0.010,0.161,0.935,-0.056,0.164,0.938,0.124,-0.007,1.137,-0.172,-0.015,1.101,0.283,-0.221,1.159,-0.294,-0.236,1.192,0.385,-0.295,0.934,-0.311,-0.293,0.941,970.281,704.230,0.935,903.389,705.725,0.938,1063.480,534.530,1.137,811.098,527.071,1.101,1192.189,358.430,1.159,725.364,351.840,1.192,1352.390,239.919,0.934,645.434,243.817,0.941,-0.030,-0.965,1.402,0.000,-351.591,0.000,-0.005,0.011,0.023,0.017,-0.867,1.586
0722_182514_0165.png,0.021,0.157,0.938,-0.045,0.158,0.939,0.133,0.001,1.135,-0.162,-0.001,1.123,0.127,-0.244,1.013,-0.293,-0.230,1.063,-0.014,-0.340,0.806,-0.321,-0.334,0.814,980.801,699.326,0.938,914.574,699.868,0.939,1071.223,541.171,1.135,822.880,538.842,1.123,1079.422,310.853,1.013,697.929,334.282,1.063,943.306,138.832,0.806,584.737,150.095,0.814,-0.029,-0.973,1.404,0.000,-356.428,0.000,0.007,0.025,-0.031,0.080,-1.247,1.254
0722_182514_0166.png,0.035,0.165,0.923,-0.031,0.164,0.923,0.154,-0.007,1.105,-0.141,-0.002,1.130,0.272,-0.249,1.169,-0.279,-0.237,1.120,0.339,-0.309,0.924,-0.157,-0.315,0.902,995.819,709.729,0.923,928.150,708.743,0.923,1092.739,533.665,1.105,841.240,538.621,1.130,1181.515,337.792,1.169,723.313,338.336,1.120,1308.827,221.464,0.924,794.814,208.062,0.902,-0.033,-0.964,1.402,0.000,-3.771,0.000,0.002,-0.028,0.012,-0.035,-1.247,1.308
0722_182514_0167.png,0.006,0.149,0.934,-0.062,0.151,0.934,0.115,-0.007,1.149,-0.188,-0.020,1.093,0.125,-0.251,1.041,-0.317,-0.255,1.120,0.079,-0.325,0.794,-0.148,-0.294,0.922,966.495,691.665,0.934,897.150,693.683,0.934,1055.241,534.111,1.149,796.810,522.803,1.093,1074.356,310.219,1.041,690.982,323.391,1.120,1054.602,150.171,0.794,807.158,236.505,0.922,-0.026,-0.962,1.401,0.000,-348.250,0.000,-0.037,0.014,0.011,0.188,-1.082,1.585
0722_182514_0168.png,0.045,0.175,0.940,-0.022,0.173,0.936,0.163,-0.012,1.102,-0.138,-0.003,1.142,0.229,-0.259,1.006,-0.237,-0.253,1.091,0.159,-0.343,0.764,-0.235,-0.325,0.836,1005.341,717.007,0.940,937.395,715.699,0.936,1100.331,529.377,1.102,844.826,537.351,1.142,1176.694,295.033,1.006,753.164,319.762,1.091,1157.249,113.209,0.764,692.564,170.252,0.836,-0.032,-0.962,1.401,0.000,-6.543,0.000,-0.023,-0.010,-0.007,0.079,-0.751,1.569
0722_182514_0169.png,0.042,0.155,0.936,-0.022,0.153,0.933,0.157,-0.010,1.107,-0.126,-0.001,1.145,0.184,-0.186,1.309,-0.098,-0.180,0.927,0.234,-0.278,1.062,-0.076,-0.356,0.714,1002.490,697.929,0.936,938.052,695.752,0.933,1095.198,531.404,1.107,855.742,538.964,1.145,1093.970,405.260,1.309,859.104,355.187,0.927,1169.871,291.174,1.062,858.963,65.771,0.714,-0.034,-0.965,1.402,0.000,-6.698,0.000,0.038,0.010,-0.027,-0.010,-1.234,1.368
0722_182514_0170.png,0.038,0.154,0.945,-0.028,0.152,0.941,0.151,-0.019,1.110,-0.146,-0.014,1.131,0.127,-0.252,0.993,-0.314,-0.217,1.114,0.014,-0.335,0.778,-0.384,-0.305,0.884,997.895,694.920,0.945,931.547,693.720,0.941,1089.449,523.717,1.110,837.375,528.187,1.131,1081.148,298.784,0.993,691.485,354.406,1.114,977.395,130.670,0.778,546.355,212.160,0.884,-0.031,-0.965,1.402,0.000,-3.086,0.000,-0.003,0.039,0.030,0.143,-0.965,1.174
0722_182514_0171.png,0.016,0.174,0.931,-0.052,0.174,0.930,0.129,0.005,1.134,-0.176,0.000,1.110,0.200,-0.235,1.022,-0.265,-0.254,1.170,0.112,-0.337,0.790,-0.268,-0.305,0.907,975.944,717.705,0.931,906.753,718.349,0.930,1067.745,544.359,1.134,809.296,539.770,1.110,1146.529,321.308,1.022,744.837,333.535,1.170,1094.511,134.142,0.790,679.168,220.462,0.907,-0.025,-0.970,1.403,0.000,-354.242,0.000,-0.029,-0.016,-0.015,0.150,-1.105,1.254
0722_182514_0172.png,0.011,0.176,0.940,-0.053,0.178,0.943,0.114,-0.002,1.147,-0.169,-0.014,1.094,0.218,-0.245,1.196,-0.209,-0.280,1.071,0.259,-0.309,0.944,-0.178,-0.343,0.817,970.993,718.530,0.940,906.645,719.608,0.943,1054.228,538.517,1.147,813.147,527.832,1.094,1133.292,345.028,1.196,774.563,290.977,1.071,1221.001,229.269,0.944,752.764,140.514,0.817,-0.036,-0.964,1.402,0.000,-347.911,0.000,0.031,-0.002,0.002,0.138,-0.727,1.235
0722_182514_0173.png,0.014,0.176,0.949,-0.052,0.177,0.951,0.126,0.002,1.140,-0.170,-0.003,1.116,0.178,-0.183,0.937,-0.247,-0.207,1.265,0.206,-0.356,0.727,-0.258,-0.278,1.005,973.740,716.388,0.949,907.840,717.027,0.951,1065.296,542.024,1.140,815.290,537.397,1.116,1140.734,354.280,0.937,774.590,384.660,1.265,1229.440,75.041,0.727,715.680,277.155,1.005,-0.028,-0.973,1.404,0.000,-354.102,0.000,-0.001,0.027,-0.028,0.076,-0.788,1.122
0722_182514_0174.png,0.015,0.157,0.937,-0.049,0.160,0.945,0.143,-0.008,1.118,-0.151,-0.007,1.123,0.287,-0.223,1.164,-0.186,-0.180,0.920,0.387,-0.293,0.936,-0.219,-0.348,0.722,975.684,699.319,0.937,910.552,700.775,0.945,1081.532,533.038,1.118,831.877,534.155,1.123,1194.716,357.796,1.164,767.982,353.832,0.920,1353.348,242.274,0.936,671.895,80.982,0.722,-0.031,-0.973,1.404,0.000,0.059,0.000,0.009,0.039,0.021,-0.348,-0.999,1.330
0722_182514_0175.png,0.027,0.163,0.950,-0.039,0.164,0.952,0.146,-0.011,1.130,-0.152,-0.010,1.133,0.290,-0.206,1.239,-0.275,-0.231,1.028,0.231,-0.286,0.987,-0.315,-0.341,0.782,987.021,703.701,0.950,920.929,703.918,0.952,1082.976,530.967,1.130,832.386,531.737,1.133,1182.641,381.954,1.239,705.984,326.212,1.028,1182.784,263.978,0.987,576.836,125.480,0.782,-0.033,-0.962,1.401,0.000,0.415,0.000,-0.004,0.025,-0.034,-0.041,-0.735,1.612
0722_182514_0176.png,0.046,0.173,0.940,-0.020,0.170,0.934,0.162,-0.007,1.104,-0.137,0.002,1.142,0.189,-0.189,1.303,-0.189,-0.237,1.019,0.299,-0.261,1.070,-0.077,-0.338,0.798,1006.761,715.022,0.940,939.233,713.139,0.934,1099.557,534.372,1.104,845.674,541.808,1.142,1097.797,402.147,1.303,783.533,319.019,1.019,1226.060,307.940,1.070,868.315,137.259,0.798,-0.032,-0.968,1.403,0.000,-6.226,0.000,-0.017,0.000,-0.016,0.125,-0.860,1.613
0722_182514_0177.png,0.035,0.181,0.924,-0.031,0.179,0.923,0.161,-0.005,1.082,-0.131,0.010,1.146,0.110,-0.188,0.887,-0.184,-0.213,1.001,0.060,-0.367,0.697,-0.093,-0.342,0.791,996.522,726.583,0.924,928.223,724.753,0.923,1101.558,535.818,1.082,851.250,548.403,1.146,1078.281,338.211,0.887,784.828,338.117,1.001,1041.747,39.418,0.697,848.185,128.441,0.791,-0.023,-0.971,1.403,0.000,-11.647,0.000,-0.009,-0.031,0.004,-0.210,-1.051,1.266
0722_182514_0178.png,0.006,0.192,0.927,-0.060,0.194,0.934,0.130,0.002,1.121,-0.170,-0.002,1.105,0.057,-0.172,0.927,-0.251,-0.178,0.919,-0.017,-0.341,0.737,-0.327,-0.349,0.736,966.205,736.932,0.927,898.744,737.574,0.934,1070.669,541.331,1.121,813.336,538.156,1.105,1018.909,363.082,0.927,699.790,356.158,0.919,938.219,100.284,0.737,537.447,89.498,0.736,-0.025,-0.969,1.403,0.000,-355.675,0.000,-0.015,-0.036,0.031,-0.219,-0.685,1.327
0722_182514_0179.png,0.039,0.173,0.950,-0.026,0.172,0.948,0.155,-0.005,1.119,-0.138,0.000,1.141,0.091,-0.187,0.908,-0.267,-0.178,0.967,0.033,-0.365,0.701,-0.357,-0.347,0.770,999.236,712.824,0.950,933.944,712.052,0.948,1091.575,536.009,1.119,844.685,540.277,1.141,1055.872,344.354,0.908,697.933,364.553,0.967,1004.926,44.782,0.701,519.000,111.393,0.770,-0.035,-0.969,1.403,0.000,-3.207,0.000,0.009,0.024,-0.041,0.039,-0.794,1.356
0722_182514_0180.png,0.018,0.156,0.941,-0.047,0.156,0.938,0.127,-0.011,1.126,-0.167,-0.014,1.112,0.278,-0.220,1.181,-0.163,-0.225,0.958,0.388,-0.286,0.960,-0.084,-0.345,0.747,978.037,698.245,0.941,911.939,698.241,0.938,1067.215,531.024,1.126,816.909,528.137,1.112,1183.831,363.164,1.181,798.398,316.559,0.958,1344.191,256.440,0.960,853.168,101.279,0.747,-0.024,-0.969,1.403,0.000,-356.012,0.000,0.008,0.034,0.036,0.171,-0.925,1.451
0722_182514_0181.png,-0.002,0.182,0.934,-0.068,0.186,0.945,0.116,0.005,1.147,-0.179,-0.006,1.099,0.080,-0.173,0.930,-0.235,-0.270,1.043,0.045,-0.347,0.718,-0.055,-0.330,0.854,957.497,725.283,0.934,891.666,727.237,0.945,1056.174,544.030,1.147,805.167,534.568,1.099,1041.305,362.980,0.930,745.463,294.028,1.043,1019.283,80.784,0.718,899.141,172.743,0.854,-0.030,-0.967,1.402,0.000,-349.257,0.000,-0.007,-0.016,-0.021,-0.173,-0.724,1.468
0722_182514_0182.png,0.034,0.169,0.927,-0.033,0.169,0.930,0.161,0.000,1.107,-0.143,0.006,1.133,0.130,-0.253,1.012,-0.300,-0.211,1.189,-0.017,-0.331,0.805,-0.198,-0.289,0.956,995.030,712.885,0.927,925.847,712.595,0.930,1098.422,539.870,1.107,840.121,544.831,1.133,1081.729,302.616,1.012,719.932,371.197,1.189,939.628,149.309,0.805,762.741,252.545,0.956,-0.035,-0.974,1.404,0.000,-3.785,0.000,-0.028,-0.005,-0.004,-0.145,-1.031,1.701
0722_182514_0183.png,0.022,0.156,0.935,-0.043,0.159,0.940,0.139,0.002,1.133,-0.151,0.000,1.125,0.165,-0.181,0.914,-0.277,-0.195,1.251,0.194,-0.359,0.701,-0.348,-0.285,1.007,981.943,698.898,0.935,916.967,700.404,0.940,1076.679,541.650,1.133,832.360,540.150,1.125,1131.537,351.872,0.914,749.799,392.106,1.251,1222.872,52.705,0.701,631.213,270.727,1.007,-0.036,-0.973,1.404,0.000,-357.250,0.000,0.023,0.024,-0.033,-0.124,-1.273,1.277
0722_182514_0184.png,0.014,0.170,0.927,-0.053,0.172,0.929,0.126,0.002,1.138,-0.175,-0.009,1.091,0.196,-0.169,0.942,-0.233,-0.266,1.040,0.261,-0.336,0.749,-0.062,-0.318,0.851,974.312,713.971,0.927,905.505,715.602,0.929,1064.921,541.698,1.138,807.769,532.313,1.091,1157.482,368.923,0.942,746.604,296.312,1.040,1290.671,113.490,0.749,890.727,184.447,0.851,-0.034,-0.970,1.403,0.000,-349.662,0.000,-0.024,-0.008,0.028,0.103,-0.921,1.620
0722_182514_0185.png,0.027,0.161,0.928,-0.041,0.163,0.934,0.160,-0.017,1.096,-0.141,-0.007,1.139,0.156,-0.286,1.126,-0.326,-0.201,1.198,0.129,-0.310,0.869,-0.234,-0.288,0.969,987.392,705.472,0.928,918.717,705.493,0.934,1099.217,525.580,1.096,841.927,534.332,1.139,1091.843,298.299,1.126,700.937,380.478,1.198,1100.996,201.372,0.869,730.241,257.855,0.969,-0.028,-0.961,1.401,0.000,-7.103,0.000,-0.027,-0.008,0.020,-0.374,-1.000,1.442
0722_182514_0186.png,0.047,0.172,0.943,-0.021,0.170,0.938,0.164,-0.013,1.101,-0.139,-0.004,1.139,0.274,-0.228,1.219,-0.304,-0.210,1.201,0.391,-0.276,0.988,-0.205,-0.282,0.968,1006.910,713.378,0.943,938.921,712.137,0.938,1101.589,528.827,1.101,844.247,536.662,1.139,1173.644,362.366,1.219,719.302,373.874,1.201,1336.306,274.388,0.988,759.007,263.485,0.968,-0.033,-0.967,1.402,0.000,-6.336,0.000,-0.028,0.012,0.011,0.101,-0.780,1.342
0722_182514_0187.png,0.056,0.171,0.946,-0.008,0.165,0.934,0.166,-0.015,1.085,-0.121,0.001,1.158,0.096,-0.198,0.888,-0.154,-0.178,0.948,0.009,-0.366,0.695,-0.187,-0.353,0.744,1016.728,711.796,0.946,951.687,708.254,0.934,1105.738,526.429,1.085,860.873,541.008,1.158,1062.937,327.978,0.888,805.907,361.327,0.948,972.231,38.928,0.695,720.937,88.800,0.744,-0.025,-0.965,1.402,0.000,-13.404,0.000,0.001,0.010,-0.019,0.216,-0.810,1.584
0722_182514_0188.png,0.042,0.180,0.935,-0.026,0.180,0.936,0.166,-0.010,1.098,-0.139,-0.003,1.131,0.112,-0.218,0.945,-0.281,-0.228,1.086,0.024,-0.340,0.737,-0.151,-0.308,0.875,1002.375,722.906,0.935,933.191,722.625,0.936,1104.019,531.052,1.098,843.016,537.671,1.131,1072.806,320.186,0.945,714.170,340.765,1.086,991.342,101.242,0.737,795.547,205.613,0.875,-0.037,-0.968,1.403,0.000,-5.137,0.000,-0.035,-0.006,0.034,-0.099,-0.706,1.347
0722_182514_0189.png,0.052,0.174,0.926,-0.015,0.171,0.923,0.178,-0.012,1.078,-0.116,0.007,1.157,0.115,-0.219,0.904,-0.293,-0.204,1.197,0.010,-0.364,0.702,-0.379,-0.294,0.960,1013.793,718.772,0.926,944.634,715.747,0.923,1116.748,529.642,1.078,865.063,545.380,1.157,1080.494,309.686,0.904,727.091,378.327,1.197,973.439,47.392,0.702,584.364,248.251,0.960,-0.032,-0.963,1.401,0.000,-14.390,0.000,-0.025,-0.035,-0.019,-0.141,-1.064,1.423
0722_182514_0190.png,0.054,0.162,0.938,-0.010,0.157,0.931,0.167,-0.013,1.099,-0.117,-0.001,1.153,0.206,-0.196,0.890,-0.150,-0.216,0.978,0.248,-0.375,0.688,-0.073,-0.359,0.765,1014.872,703.716,0.938,950.179,700.177,0.931,1104.416,528.432,1.099,863.779,539.193,1.153,1180.069,330.333,0.890,814.631,330.369,0.978,1302.859,21.624,0.688,869.697,92.972,0.765,-0.036,-0.961,1.401,0.000,-9.869,0.000,0.027,-0.003,-0.033,0.119,-1.037,1.623
0722_182514_0191.png,0.040,0.181,0.942,-0.027,0.179,0.938,0.160,-0.007,1.100,-0.143,0.002,1.141,0.198,-0.195,1.291,-0.214,-0.227,1.014,0.336,-0.257,1.071,-0.206,-0.335,0.773,1000.818,722.428,0.942,932.512,721.372,0.938,1098.189,533.986,1.100,840.993,541.933,1.141,1105.777,396.151,1.291,759.461,327.334,1.014,1258.034,311.732,1.071,706.187,128.277,0.773,-0.028,-0.970,1.403,0.000,-6.621,0.000,-0.029,0.001,-0.002,0.036,-0.809,1.132
0722_182514_0192.png,0.006,0.156,0.929,-0.059,0.158,0.931,0.113,-0.007,1.140,-0.177,-0.019,1.087,0.125,-0.236,1.016,-0.288,-0.253,1.032,-0.003,-0.330,0.816,-0.186,-0.328,0.815,966.583,699.742,0.929,899.954,701.672,0.931,1054.547,534.191,1.140,805.021,523.448,1.087,1076.787,319.276,1.016,694.413,306.956,1.032,956.794,155.669,0.816,743.353,157.588,0.815,-0.029,-0.966,1.402,0.000,-348.409,0.000,0.005,0.010,0.048,0.112,-1.012,1.466
0722_182514_0193.png,0.020,0.161,0.938,-0.044,0.161,0.936,0.126,-0.007,1.132,-0.164,-0.012,1.108,0.081,-0.208,0.962,-0.167,-0.232,0.959,-0.017,-0.348,0.766,-0.078,-0.353,0.748,980.499,703.676,0.938,914.933,704.032,0.936,1065.975,534.410,1.132,819.145,529.622,1.108,1039.689,334.854,0.962,794.709,309.770,0.959,938.961,108.336,0.766,861.031,90.999,0.748,-0.030,-0.967,1.402,0.000,-354.045,0.000,0.019,0.014,0.017,0.208,-1.034,1.199
0722_182514_0194.png,0.043,0.165,0.934,-0.022,0.161,0.928,0.158,-0.015,1.089,-0.131,-0.002,1.145,0.247,-0.260,1.164,-0.303,-0.208,1.136,0.099,-0.300,0.954,-0.402,-0.307,0.917,1004.109,707.691,0.934,937.927,704.904,0.928,1098.091,526.728,1.089,851.595,538.159,1.145,1161.795,327.950,1.164,706.015,366.068,1.136,1058.237,241.113,0.954,543.294,221.382,0.917,-0.025,-0.965,1.402,0.000,-10.180,0.000,0.008,-0.002,0.014,0.076,-1.057,1.328
0722_182514_0195.png,-0.008,0.180,0.924,-0.074,0.186,0.935,0.113,0.009,1.146,-0.185,-0.005,1.085,0.076,-0.193,0.968,-0.224,-0.269,1.029,-0.021,-0.341,0.770,-0.071,-0.330,0.823,951.949,725.652,0.924,884.870,728.645,0.935,1053.350,547.846,1.146,797.435,535.990,1.085,1034.362,350.673,0.968,752.602,291.026,1.029,933.496,118.802,0.770,878.205,159.036,0.823,-0.029,-0.972,1.403,0.000,-346.956,0.000,-0.026,-0.022,0.005,-0.226,-0.987,1.116
0722_182514_0196.png,0.015,0.167,0.926,-0.052,0.169,0.929,0.130,-0.005,1.136,-0.170,-0.013,1.103,0.158,-0.259,1.039,-0.343,-0.226,1.081,-0.018,-0.328,0.852,-0.420,-0.324,0.848,975.597,711.282,0.926,907.239,712.907,0.929,1068.682,535.712,1.136,813.495,528.939,1.103,1104.517,303.167,1.039,657.775,340.812,1.081,940.310,174.482,0.852,489.424,177.038,0.848,-0.033,-0.958,1.400,0.000,-352.284,0.000,-0.016,-0.035,0.004,0.019,-1.137,1.150
0722_182514_0197.png,0.032,0.178,0.949,-0.035,0.177,0.949,0.149,-0.002,1.124,-0.153,-0.001,1.128,0.215,-0.238,1.007,-0.243,-0.244,1.188,0.148,-0.340,0.769,-0.229,-0.295,0.927,991.998,717.999,0.949,924.932,717.846,0.949,1086.012,538.028,1.124,830.984,538.861,1.128,1162.750,314.884,1.007,765.373,344.583,1.188,1142.749,119.925,0.769,725.524,237.040,0.927,-0.034,-0.972,1.404,0.000,0.343,0.000,-0.017,0.025,-0.015,0.065,-0.682,1.349
0722_182514_0198.png,0.045,0.152,0.936,-0.020,0.148,0.933,0.163,-0.010,1.101,-0.128,0.001,1.148,0.245,-0.188,1.279,-0.204,-0.173,0.940,0.334,-0.272,1.042,-0.280,-0.343,0.737,1005.522,694.206,0.936,939.259,691.308,0.933,1100.496,531.047,1.101,854.230,540.439,1.148,1142.329,400.098,1.279,753.718,364.478,0.940,1264.364,292.097,1.042,598.899,97.547,0.737,-0.032,-0.970,1.403,0.000,-8.338,0.000,0.008,0.025,-0.017,0.010,-1.167,1.653
0722_182514_0199.png,0.000,0.140,0.933,-0.066,0.146,0.939,0.108,-0.006,1.162,-0.185,-0.022,1.092,0.277,-0.218,1.178,-0.240,-0.271,1.172,0.389,-0.294,0.945,-0.220,-0.304,0.906,959.877,683.029,0.933,892.666,687.572,0.939,1048.179,534.792,1.162,798.784,520.540,1.092,1183.725,364.271,1.178,765.597,320.352,1.172,1351.159,244.082,0.945,729.251,221.156,0.906,-0.033,-0.958,1.400,0.000,-345.134,0.000,-0.015,0.017,-0.025,0.038,-1.214,1.517
0722_182514_0200.png,0.009,0.166,0.940,-0.055,0.168,0.942,0.107,-0.003,1.156,-0.176,-0.016,1.097,0.222,-0.241,1.213,-0.305,-0.247,1.039,0.279,-0.308,0.956,-0.350,-0.350,0.794,969.126,708.281,0.940,904.238,709.979,0.942,1047.820,537.850,1.156,807.524,525.960,1.097,1133.860,350.735,1.213,681.307,313.551,1.039,1237.588,233.478,0.956,541.295,121.196,0.794,-0.033,-0.959,1.401,0.000,-346.721,0.000,0.026,-0.004,-0.032,0.244,-0.908,1.305
0722_182514_0201.png,0.034,0.177,0.931,-0.032,0.177,0.932,0.156,0.000,1.109,-0.139,0.006,1.132,0.241,-0.248,1.038,-0.236,-0.222,1.018,0.157,-0.341,0.804,-0.175,-0.346,0.791,994.620,720.592,0.931,927.812,720.257,0.932,1093.385,540.383,1.109,843.467,544.849,1.132,1181.222,312.356,1.038,740.009,332.317,1.018,1146.101,136.775,0.804,749.341,124.255,0.791,-0.035,-0.972,1.404,0.000,-3.447,0.000,0.006,-0.012,-0.009,-0.126,-1.027,1.293
0722_182514_0202.png,0.011,0.166,0.923,-0.054,0.169,0.931,0.132,-0.003,1.124,-0.162,-0.007,1.106,0.268,-0.210,1.239,-0.298,-0.228,1.038,0.282,-0.288,0.995,-0.357,-0.333,0.812,970.826,710.850,0.923,904.490,712.755,0.931,1071.931,537.318,1.124,820.569,533.749,1.106,1165.675,378.665,1.239,686.754,331.279,1.038,1229.509,264.599,0.995,541.650,150.147,0.812,-0.031,-0.968,1.403,0.000,-355.270,0.000,0.006,-0.013,0.032,-0.208,-1.029,1.492
0722_182514_0203.png,0.054,0.177,0.934,-0.013,0.172,0.923,0.167,-0.004,1.091,-0.134,0.009,1.147,0.216,-0.234,0.948,-0.250,-0.209,1.273,0.218,-0.354,0.710,-0.259,-0.274,1.014,1015.276,720.754,0.934,947.002,717.089,0.923,1105.967,536.268,1.091,848.602,547.161,1.147,1176.847,305.442,0.948,773.483,383.971,1.273,1251.767,65.555,0.710,716.690,282.984,1.014,-0.029,-0.970,1.403,0.000,-9.648,0.000,-0.035,-0.018,-0.012,0.274,-1.066,1.370
0722_182514_0204.png,0.016,0.184,0.923,-0.049,0.187,0.930,0.139,0.005,1.119,-0.156,0.003,1.111,0.254,-0.197,0.983,-0.294,-0.229,1.165,0.322,-0.345,0.780,-0.190,-0.307,0.940,976.852,729.906,0.923,910.294,731.005,0.930,1078.012,544.018,1.119,826.438,542.470,1.111,1206.029,349.715,0.983,720.119,352.815,1.165,1352.768,119.749,0.780,768.318,229.567,0.940,-0.033,-0.972,1.404,0.000,-357.228,0.000,0.007,-0.031,0.018,-0.216,-0.935,1.318
0722_182514_0205.png,0.036,0.156,0.937,-0.029,0.153,0.936,0.155,-0.011,1.100,-0.135,0.000,1.145,0.236,-0.237,0.981,-0.284,-0.185,1.262,0.251,-0.350,0.743,-0.420,-0.268,1.052,996.451,697.950,0.937,930.311,695.953,0.936,1094.132,530.781,1.100,847.636,539.661,1.145,1188.901,310.293,0.981,746.291,400.785,1.262,1281.968,92.371,0.743,580.894,297.746,1.052,-0.026,-0.971,1.403,0.000,-7.788,0.000,0.010,0.030,-0.003,-0.065,-1.186,1.270
0722_182514_0206.png,0.034,0.156,0.944,-0.032,0.158,0.949,0.161,-0.013,1.116,-0.136,-0.007,1.141,0.157,-0.247,0.978,-0.321,-0.199,1.096,0.018,-0.343,0.770,-0.433,-0.310,0.879,994.272,697.619,0.944,928.096,697.893,0.949,1097.232,529.017,1.116,846.751,534.121,1.141,1113.075,299.436,0.978,681.782,367.587,1.096,982.453,116.716,0.770,491.696,204.920,0.879,-0.038,-0.966,1.402,0.000,-3.841,0.000,-0.004,0.035,-0.019,-0.250,-0.910,1.470
0722_182514_0207.png,-0.001,0.168,0.936,-0.069,0.171,0.943,0.125,-0.003,1.135,-0.183,-0.010,1.107,0.055,-0.174,0.932,-0.162,-0.221,0.942,-0.017,-0.338,0.734,-0.120,-0.346,0.716,959.133,710.649,0.936,890.659,712.308,0.943,1064.655,537.217,1.135,802.806,531.533,1.107,1015.747,362.865,0.932,796.529,316.741,0.942,938.124,102.345,0.734,800.022,80.600,0.716,-0.021,-0.968,1.402,0.000,-353.416,0.000,-0.042,0.011,0.009,-0.166,-0.786,1.601
0722_182514_0208.png,-0.010,0.153,0.930,-0.071,0.159,0.943,0.107,-0.006,1.142,-0.172,-0.016,1.100,0.047,-0.182,0.941,-0.294,-0.244,1.041,-0.009,-0.356,0.746,-0.321,-0.346,0.803,949.953,696.568,0.930,888.330,700.700,0.943,1049.451,534.826,1.142,811.272,526.291,1.100,1007.896,355.812,0.941,691.773,317.453,1.041,948.711,86.848,0.746,580.145,130.384,0.803,-0.026,-0.964,1.402,0.000,-350.069,0.000,0.047,0.012,0.009,-0.348,-1.050,1.469
0722_182514_0209.png,0.054,0.175,0.931,-0.008,0.168,0.919,0.161,-0.012,1.071,-0.115,0.005,1.147,0.215,-0.234,1.221,-0.266,-0.212,1.121,0.241,-0.300,0.976,-0.158,-0.318,0.915,1015.039,718.502,0.931,951.300,714.359,0.919,1102.900,529.273,1.071,864.283,544.551,1.147,1127.092,357.915,1.221,734.590,359.887,1.121,1195.143,247.658,0.976,795.850,209.578,0.915,-0.025,-0.971,1.403,0.000,-14.675,0.000,0.032,-0.011,0.032,0.241,-1.038,1.314
0722_182514_0210.png,0.020,0.162,0.927,-0.047,0.163,0.927,0.132,-0.001,1.135,-0.169,-0.008,1.106,0.190,-0.176,0.927,-0.138,-0.212,0.929,0.244,-0.347,0.725,-0.059,-0.354,0.720,980.851,706.595,0.927,912.079,707.697,0.927,1070.622,539.036,1.135,814.555,533.348,1.106,1154.429,359.217,0.927,818.624,323.020,0.929,1280.543,85.051,0.725,881.866,72.948,0.720,-0.032,-0.965,1.402,0.000,-353.251,0.000,-0.019,-0.018,0.002,0.134,-1.191,1.391
0722_182514_0211.png,0.049,0.162,0.949,-0.014,0.158,0.938,0.155,-0.023,1.092,-0.126,-0.010,1.147,0.130,-0.270,1.004,-0.291,-0.207,1.201,-0.017,-0.341,0.804,-0.218,-0.294,0.970,1008.991,702.433,0.949,945.970,699.955,0.938,1095.425,520.327,1.092,855.457,531.769,1.147,1083.239,283.774,1.004,729.679,375.888,1.201,940.077,136.816,0.804,745.872,251.450,0.970,-0.026,-0.963,1.401,0.000,-10.181,0.000,0.033,0.027,0.020,0.241,-0.785,1.410
0722_182514_0212.png,0.004,0.176,0.927,-0.060,0.180,0.936,0.125,0.002,1.131,-0.169,-0.007,1.092,0.218,-0.245,1.104,-0.323,-0.217,1.162,0.075,-0.306,0.898,-0.208,-0.296,0.951,964.369,720.516,0.927,898.565,722.463,0.936,1065.352,541.941,1.131,812.930,534.052,1.092,1147.432,328.571,1.104,695.216,362.167,1.162,1039.916,215.841,0.898,752.271,243.854,0.951,-0.034,-0.974,1.404,0.000,-350.932,0.000,0.000,0.000,0.046,-0.243,-0.906,1.153
0722_182514_0213.png,0.024,0.185,0.922,-0.041,0.185,0.926,0.151,0.004,1.100,-0.142,0.012,1.136,0.181,-0.232,0.961,-0.225,-0.254,1.134,0.117,-0.362,0.738,-0.209,-0.326,0.878,984.882,730.453,0.922,917.442,730.015,0.926,1090.930,543.187,1.100,840.685,550.071,1.136,1139.235,310.294,0.961,771.535,327.157,1.134,1110.795,73.206,0.738,733.130,186.248,0.878,-0.025,-0.972,1.404,0.000,-6.051,0.000,0.002,-0.040,-0.011,-0.272,-1.069,1.316
0722_182514_0214.png,0.054,0.162,0.951,-0.012,0.158,0.945,0.173,-0.023,1.087,-0.117,-0.005,1.165,0.255,-0.181,1.282,-0.155,-0.240,1.030,0.316,-0.266,1.033,-0.106,-0.336,0.782,1014.485,701.750,0.951,947.852,699.304,0.945,1111.740,520.014,1.087,864.434,536.070,1.165,1149.208,405.717,1.282,816.828,318.226,1.030,1250.765,295.053,1.033,830.778,130.975,0.782,-0.028,-0.962,1.401,0.000,-14.316,0.000,-0.015,0.033,-0.029,-0.056,-0.802,1.321
0722_182514_0215.png,0.037,0.170,0.925,-0.030,0.166,0.920,0.156,-0.006,1.093,-0.142,0.005,1.143,0.236,-0.219,1.255,-0.285,-0.205,1.041,0.181,-0.286,1.004,-0.364,-0.330,0.822,997.614,714.666,0.925,929.038,711.801,0.920,1095.348,534.488,1.093,842.236,544.269,1.143,1138.542,374.029,1.255,699.507,353.151,1.041,1131.701,269.356,1.004,538.826,157.517,0.822,-0.022,-0.966,1.402,0.000,-8.604,0.000,-0.015,-0.032,-0.005,0.044,-1.146,1.565
0722_182514_0216.png,0.045,0.165,0.931,-0.023,0.162,0.925,0.160,-0.004,1.108,-0.146,0.001,1.132,0.227,-0.232,1.242,-0.280,-0.232,1.082,0.301,-0.278,0.992,-0.144,-0.313,0.868,1005.721,708.927,0.931,936.334,706.928,0.925,1097.680,536.316,1.108,837.406,540.948,1.132,1134.001,362.012,1.242,714.241,336.365,1.082,1248.042,273.848,0.992,802.516,196.979,0.868,-0.034,-0.969,1.403,0.000,-3.345,0.000,-0.035,-0.008,0.002,0.182,-1.094,1.622
0722_182514_0217.png,0.004,0.168,0.926,-0.063,0.172,0.932,0.118,0.005,1.147,-0.181,-0.006,1.098,0.188,-0.249,1.232,-0.281,-0.225,1.236,0.185,-0.294,0.966,-0.355,-0.290,0.985,963.812,712.747,0.926,895.591,715.637,0.932,1057.653,544.170,1.147,803.230,534.580,1.098,1105.426,347.716,1.232,744.148,366.765,1.236,1142.014,250.962,0.966,617.057,260.367,0.985,-0.029,-0.965,1.402,0.000,-349.255,0.000,-0.021,-0.025,-0.023,-0.022,-1.096,1.452
0722_182514_0218.png,0.033,0.157,0.931,-0.031,0.155,0.930,0.151,-0.012,1.098,-0.134,-0.003,1.141,0.205,-0.259,1.008,-0.258,-0.239,1.161,0.105,-0.350,0.784,-0.283,-0.315,0.911,993.941,700.660,0.931,928.614,698.717,0.930,1090.916,529.213,1.098,848.527,537.902,1.141,1153.648,295.337,1.008,748.816,344.137,1.161,1087.664,115.583,0.784,664.952,211.772,0.911,-0.026,-0.966,1.402,0.000,-7.679,0.000,0.029,0.005,0.007,-0.075,-1.229,1.270
0722_182514_0219.png,0.027,0.179,0.940,-0.040,0.179,0.943,0.154,-0.008,1.105,-0.146,0.000,1.141,0.177,-0.272,1.041,-0.241,-0.182,1.320,-0.016,-0.321,0.863,-0.301,-0.260,1.072,987.119,720.771,0.940,919.381,720.551,0.943,1092.626,533.061,1.105,837.926,540.316,1.141,1121.715,291.440,1.041,785.984,409.062,1.320,942.348,186.588,0.863,692.707,309.363,1.072,-0.024,-0.966,1.402,0.000,-5.974,0.000,-0.020,-0.003,-0.013,-0.220,-0.702,1.516
0722_182514_0220.png,0.004,0.173,0.937,-0.060,0.175,0.941,0.104,0.000,1.150,-0.177,-0.016,1.084,0.232,-0.168,0.981,-0.178,-0.273,1.012,0.359,-0.332,0.817,-0.125,-0.351,0.769,964.125,715.561,0.937,899.535,716.992,0.941,1045.724,539.708,1.150,805.078,526.317,1.084,1185.321,376.936,0.981,793.001,282.960,1.012,1377.445,153.441,0.817,805.017,106.395,0.769,-0.033,-0.967,1.402,0.000,-345.181,0.000,0.028,0.006,0.013,0.167,-0.708,1.489
0722_182514_0221.png,0.016,0.160,0.923,-0.051,0.163,0.926,0.129,-0.003,1.141,-0.173,-0.012,1.102,0.060,-0.177,0.931,-0.218,-0.262,0.996,-0.008,-0.346,0.728,-0.061,-0.339,0.794,976.699,704.932,0.923,907.383,706.986,0.926,1067.739,537.615,1.141,810.803,529.810,1.102,1021.460,359.515,0.931,751.740,289.705,0.996,949.121,87.902,0.728,886.430,133.718,0.794,-0.034,-0.958,1.400,0.000,-351.297,0.000,-0.026,-0.036,-0.008,0.072,-1.113,1.691
0722_182514_0222.png,0.027,0.165,0.929,-0.037,0.165,0.930,0.144,-0.005,1.112,-0.141,0.000,1.131,0.227,-0.242,1.011,-0.234,-0.250,1.187,0.257,-0.358,0.775,-0.216,-0.316,0.932,987.311,709.215,0.929,922.588,708.824,0.930,1082.938,535.775,1.112,841.471,539.588,1.131,1173.382,312.107,1.011,772.582,340.076,1.187,1275.552,101.141,0.775,739.382,217.168,0.932,-0.030,-0.967,1.402,0.000,-2.820,0.000,0.039,-0.012,-0.005,-0.098,-1.154,1.365
0722_182514_0223.png,0.022,0.157,0.942,-0.042,0.158,0.942,0.129,-0.003,1.138,-0.159,-0.010,1.110,0.134,-0.236,1.007,-0.179,-0.188,0.905,-0.015,-0.336,0.818,-0.200,-0.361,0.705,982.513,698.846,0.942,917.762,699.751,0.942,1067.691,537.398,1.138,823.727,531.849,1.110,1086.569,316.925,1.007,771.732,342.818,0.905,943.136,149.755,0.818,689.848,53.116,0.705,-0.036,-0.972,1.404,0.000,-353.159,0.000,0.026,0.039,0.002,0.148,-1.033,1.291
0722_182514_0224.png,0.020,0.140,0.936,-0.045,0.142,0.941,0.136,-0.015,1.134,-0.156,-0.020,1.110,0.081,-0.184,0.929,-0.260,-0.224,0.977,0.028,-0.347,0.728,-0.265,-0.345,0.750,980.160,681.947,0.936,914.586,684.017,0.941,1074.008,527.769,1.134,826.118,522.783,1.110,1043.327,352.144,0.929,707.482,322.247,0.977,996.058,86.304,0.728,624.220,102.352,0.750,-0.039,-0.963,1.402,0.000,-354.017,0.000,0.012,0.038,0.023,-0.070,-1.083,1.635
0722_182514_0225.png,0.003,0.172,0.924,-0.062,0.177,0.935,0.129,0.004,1.137,-0.168,-0.003,1.105,0.245,-0.224,1.038,-0.295,-0.238,1.041,0.299,-0.338,0.804,-0.322,-0.341,0.797,963.510,717.173,0.924,897.319,720.266,0.935,1067.523,543.727,1.137,815.070,537.639,1.105,1184.051,335.011,1.038,690.993,322.362,1.041,1314.225,139.488,0.804,576.249,133.374,0.797,-0.033,-0.967,1.402,0.000,-352.650,0.000,-0.006,-0.026,-0.011,-0.308,-1.039,1.461
0722_182514_0226.png,0.046,0.175,0.935,-0.022,0.173,0.934,0.173,-0.011,1.080,-0.127,0.006,1.153,0.251,-0.249,0.976,-0.219,-0.230,1.061,0.255,-0.341,0.729,-0.048,-0.310,0.868,1007.153,717.702,0.935,937.639,716.001,0.934,1112.236,530.537,1.080,855.228,545.057,1.153,1204.197,297.451,0.976,763.865,333.621,1.061,1291.996,95.191,0.729,907.293,200.284,0.868,-0.028,-0.972,1.403,0.000,-12.933,0.000,-0.041,0.007,0.003,-0.181,-0.844,1.451
0722_182514_0227.png,0.005,0.166,0.932,-0.062,0.171,0.943,0.130,-0.001,1.147,-0.173,-0.013,1.095,0.173,-0.268,1.167,-0.256,-0.267,1.145,0.145,-0.298,0.906,-0.239,-0.304,0.884,965.094,709.064,0.932,897.688,712.147,0.943,1068.021,539.005,1.147,809.836,528.629,1.095,1100.843,322.033,1.167,747.690,318.628,1.145,1112.241,227.312,0.906,702.812,213.432,0.884,-0.040,-0.965,1.402,0.000,-348.894,0.000,-0.037,0.001,-0.001,-0.231,-0.870,1.531
0722_182514_0228.png,0.019,0.166,0.928,-0.049,0.168,0.935,0.149,-0.002,1.119,-0.157,0.000,1.126,0.092,-0.179,0.912,-0.245,-0.247,1.052,0.034,-0.352,0.711,-0.079,-0.319,0.853,979.252,710.069,0.928,910.415,711.224,0.935,1087.049,538.719,1.119,827.379,540.246,1.126,1055.589,353.034,0.912,738.279,316.448,1.052,1005.404,69.293,0.711,871.742,184.327,0.853,-0.030,-0.969,1.403,0.000,-0.328,0.000,-0.033,-0.006,-0.009,-0.269,-1.086,1.456
