rolosa10/RGSpipe/dataset/synthetic_dataset/Coods3D_unique0722_162852.csv
filename,left_eye,left_eye,left_eye,right_eye,right_eye,right_eye,left_shoulder,left_shoulder,left_shoulder,right_shoulder,right_shoulder,right_shoulder,left_elbow,left_elbow,left_elbow,right_elbow,right_elbow,right_elbow,left_wrist,left_wrist,left_wrist,right_wrist,right_wrist,right_wrist,left_eye_2D,left_eye_2D,left_eye_2D,right_eye_2D,right_eye_2D,right_eye_2D,left_shoulder_2D,left_shoulder_2D,left_shoulder_2D,right_shoulder_2D,right_shoulder_2D,right_shoulder_2D,left_elbow_2D,left_elbow_2D,left_elbow_2D,right_elbow_2D,right_elbow_2D,right_elbow_2D,left_wrist_2D,left_wrist_2D,left_wrist_2D,right_wrist_2D,right_wrist_2D,right_wrist_2D,root_position,root_position,root_position,root_pitch,root_yaw,root_roll,root_scale,root_scale,root_scale,look_at,look_at,look_at
0722_162852_0001.png,0.046,0.188,0.936,-0.020,0.186,0.934,0.170,-0.004,1.091,-0.125,0.009,1.151,0.266,-0.261,1.055,-0.299,-0.203,1.121,0.183,-0.337,0.809,-0.396,-0.314,0.895,1007.136,730.684,0.936,939.286,729.382,0.934,1108.139,536.130,1.091,856.845,547.786,1.151,1199.831,304.780,1.055,706.743,367.736,1.121,1175.209,144.290,0.809,538.852,206.030,0.895,-0.032,-0.969,1.403,0.000,-10.686,0.000,-0.014,-0.022,-0.025,-0.137,-0.825,1.217
0722_162852_0002.png,-0.004,0.159,0.949,-0.069,0.161,0.956,0.111,-0.010,1.146,-0.182,-0.019,1.106,0.139,-0.227,0.992,-0.183,-0.255,0.983,0.116,-0.342,0.757,-0.094,-0.346,0.754,955.905,699.058,0.949,891.013,700.531,0.956,1051.821,531.749,1.146,803.157,523.562,1.106,1093.157,321.976,0.992,783.112,292.873,0.983,1106.313,110.563,0.757,841.480,103.428,0.754,-0.021,-0.965,1.402,0.000,-350.872,0.000,0.004,0.047,0.003,-0.059,-0.732,1.310
0722_162852_0003.png,-0.003,0.191,0.928,-0.067,0.195,0.939,0.115,0.011,1.142,-0.176,0.000,1.095,0.060,-0.173,0.937,-0.169,-0.228,0.942,0.008,-0.353,0.739,-0.140,-0.370,0.718,956.817,735.742,0.928,891.798,737.557,0.939,1055.476,548.793,1.142,807.332,539.979,1.095,1021.078,364.288,0.937,789.242,309.977,0.942,970.426,85.318,0.739,773.844,50.309,0.718,-0.029,-0.971,1.403,0.000,-349.591,0.000,0.009,-0.031,-0.010,-0.222,-0.761,1.336
0722_162852_0004.png,0.028,0.179,0.940,-0.036,0.179,0.940,0.142,-0.003,1.123,-0.148,-0.003,1.125,0.184,-0.200,1.306,-0.227,-0.252,1.049,0.239,-0.277,1.057,-0.066,-0.335,0.857,988.688,721.226,0.940,923.504,721.261,0.940,1080.547,537.391,1.123,834.561,537.747,1.125,1093.632,394.141,1.306,753.976,311.178,1.049,1175.265,290.640,1.057,886.406,168.328,0.857,-0.034,-0.966,1.402,0.000,-359.193,0.000,0.021,-0.007,-0.013,0.017,-0.822,1.207
0722_162852_0005.png,0.002,0.176,0.932,-0.066,0.178,0.933,0.110,0.005,1.152,-0.193,-0.008,1.092,0.213,-0.170,0.961,-0.237,-0.267,1.180,0.305,-0.340,0.770,-0.222,-0.302,0.913,962.461,719.812,0.932,892.888,721.454,0.933,1050.441,544.524,1.152,792.237,532.885,1.092,1170.287,371.401,0.961,768.826,324.903,1.180,1336.981,120.374,0.770,728.697,225.324,0.913,-0.024,-0.965,1.402,0.000,-347.426,0.000,-0.038,-0.023,-0.021,0.222,-0.979,1.229
0722_162852_0006.png,0.046,0.192,0.943,-0.020,0.189,0.936,0.163,-0.003,1.097,-0.133,0.009,1.148,0.212,-0.270,1.041,-0.147,-0.231,1.007,0.056,-0.335,0.829,-0.102,-0.349,0.767,1006.495,733.208,0.943,939.459,731.893,0.936,1101.125,537.285,1.097,849.993,547.213,1.148,1153.659,293.454,1.041,821.093,322.227,1.007,1024.826,155.844,0.829,833.396,107.816,0.767,-0.028,-0.969,1.403,0.000,-8.967,0.000,-0.011,-0.020,-0.031,0.074,-0.676,1.435
0722_162852_0007.png,0.039,0.161,0.935,-0.028,0.160,0.933,0.157,-0.017,1.102,-0.144,-0.011,1.130,0.120,-0.203,0.921,-0.270,-0.201,1.275,0.030,-0.345,0.727,-0.327,-0.265,1.036,999.244,704.105,0.935,931.166,703.129,0.933,1095.529,524.916,1.102,839.189,530.704,1.130,1083.632,330.056,0.921,758.730,389.906,1.275,998.884,88.530,0.727,660.123,296.583,1.036,-0.032,-0.962,1.401,0.000,-4.287,0.000,-0.017,0.005,0.037,0.035,-1.011,1.157
0722_162852_0008.png,-0.014,0.151,0.924,-0.078,0.159,0.936,0.106,0.002,1.152,-0.186,-0.014,1.083,0.265,-0.188,1.048,-0.286,-0.221,0.942,0.377,-0.315,0.849,-0.328,-0.350,0.719,945.853,695.482,0.924,880.462,701.335,0.936,1047.316,541.575,1.152,796.397,527.701,1.083,1200.111,369.036,1.048,671.261,317.090,0.942,1382.315,187.241,0.849,526.161,76.334,0.719,-0.029,-0.970,1.403,0.000,-345.158,0.000,-0.012,0.012,0.013,-0.275,-1.197,1.484
0722_162852_0009.png,0.059,0.166,0.938,-0.007,0.161,0.927,0.170,-0.018,1.079,-0.127,-0.002,1.149,0.290,-0.255,1.035,-0.218,-0.253,1.143,0.321,-0.325,0.788,-0.166,-0.298,0.893,1019.962,708.520,0.938,953.074,704.969,0.927,1109.934,524.058,1.079,855.178,538.448,1.149,1226.887,305.603,1.035,778.648,329.798,1.143,1347.718,147.630,0.788,783.381,222.826,0.893,-0.029,-0.967,1.402,0.000,-12.535,0.000,-0.028,0.009,0.029,0.261,-0.888,1.572
0722_162852_0010.png,0.037,0.154,0.936,-0.027,0.151,0.932,0.150,-0.011,1.103,-0.138,-0.003,1.135,0.094,-0.193,0.917,-0.228,-0.237,1.052,0.008,-0.353,0.732,-0.079,-0.323,0.861,997.599,696.420,0.936,932.408,694.363,0.932,1089.027,530.775,1.103,844.065,537.153,1.135,1057.894,339.786,0.917,754.105,325.888,1.052,970.818,81.387,0.732,872.341,182.770,0.861,-0.029,-0.973,1.404,0.000,-5.288,0.000,0.024,0.032,0.024,0.092,-1.156,1.413
0722_162852_0011.png,0.042,0.166,0.923,-0.024,0.164,0.922,0.163,-0.012,1.079,-0.125,0.002,1.143,0.129,-0.223,0.924,-0.244,-0.232,1.208,0.066,-0.356,0.715,-0.243,-0.294,0.960,1002.747,711.232,0.923,935.416,708.909,0.922,1104.051,529.144,1.079,856.204,542.040,1.143,1093.102,310.128,0.924,767.634,357.397,1.208,1048.089,66.823,0.715,719.711,248.640,0.960,-0.029,-0.969,1.403,0.000,-11.717,0.000,0.004,-0.011,0.034,-0.125,-1.041,1.614
0722_162852_0012.png,-0.005,0.169,0.928,-0.070,0.175,0.941,0.113,0.009,1.155,-0.180,-0.006,1.091,0.190,-0.169,0.944,-0.140,-0.245,0.957,0.266,-0.341,0.740,-0.056,-0.358,0.725,955.228,713.168,0.928,889.241,717.440,0.941,1052.870,547.094,1.155,802.736,534.802,1.091,1150.909,370.242,0.944,821.317,296.957,0.957,1301.521,101.197,0.740,887.194,70.054,0.725,-0.035,-0.970,1.403,0.000,-346.313,0.000,-0.012,-0.007,-0.030,-0.200,-0.984,1.526
0722_162852_0013.png,0.015,0.164,0.941,-0.050,0.164,0.941,0.121,-0.004,1.145,-0.169,-0.010,1.116,0.080,-0.182,0.922,-0.293,-0.185,1.281,0.044,-0.356,0.705,-0.400,-0.280,1.051,975.232,705.260,0.941,909.964,706.109,0.941,1060.297,536.924,1.145,816.037,531.158,1.116,1042.094,352.725,0.922,742.541,402.483,1.281,1018.706,58.909,0.705,598.153,286.799,1.051,-0.029,-0.960,1.401,0.000,-352.957,0.000,0.019,0.000,-0.044,0.163,-0.951,1.483
0722_162852_0014.png,0.006,0.163,0.926,-0.060,0.168,0.936,0.133,0.004,1.135,-0.169,-0.003,1.104,0.277,-0.193,1.254,-0.211,-0.268,1.084,0.255,-0.276,1.006,-0.178,-0.321,0.830,966.193,706.950,0.926,898.837,710.263,0.936,1071.507,543.323,1.135,814.404,537.343,1.104,1170.263,393.467,1.254,774.930,304.608,1.084,1201.573,278.665,1.006,756.294,172.045,0.830,-0.034,-0.974,1.404,0.000,-352.878,0.000,-0.023,0.005,0.005,-0.290,-1.162,1.372
0722_162852_0015.png,0.059,0.162,0.948,-0.009,0.160,0.943,0.177,-0.022,1.091,-0.121,-0.007,1.152,0.086,-0.237,0.961,-0.313,-0.192,1.101,-0.015,-0.338,0.742,-0.427,-0.299,0.891,1018.756,703.036,0.948,951.276,701.333,0.943,1114.660,521.202,1.091,860.003,533.826,1.152,1044.843,305.441,0.961,689.981,374.380,1.101,940.349,106.178,0.742,504.220,220.831,0.891,-0.038,-0.964,1.402,0.000,-10.723,0.000,-0.027,0.032,0.008,0.021,-0.759,1.395
0722_162852_0016.png,0.029,0.176,0.937,-0.039,0.175,0.934,0.143,-0.002,1.128,-0.164,-0.004,1.118,0.104,-0.180,0.920,-0.214,-0.243,0.994,0.064,-0.353,0.716,-0.075,-0.336,0.785,989.364,718.455,0.937,920.166,718.338,0.934,1080.885,538.686,1.128,820.752,536.771,1.118,1067.284,353.753,0.920,755.611,307.675,0.994,1044.501,70.810,0.716,869.115,132.594,0.785,-0.032,-0.966,1.402,0.000,-356.963,0.000,-0.035,-0.013,-0.011,0.181,-0.960,1.186
0722_162852_0017.png,0.033,0.162,0.937,-0.034,0.162,0.938,0.156,-0.008,1.114,-0.147,-0.005,1.130,0.193,-0.201,1.294,-0.225,-0.247,1.047,0.251,-0.260,1.045,-0.058,-0.317,0.853,993.468,704.136,0.937,925.277,703.996,0.938,1093.200,532.860,1.114,836.431,536.173,1.130,1102.014,392.597,1.294,755.725,315.390,1.047,1188.200,303.248,1.045,895.210,186.198,0.853,-0.035,-0.969,1.403,0.000,-2.046,0.000,-0.022,0.018,0.005,-0.095,-1.103,1.102
0722_162852_0018.png,0.054,0.159,0.937,-0.011,0.155,0.930,0.167,-0.014,1.096,-0.125,-0.003,1.144,0.149,-0.271,1.022,-0.090,-0.180,0.940,0.114,-0.345,0.773,-0.056,-0.351,0.742,1014.990,701.733,0.937,949.068,698.662,0.930,1104.458,527.530,1.096,856.356,537.110,1.144,1098.408,287.544,1.022,869.156,358.341,0.940,1100.397,116.048,0.773,888.430,90.008,0.742,-0.037,-0.966,1.402,0.000,-8.318,0.000,0.006,0.011,0.007,0.174,-1.056,1.500
0722_162852_0019.png,0.021,0.167,0.934,-0.042,0.167,0.934,0.132,-0.007,1.122,-0.153,-0.007,1.122,0.241,-0.235,1.217,-0.167,-0.246,0.997,0.298,-0.303,0.970,-0.058,-0.354,0.787,981.798,709.606,0.934,917.386,709.598,0.934,1072.251,533.992,1.122,830.275,534.056,1.122,1148.359,356.418,1.217,800.392,305.062,0.997,1252.133,242.953,0.970,890.303,111.495,0.787,-0.027,-0.964,1.402,0.000,-358.893,0.000,0.039,-0.006,0.004,0.039,-1.042,1.223
0722_162852_0020.png,0.045,0.183,0.930,-0.020,0.179,0.922,0.158,-0.012,1.091,-0.135,-0.001,1.136,0.125,-0.245,0.963,-0.095,-0.179,0.938,-0.006,-0.351,0.767,-0.055,-0.353,0.746,1006.300,726.734,0.930,939.521,725.060,0.922,1097.659,529.943,1.091,847.065,539.074,1.136,1083.146,297.748,0.963,863.569,358.419,0.938,952.442,105.129,0.767,890.231,90.413,0.746,-0.029,-0.961,1.401,0.000,-7.864,0.000,0.002,-0.043,0.023,0.173,-0.825,1.469
0722_162852_0021.png,0.040,0.173,0.927,-0.027,0.172,0.929,0.165,-0.008,1.094,-0.132,0.002,1.136,0.272,-0.257,1.076,-0.200,-0.184,0.956,0.299,-0.325,0.827,-0.217,-0.346,0.753,1001.017,717.377,0.927,932.856,716.574,0.929,1103.661,533.439,1.094,849.560,541.716,1.136,1200.804,313.167,1.076,761.539,356.663,0.956,1303.377,165.955,0.827,686.645,103.104,0.753,-0.036,-0.969,1.403,0.000,-7.033,0.000,-0.011,-0.012,0.021,-0.180,-1.014,1.301
0722_162852_0022.png,0.001,0.153,0.932,-0.064,0.158,0.944,0.128,-0.007,1.138,-0.171,-0.016,1.098,0.253,-0.226,1.060,-0.280,-0.201,1.250,0.289,-0.316,0.825,-0.343,-0.267,1.011,961.497,695.569,0.932,895.651,698.865,0.944,1066.787,534.020,1.138,811.925,525.767,1.098,1186.940,337.723,1.060,746.981,387.088,1.250,1292.953,175.641,0.825,637.056,289.274,1.011,-0.034,-0.969,1.403,0.000,-350.938,0.000,-0.016,0.032,0.035,-0.300,-0.974,1.489
0722_162852_0023.png,0.041,0.162,0.927,-0.023,0.162,0.931,0.168,-0.015,1.092,-0.118,-0.003,1.140,0.140,-0.264,1.000,-0.266,-0.213,1.069,0.004,-0.346,0.796,-0.319,-0.329,0.844,1002.034,706.570,0.927,936.276,705.965,0.931,1106.161,527.282,1.092,861.425,537.117,1.140,1092.950,288.750,1.000,722.884,350.481,1.069,965.110,127.091,0.796,600.766,170.012,0.844,-0.040,-0.965,1.402,0.000,-8.698,0.000,0.022,-0.006,0.022,-0.306,-1.001,1.556
0722_162852_0024.png,0.043,0.161,0.932,-0.025,0.158,0.926,0.158,-0.012,1.105,-0.150,-0.006,1.131,0.270,-0.255,1.059,-0.255,-0.232,1.243,0.287,-0.321,0.809,-0.253,-0.275,0.987,1003.408,704.034,0.932,933.982,701.904,0.926,1095.558,529.667,1.105,834.100,534.987,1.131,1202.569,311.305,1.059,765.268,362.498,1.243,1297.695,162.122,0.809,716.162,274.998,0.987,-0.030,-0.964,1.402,0.000,-3.846,0.000,-0.039,-0.005,0.018,0.218,-1.119,1.412
0722_162852_0025.png,0.017,0.168,0.939,-0.046,0.168,0.941,0.130,-0.011,1.122,-0.152,-0.010,1.127,0.262,-0.212,1.001,-0.283,-0.225,1.220,0.354,-0.351,0.796,-0.386,-0.304,0.991,977.169,709.756,0.939,913.853,709.926,0.941,1070.440,530.567,1.122,831.593,531.619,1.127,1208.953,338.863,1.001,739.473,364.785,1.220,1382.378,120.584,0.796,589.565,248.580,0.991,-0.024,-0.960,1.401,0.000,0.090,0.000,0.048,-0.004,-0.007,-0.057,-0.789,1.597
0722_162852_0026.png,0.035,0.180,0.942,-0.030,0.178,0.937,0.148,-0.002,1.110,-0.144,0.005,1.140,0.243,-0.256,1.084,-0.270,-0.227,1.200,0.248,-0.336,0.826,-0.322,-0.305,0.947,995.416,722.166,0.942,929.633,720.750,0.937,1087.153,538.705,1.110,839.872,544.489,1.140,1172.854,315.590,1.084,746.164,360.267,1.200,1245.729,153.405,0.826,636.950,233.770,0.947,-0.025,-0.971,1.403,0.000,-4.834,0.000,0.010,-0.003,-0.027,0.121,-0.903,1.218
0722_162852_0027.png,0.017,0.171,0.948,-0.051,0.172,0.951,0.134,-0.005,1.142,-0.170,-0.011,1.117,0.207,-0.244,1.025,-0.268,-0.256,1.043,0.085,-0.332,0.799,-0.125,-0.327,0.824,976.862,711.316,0.948,909.180,712.084,0.951,1071.643,535.514,1.142,815.149,530.510,1.117,1151.820,313.774,1.025,715.274,306.921,1.043,1061.159,144.697,0.799,815.978,162.687,0.824,-0.032,-0.962,1.401,0.000,-353.998,0.000,-0.028,0.013,-0.031,0.033,-0.727,1.364
0722_162852_0028.png,0.030,0.190,0.936,-0.036,0.191,0.939,0.156,0.003,1.108,-0.140,0.011,1.143,0.221,-0.187,0.909,-0.275,-0.199,1.256,0.264,-0.367,0.704,-0.439,-0.278,1.054,990.446,733.206,0.936,923.516,732.887,0.939,1094.137,542.932,1.108,843.774,549.554,1.143,1191.532,344.228,0.909,751.900,389.042,1.256,1316.371,43.605,0.704,564.247,289.127,1.054,-0.029,-0.972,1.403,0.000,-5.765,0.000,-0.004,-0.021,-0.042,-0.241,-0.829,1.254
0722_162852_0029.png,0.033,0.168,0.931,-0.034,0.169,0.936,0.162,-0.011,1.106,-0.140,-0.006,1.129,0.094,-0.183,0.912,-0.288,-0.186,1.272,0.026,-0.349,0.722,-0.393,-0.267,1.050,993.520,711.632,0.931,925.435,711.974,0.936,1099.106,530.453,1.106,842.223,535.125,1.129,1058.218,349.170,0.912,744.803,401.312,1.272,993.842,80.062,0.722,603.500,297.940,1.050,-0.038,-0.965,1.402,0.000,-3.327,0.000,-0.019,-0.005,0.021,-0.263,-0.907,1.409
0722_162852_0030.png,0.036,0.172,0.932,-0.029,0.171,0.933,0.159,-0.019,1.087,-0.127,-0.006,1.144,0.166,-0.276,1.188,-0.288,-0.221,1.121,0.142,-0.308,0.932,-0.208,-0.319,0.895,996.393,715.548,0.932,930.320,714.720,0.933,1099.146,523.151,1.087,854.182,534.826,1.144,1093.031,319.457,1.188,715.909,352.254,1.121,1104.859,225.719,0.932,738.410,201.101,0.895,-0.028,-0.959,1.400,0.000,-10.320,0.000,0.016,-0.020,0.020,-0.237,-0.829,1.342
0722_162852_0031.png,0.032,0.171,0.945,-0.034,0.170,0.944,0.147,-0.003,1.127,-0.150,-0.002,1.133,0.067,-0.182,0.916,-0.228,-0.252,1.047,-0.008,-0.356,0.709,-0.059,-0.331,0.853,991.839,711.575,0.945,925.715,711.254,0.944,1083.650,537.068,1.127,834.433,538.221,1.133,1029.630,351.265,0.916,752.994,311.499,1.047,949.835,61.975,0.709,893.799,170.964,0.853,-0.033,-0.966,1.402,0.000,0.002,0.000,0.002,0.010,-0.041,0.064,-0.858,1.470
0722_162852_0032.png,0.055,0.160,0.933,-0.009,0.155,0.923,0.166,-0.021,1.088,-0.127,-0.008,1.142,0.176,-0.291,1.077,-0.262,-0.235,1.095,0.157,-0.329,0.824,-0.133,-0.313,0.884,1016.525,703.357,0.933,950.280,699.863,0.923,1104.938,521.812,1.088,854.424,533.055,1.142,1115.779,283.528,1.077,732.704,335.815,1.095,1141.752,160.386,0.824,816.825,202.801,0.884,-0.033,-0.959,1.401,0.000,-9.600,0.000,-0.003,-0.011,0.030,0.261,-1.069,1.417
0722_162852_0033.png,0.010,0.165,0.934,-0.058,0.167,0.937,0.132,-0.005,1.131,-0.175,-0.008,1.114,0.141,-0.239,0.996,-0.274,-0.185,0.930,-0.015,-0.329,0.799,-0.320,-0.348,0.725,970.560,708.020,0.934,901.533,709.059,0.937,1070.609,536.174,1.131,810.291,532.840,1.114,1094.363,312.205,0.996,679.669,350.463,0.930,942.089,149.153,0.799,539.776,84.109,0.725,-0.023,-0.966,1.402,0.000,-355.632,0.000,-0.035,0.001,0.002,-0.044,-0.956,1.460
0722_162852_0034.png,0.010,0.171,0.933,-0.053,0.175,0.942,0.123,0.001,1.144,-0.161,-0.008,1.108,0.245,-0.216,1.025,-0.282,-0.214,1.240,0.320,-0.351,0.801,-0.406,-0.296,1.020,970.310,714.403,0.933,906.429,716.831,0.942,1062.624,540.461,1.144,821.685,533.316,1.108,1187.646,339.383,1.025,744.015,375.887,1.240,1339.609,123.240,0.801,581.134,264.091,1.020,-0.037,-0.962,1.401,0.000,-351.373,0.000,0.033,-0.016,-0.032,-0.147,-0.905,1.484
0722_162852_0035.png,0.055,0.171,0.929,-0.012,0.167,0.926,0.177,-0.010,1.074,-0.115,0.008,1.152,0.128,-0.228,0.927,-0.227,-0.215,1.054,0.076,-0.354,0.705,-0.115,-0.320,0.840,1016.246,714.734,0.929,947.856,711.881,0.926,1116.936,531.130,1.074,865.066,546.476,1.152,1091.369,306.013,0.927,755.082,345.989,1.054,1062.593,62.471,0.705,829.673,177.499,0.840,-0.034,-0.974,1.404,0.000,-14.093,0.000,-0.020,0.004,0.014,-0.105,-1.039,1.376
0722_162852_0036.png,0.037,0.181,0.933,-0.027,0.181,0.932,0.156,-0.011,1.100,-0.132,-0.002,1.138,0.189,-0.202,1.300,-0.294,-0.210,1.077,0.290,-0.280,1.070,-0.328,-0.335,0.847,998.025,724.936,0.933,932.284,724.205,0.932,1095.162,530.657,1.100,849.882,538.444,1.138,1098.352,392.103,1.300,700.463,354.163,1.077,1217.481,291.285,1.070,591.591,163.621,0.847,-0.032,-0.960,1.401,0.000,-6.715,0.000,0.020,-0.033,-0.001,-0.096,-0.853,1.139
0722_162852_0037.png,0.013,0.185,0.935,-0.053,0.188,0.942,0.135,0.008,1.135,-0.166,0.003,1.112,0.255,-0.218,1.230,-0.243,-0.259,1.093,0.147,-0.285,0.993,-0.238,-0.328,0.834,973.662,728.465,0.935,906.290,729.719,0.942,1073.445,546.840,1.135,817.872,542.563,1.112,1156.945,371.276,1.230,748.680,314.458,1.093,1101.113,267.323,0.993,688.047,165.651,0.834,-0.033,-0.974,1.404,0.000,-354.456,0.000,-0.019,-0.008,-0.021,-0.146,-0.835,1.223
0722_162852_0038.png,0.052,0.159,0.933,-0.013,0.157,0.930,0.170,-0.016,1.087,-0.119,-0.004,1.141,0.245,-0.269,1.067,-0.272,-0.213,1.201,0.101,-0.318,0.861,-0.357,-0.287,0.974,1013.042,702.388,0.933,946.675,700.358,0.930,1108.747,525.592,1.087,860.675,536.661,1.141,1178.021,299.852,1.067,744.584,371.300,1.201,1071.988,189.307,0.861,610.943,259.289,0.974,-0.039,-0.969,1.403,0.000,-9.718,0.000,0.008,0.018,0.038,-0.022,-0.927,1.690
0722_162852_0039.png,0.042,0.176,0.939,-0.024,0.174,0.938,0.164,-0.009,1.087,-0.130,0.004,1.144,0.223,-0.208,1.251,-0.293,-0.174,1.027,0.346,-0.267,1.028,-0.405,-0.316,0.841,1002.928,717.725,0.939,935.670,716.674,0.938,1103.802,532.005,1.087,851.938,543.208,1.144,1129.610,381.726,1.251,689.122,378.929,1.027,1279.592,292.849,1.028,502.181,182.606,0.841,-0.029,-0.976,1.404,0.000,-9.982,0.000,-0.011,0.023,0.021,-0.133,-0.774,1.339
0722_162852_0040.png,0.045,0.166,0.926,-0.021,0.162,0.919,0.158,-0.010,1.096,-0.140,-0.001,1.136,0.294,-0.248,1.124,-0.163,-0.219,0.983,0.358,-0.313,0.879,-0.061,-0.342,0.777,1006.150,710.479,0.926,938.138,707.429,0.919,1097.235,531.397,1.096,842.658,539.453,1.136,1208.714,329.753,1.124,802.664,327.690,0.983,1347.437,201.261,0.879,885.155,120.636,0.777,-0.029,-0.964,1.402,0.000,-6.719,0.000,-0.014,-0.027,0.018,0.210,-1.155,1.522
0722_162852_0041.png,0.041,0.174,0.933,-0.022,0.171,0.924,0.148,-0.011,1.095,-0.139,-0.003,1.130,0.199,-0.187,0.902,-0.279,-0.203,1.249,0.247,-0.359,0.713,-0.458,-0.272,1.080,1002.271,717.712,0.933,937.383,715.626,0.924,1088.683,530.300,1.095,842.651,537.471,1.130,1169.483,342.905,0.902,747.506,385.352,1.249,1288.740,61.899,0.713,557.292,300.782,1.080,-0.026,-0.966,1.402,0.000,-6.049,0.000,0.023,-0.016,0.038,0.282,-0.892,1.479
0722_162852_0042.png,0.004,0.150,0.931,-0.062,0.155,0.938,0.123,-0.004,1.141,-0.175,-0.015,1.094,0.283,-0.205,1.073,-0.232,-0.166,1.301,0.376,-0.307,0.857,-0.299,-0.251,1.068,964.327,693.740,0.931,897.143,696.934,0.938,1062.539,536.524,1.141,807.529,527.004,1.094,1210.853,358.219,1.073,790.536,418.756,1.301,1376.694,199.679,0.857,693.666,316.164,1.068,-0.033,-0.970,1.403,0.000,-349.666,0.000,-0.018,0.030,0.031,-0.124,-1.195,1.203
0722_162852_0043.png,0.013,0.141,0.936,-0.052,0.144,0.944,0.135,-0.013,1.138,-0.161,-0.017,1.121,0.120,-0.200,0.934,-0.210,-0.248,0.985,0.060,-0.358,0.725,-0.083,-0.345,0.771,973.400,682.811,0.936,907.622,685.427,0.944,1072.975,528.905,1.138,823.766,525.342,1.121,1082.501,336.566,0.934,756.735,300.610,0.985,1039.091,70.097,0.725,857.636,114.236,0.771,-0.034,-0.959,1.400,0.000,-355.377,0.000,0.002,0.025,-0.018,-0.205,-1.218,1.404
0722_162852_0044.png,0.044,0.184,0.926,-0.021,0.180,0.918,0.156,-0.007,1.085,-0.136,0.005,1.136,0.167,-0.283,1.094,-0.274,-0.217,1.072,0.131,-0.329,0.843,-0.317,-0.327,0.845,1005.126,728.564,0.926,938.378,726.260,0.918,1096.370,533.877,1.085,846.299,544.026,1.136,1104.800,293.720,1.094,716.600,347.346,1.072,1108.294,168.263,0.843,603.466,171.685,0.845,-0.025,-0.968,1.402,0.000,-9.071,0.000,0.003,-0.040,0.029,0.191,-0.864,1.629
0722_162852_0045.png,0.036,0.155,0.944,-0.030,0.152,0.939,0.151,-0.016,1.114,-0.145,-0.009,1.144,0.218,-0.263,1.190,-0.246,-0.223,1.005,0.230,-0.304,0.925,-0.219,-0.348,0.766,996.032,696.207,0.944,929.690,694.299,0.939,1088.541,526.640,1.114,839.499,532.717,1.144,1134.259,330.208,1.190,726.985,328.503,1.005,1196.946,227.588,0.925,687.966,107.722,0.766,-0.026,-0.959,1.401,0.000,-4.771,0.000,-0.001,0.016,-0.028,0.105,-1.014,1.488
0722_162852_0046.png,-0.007,0.155,0.940,-0.073,0.160,0.950,0.108,-0.005,1.157,-0.184,-0.021,1.088,0.250,-0.216,1.070,-0.292,-0.226,1.210,0.245,-0.320,0.828,-0.311,-0.284,0.954,952.769,697.171,0.940,887.336,700.501,0.950,1049.138,535.951,1.157,799.302,521.800,1.088,1182.489,348.258,1.070,730.343,362.197,1.210,1240.853,172.377,0.828,649.902,257.036,0.954,-0.033,-0.965,1.402,0.000,-345.184,0.000,-0.013,0.036,0.000,-0.124,-0.813,1.557
0722_162852_0047.png,0.023,0.189,0.926,-0.043,0.190,0.930,0.150,-0.006,1.095,-0.146,0.002,1.132,0.151,-0.268,1.018,-0.245,-0.242,1.229,-0.001,-0.339,0.818,-0.234,-0.295,0.974,983.526,734.513,0.926,915.797,734.384,0.930,1090.552,534.586,1.095,837.264,541.938,1.132,1101.073,289.487,1.018,770.072,352.840,1.229,958.413,146.571,0.818,731.414,251.812,0.974,-0.023,-0.965,1.402,0.000,-6.158,0.000,-0.007,-0.045,0.018,-0.284,-0.782,1.260
0722_162852_0048.png,0.005,0.181,0.936,-0.063,0.183,0.942,0.121,0.005,1.151,-0.182,-0.007,1.098,0.230,-0.228,1.251,-0.290,-0.261,1.071,0.330,-0.280,1.004,-0.129,-0.320,0.861,965.325,723.488,0.936,896.882,725.226,0.942,1059.922,543.913,1.151,802.735,533.665,1.098,1134.879,366.374,1.251,702.312,308.593,1.071,1272.793,274.619,1.004,817.091,186.106,0.861,-0.032,-0.965,1.402,0.000,-348.743,0.000,-0.035,-0.018,-0.031,0.000,-0.805,1.312
0722_162852_0049.png,0.043,0.172,0.943,-0.024,0.171,0.942,0.167,-0.015,1.100,-0.131,-0.003,1.153,0.219,-0.209,1.284,-0.107,-0.181,0.931,0.384,-0.261,1.076,-0.085,-0.354,0.714,1003.201,713.759,0.943,935.413,712.553,0.942,1104.481,527.083,1.100,852.041,537.854,1.153,1122.334,385.122,1.284,850.677,355.617,0.931,1299.217,308.859,1.076,847.175,68.858,0.714,-0.030,-0.959,1.401,0.000,-9.299,0.000,-0.021,-0.005,-0.034,-0.144,-0.873,1.119
0722_162852_0050.png,0.067,0.164,0.951,0.002,0.158,0.940,0.177,-0.020,1.089,-0.107,-0.003,1.161,0.205,-0.280,1.132,-0.204,-0.197,0.988,0.207,-0.322,0.867,-0.247,-0.348,0.766,1026.686,703.592,0.951,962.438,700.031,0.940,1114.628,522.850,1.089,872.482,537.545,1.161,1132.484,305.224,1.132,763.485,350.178,0.988,1186.759,186.710,0.867,653.500,107.967,0.766,-0.037,-0.963,1.402,0.000,-13.493,0.000,0.012,0.026,-0.028,0.184,-0.856,1.400
0722_162852_0051.png,0.048,0.177,0.935,-0.018,0.173,0.930,0.167,-0.005,1.095,-0.126,0.008,1.150,0.252,-0.237,1.213,-0.247,-0.239,1.146,0.308,-0.299,0.956,-0.258,-0.319,0.888,1009.185,719.726,0.935,942.004,717.168,0.930,1104.710,535.854,1.095,855.643,546.591,1.150,1158.008,354.016,1.213,755.015,341.514,1.146,1266.427,242.829,0.956,683.794,198.481,0.888,-0.031,-0.969,1.403,0.000,-9.825,0.000,-0.005,-0.015,-0.030,0.030,-1.029,1.317
0722_162852_0052.png,0.045,0.170,0.934,-0.019,0.170,0.935,0.170,-0.019,1.078,-0.108,-0.002,1.152,0.130,-0.273,1.000,-0.292,-0.187,1.205,-0.018,-0.347,0.800,-0.320,-0.300,0.973,1006.102,713.600,0.934,941.136,712.461,0.935,1109.560,523.262,1.078,870.807,538.322,1.152,1083.130,280.774,1.000,729.411,392.589,1.205,938.881,127.572,0.800,647.147,246.838,0.973,-0.034,-0.964,1.402,0.000,-14.074,0.000,0.031,-0.001,0.014,-0.342,-0.824,1.360
0722_162852_0053.png,0.036,0.166,0.927,-0.031,0.163,0.926,0.161,-0.011,1.095,-0.135,0.002,1.151,0.177,-0.194,1.304,-0.124,-0.178,0.930,0.226,-0.274,1.051,-0.114,-0.355,0.715,997.205,710.071,0.927,928.459,707.669,0.926,1100.071,530.778,1.095,848.016,541.868,1.151,1089.380,398.653,1.304,832.950,357.699,0.930,1164.984,292.280,1.051,808.565,68.443,0.715,-0.024,-0.960,1.401,0.000,-9.792,0.000,-0.018,-0.031,-0.028,-0.118,-1.177,1.445
0722_162852_0054.png,0.059,0.176,0.935,-0.005,0.171,0.923,0.169,-0.017,1.078,-0.115,0.000,1.151,0.231,-0.204,1.270,-0.267,-0.164,0.994,0.360,-0.279,1.056,-0.416,-0.324,0.841,1019.946,718.988,0.935,954.801,715.744,0.923,1109.191,525.374,1.078,864.774,540.231,1.151,1132.992,386.831,1.270,703.994,383.240,0.994,1284.357,288.633,1.056,490.052,173.385,0.841,-0.031,-0.962,1.401,0.000,-13.654,0.000,0.010,-0.023,0.012,0.223,-0.967,1.166
0722_162852_0055.png,0.034,0.151,0.932,-0.030,0.151,0.931,0.147,-0.015,1.118,-0.143,-0.014,1.122,0.174,-0.276,1.066,-0.242,-0.241,1.027,0.157,-0.338,0.816,-0.144,-0.341,0.810,995.157,694.355,0.932,929.611,693.958,0.931,1084.703,527.562,1.118,838.851,528.546,1.122,1115.549,294.266,1.066,736.053,316.442,1.027,1143.461,146.194,0.816,790.329,140.150,0.810,-0.037,-0.960,1.401,0.000,0.200,0.000,0.025,0.003,0.021,0.074,-1.126,1.512
0722_162852_0056.png,0.027,0.182,0.939,-0.039,0.183,0.941,0.147,-0.004,1.118,-0.152,-0.003,1.125,0.144,-0.184,0.911,-0.240,-0.256,1.174,0.139,-0.359,0.710,-0.224,-0.306,0.915,987.572,724.400,0.939,920.586,724.505,0.941,1085.355,536.186,1.118,831.904,537.635,1.125,1109.856,348.101,0.911,765.699,332.590,1.174,1146.904,59.500,0.710,727.704,221.704,0.915,-0.032,-0.967,1.402,0.000,-0.269,0.000,-0.007,-0.009,-0.001,-0.062,-0.669,1.470
0722_162852_0057.png,0.023,0.165,0.947,-0.043,0.166,0.949,0.137,0.000,1.136,-0.159,-0.003,1.121,0.157,-0.249,1.032,-0.277,-0.193,1.258,-0.008,-0.327,0.837,-0.415,-0.266,1.041,982.858,705.418,0.947,916.795,706.076,0.949,1074.955,539.921,1.136,824.772,537.093,1.121,1104.757,310.517,1.032,750.884,394.066,1.258,950.813,168.428,0.837,580.705,297.164,1.041,-0.034,-0.974,1.404,0.000,-355.956,0.000,-0.001,0.041,-0.025,0.041,-0.993,1.067
0722_162852_0058.png,0.062,0.171,0.946,-0.005,0.168,0.941,0.183,-0.017,1.086,-0.112,0.000,1.160,0.199,-0.273,1.159,-0.123,-0.191,0.958,0.190,-0.304,0.893,-0.083,-0.349,0.741,1022.432,712.213,0.946,954.803,710.222,0.941,1120.104,525.365,1.086,868.274,540.363,1.160,1123.189,315.903,1.159,837.909,350.913,0.958,1162.000,215.832,0.893,853.025,92.591,0.741,-0.038,-0.965,1.402,0.000,-13.395,0.000,-0.025,0.015,-0.024,-0.051,-0.731,1.501
0722_162852_0059.png,0.015,0.177,0.937,-0.048,0.178,0.938,0.119,0.003,1.134,-0.165,-0.005,1.100,0.146,-0.178,0.938,-0.288,-0.239,1.087,0.174,-0.355,0.748,-0.179,-0.326,0.870,975.140,719.528,0.937,910.825,720.251,0.938,1059.912,542.418,1.134,817.581,535.759,1.100,1108.307,359.328,0.938,707.917,330.572,1.087,1180.825,88.243,0.748,763.858,183.109,0.870,-0.031,-0.975,1.404,0.000,-351.843,0.000,0.037,0.012,0.021,0.157,-0.838,1.228
0722_162852_0060.png,0.038,0.147,0.942,-0.027,0.146,0.945,0.166,-0.022,1.105,-0.126,-0.010,1.154,0.211,-0.281,1.049,-0.277,-0.181,1.290,0.035,-0.326,0.853,-0.273,-0.271,1.035,998.618,688.100,0.942,932.459,687.133,0.945,1102.593,521.483,1.105,856.076,531.672,1.154,1151.266,285.412,1.049,755.510,406.364,1.290,998.634,176.721,0.853,708.763,290.479,1.035,-0.033,-0.958,1.400,0.000,-8.727,0.000,0.002,0.029,-0.029,-0.270,-1.044,1.497
0722_162852_0061.png,0.047,0.163,0.938,-0.021,0.161,0.935,0.167,-0.009,1.111,-0.137,-0.002,1.140,0.311,-0.240,1.093,-0.096,-0.179,0.927,0.379,-0.315,0.845,-0.056,-0.350,0.719,1007.645,705.099,0.938,938.949,703.691,0.935,1103.037,532.304,1.111,845.496,538.109,1.140,1230.323,330.986,1.093,861.061,356.834,0.927,1387.013,185.036,0.845,885.792,77.667,0.719,-0.039,-0.965,1.402,0.000,-4.460,0.000,-0.030,0.006,-0.018,0.050,-0.980,1.599
0722_162852_0062.png,0.013,0.176,0.929,-0.050,0.178,0.935,0.137,0.003,1.115,-0.151,0.006,1.130,0.251,-0.245,1.114,-0.286,-0.210,1.222,0.145,-0.330,0.884,-0.363,-0.301,0.983,973.748,720.667,0.929,909.048,721.266,0.935,1076.697,542.253,1.115,833.207,545.213,1.130,1173.911,331.092,1.114,736.973,376.676,1.222,1116.205,185.000,0.884,608.518,248.365,0.983,-0.023,-0.972,1.403,0.000,-1.986,0.000,0.031,-0.015,-0.017,-0.276,-1.006,1.428
0722_162852_0063.png,-0.001,0.147,0.933,-0.066,0.153,0.944,0.111,-0.004,1.159,-0.178,-0.019,1.094,0.263,-0.228,1.152,-0.324,-0.243,1.066,0.336,-0.310,0.906,-0.276,-0.333,0.816,958.482,689.871,0.933,893.301,694.663,0.944,1050.783,536.424,1.159,805.639,523.383,1.094,1176.850,352.107,1.152,670.709,323.512,1.066,1313.034,214.294,0.906,638.762,152.231,0.816,-0.036,-0.961,1.401,0.000,-345.947,0.000,0.004,0.017,-0.025,-0.122,-1.102,1.528
0722_162852_0064.png,0.042,0.173,0.936,-0.026,0.172,0.939,0.173,-0.010,1.091,-0.125,0.005,1.157,0.098,-0.222,0.924,-0.303,-0.183,1.055,-0.001,-0.358,0.708,-0.427,-0.319,0.852,1002.665,716.017,0.936,933.966,714.754,0.939,1110.827,531.454,1.091,857.263,544.333,1.157,1060.747,311.910,0.924,686.568,374.742,1.055,958.859,59.675,0.708,483.871,184.341,0.852,-0.030,-0.966,1.402,0.000,-11.557,0.000,-0.029,-0.004,-0.035,-0.329,-0.967,1.223
0722_162852_0065.png,0.042,0.183,0.933,-0.026,0.182,0.934,0.168,-0.004,1.106,-0.136,0.003,1.139,0.136,-0.247,0.976,-0.256,-0.241,1.082,-0.017,-0.344,0.776,-0.092,-0.319,0.882,1002.846,726.283,0.933,933.923,725.753,0.934,1104.112,536.337,1.106,846.734,542.782,1.139,1092.013,299.249,0.976,735.212,328.514,1.082,938.988,117.832,0.776,861.048,195.964,0.882,-0.038,-0.964,1.402,0.000,-5.205,0.000,-0.028,-0.031,-0.024,-0.117,-0.825,1.478
0722_162852_0066.png,0.050,0.159,0.941,-0.017,0.157,0.937,0.168,-0.026,1.084,-0.126,-0.011,1.148,0.257,-0.271,1.038,-0.176,-0.244,1.039,0.251,-0.326,0.789,-0.131,-0.324,0.799,1010.103,700.873,0.941,942.937,699.201,0.937,1107.695,517.575,1.084,855.713,531.063,1.148,1194.983,291.866,1.038,799.254,317.043,1.039,1262.475,147.276,0.789,804.522,154.933,0.799,-0.030,-0.962,1.401,0.000,-11.462,0.000,-0.015,0.025,0.035,-0.028,-0.824,1.335
0722_162852_0067.png,-0.002,0.172,0.931,-0.065,0.177,0.943,0.113,-0.002,1.146,-0.172,-0.014,1.096,0.120,-0.236,1.007,-0.227,-0.199,0.903,0.005,-0.350,0.801,-0.246,-0.371,0.701,957.783,715.987,0.931,894.165,718.564,0.943,1054.130,538.043,1.146,811.004,528.065,1.096,1073.008,316.801,1.007,721.366,330.537,0.903,965.368,124.123,0.801,625.821,36.827,0.701,-0.033,-0.961,1.401,0.000,-348.709,0.000,0.024,-0.017,-0.003,-0.253,-0.895,1.149
0722_162852_0068.png,0.039,0.158,0.933,-0.025,0.155,0.931,0.161,-0.018,1.084,-0.117,-0.001,1.158,0.172,-0.288,1.061,-0.178,-0.172,0.943,0.149,-0.350,0.802,-0.240,-0.341,0.734,999.473,701.592,0.933,934.181,698.717,0.931,1101.338,524.457,1.084,864.178,539.454,1.158,1113.934,281.920,1.061,780.549,366.018,0.943,1136.851,125.743,0.802,648.695,98.811,0.734,-0.023,-0.962,1.401,0.000,-14.156,0.000,0.030,0.002,-0.016,-0.211,-1.041,1.618
0722_162852_0069.png,0.030,0.172,0.922,-0.037,0.170,0.921,0.149,0.001,1.103,-0.149,0.008,1.131,0.156,-0.257,1.015,-0.258,-0.219,1.029,-0.017,-0.333,0.831,-0.292,-0.337,0.797,990.761,717.030,0.922,922.277,715.626,0.921,1088.836,541.191,1.103,834.848,546.595,1.131,1106.361,299.561,1.015,721.739,337.286,1.029,940.745,159.247,0.831,611.302,138.088,0.797,-0.025,-0.973,1.404,0.000,-4.351,0.000,-0.009,-0.026,0.005,-0.002,-1.187,1.536
0722_162852_0070.png,0.005,0.173,0.932,-0.058,0.177,0.943,0.124,-0.004,1.133,-0.162,-0.011,1.101,0.075,-0.174,0.929,-0.276,-0.241,1.030,0.027,-0.340,0.730,-0.201,-0.340,0.806,965.357,716.891,0.932,901.741,718.600,0.943,1064.408,536.774,1.133,819.611,530.264,1.101,1036.874,361.742,0.929,704.782,317.443,1.030,995.041,96.607,0.730,723.090,138.500,0.806,-0.034,-0.967,1.402,0.000,-352.237,0.000,0.027,-0.001,0.027,-0.276,-0.802,1.233
0722_162852_0071.png,0.010,0.161,0.932,-0.055,0.163,0.933,0.117,0.001,1.136,-0.173,-0.006,1.104,0.275,-0.213,1.158,-0.195,-0.253,1.003,0.389,-0.300,0.940,-0.080,-0.345,0.788,970.131,704.249,0.932,904.195,705.582,0.933,1058.175,540.864,1.136,811.133,534.472,1.104,1185.556,364.962,1.158,775.031,299.992,1.003,1353.284,236.471,0.940,863.634,124.329,0.788,-0.026,-0.972,1.404,0.000,-352.289,0.000,0.017,0.014,0.010,0.116,-1.119,1.379
0722_162852_0072.png,0.011,0.167,0.921,-0.055,0.170,0.924,0.123,0.005,1.132,-0.174,-0.004,1.093,0.238,-0.172,0.971,-0.172,-0.233,0.961,0.314,-0.335,0.787,-0.085,-0.346,0.750,971.354,712.698,0.921,903.144,714.681,0.924,1063.634,543.854,1.132,808.927,536.098,1.093,1193.483,371.729,0.971,789.250,309.025,0.961,1338.770,135.825,0.787,852.314,101.290,0.750,-0.030,-0.973,1.404,0.000,-351.060,0.000,-0.009,-0.014,0.035,0.043,-1.099,1.575
0722_162852_0073.png,0.031,0.170,0.935,-0.036,0.169,0.935,0.155,-0.004,1.108,-0.147,0.003,1.138,0.264,-0.220,1.230,-0.202,-0.241,1.028,0.393,-0.277,1.002,-0.072,-0.332,0.812,991.924,712.640,0.935,923.378,711.831,0.935,1093.144,536.678,1.108,836.951,542.556,1.138,1164.391,369.822,1.230,773.356,317.124,1.028,1332.849,276.744,1.002,875.328,150.779,0.812,-0.028,-0.970,1.403,0.000,-4.669,0.000,-0.024,0.002,-0.015,-0.096,-1.069,1.259
0722_162852_0074.png,0.022,0.173,0.921,-0.043,0.174,0.927,0.149,-0.004,1.105,-0.147,0.001,1.125,0.252,-0.230,1.230,-0.125,-0.179,0.922,0.371,-0.289,1.005,-0.102,-0.355,0.724,982.919,718.345,0.921,915.520,718.780,0.927,1088.490,536.805,1.105,835.961,540.719,1.125,1154.959,362.123,1.230,831.125,354.864,0.922,1310.792,266.677,1.005,825.702,73.201,0.724,-0.030,-0.967,1.402,0.000,-2.764,0.000,0.000,-0.031,0.019,-0.266,-1.053,1.477
0722_162852_0075.png,0.029,0.163,0.929,-0.034,0.162,0.930,0.148,-0.011,1.101,-0.132,-0.002,1.139,0.188,-0.263,1.012,-0.175,-0.183,0.933,0.065,-0.355,0.800,-0.219,-0.361,0.735,989.645,707.011,0.929,925.466,705.910,0.930,1087.687,530.359,1.101,849.451,537.987,1.139,1136.370,292.412,1.012,781.950,353.343,0.933,1036.939,117.763,0.800,677.104,73.234,0.735,-0.027,-0.964,1.402,0.000,-6.765,0.000,0.047,-0.010,0.003,-0.168,-1.164,1.244
0722_162852_0076.png,0.007,0.165,0.923,-0.059,0.169,0.931,0.128,0.005,1.132,-0.169,-0.001,1.107,0.186,-0.261,1.130,-0.162,-0.223,0.952,0.167,-0.316,0.874,-0.088,-0.354,0.736,966.750,709.658,0.923,899.578,712.299,0.931,1067.957,543.844,1.132,814.391,539.032,1.107,1116.442,320.226,1.130,798.630,317.355,0.952,1141.920,196.068,0.874,846.955,82.928,0.736,-0.029,-0.972,1.404,0.000,-353.944,0.000,-0.007,-0.009,0.004,-0.196,-1.199,1.410
0722_162852_0077.png,0.054,0.181,0.942,-0.008,0.178,0.934,0.164,-0.008,1.098,-0.116,0.003,1.144,0.299,-0.236,1.059,-0.234,-0.178,1.304,0.380,-0.343,0.832,-0.307,-0.281,1.069,1014.794,722.585,0.942,951.561,720.736,0.934,1101.890,533.398,1.098,863.917,542.476,1.144,1228.855,328.326,1.059,789.238,410.454,1.304,1394.168,148.045,0.832,686.832,289.874,1.069,-0.039,-0.967,1.403,0.000,-8.442,0.000,0.045,-0.008,-0.014,0.152,-0.867,1.126
0722_162852_0078.png,0.042,0.161,0.924,-0.026,0.158,0.922,0.162,-0.006,1.103,-0.141,0.002,1.133,0.124,-0.259,1.014,-0.290,-0.183,1.275,0.075,-0.339,0.769,-0.388,-0.269,1.047,1003.281,705.376,0.924,933.669,703.482,0.922,1100.065,535.228,1.103,841.467,541.282,1.133,1076.609,296.866,1.014,743.696,403.152,1.275,1053.088,120.396,0.769,607.437,295.500,1.047,-0.035,-0.968,1.403,0.000,-4.755,0.000,-0.028,-0.019,0.006,0.044,-1.301,1.474
0722_162852_0079.png,0.023,0.189,0.936,-0.043,0.189,0.937,0.142,0.004,1.120,-0.155,0.006,1.128,0.254,-0.202,1.265,-0.239,-0.242,1.038,0.319,-0.288,1.017,-0.110,-0.341,0.824,983.561,731.965,0.936,916.762,731.939,0.937,1080.280,543.166,1.120,829.192,544.748,1.128,1151.127,387.765,1.265,740.994,317.900,1.038,1258.347,270.462,1.017,833.411,146.319,0.824,-0.027,-0.970,1.403,0.000,-0.468,0.000,0.000,-0.024,-0.026,-0.041,-0.831,1.215
0722_162852_0080.png,0.046,0.165,0.921,-0.020,0.162,0.918,0.165,-0.013,1.087,-0.125,-0.001,1.141,0.123,-0.249,0.964,-0.276,-0.214,1.232,-0.017,-0.350,0.770,-0.403,-0.287,1.018,1007.338,710.718,0.921,939.720,707.990,0.918,1104.736,528.536,1.087,855.540,539.517,1.141,1081.626,294.086,0.964,747.146,374.977,1.232,938.441,108.386,0.770,583.375,271.620,1.018,-0.033,-0.961,1.401,0.000,-9.712,0.000,0.003,-0.037,0.017,-0.022,-1.281,1.251
0722_162852_0081.png,0.028,0.186,0.923,-0.039,0.187,0.927,0.157,0.004,1.106,-0.146,0.009,1.128,0.069,-0.176,0.917,-0.320,-0.208,1.127,-0.017,-0.351,0.734,-0.418,-0.308,0.903,989.213,731.181,0.923,920.189,731.307,0.927,1094.538,543.291,1.106,836.453,547.365,1.128,1031.699,357.322,0.917,690.150,364.802,1.127,937.398,84.689,0.734,520.028,215.362,0.903,-0.033,-0.972,1.404,0.000,-2.959,0.000,-0.023,-0.038,-0.001,-0.216,-0.958,1.434
0722_162852_0082.png,0.016,0.171,0.925,-0.049,0.172,0.925,0.123,-0.002,1.129,-0.168,-0.010,1.096,0.190,-0.208,1.299,-0.140,-0.191,0.908,0.276,-0.272,1.069,-0.099,-0.361,0.721,976.702,716.009,0.925,909.971,716.892,0.925,1063.496,538.260,1.129,814.240,531.722,1.096,1098.892,387.452,1.299,813.621,340.148,0.908,1205.731,297.819,1.069,830.000,63.518,0.721,-0.030,-0.966,1.402,0.000,-352.281,0.000,0.014,-0.024,0.040,0.163,-1.077,1.201
0722_162852_0083.png,0.009,0.166,0.930,-0.058,0.168,0.932,0.115,0.006,1.149,-0.181,-0.007,1.094,0.161,-0.193,0.964,-0.187,-0.238,0.948,0.155,-0.349,0.746,-0.149,-0.357,0.712,969.109,709.320,0.930,900.837,711.580,0.932,1055.400,544.902,1.149,802.272,534.161,1.094,1118.864,349.913,0.964,772.889,300.880,0.948,1157.721,94.258,0.746,760.750,63.443,0.712,-0.031,-0.970,1.403,0.000,-348.059,0.000,-0.017,-0.004,-0.013,0.172,-1.123,1.371
0722_162852_0084.png,0.017,0.139,0.943,-0.049,0.141,0.946,0.132,-0.018,1.138,-0.164,-0.022,1.118,0.232,-0.205,1.290,-0.283,-0.209,1.256,0.199,-0.266,1.036,-0.402,-0.268,1.029,977.313,680.623,0.943,911.229,681.861,0.946,1070.094,525.320,1.138,820.421,521.129,1.118,1130.843,388.830,1.290,745.430,382.051,1.256,1142.247,295.970,1.036,588.758,291.966,1.029,-0.031,-0.959,1.400,0.000,-354.845,0.000,0.001,0.042,-0.001,0.015,-1.037,1.547
0722_162852_0085.png,0.032,0.168,0.932,-0.036,0.168,0.931,0.148,-0.014,1.115,-0.155,-0.014,1.117,0.248,-0.267,1.120,-0.322,-0.230,1.145,0.244,-0.310,0.867,-0.223,-0.301,0.919,992.316,711.782,0.932,923.683,711.588,0.931,1086.311,527.995,1.115,827.877,528.357,1.117,1170.721,312.937,1.120,692.985,349.204,1.145,1227.670,199.656,0.867,728.655,228.416,0.919,-0.033,-0.959,1.400,0.000,-359.169,0.000,-0.022,-0.018,0.035,0.088,-0.784,1.662
0722_162852_0086.png,0.053,0.175,0.933,-0.015,0.172,0.928,0.175,-0.009,1.091,-0.126,0.005,1.152,0.126,-0.254,0.971,-0.225,-0.201,0.995,-0.017,-0.345,0.760,-0.235,-0.344,0.765,1014.071,718.342,0.933,944.841,715.766,0.928,1112.575,532.258,1.091,856.308,544.342,1.152,1083.008,291.210,0.971,744.835,347.956,0.995,938.805,108.397,0.760,668.494,112.201,0.765,-0.034,-0.964,1.402,0.000,-10.689,0.000,-0.035,-0.023,-0.026,0.001,-1.027,1.337
0722_162852_0087.png,0.037,0.180,0.933,-0.032,0.181,0.937,0.166,-0.007,1.108,-0.144,-0.002,1.131,0.272,-0.260,1.139,-0.292,-0.227,1.077,0.106,-0.295,0.933,-0.316,-0.318,0.832,997.384,723.477,0.933,927.513,723.518,0.937,1102.413,533.874,1.108,839.289,538.596,1.131,1187.364,322.956,1.139,702.641,339.594,1.077,1068.099,239.303,0.933,598.790,177.005,0.832,-0.038,-0.965,1.402,0.000,-3.335,0.000,-0.045,-0.019,0.004,-0.200,-0.853,1.124
0722_162852_0088.png,0.017,0.169,0.921,-0.051,0.172,0.925,0.135,-0.003,1.130,-0.168,-0.009,1.104,0.162,-0.279,1.130,-0.324,-0.235,1.155,0.130,-0.316,0.873,-0.399,-0.307,0.914,977.088,714.920,0.921,908.020,716.472,0.925,1073.682,537.430,1.130,815.649,532.224,1.104,1096.227,305.042,1.130,692.962,346.551,1.155,1101.691,195.542,0.873,544.959,220.595,0.914,-0.033,-0.960,1.401,0.000,-353.792,0.000,-0.023,-0.042,0.014,-0.039,-1.110,1.342
0722_162852_0089.png,0.044,0.164,0.939,-0.021,0.162,0.936,0.158,-0.017,1.103,-0.133,-0.009,1.136,0.241,-0.210,0.937,-0.171,-0.206,0.960,0.269,-0.355,0.724,-0.158,-0.352,0.746,1004.149,705.817,0.939,938.458,704.550,0.936,1096.636,525.397,1.103,849.089,532.372,1.136,1204.350,326.998,0.937,790.291,336.180,0.960,1313.834,73.196,0.724,758.274,90.724,0.746,-0.035,-0.962,1.401,0.000,-5.667,0.000,0.013,0.009,0.019,0.060,-0.916,1.262
0722_162852_0090.png,0.019,0.162,0.938,-0.048,0.163,0.938,0.124,-0.004,1.145,-0.172,-0.016,1.090,0.241,-0.204,1.275,-0.281,-0.209,1.235,0.184,-0.264,1.031,-0.394,-0.271,1.008,979.053,703.700,0.938,911.313,704.891,0.938,1063.434,537.065,1.145,809.758,526.120,1.090,1139.445,387.783,1.275,743.442,378.815,1.235,1129.796,296.804,1.031,588.556,284.529,1.008,-0.038,-0.969,1.403,0.000,-348.275,0.000,-0.017,0.026,0.027,0.253,-0.915,1.341
0722_162852_0091.png,0.033,0.162,0.933,-0.031,0.160,0.933,0.154,-0.014,1.098,-0.130,-0.003,1.146,0.282,-0.238,1.180,-0.254,-0.215,1.030,0.169,-0.311,0.951,-0.237,-0.347,0.800,993.965,705.248,0.933,928.763,703.668,0.933,1093.397,527.825,1.098,852.283,537.557,1.146,1187.310,348.428,1.180,725.848,341.225,1.030,1129.306,228.698,0.951,678.008,127.444,0.800,-0.026,-0.962,1.401,0.000,-8.743,0.000,0.029,-0.007,-0.011,-0.150,-1.027,1.520
0722_162852_0092.png,0.021,0.184,0.924,-0.044,0.185,0.925,0.135,0.007,1.122,-0.158,0.005,1.110,0.169,-0.175,0.917,-0.278,-0.214,1.232,0.202,-0.353,0.718,-0.401,-0.293,1.014,981.827,729.721,0.924,914.948,730.287,0.925,1074.449,546.225,1.122,824.469,544.016,1.110,1135.083,358.583,0.917,745.128,374.401,1.232,1227.357,72.117,0.718,584.083,265.148,1.014,-0.032,-0.973,1.404,0.000,-356.512,0.000,0.011,-0.036,0.006,0.020,-0.875,1.718
0722_162852_0093.png,-0.015,0.138,0.936,-0.080,0.144,0.945,0.095,-0.006,1.161,-0.192,-0.022,1.092,0.181,-0.176,0.953,-0.244,-0.186,1.289,0.265,-0.342,0.750,-0.279,-0.267,1.037,944.873,679.874,0.936,880.019,685.105,0.945,1038.009,534.763,1.161,793.249,520.818,1.092,1140.296,363.814,0.953,779.668,402.602,1.289,1296.477,106.753,0.750,704.218,295.562,1.037,-0.023,-0.963,1.401,0.000,-345.140,0.000,0.006,0.040,-0.016,-0.105,-1.239,1.353
0722_162852_0094.png,0.042,0.155,0.948,-0.023,0.153,0.943,0.155,-0.015,1.113,-0.135,-0.008,1.143,0.218,-0.192,1.296,-0.114,-0.184,0.924,0.207,-0.271,1.040,-0.095,-0.356,0.710,1002.006,695.686,0.948,937.114,693.919,0.943,1092.251,527.472,1.113,847.295,533.554,1.143,1119.992,399.183,1.296,842.692,350.647,0.924,1148.786,292.154,1.040,832.153,63.252,0.710,-0.033,-0.965,1.402,0.000,-4.899,0.000,0.017,0.036,-0.018,0.105,-0.929,1.535
0722_162852_0095.png,0.009,0.168,0.934,-0.055,0.169,0.938,0.123,-0.005,1.128,-0.168,-0.011,1.101,0.242,-0.203,1.260,-0.130,-0.184,0.908,0.344,-0.273,1.039,-0.091,-0.352,0.720,969.570,710.642,0.934,904.047,711.702,0.938,1063.406,536.028,1.128,814.824,530.573,1.101,1142.337,386.463,1.260,823.962,347.165,0.908,1274.536,290.284,1.039,839.984,74.494,0.720,-0.027,-0.971,1.403,0.000,-353.387,0.000,0.016,0.016,0.043,-0.025,-0.917,1.141
0722_162852_0096.png,0.045,0.170,0.940,-0.021,0.168,0.936,0.159,-0.011,1.103,-0.138,-0.005,1.128,0.093,-0.208,0.944,-0.178,-0.184,0.941,-0.019,-0.339,0.754,-0.178,-0.345,0.742,1005.839,712.166,0.940,939.100,711.174,0.936,1097.193,530.856,1.103,843.519,535.964,1.128,1053.607,330.510,0.944,780.505,353.823,0.941,936.495,112.743,0.754,731.954,98.271,0.742,-0.037,-0.972,1.404,0.000,-3.820,0.000,-0.005,0.021,0.039,0.145,-0.843,1.218
0722_162852_0097.png,0.042,0.171,0.938,-0.026,0.170,0.938,0.167,-0.014,1.102,-0.135,-0.004,1.147,0.180,-0.238,1.260,-0.271,-0.235,1.079,0.185,-0.280,0.994,-0.134,-0.320,0.861,1002.197,713.036,0.938,933.459,712.071,0.938,1104.472,527.528,1.102,848.169,536.637,1.147,1095.635,360.078,1.260,721.514,332.993,1.079,1137.438,271.731,0.994,811.592,186.448,0.861,-0.033,-0.958,1.400,0.000,-7.557,0.000,-0.030,-0.014,-0.024,-0.138,-0.901,1.279
0722_162852_0098.png,0.031,0.167,0.947,-0.036,0.166,0.945,0.149,-0.005,1.123,-0.154,-0.002,1.134,0.266,-0.241,1.065,-0.204,-0.249,1.031,0.294,-0.326,0.811,-0.055,-0.327,0.820,991.367,707.765,0.947,923.864,707.248,0.945,1086.097,536.072,1.123,830.802,538.255,1.134,1197.650,324.486,1.065,772.150,310.565,1.031,1304.385,157.842,0.811,896.426,161.315,0.820,-0.030,-0.971,1.403,0.000,-0.985,0.000,-0.021,0.030,-0.024,0.061,-0.782,1.684
0722_162852_0099.png,0.048,0.176,0.947,-0.017,0.173,0.941,0.161,-0.009,1.100,-0.131,0.000,1.139,0.198,-0.191,1.287,-0.157,-0.220,0.990,0.325,-0.260,1.071,-0.086,-0.344,0.772,1008.668,716.314,0.947,943.316,715.110,0.941,1099.496,531.957,1.100,851.019,539.853,1.139,1105.903,398.921,1.287,809.194,329.136,0.990,1248.951,308.850,1.071,854.003,116.760,0.772,-0.035,-0.973,1.404,0.000,-6.774,0.000,0.007,0.026,0.012,0.127,-0.694,1.391
0722_162852_0100.png,0.023,0.175,0.918,-0.041,0.174,0.919,0.140,0.008,1.109,-0.148,0.012,1.127,0.087,-0.214,0.956,-0.275,-0.212,1.036,-0.016,-0.365,0.762,-0.279,-0.350,0.809,983.584,720.889,0.918,917.324,720.359,0.919,1080.420,546.558,1.109,835.265,549.860,1.127,1046.459,326.666,0.956,707.549,344.992,1.036,940.571,84.946,0.762,631.511,128.171,0.809,-0.026,-0.974,1.404,0.000,-2.401,0.000,0.027,-0.040,-0.009,-0.070,-1.253,1.561
0722_162852_0101.png,0.051,0.157,0.919,-0.013,0.152,0.915,0.168,-0.019,1.070,-0.112,-0.001,1.147,0.212,-0.211,1.262,-0.112,-0.194,0.968,0.373,-0.276,1.073,-0.063,-0.350,0.771,1013.007,702.508,0.919,946.815,698.009,0.915,1109.442,523.032,1.070,867.401,538.936,1.147,1119.909,380.765,1.262,850.141,349.536,0.968,1290.351,294.903,1.073,882.651,108.533,0.771,-0.031,-0.963,1.402,0.000,-14.688,0.000,0.020,-0.022,0.040,-0.012,-1.259,1.543
0722_162852_0102.png,0.024,0.153,0.940,-0.043,0.153,0.942,0.146,-0.011,1.124,-0.155,-0.009,1.132,0.160,-0.259,1.014,-0.259,-0.241,1.037,-0.016,-0.327,0.825,-0.265,-0.334,0.786,983.809,694.566,0.940,916.371,694.883,0.942,1083.720,530.827,1.124,829.734,532.607,1.132,1109.910,297.525,1.014,722.896,318.998,1.037,941.069,162.864,0.825,639.637,136.390,0.786,-0.029,-0.964,1.402,0.000,-0.555,0.000,-0.015,0.024,-0.017,-0.110,-1.124,1.294
0722_162852_0103.png,0.047,0.180,0.921,-0.019,0.178,0.919,0.168,-0.002,1.089,-0.129,0.008,1.135,0.264,-0.238,1.204,-0.306,-0.202,1.138,0.355,-0.296,0.966,-0.405,-0.303,0.922,1009.020,725.615,0.921,940.306,723.821,0.919,1106.647,538.120,1.089,851.734,547.006,1.135,1168.251,351.804,1.204,704.638,371.542,1.138,1309.125,249.023,0.966,542.116,227.142,0.922,-0.037,-0.972,1.404,0.000,-7.805,0.000,-0.013,-0.035,0.021,-0.004,-0.992,1.628
0722_162852_0104.png,0.022,0.163,0.932,-0.044,0.163,0.930,0.130,-0.004,1.130,-0.165,-0.008,1.112,0.157,-0.215,0.964,-0.264,-0.246,1.032,0.104,-0.353,0.747,-0.274,-0.341,0.787,982.380,706.356,0.932,915.478,706.518,0.930,1069.345,536.841,1.130,818.884,533.275,1.112,1114.552,327.693,0.964,716.935,312.896,1.032,1093.028,90.674,0.747,628.698,128.537,0.787,-0.029,-0.965,1.402,0.000,-355.268,0.000,0.005,-0.007,0.005,0.203,-1.160,1.254
0722_162852_0105.png,0.057,0.156,0.937,-0.010,0.152,0.932,0.177,-0.024,1.074,-0.119,-0.005,1.157,0.094,-0.262,0.990,-0.227,-0.229,1.064,0.018,-0.331,0.753,-0.066,-0.308,0.865,1018.230,698.778,0.937,949.701,695.512,0.932,1116.889,518.873,1.074,862.473,536.148,1.157,1050.285,288.820,0.990,756.983,335.471,1.064,983.106,121.992,0.753,887.741,201.211,0.865,-0.030,-0.964,1.402,0.000,-14.965,0.000,-0.037,0.023,0.019,-0.016,-0.951,1.522
0722_162852_0106.png,0.025,0.166,0.940,-0.043,0.165,0.937,0.135,-0.008,1.134,-0.171,-0.015,1.105,0.259,-0.237,1.068,-0.219,-0.237,0.966,0.188,-0.314,0.831,-0.200,-0.339,0.731,985.653,707.783,0.940,916.477,707.889,0.937,1073.610,533.362,1.134,812.557,527.402,1.105,1190.750,329.326,1.068,744.345,307.090,0.966,1175.226,180.770,0.831,700.229,98.749,0.731,-0.033,-0.964,1.402,0.000,-353.242,0.000,-0.038,0.010,0.023,0.280,-0.861,1.352
0722_162852_0107.png,0.004,0.156,0.930,-0.060,0.160,0.937,0.121,-0.005,1.136,-0.168,-0.010,1.112,0.144,-0.249,1.018,-0.285,-0.231,1.213,-0.014,-0.339,0.830,-0.364,-0.300,0.971,963.591,700.012,0.930,898.693,702.461,0.937,1061.296,536.019,1.136,815.908,531.321,1.112,1094.122,307.753,1.018,736.497,358.899,1.213,944.287,150.878,0.830,603.658,245.945,0.971,-0.025,-0.964,1.402,0.000,-354.071,0.000,0.022,0.000,-0.006,-0.173,-1.105,1.495
0722_162852_0108.png,0.009,0.167,0.933,-0.056,0.169,0.938,0.129,-0.005,1.123,-0.168,-0.008,1.107,0.144,-0.234,1.000,-0.240,-0.187,1.290,0.001,-0.327,0.809,-0.292,-0.262,1.053,969.556,710.123,0.933,903.019,711.163,0.938,1069.194,535.858,1.123,815.989,532.750,1.107,1096.647,317.317,1.000,782.676,402.250,1.290,960.616,155.198,0.809,696.803,303.468,1.053,-0.025,-0.972,1.404,0.000,-355.768,0.000,0.000,0.018,0.043,-0.118,-0.887,1.348
0722_162852_0109.png,0.036,0.159,0.934,-0.032,0.157,0.933,0.158,-0.005,1.113,-0.147,0.001,1.142,0.242,-0.213,1.265,-0.250,-0.201,1.291,0.396,-0.264,1.047,-0.272,-0.269,1.028,996.514,701.574,0.934,927.364,700.080,0.933,1095.168,535.474,1.113,837.827,541.176,1.142,1141.997,379.695,1.265,775.514,392.041,1.291,1320.129,299.797,1.047,708.708,291.330,1.028,-0.030,-0.967,1.402,0.000,-4.438,0.000,-0.032,0.003,-0.035,-0.006,-1.168,1.566
0722_162852_0110.png,-0.009,0.165,0.932,-0.073,0.171,0.944,0.103,0.002,1.159,-0.183,-0.013,1.097,0.070,-0.176,0.933,-0.342,-0.234,1.100,0.042,-0.351,0.714,-0.362,-0.334,0.846,951.269,707.971,0.932,886.588,711.947,0.944,1044.728,541.256,1.159,801.035,529.104,1.097,1031.624,360.607,0.933,664.497,338.024,1.100,1015.741,72.949,0.714,552.745,164.365,0.846,-0.029,-0.960,1.401,0.000,-346.440,0.000,0.012,-0.013,-0.047,-0.153,-0.971,1.471
0722_162852_0111.png,0.007,0.179,0.939,-0.061,0.180,0.942,0.119,0.002,1.150,-0.185,-0.012,1.090,0.238,-0.214,1.035,-0.300,-0.259,1.075,0.279,-0.325,0.799,-0.142,-0.310,0.868,966.939,720.929,0.939,897.920,722.095,0.942,1058.111,541.669,1.150,799.031,529.754,1.090,1178.369,343.601,1.035,694.735,310.967,1.075,1292.335,152.812,0.799,804.824,200.000,0.868,-0.032,-0.967,1.402,0.000,-347.370,0.000,-0.042,-0.002,-0.002,0.140,-0.748,1.216
0722_162852_0112.png,-0.005,0.163,0.931,-0.073,0.168,0.938,0.109,-0.001,1.156,-0.191,-0.015,1.094,0.274,-0.222,1.179,-0.238,-0.255,0.964,0.152,-0.297,0.949,-0.218,-0.356,0.713,954.614,706.906,0.931,886.265,710.128,0.938,1049.642,539.549,1.156,793.790,527.264,1.094,1181.187,361.258,1.179,724.697,288.339,0.964,1111.830,242.424,0.949,669.515,64.875,0.713,-0.026,-0.959,1.400,0.000,-346.980,0.000,-0.033,-0.016,-0.030,-0.031,-1.080,1.232
0722_162852_0113.png,0.060,0.173,0.926,-0.004,0.166,0.915,0.171,-0.014,1.072,-0.115,0.003,1.149,0.291,-0.262,1.070,-0.246,-0.204,1.277,0.341,-0.333,0.826,-0.274,-0.280,1.031,1022.097,717.262,0.926,956.219,712.633,0.915,1111.544,527.302,1.072,865.189,542.823,1.149,1218.644,307.262,1.070,776.724,388.407,1.277,1352.829,156.056,0.826,707.430,281.305,1.031,-0.031,-0.964,1.402,0.000,-14.328,0.000,0.002,-0.033,0.020,0.239,-1.099,1.415
0722_162852_0114.png,0.011,0.175,0.936,-0.053,0.178,0.943,0.126,0.001,1.141,-0.164,-0.007,1.109,0.055,-0.181,0.942,-0.314,-0.228,1.063,-0.012,-0.359,0.749,-0.315,-0.340,0.819,971.207,717.628,0.936,906.245,719.317,0.943,1064.952,540.478,1.141,819.432,534.321,1.109,1015.443,357.429,0.942,679.208,336.049,1.063,944.949,83.907,0.749,593.679,144.465,0.819,-0.034,-0.965,1.402,0.000,-352.501,0.000,0.018,-0.010,-0.023,-0.105,-0.847,1.384
0722_162852_0115.png,-0.006,0.177,0.919,-0.071,0.182,0.930,0.116,0.003,1.138,-0.180,-0.008,1.089,0.256,-0.228,1.105,-0.322,-0.243,1.066,0.313,-0.318,0.870,-0.280,-0.330,0.827,953.841,722.767,0.919,887.288,725.609,0.930,1056.865,542.672,1.138,802.643,533.085,1.089,1180.495,343.488,1.105,672.870,323.254,1.066,1302.283,192.497,0.870,637.393,160.025,0.827,-0.027,-0.966,1.402,0.000,-349.313,0.000,-0.011,-0.038,0.023,-0.257,-0.949,1.443
0722_162852_0116.png,0.026,0.148,0.940,-0.040,0.149,0.942,0.138,-0.006,1.143,-0.157,-0.011,1.122,0.143,-0.235,0.984,-0.169,-0.245,0.973,0.112,-0.356,0.740,-0.096,-0.361,0.736,986.058,689.235,0.940,919.902,690.493,0.942,1075.064,534.710,1.143,827.352,530.726,1.122,1097.980,312.671,0.984,795.051,300.643,0.973,1104.049,81.678,0.740,835.757,73.602,0.736,-0.039,-0.963,1.401,0.000,-354.850,0.000,0.005,0.024,-0.042,0.058,-1.265,1.257
0722_162852_0117.png,0.027,0.170,0.924,-0.038,0.169,0.926,0.150,-0.006,1.092,-0.138,0.003,1.133,0.286,-0.236,1.068,-0.209,-0.166,0.938,0.325,-0.330,0.835,-0.277,-0.332,0.747,987.618,714.461,0.924,921.445,713.575,0.926,1090.324,534.429,1.092,844.216,542.674,1.133,1214.401,330.125,1.068,748.311,371.243,0.938,1330.313,164.395,0.835,607.858,117.338,0.747,-0.025,-0.973,1.404,0.000,-7.289,0.000,0.021,-0.007,0.035,-0.212,-1.093,1.352
0722_162852_0118.png,0.028,0.180,0.942,-0.040,0.181,0.946,0.156,-0.008,1.114,-0.152,-0.003,1.135,0.303,-0.241,1.097,-0.137,-0.189,0.930,0.342,-0.315,0.843,-0.079,-0.349,0.721,988.397,721.797,0.942,919.396,721.910,0.946,1093.586,533.213,1.114,832.365,537.365,1.135,1222.540,331.288,1.097,820.431,346.982,0.930,1345.754,184.763,0.843,855.518,79.336,0.721,-0.030,-0.964,1.402,0.000,-2.803,0.000,-0.042,-0.006,-0.014,-0.181,-0.663,1.420
0722_162852_0119.png,0.031,0.171,0.940,-0.037,0.170,0.941,0.157,-0.009,1.105,-0.145,0.001,1.149,0.231,-0.226,0.946,-0.101,-0.177,0.930,0.253,-0.357,0.708,-0.059,-0.351,0.718,991.134,712.742,0.940,922.644,711.825,0.941,1095.421,531.883,1.105,839.868,540.444,1.149,1191.773,313.184,0.946,856.271,358.604,0.930,1300.152,61.066,0.708,881.203,75.356,0.718,-0.023,-0.964,1.402,0.000,-7.199,0.000,-0.030,0.002,-0.034,-0.183,-0.982,1.095
0722_162852_0120.png,0.016,0.173,0.929,-0.048,0.174,0.928,0.116,-0.003,1.135,-0.170,-0.013,1.092,0.208,-0.204,0.991,-0.278,-0.224,1.229,0.250,-0.346,0.783,-0.376,-0.294,1.004,976.204,717.323,0.929,910.571,718.006,0.928,1057.429,537.539,1.135,812.359,529.007,1.092,1159.489,343.831,0.991,744.873,366.837,1.229,1263.639,120.119,0.783,604.014,261.536,1.004,-0.030,-0.965,1.402,0.000,-350.221,0.000,0.026,-0.020,0.035,0.262,-0.875,1.441
0722_162852_0121.png,0.043,0.156,0.948,-0.025,0.153,0.941,0.157,-0.022,1.111,-0.149,-0.015,1.139,0.283,-0.253,1.153,-0.214,-0.189,0.942,0.127,-0.287,0.943,-0.228,-0.344,0.728,1003.108,696.125,0.948,935.213,694.321,0.941,1094.185,521.510,1.111,835.528,527.381,1.139,1193.716,331.284,1.153,743.373,348.891,0.942,1088.096,250.328,0.943,662.125,90.683,0.728,-0.029,-0.958,1.400,0.000,-4.236,0.000,-0.034,0.025,0.006,0.235,-0.877,1.381
0722_162852_0122.png,0.042,0.175,0.935,-0.022,0.173,0.930,0.151,0.002,1.113,-0.138,0.006,1.132,0.221,-0.182,0.919,-0.185,-0.237,1.014,0.291,-0.362,0.731,-0.075,-0.351,0.801,1002.776,718.287,0.935,937.663,716.646,0.930,1089.047,541.533,1.113,844.279,545.122,1.132,1188.240,351.327,0.919,786.404,318.064,1.014,1338.243,68.970,0.731,870.663,123.156,0.801,-0.035,-0.973,1.404,0.000,-2.632,0.000,0.025,-0.006,-0.017,0.198,-0.985,1.561
0722_162852_0123.png,0.011,0.142,0.930,-0.054,0.145,0.933,0.117,-0.005,1.146,-0.174,-0.019,1.087,0.227,-0.232,1.221,-0.339,-0.226,1.100,0.238,-0.280,0.972,-0.340,-0.311,0.860,971.428,685.136,0.930,904.492,688.174,0.933,1056.842,535.694,1.146,807.554,523.452,1.087,1136.729,359.628,1.221,667.143,344.702,1.100,1192.922,265.942,0.972,583.607,196.323,0.860,-0.036,-0.969,1.403,0.000,-346.942,0.000,-0.001,0.035,0.035,0.134,-1.195,1.572
0722_162852_0124.png,0.023,0.162,0.931,-0.045,0.164,0.935,0.150,-0.005,1.118,-0.161,-0.004,1.121,0.244,-0.254,1.078,-0.183,-0.266,1.070,0.086,-0.305,0.871,-0.119,-0.313,0.822,983.904,705.917,0.931,913.922,706.522,0.935,1087.481,535.836,1.118,823.865,536.497,1.121,1174.908,315.677,1.078,797.814,303.693,1.070,1053.548,207.010,0.871,822.543,177.147,0.822,-0.031,-0.970,1.403,0.000,-359.458,0.000,-0.046,0.009,0.013,-0.109,-0.981,1.624
0722_162852_0125.png,0.014,0.175,0.940,-0.052,0.177,0.946,0.129,-0.005,1.139,-0.165,-0.014,1.098,0.188,-0.203,1.310,-0.326,-0.227,1.061,0.261,-0.261,1.069,-0.401,-0.323,0.832,973.949,717.096,0.940,907.914,718.105,0.946,1068.006,536.193,1.139,816.740,527.847,1.098,1096.754,392.574,1.310,667.944,336.767,1.061,1191.947,307.654,1.069,501.992,170.724,0.832,-0.039,-0.966,1.402,0.000,-350.666,0.000,-0.003,0.008,0.019,-0.051,-0.670,1.277
0722_162852_0126.png,0.047,0.165,0.950,-0.017,0.162,0.942,0.160,-0.016,1.102,-0.132,-0.006,1.146,0.148,-0.259,0.988,-0.272,-0.195,1.267,-0.016,-0.338,0.798,-0.337,-0.273,1.023,1007.525,705.161,0.950,942.371,703.264,0.942,1097.662,525.955,1.102,850.478,534.850,1.146,1102.799,290.498,0.988,755.515,393.418,1.267,940.407,137.717,0.798,646.917,285.783,1.023,-0.031,-0.965,1.402,0.000,-7.598,0.000,0.007,0.029,-0.004,0.157,-0.794,1.389
0722_162852_0127.png,0.039,0.161,0.943,-0.028,0.160,0.941,0.158,-0.015,1.108,-0.144,-0.010,1.133,0.194,-0.273,1.060,-0.240,-0.175,0.943,0.000,-0.305,0.885,-0.330,-0.336,0.756,999.448,702.852,0.943,931.594,702.044,0.941,1095.716,526.812,1.108,838.981,532.000,1.133,1133.917,295.173,1.060,718.215,363.447,0.943,959.898,212.349,0.885,544.359,117.671,0.756,-0.033,-0.966,1.402,0.000,-3.750,0.000,-0.022,0.026,0.020,0.031,-0.915,1.186
0722_162852_0128.png,-0.010,0.158,0.941,-0.075,0.164,0.954,0.112,-0.003,1.156,-0.184,-0.017,1.092,0.207,-0.238,1.068,-0.263,-0.267,1.043,0.051,-0.312,0.864,-0.100,-0.316,0.839,950.304,700.132,0.941,885.062,703.648,0.954,1052.368,537.803,1.156,799.725,524.860,1.092,1143.947,327.826,1.068,720.079,296.617,1.043,1015.755,196.636,0.864,847.008,181.992,0.839,-0.032,-0.968,1.403,0.000,-346.329,0.000,-0.023,0.038,-0.008,-0.252,-0.847,1.355
0722_162852_0129.png,0.049,0.153,0.930,-0.016,0.150,0.927,0.168,-0.025,1.076,-0.116,-0.008,1.150,0.117,-0.228,0.918,-0.297,-0.187,1.081,0.031,-0.357,0.716,-0.423,-0.307,0.895,1009.659,696.628,0.930,943.327,693.783,0.927,1108.612,518.042,1.076,864.343,533.604,1.150,1080.732,303.712,0.918,698.784,375.748,1.081,1000.857,66.233,0.716,510.980,214.097,0.895,-0.031,-0.962,1.401,0.000,-13.891,0.000,0.011,0.010,0.038,-0.098,-0.980,1.704
0722_162852_0130.png,0.014,0.181,0.932,-0.055,0.183,0.936,0.134,-0.002,1.130,-0.173,-0.008,1.103,0.181,-0.264,1.200,-0.331,-0.200,1.226,0.164,-0.289,0.942,-0.315,-0.282,0.981,973.927,724.803,0.932,904.597,725.573,0.936,1073.054,538.210,1.130,810.920,532.838,1.103,1103.588,330.613,1.200,703.489,384.537,1.226,1125.345,248.018,0.942,654.310,266.437,0.981,-0.030,-0.965,1.402,0.000,-353.696,0.000,-0.039,-0.021,0.020,-0.032,-0.737,1.404
0722_162852_0131.png,0.025,0.173,0.935,-0.042,0.173,0.937,0.150,-0.007,1.104,-0.150,0.000,1.136,0.129,-0.267,1.032,-0.314,-0.206,1.073,0.085,-0.337,0.783,-0.359,-0.320,0.841,985.597,715.858,0.935,917.748,715.428,0.937,1089.221,533.620,1.104,834.710,540.112,1.136,1078.952,294.411,1.032,682.182,357.030,1.073,1062.615,131.516,0.783,553.688,178.302,0.841,-0.023,-0.969,1.403,0.000,-5.235,0.000,-0.016,0.001,0.005,-0.159,-0.840,1.504
0722_162852_0132.png,0.048,0.182,0.943,-0.020,0.179,0.937,0.170,-0.016,1.083,-0.129,0.001,1.159,0.246,-0.280,1.053,-0.271,-0.231,1.205,0.251,-0.334,0.788,-0.306,-0.294,0.945,1008.752,723.140,0.943,940.068,721.630,0.937,1108.961,525.874,1.083,854.582,541.169,1.159,1182.110,287.452,1.053,746.343,357.451,1.205,1262.528,137.475,0.788,652.151,244.506,0.945,-0.023,-0.961,1.401,0.000,-13.525,0.000,-0.038,-0.015,-0.024,-0.045,-0.651,1.497
0722_162852_0133.png,0.020,0.178,0.931,-0.043,0.177,0.929,0.130,-0.006,1.120,-0.158,-0.006,1.118,0.264,-0.242,1.147,-0.152,-0.240,0.981,0.180,-0.323,0.914,-0.057,-0.359,0.770,980.870,721.636,0.931,915.682,721.452,0.929,1070.064,535.180,1.120,825.501,534.797,1.118,1179.189,339.283,1.147,812.535,307.607,0.981,1147.602,203.787,0.914,889.481,96.496,0.770,-0.025,-0.961,1.401,0.000,-358.437,0.000,0.031,-0.033,0.009,0.115,-0.874,1.406
0722_162852_0134.png,0.059,0.168,0.934,-0.005,0.163,0.927,0.173,-0.009,1.081,-0.104,0.008,1.153,0.204,-0.275,1.081,-0.262,-0.195,1.219,0.031,-0.325,0.892,-0.391,-0.290,1.010,1019.661,710.618,0.934,955.201,706.748,0.927,1111.837,531.981,1.081,873.993,546.193,1.153,1139.731,297.878,1.081,755.478,387.644,1.219,992.757,193.162,0.892,591.681,266.662,1.010,-0.037,-0.974,1.404,0.000,-13.836,0.000,0.035,0.011,-0.002,0.028,-1.131,1.291
0722_162852_0135.png,-0.004,0.168,0.928,-0.067,0.172,0.937,0.113,0.000,1.135,-0.173,-0.008,1.099,0.243,-0.213,1.234,-0.215,-0.234,0.963,0.162,-0.292,1.002,-0.216,-0.360,0.738,956.314,711.925,0.928,892.359,714.441,0.937,1054.428,540.067,1.135,810.334,532.875,1.099,1147.259,375.763,1.234,747.643,309.452,0.963,1113.491,263.162,1.002,681.040,75.843,0.738,-0.025,-0.970,1.403,0.000,-351.426,0.000,0.030,-0.001,0.020,-0.209,-0.921,1.535
0722_162852_0136.png,0.018,0.175,0.929,-0.046,0.174,0.927,0.127,-0.001,1.121,-0.162,-0.002,1.114,0.245,-0.207,1.257,-0.234,-0.250,1.033,0.332,-0.290,1.026,-0.100,-0.342,0.831,978.109,718.841,0.929,912.407,718.824,0.927,1067.497,539.280,1.121,821.356,537.867,1.114,1145.519,383.392,1.257,744.306,309.697,1.033,1267.725,271.398,1.026,845.911,148.976,0.831,-0.023,-0.968,1.403,0.000,-357.368,0.000,0.026,-0.022,0.014,0.112,-0.891,1.701
0722_162852_0137.png,0.030,0.173,0.926,-0.035,0.171,0.922,0.139,-0.006,1.116,-0.156,-0.005,1.118,0.092,-0.216,0.954,-0.248,-0.247,1.223,-0.018,-0.353,0.761,-0.251,-0.301,0.968,990.587,717.476,0.926,923.411,716.657,0.922,1078.823,535.024,1.116,827.533,535.593,1.118,1052.151,324.686,0.954,766.893,347.904,1.223,938.061,98.721,0.761,713.416,244.433,0.968,-0.028,-0.961,1.401,0.000,-359.395,0.000,0.006,-0.040,0.015,0.211,-1.096,1.293
0722_162852_0138.png,0.012,0.162,0.931,-0.052,0.163,0.931,0.118,-0.008,1.132,-0.171,-0.015,1.101,0.188,-0.254,1.219,-0.302,-0.241,1.048,0.184,-0.297,0.967,-0.346,-0.335,0.814,972.219,705.463,0.931,906.437,706.332,0.931,1059.246,533.603,1.132,812.626,527.264,1.101,1106.656,341.821,1.219,686.065,321.525,1.048,1141.459,248.190,0.967,556.163,149.175,0.814,-0.026,-0.963,1.401,0.000,-352.538,0.000,0.021,-0.004,0.032,0.140,-0.947,1.563
0722_162852_0139.png,0.034,0.181,0.946,-0.032,0.180,0.944,0.154,-0.003,1.108,-0.141,0.005,1.146,0.279,-0.236,1.165,-0.152,-0.178,0.925,0.145,-0.305,0.939,-0.164,-0.358,0.709,993.957,722.388,0.946,927.532,721.530,0.944,1092.374,537.194,1.108,843.164,544.559,1.146,1187.373,347.605,1.165,804.126,356.762,0.925,1106.694,231.504,0.939,739.502,60.772,0.709,-0.026,-0.970,1.403,0.000,-6.381,0.000,-0.002,0.006,-0.038,-0.080,-0.803,1.178
0722_162852_0140.png,0.038,0.167,0.931,-0.026,0.166,0.930,0.154,-0.015,1.103,-0.136,-0.009,1.128,0.209,-0.188,0.910,-0.247,-0.204,1.282,0.262,-0.357,0.722,-0.287,-0.278,1.041,998.908,710.789,0.931,933.077,710.076,0.930,1092.767,527.063,1.103,845.521,532.187,1.128,1178.808,343.409,0.910,776.937,388.851,1.282,1305.389,69.415,0.722,697.885,285.952,1.041,-0.036,-0.962,1.401,0.000,-3.881,0.000,0.020,-0.011,0.036,-0.004,-1.005,1.099
0722_162852_0141.png,0.059,0.153,0.946,-0.005,0.148,0.937,0.169,-0.019,1.092,-0.116,-0.005,1.152,0.144,-0.268,1.003,-0.235,-0.236,1.184,0.005,-0.340,0.794,-0.209,-0.298,0.931,1018.862,693.861,0.946,954.582,690.227,0.937,1107.188,523.229,1.092,864.337,535.486,1.152,1096.475,286.418,1.003,771.458,350.068,1.184,966.343,132.857,0.794,747.084,235.429,0.931,-0.035,-0.968,1.403,0.000,-11.024,0.000,0.019,0.044,0.004,0.175,-1.019,1.393
0722_162852_0142.png,0.000,0.170,0.924,-0.067,0.176,0.935,0.122,0.003,1.148,-0.179,-0.013,1.080,0.148,-0.171,0.946,-0.210,-0.272,1.012,0.169,-0.339,0.748,-0.167,-0.331,0.764,960.257,715.169,0.924,892.305,718.518,0.935,1060.923,542.605,1.148,802.054,528.993,1.080,1108.247,368.492,0.946,762.558,284.650,1.012,1174.365,109.225,0.748,752.210,127.823,0.764,-0.039,-0.968,1.403,0.000,-345.773,0.000,-0.042,-0.011,0.022,-0.200,-1.028,1.117
0722_162852_0143.png,0.048,0.177,0.931,-0.016,0.175,0.926,0.162,-0.005,1.100,-0.122,0.004,1.140,0.285,-0.246,1.065,-0.153,-0.223,0.988,0.309,-0.347,0.821,-0.136,-0.363,0.761,1008.581,721.067,0.931,943.617,719.280,0.926,1099.655,535.256,1.100,857.941,542.991,1.140,1214.354,320.184,1.065,812.877,324.854,0.988,1318.045,137.563,0.821,789.716,86.423,0.761,-0.038,-0.965,1.402,0.000,-6.948,0.000,0.034,-0.030,-0.011,0.050,-0.915,1.638
0722_162852_0144.png,0.033,0.149,0.944,-0.034,0.147,0.942,0.153,-0.019,1.108,-0.147,-0.011,1.146,0.288,-0.229,1.196,-0.184,-0.241,1.009,0.389,-0.283,0.957,-0.083,-0.336,0.781,993.089,689.637,0.944,925.483,688.046,0.942,1091.700,523.444,1.108,838.126,531.162,1.146,1188.953,358.056,1.196,786.644,313.151,1.009,1346.824,258.663,0.957,858.807,131.076,0.781,-0.023,-0.962,1.401,0.000,-6.153,0.000,-0.020,0.036,-0.009,-0.022,-1.033,1.450
0722_162852_0145.png,0.029,0.159,0.938,-0.040,0.160,0.940,0.154,-0.009,1.125,-0.157,-0.009,1.125,0.271,-0.233,1.022,-0.313,-0.223,1.190,0.305,-0.328,0.777,-0.195,-0.281,0.957,989.638,701.064,0.938,919.937,701.575,0.940,1090.070,532.219,1.125,827.339,532.229,1.125,1211.815,323.328,1.022,709.920,362.053,1.190,1333.027,138.858,0.777,765.820,261.242,0.957,-0.036,-0.964,1.402,0.000,-358.837,0.000,-0.047,0.014,-0.006,-0.052,-0.887,1.742
0722_162852_0146.png,0.001,0.173,0.926,-0.066,0.177,0.935,0.122,0.002,1.144,-0.181,-0.011,1.087,0.265,-0.229,1.191,-0.183,-0.253,0.970,0.340,-0.287,0.950,-0.094,-0.342,0.743,961.503,717.893,0.926,893.004,720.368,0.935,1061.671,541.248,1.144,801.891,529.949,1.087,1171.356,356.985,1.191,780.422,291.701,0.970,1300.844,252.213,0.950,840.199,102.642,0.743,-0.033,-0.966,1.402,0.000,-347.992,0.000,-0.039,-0.018,0.018,-0.133,-0.907,1.356
0722_162852_0147.png,0.032,0.192,0.927,-0.034,0.191,0.925,0.147,0.004,1.112,-0.153,0.006,1.120,0.144,-0.231,0.976,-0.158,-0.179,0.919,0.022,-0.348,0.773,-0.162,-0.359,0.723,992.973,736.518,0.927,924.586,736.051,0.925,1085.775,543.526,1.112,829.697,545.113,1.120,1099.995,314.471,0.976,796.037,354.990,0.919,986.722,112.545,0.773,747.046,67.870,0.723,-0.031,-0.970,1.403,0.000,-0.443,0.000,-0.013,-0.045,0.005,0.125,-0.946,1.123
0722_162852_0148.png,0.026,0.156,0.936,-0.042,0.156,0.935,0.141,-0.010,1.132,-0.166,-0.012,1.119,0.178,-0.239,0.988,-0.250,-0.254,1.210,0.073,-0.340,0.764,-0.237,-0.290,0.947,985.938,698.531,0.936,916.793,698.732,0.935,1078.218,531.999,1.132,819.180,529.393,1.119,1131.136,310.435,0.988,763.603,340.269,1.210,1051.391,116.992,0.764,721.699,248.895,0.947,-0.031,-0.959,1.401,0.000,-356.360,0.000,-0.033,-0.001,-0.011,0.131,-1.088,1.463
0722_162852_0149.png,0.056,0.162,0.933,-0.013,0.157,0.926,0.173,-0.008,1.094,-0.133,0.004,1.147,0.169,-0.247,0.965,-0.145,-0.206,0.973,0.128,-0.343,0.721,-0.080,-0.339,0.751,1016.572,705.049,0.933,946.987,701.449,0.926,1110.647,532.709,1.094,849.798,543.086,1.147,1126.222,296.706,0.965,817.999,338.948,0.973,1128.666,87.948,0.721,858.318,110.553,0.751,-0.034,-0.970,1.403,0.000,-8.841,0.000,-0.047,0.005,-0.005,0.161,-1.134,1.583
0722_162852_0150.png,0.000,0.162,0.933,-0.065,0.166,0.942,0.120,-0.004,1.143,-0.176,-0.013,1.105,0.221,-0.246,1.069,-0.205,-0.279,1.059,0.085,-0.325,0.855,-0.160,-0.336,0.803,960.360,705.362,0.933,894.293,707.926,0.942,1059.485,536.368,1.143,808.545,528.917,1.105,1156.450,321.145,1.069,775.874,289.328,1.059,1054.891,177.852,0.855,770.846,142.140,0.803,-0.027,-0.962,1.401,0.000,-351.495,0.000,-0.004,-0.002,-0.010,-0.171,-0.974,1.405
0722_162852_0151.png,0.017,0.146,0.932,-0.049,0.150,0.939,0.142,-0.004,1.133,-0.159,-0.009,1.114,0.147,-0.268,1.133,-0.332,-0.195,1.197,0.097,-0.305,0.878,-0.241,-0.284,0.967,977.388,689.539,0.932,910.140,692.351,0.939,1079.578,536.398,1.133,824.501,532.688,1.114,1083.177,314.664,1.133,696.605,385.278,1.197,1065.587,210.119,0.878,723.483,260.297,0.967,-0.038,-0.971,1.403,0.000,-355.202,0.000,-0.016,0.030,0.003,-0.216,-1.213,1.543
0722_162852_0152.png,0.015,0.188,0.926,-0.050,0.190,0.932,0.138,0.000,1.116,-0.157,0.001,1.118,0.096,-0.232,0.982,-0.226,-0.268,1.129,-0.017,-0.352,0.779,-0.205,-0.327,0.874,975.415,733.571,0.926,908.880,734.107,0.932,1077.325,540.278,1.116,826.248,540.724,1.118,1052.999,315.031,0.982,769.773,313.848,1.129,939.571,110.795,0.779,737.011,184.249,0.874,-0.027,-0.966,1.402,0.000,-359.283,0.000,0.007,-0.043,0.009,-0.188,-0.737,1.592
0722_162852_0153.png,0.011,0.185,0.931,-0.057,0.188,0.939,0.134,0.007,1.136,-0.172,-0.002,1.098,0.109,-0.215,0.985,-0.274,-0.253,1.066,-0.023,-0.331,0.787,-0.106,-0.311,0.871,971.050,729.237,0.931,902.364,730.602,0.939,1072.079,545.777,1.136,810.968,538.302,1.098,1065.699,332.797,0.985,715.285,314.049,1.066,932.737,139.695,0.787,844.612,200.118,0.871,-0.036,-0.974,1.404,0.000,-351.458,0.000,-0.039,-0.012,0.010,-0.121,-0.714,1.521
0722_162852_0154.png,0.025,0.176,0.931,-0.042,0.177,0.934,0.146,0.002,1.126,-0.158,0.001,1.121,0.254,-0.205,1.273,-0.268,-0.207,1.265,0.326,-0.278,1.024,-0.307,-0.280,1.010,985.411,719.520,0.931,916.840,720.166,0.934,1083.337,541.644,1.126,826.239,540.714,1.121,1149.965,386.745,1.273,758.260,384.650,1.265,1262.259,282.104,1.024,670.822,276.603,1.010,-0.034,-0.968,1.403,0.000,-357.896,0.000,-0.023,-0.020,-0.019,-0.062,-1.074,1.157
0722_162852_0155.png,0.005,0.189,0.933,-0.061,0.191,0.938,0.111,0.011,1.147,-0.178,-0.001,1.094,0.225,-0.214,1.257,-0.341,-0.219,1.068,0.378,-0.282,1.049,-0.427,-0.333,0.843,964.602,732.417,0.933,898.574,733.835,0.938,1051.934,548.992,1.147,805.263,538.771,1.094,1129.858,378.259,1.257,656.729,345.238,1.068,1302.865,284.807,1.049,478.657,164.653,0.843,-0.030,-0.971,1.403,0.000,-348.097,0.000,0.010,-0.022,-0.019,0.085,-0.790,1.269
0722_162852_0156.png,0.037,0.149,0.939,-0.029,0.148,0.942,0.164,-0.014,1.104,-0.127,-0.002,1.155,0.260,-0.220,1.236,-0.157,-0.182,0.935,0.369,-0.282,0.998,-0.189,-0.357,0.722,997.130,691.148,0.939,930.829,689.820,0.942,1101.457,527.961,1.104,855.528,538.186,1.155,1159.847,370.533,1.236,800.418,354.874,0.935,1311.673,271.541,0.998,710.680,69.050,0.722,-0.031,-0.965,1.402,0.000,-9.064,0.000,0.004,0.030,-0.039,-0.261,-1.124,1.564
0722_162852_0157.png,0.031,0.163,0.927,-0.035,0.163,0.928,0.150,-0.010,1.107,-0.145,-0.006,1.124,0.094,-0.213,0.947,-0.305,-0.217,1.086,-0.018,-0.348,0.758,-0.380,-0.320,0.864,991.601,707.313,0.927,924.622,706.949,0.928,1088.493,531.300,1.107,837.706,534.794,1.124,1054.583,325.726,0.947,692.862,349.657,1.086,937.070,104.090,0.758,541.338,187.938,0.864,-0.033,-0.965,1.402,0.000,-2.279,0.000,0.007,-0.010,0.030,-0.050,-1.041,1.513
0722_162852_0158.png,0.015,0.153,0.934,-0.051,0.155,0.938,0.129,-0.009,1.135,-0.166,-0.017,1.102,0.136,-0.260,1.056,-0.317,-0.189,1.235,0.095,-0.326,0.813,-0.341,-0.279,0.997,975.107,695.436,0.934,908.513,697.159,0.938,1068.254,532.369,1.135,816.835,525.666,1.102,1082.421,306.181,1.056,715.805,394.123,1.235,1071.671,158.689,0.813,634.600,274.178,0.997,-0.034,-0.966,1.402,0.000,-352.350,0.000,0.000,0.025,0.032,-0.006,-1.036,1.393
0722_162852_0159.png,0.016,0.159,0.935,-0.050,0.160,0.936,0.128,0.000,1.138,-0.168,-0.005,1.116,0.149,-0.263,1.069,-0.295,-0.243,1.078,0.108,-0.336,0.813,-0.174,-0.327,0.853,976.142,701.540,0.935,909.218,702.665,0.936,1066.656,539.970,1.138,816.439,535.570,1.116,1092.817,305.678,1.069,699.798,326.116,1.078,1086.294,146.767,0.813,765.809,175.635,0.853,-0.028,-0.967,1.402,0.000,-354.378,0.000,0.000,0.006,-0.026,0.076,-1.116,1.550
0722_162852_0160.png,0.010,0.182,0.931,-0.055,0.183,0.932,0.115,0.004,1.139,-0.173,-0.005,1.098,0.172,-0.231,1.014,-0.288,-0.217,1.232,0.084,-0.349,0.797,-0.357,-0.296,0.992,970.099,725.657,0.931,904.153,726.711,0.932,1056.103,543.512,1.139,809.770,535.505,1.098,1121.329,323.804,1.014,737.446,372.780,1.232,1060.590,123.735,0.797,617.136,255.756,0.992,-0.028,-0.967,1.402,0.000,-350.556,0.000,0.018,-0.025,0.001,0.151,-0.932,1.118
0722_162852_0161.png,0.031,0.163,0.938,-0.036,0.164,0.940,0.153,-0.007,1.126,-0.151,-0.006,1.129,0.204,-0.191,0.922,-0.283,-0.185,1.285,0.213,-0.358,0.707,-0.266,-0.270,1.030,991.773,705.702,0.938,923.574,705.996,0.940,1089.228,534.147,1.126,832.963,534.855,1.129,1170.043,343.201,0.922,750.546,402.971,1.285,1245.990,59.119,0.707,714.644,290.213,1.030,-0.037,-0.963,1.402,0.000,-359.517,0.000,-0.023,0.002,-0.025,-0.041,-0.899,1.701
0722_162852_0162.png,0.037,0.169,0.942,-0.026,0.167,0.937,0.147,-0.015,1.109,-0.136,-0.009,1.133,0.102,-0.194,0.911,-0.298,-0.192,1.028,0.061,-0.369,0.718,-0.413,-0.335,0.843,997.079,710.919,0.942,933.594,709.917,0.937,1085.673,527.348,1.109,845.914,532.395,1.133,1066.746,337.767,0.911,684.665,362.458,1.028,1040.999,51.170,0.718,494.036,162.629,0.843,-0.031,-0.961,1.401,0.000,-3.964,0.000,0.045,0.001,0.010,0.110,-0.835,1.260
0722_162852_0163.png,0.053,0.156,0.933,-0.014,0.152,0.930,0.177,-0.020,1.081,-0.118,-0.003,1.159,0.234,-0.280,1.024,-0.257,-0.237,1.168,0.114,-0.332,0.792,-0.265,-0.300,0.910,1014.352,699.130,0.933,945.596,695.699,0.930,1115.368,521.969,1.081,862.846,537.937,1.159,1176.949,280.269,1.024,751.152,347.287,1.168,1097.185,140.918,0.792,683.544,226.408,0.910,-0.031,-0.961,1.401,0.000,-14.053,0.000,-0.030,0.005,-0.009,-0.085,-1.059,1.572
0722_162852_0164.png,-0.001,0.163,0.939,-0.065,0.167,0.950,0.115,-0.006,1.152,-0.175,-0.019,1.094,0.125,-0.232,1.004,-0.244,-0.278,1.084,-0.016,-0.336,0.807,-0.232,-0.330,0.826,959.419,704.986,0.939,894.684,707.557,0.950,1054.822,535.077,1.152,807.769,523.391,1.094,1078.734,320.291,1.004,745.781,296.480,1.084,941.043,143.865,0.807,693.001,159.534,0.826,-0.035,-0.962,1.401,0.000,-347.383,0.000,0.003,0.016,-0.003,-0.154,-0.811,1.321
0722_162852_0165.png,-0.003,0.169,0.916,-0.068,0.173,0.923,0.107,0.004,1.144,-0.183,-0.010,1.084,0.047,-0.172,0.941,-0.267,-0.210,1.264,-0.012,-0.345,0.744,-0.335,-0.288,1.024,957.129,715.034,0.916,890.124,718.653,0.923,1048.679,543.349,1.144,799.568,531.475,1.084,1007.671,365.816,0.941,759.518,382.209,1.264,945.028,99.292,0.744,649.281,272.284,1.024,-0.027,-0.963,1.401,0.000,-346.861,0.000,0.003,-0.047,0.011,-0.045,-1.167,1.438
0722_162852_0166.png,-0.001,0.167,0.923,-0.065,0.172,0.934,0.120,0.000,1.132,-0.170,-0.009,1.094,0.168,-0.241,1.035,-0.276,-0.190,1.265,0.023,-0.328,0.843,-0.264,-0.278,1.028,958.648,711.846,0.923,893.780,714.700,0.934,1061.047,539.842,1.132,811.786,532.246,1.094,1114.156,318.975,1.035,752.837,397.479,1.265,985.683,169.812,0.843,716.001,282.959,1.028,-0.030,-0.971,1.403,0.000,-351.192,0.000,0.012,-0.003,0.041,-0.279,-0.943,1.565
0722_162852_0167.png,0.032,0.161,0.938,-0.034,0.161,0.942,0.159,-0.022,1.098,-0.135,-0.012,1.144,0.215,-0.281,1.053,-0.292,-0.194,1.266,0.040,-0.320,0.862,-0.404,-0.270,1.044,992.537,702.759,0.938,925.747,702.402,0.942,1098.058,520.717,1.098,847.622,530.245,1.144,1154.219,286.310,1.053,740.749,394.381,1.266,1004.523,186.940,0.862,591.434,293.705,1.044,-0.029,-0.958,1.400,0.000,-7.899,0.000,-0.005,0.007,0.011,-0.301,-0.898,1.203
0722_162852_0168.png,-0.007,0.159,0.931,-0.071,0.164,0.940,0.104,-0.003,1.147,-0.181,-0.017,1.088,0.073,-0.172,0.936,-0.261,-0.191,0.902,0.044,-0.337,0.731,-0.328,-0.359,0.715,952.365,702.446,0.931,888.135,705.629,0.940,1045.838,537.306,1.147,802.007,525.348,1.088,1034.632,365.200,0.936,684.883,338.565,0.902,1017.351,102.107,0.731,523.302,62.554,0.715,-0.027,-0.967,1.402,0.000,-346.847,0.000,0.021,0.015,0.022,-0.124,-1.008,1.266
0722_162852_0169.png,0.050,0.182,0.919,-0.017,0.180,0.922,0.180,-0.003,1.078,-0.110,0.014,1.151,0.165,-0.225,0.914,-0.230,-0.235,1.189,0.120,-0.371,0.694,-0.211,-0.308,0.933,1011.314,727.857,0.919,942.711,725.863,0.922,1118.916,537.367,1.078,869.297,551.477,1.151,1131.246,305.969,0.914,775.844,352.231,1.189,1123.946,31.635,0.694,745.062,226.243,0.933,-0.039,-0.970,1.403,0.000,-13.398,0.000,-0.009,-0.042,-0.013,-0.315,-1.066,1.473
0722_162852_0170.png,0.052,0.164,0.931,-0.016,0.160,0.927,0.174,-0.011,1.093,-0.129,0.003,1.152,0.293,-0.240,1.188,-0.244,-0.222,1.040,0.388,-0.292,0.940,-0.165,-0.332,0.806,1012.861,707.156,0.931,943.152,704.134,0.927,1111.721,530.536,1.093,853.832,542.101,1.152,1194.859,347.747,1.188,736.518,336.787,1.040,1352.526,244.578,0.940,765.480,148.575,0.806,-0.034,-0.964,1.402,0.000,-10.017,0.000,-0.040,-0.013,-0.022,0.011,-1.062,1.694
0722_162852_0171.png,0.029,0.159,0.946,-0.038,0.157,0.942,0.145,-0.007,1.119,-0.158,-0.003,1.136,0.172,-0.254,1.202,-0.155,-0.208,0.952,0.145,-0.288,0.939,-0.092,-0.349,0.731,988.850,700.125,0.946,921.155,698.929,0.942,1083.166,533.766,1.119,827.719,537.192,1.136,1095.758,339.000,1.202,805.411,332.292,0.952,1106.524,248.938,0.939,840.645,85.963,0.731,-0.023,-0.970,1.403,0.000,-2.184,0.000,-0.022,0.035,-0.020,0.108,-0.967,1.505
0722_162852_0172.png,0.006,0.183,0.943,-0.061,0.185,0.949,0.124,0.007,1.146,-0.179,-0.003,1.104,0.142,-0.233,1.014,-0.226,-0.229,0.955,-0.018,-0.327,0.818,-0.217,-0.352,0.715,966.519,724.038,0.943,898.878,725.264,0.949,1062.835,545.757,1.146,806.055,537.671,1.104,1093.077,321.585,1.014,734.499,311.862,0.955,939.231,159.153,0.818,670.972,72.363,0.715,-0.030,-0.974,1.404,0.000,-350.733,0.000,-0.029,0.012,-0.023,-0.020,-0.736,1.159
0722_162852_0173.png,0.055,0.172,0.924,-0.010,0.168,0.918,0.171,-0.009,1.072,-0.112,0.008,1.147,0.178,-0.214,1.253,-0.183,-0.204,1.006,0.195,-0.285,1.007,-0.119,-0.340,0.797,1016.517,717.100,0.924,949.988,713.476,0.918,1112.047,532.034,1.072,866.829,546.758,1.147,1095.156,377.903,1.253,786.817,346.947,1.006,1144.305,270.675,1.007,818.609,134.655,0.797,-0.034,-0.973,1.404,0.000,-13.913,0.000,0.010,-0.013,0.029,0.010,-1.209,1.170
0722_162852_0174.png,0.026,0.145,0.937,-0.041,0.146,0.937,0.140,-0.012,1.131,-0.161,-0.017,1.111,0.294,-0.228,1.109,-0.286,-0.190,1.267,0.364,-0.303,0.873,-0.424,-0.257,1.057,986.750,687.239,0.937,918.875,687.829,0.937,1077.438,529.640,1.131,821.813,525.661,1.111,1212.011,344.697,1.109,745.565,397.490,1.267,1356.518,210.473,0.873,578.450,308.941,1.057,-0.036,-0.966,1.402,0.000,-355.062,0.000,-0.016,0.035,0.026,0.123,-1.092,1.541
0722_162852_0175.png,0.038,0.170,0.928,-0.027,0.169,0.929,0.163,-0.009,1.099,-0.126,0.002,1.146,0.188,-0.277,1.032,-0.191,-0.240,1.027,0.032,-0.345,0.825,-0.071,-0.349,0.816,998.801,714.150,0.928,932.466,712.944,0.929,1100.601,532.191,1.099,855.742,541.396,1.146,1133.293,284.731,1.032,782.665,317.804,1.027,997.423,142.854,0.825,876.682,133.190,0.816,-0.034,-0.961,1.401,0.000,-8.250,0.000,0.016,-0.030,-0.024,-0.223,-1.125,1.294
0722_162852_0176.png,0.003,0.151,0.931,-0.065,0.154,0.937,0.127,-0.007,1.137,-0.180,-0.013,1.108,0.279,-0.227,1.089,-0.289,-0.239,1.005,0.281,-0.312,0.841,-0.261,-0.334,0.762,962.948,694.188,0.931,893.962,696.673,0.937,1066.299,534.307,1.137,805.206,528.488,1.108,1203.618,341.933,1.089,686.247,313.901,1.005,1278.334,187.347,0.841,634.087,123.419,0.762,-0.024,-0.964,1.402,0.000,-353.347,0.000,-0.040,0.012,0.006,-0.131,-1.064,1.670
0722_162852_0177.png,0.044,0.176,0.946,-0.022,0.174,0.942,0.161,-0.004,1.109,-0.135,0.004,1.143,0.291,-0.239,1.082,-0.157,-0.241,1.022,0.302,-0.327,0.827,-0.107,-0.342,0.777,1004.496,717.191,0.946,938.017,715.974,0.942,1098.457,536.837,1.109,847.984,543.585,1.143,1216.129,330.017,1.082,814.102,316.014,1.022,1307.023,163.461,0.827,828.838,121.085,0.777,-0.034,-0.972,1.404,0.000,-5.703,0.000,-0.004,0.017,-0.027,0.044,-0.736,1.650
0722_162852_0178.png,-0.008,0.182,0.933,-0.070,0.186,0.945,0.106,0.003,1.140,-0.174,-0.007,1.098,0.220,-0.211,1.258,-0.210,-0.265,1.025,0.387,-0.283,1.073,-0.055,-0.348,0.834,951.924,725.038,0.933,889.853,726.791,0.945,1048.276,542.251,1.140,809.715,534.135,1.098,1126.566,380.363,1.258,764.968,294.256,1.025,1303.340,289.397,1.073,897.336,142.947,0.834,-0.024,-0.969,1.403,0.000,-350.220,0.000,0.048,-0.011,0.003,-0.240,-0.701,1.457
0722_162852_0179.png,0.047,0.174,0.945,-0.017,0.172,0.943,0.167,-0.010,1.095,-0.115,0.004,1.156,0.103,-0.235,0.945,-0.269,-0.175,1.008,-0.019,-0.365,0.739,-0.381,-0.339,0.821,1007.120,715.307,0.945,942.455,713.760,0.943,1105.002,530.921,1.095,865.302,543.076,1.156,1063.719,303.144,0.945,706.782,375.033,1.008,935.713,70.671,0.739,518.799,147.389,0.821,-0.032,-0.968,1.403,0.000,-11.490,0.000,0.027,0.015,-0.034,-0.177,-0.863,1.127
0722_162852_0180.png,0.037,0.164,0.927,-0.029,0.162,0.922,0.148,-0.006,1.110,-0.149,-0.003,1.122,0.189,-0.201,1.298,-0.194,-0.179,0.921,0.289,-0.267,1.069,-0.235,-0.349,0.726,998.057,708.144,0.927,930.434,706.750,0.922,1087.096,535.109,1.110,833.619,537.369,1.122,1098.365,392.571,1.298,760.107,355.752,0.921,1217.575,302.682,1.069,651.862,82.305,0.726,-0.032,-0.968,1.403,0.000,-1.068,0.000,-0.003,-0.015,0.025,0.194,-1.120,1.590
0722_162852_0181.png,0.012,0.165,0.934,-0.057,0.167,0.939,0.133,-0.007,1.135,-0.174,-0.014,1.104,0.183,-0.177,0.931,-0.234,-0.260,1.013,0.229,-0.341,0.731,-0.069,-0.321,0.817,971.856,707.950,0.934,902.747,709.359,0.939,1071.462,533.966,1.135,809.945,527.791,1.104,1147.417,359.507,0.931,740.325,296.301,1.013,1258.033,96.271,0.731,879.508,166.734,0.817,-0.030,-0.963,1.401,0.000,-353.039,0.000,-0.040,0.001,0.017,-0.059,-0.937,1.254
0722_162852_0182.png,0.041,0.146,0.938,-0.027,0.144,0.938,0.166,-0.022,1.093,-0.134,-0.009,1.151,0.204,-0.279,1.044,-0.214,-0.240,1.046,0.032,-0.310,0.848,-0.060,-0.316,0.842,1001.381,688.415,0.938,932.870,686.279,0.938,1104.057,520.668,1.093,849.118,532.706,1.151,1146.121,285.658,1.044,765.617,321.481,1.046,996.376,191.717,0.848,892.061,183.549,0.842,-0.027,-0.964,1.402,0.000,-10.106,0.000,-0.029,0.035,0.009,-0.138,-1.190,1.199
0722_162852_0183.png,0.009,0.178,0.914,-0.057,0.181,0.917,0.114,0.015,1.140,-0.177,0.001,1.081,0.226,-0.209,1.265,-0.232,-0.182,1.285,0.377,-0.276,1.065,-0.292,-0.280,1.052,969.097,724.872,0.914,901.049,727.837,0.917,1054.924,552.428,1.140,804.400,541.091,1.081,1129.549,382.759,1.265,788.171,405.106,1.285,1296.979,293.312,1.065,695.682,287.010,1.052,-0.033,-0.975,1.404,0.000,-346.975,0.000,0.000,-0.044,0.018,0.100,-1.119,1.639
0722_162852_0184.png,0.012,0.179,0.940,-0.052,0.182,0.947,0.126,0.003,1.141,-0.162,-0.003,1.112,0.155,-0.249,1.033,-0.139,-0.190,0.897,-0.007,-0.340,0.845,-0.119,-0.372,0.689,972.593,721.154,0.940,908.172,722.501,0.947,1065.310,542.760,1.141,821.339,537.226,1.112,1102.248,310.651,1.033,813.193,339.003,0.897,951.893,157.133,0.845,795.507,25.742,0.689,-0.034,-0.969,1.403,0.000,-353.035,0.000,0.023,-0.001,-0.031,-0.083,-0.761,1.407
0722_162852_0185.png,0.030,0.162,0.941,-0.038,0.163,0.944,0.157,-0.009,1.116,-0.150,-0.005,1.135,0.232,-0.198,1.288,-0.300,-0.201,1.243,0.192,-0.261,1.032,-0.438,-0.266,1.023,990.209,704.056,0.941,921.558,704.196,0.944,1093.913,532.088,1.116,834.722,535.877,1.135,1131.592,393.480,1.288,730.186,386.308,1.243,1136.908,299.378,1.032,552.654,292.767,1.023,-0.033,-0.967,1.402,0.000,-2.464,0.000,-0.035,0.022,-0.012,-0.163,-0.914,1.455
0722_162852_0186.png,0.024,0.162,0.927,-0.041,0.162,0.928,0.142,-0.012,1.115,-0.153,-0.009,1.125,0.257,-0.248,1.046,-0.290,-0.216,1.017,0.300,-0.340,0.805,-0.360,-0.342,0.799,984.471,705.876,0.927,917.470,705.726,0.928,1080.958,530.057,1.115,830.916,532.189,1.125,1193.845,314.471,1.046,689.137,338.406,1.017,1314.206,138.502,0.805,531.385,133.450,0.799,-0.028,-0.958,1.400,0.000,-0.923,0.000,0.007,-0.028,0.008,-0.032,-1.002,1.728
0722_162852_0187.png,0.015,0.174,0.926,-0.052,0.176,0.928,0.127,0.004,1.134,-0.173,-0.005,1.094,0.176,-0.241,1.042,-0.323,-0.231,1.070,0.023,-0.319,0.844,-0.382,-0.319,0.835,975.698,718.684,0.926,906.911,720.031,0.928,1066.890,543.511,1.134,809.603,535.674,1.094,1120.588,319.539,1.042,673.120,334.307,1.070,985.607,180.523,0.844,525.104,176.511,0.835,-0.033,-0.973,1.404,0.000,-351.074,0.000,-0.021,-0.012,0.029,0.107,-1.043,1.243
0722_162852_0188.png,0.038,0.167,0.937,-0.030,0.166,0.935,0.162,-0.018,1.101,-0.145,-0.008,1.142,0.132,-0.256,0.975,-0.176,-0.187,0.939,0.008,-0.339,0.756,-0.170,-0.347,0.726,998.986,709.923,0.937,929.402,708.798,0.935,1099.704,524.823,1.101,839.318,533.225,1.142,1089.085,290.483,0.975,781.521,350.376,0.939,969.727,113.124,0.756,737.547,85.433,0.726,-0.028,-0.957,1.400,0.000,-6.651,0.000,-0.043,-0.012,0.000,-0.031,-0.896,1.315
0722_162852_0189.png,0.030,0.159,0.929,-0.036,0.161,0.936,0.161,-0.010,1.109,-0.137,-0.005,1.135,0.178,-0.264,1.206,-0.312,-0.189,1.231,0.172,-0.298,0.944,-0.329,-0.288,0.986,990.991,703.143,0.929,923.790,703.714,0.936,1097.728,531.010,1.109,845.101,536.164,1.135,1100.023,332.030,1.206,718.905,393.659,1.231,1133.605,240.181,0.944,642.549,262.278,0.986,-0.038,-0.963,1.402,0.000,-3.891,0.000,-0.007,-0.004,-0.002,-0.332,-1.125,1.383
0722_162852_0190.png,0.042,0.147,0.939,-0.022,0.146,0.941,0.168,-0.020,1.095,-0.116,-0.007,1.154,0.297,-0.236,1.167,-0.105,-0.183,0.938,0.388,-0.302,0.930,-0.097,-0.356,0.727,1002.850,688.845,0.939,937.787,687.304,0.941,1105.535,522.376,1.095,864.462,534.435,1.154,1201.661,347.612,1.167,853.421,354.196,0.938,1357.083,231.344,0.930,833.373,74.976,0.727,-0.035,-0.964,1.402,0.000,-10.868,0.000,0.024,0.035,-0.010,-0.274,-1.057,1.581
0722_162852_0191.png,0.034,0.168,0.937,-0.029,0.167,0.936,0.151,-0.005,1.107,-0.132,0.003,1.140,0.082,-0.188,0.911,-0.222,-0.235,1.047,0.019,-0.368,0.720,-0.093,-0.341,0.845,994.864,710.427,0.937,930.872,709.337,0.936,1089.307,535.938,1.107,850.209,542.276,1.140,1045.502,344.170,0.911,758.585,326.226,1.047,984.594,54.616,0.720,855.079,155.912,0.845,-0.031,-0.971,1.403,0.000,-5.558,0.000,0.043,0.010,-0.014,-0.064,-0.915,1.680
0722_162852_0192.png,0.012,0.161,0.936,-0.056,0.162,0.937,0.124,-0.008,1.140,-0.178,-0.018,1.095,0.134,-0.234,1.005,-0.167,-0.276,1.034,-0.024,-0.322,0.813,-0.102,-0.323,0.791,972.018,703.538,0.936,903.420,704.734,0.937,1063.375,533.279,1.140,805.295,524.162,1.095,1086.814,318.578,1.005,806.732,286.543,1.034,932.292,163.288,0.813,837.742,150.948,0.791,-0.030,-0.964,1.402,0.000,-350.267,0.000,-0.029,0.012,0.030,0.141,-0.983,1.117
0722_162852_0193.png,0.008,0.184,0.936,-0.055,0.186,0.942,0.122,0.001,1.130,-0.161,-0.003,1.112,0.107,-0.248,1.022,-0.307,-0.213,1.196,0.053,-0.356,0.788,-0.430,-0.305,0.985,968.322,727.109,0.936,904.974,727.994,0.942,1062.877,541.219,1.130,822.118,537.756,1.112,1059.141,309.170,1.022,716.195,370.470,1.196,1023.541,110.110,0.788,545.308,245.513,0.985,-0.027,-0.969,1.403,0.000,-355.157,0.000,0.043,-0.013,-0.005,-0.135,-0.717,1.375
0722_162852_0194.png,0.011,0.157,0.944,-0.054,0.158,0.947,0.127,-0.008,1.130,-0.167,-0.010,1.121,0.237,-0.240,1.063,-0.208,-0.253,1.021,0.248,-0.328,0.815,-0.073,-0.333,0.810,971.140,698.167,0.944,905.640,698.916,0.947,1067.213,533.595,1.130,818.455,531.782,1.121,1172.456,325.568,1.063,766.174,304.576,1.021,1249.855,157.732,0.815,874.549,148.901,0.810,-0.022,-0.970,1.403,0.000,-357.023,0.000,0.008,0.043,0.000,-0.050,-1.028,1.072
0722_162852_0195.png,-0.007,0.171,0.928,-0.073,0.177,0.941,0.120,0.000,1.149,-0.182,-0.015,1.084,0.266,-0.230,1.184,-0.188,-0.260,0.973,0.321,-0.288,0.937,-0.093,-0.340,0.744,953.218,715.337,0.928,886.485,718.383,0.941,1059.470,539.751,1.149,800.523,526.742,1.084,1173.454,355.601,1.184,776.626,285.965,0.973,1285.459,248.165,0.937,840.563,105.183,0.744,-0.035,-0.964,1.402,0.000,-346.474,0.000,-0.041,-0.010,0.016,-0.299,-0.798,1.518
0722_162852_0196.png,-0.001,0.144,0.927,-0.066,0.147,0.929,0.101,-0.009,1.146,-0.185,-0.022,1.087,0.197,-0.239,1.058,-0.275,-0.223,1.240,0.072,-0.324,0.850,-0.308,-0.285,0.994,958.680,687.529,0.927,892.437,690.397,0.929,1044.073,532.682,1.146,797.834,520.580,1.087,1136.809,325.327,1.058,748.776,369.217,1.240,1040.192,177.800,0.850,665.669,267.788,0.994,-0.022,-0.961,1.401,0.000,-347.052,0.000,0.014,0.009,0.032,0.138,-1.199,1.558
0722_162852_0197.png,0.025,0.182,0.939,-0.039,0.183,0.941,0.136,-0.004,1.125,-0.149,-0.006,1.114,0.194,-0.260,1.065,-0.151,-0.188,0.908,0.033,-0.332,0.877,-0.154,-0.366,0.709,984.864,724.714,0.939,920.886,725.022,0.941,1075.002,536.786,1.125,832.498,534.642,1.114,1133.668,307.800,1.065,802.289,343.176,0.908,995.929,180.054,0.877,754.083,48.997,0.709,-0.036,-0.967,1.402,0.000,-356.610,0.000,0.038,-0.007,0.012,0.004,-0.659,1.344
0722_162852_0198.png,0.049,0.171,0.938,-0.017,0.168,0.933,0.166,-0.016,1.081,-0.124,-0.001,1.145,0.227,-0.207,1.256,-0.149,-0.174,0.943,0.188,-0.274,1.013,-0.171,-0.342,0.744,1009.205,713.051,0.938,942.766,711.350,0.933,1105.610,525.979,1.081,856.891,538.958,1.145,1132.129,383.238,1.256,809.530,364.471,0.943,1136.848,283.222,1.013,741.249,103.695,0.744,-0.030,-0.970,1.403,0.000,-11.582,0.000,0.000,0.016,0.036,-0.017,-0.888,1.083
0722_162852_0199.png,0.038,0.166,0.943,-0.026,0.165,0.942,0.158,-0.014,1.099,-0.128,-0.002,1.147,0.268,-0.252,1.059,-0.172,-0.180,0.940,0.297,-0.337,0.811,-0.217,-0.354,0.738,998.409,707.335,0.943,933.532,706.162,0.942,1096.425,528.314,1.099,853.835,538.086,1.147,1200.719,313.534,1.059,785.738,357.597,0.940,1307.903,144.723,0.811,680.250,84.063,0.738,-0.029,-0.968,1.403,0.000,-8.749,0.000,0.023,0.025,-0.006,-0.129,-0.813,1.485
0722_162852_0200.png,0.021,0.149,0.930,-0.046,0.148,0.930,0.141,-0.013,1.113,-0.161,-0.010,1.125,0.260,-0.247,1.059,-0.198,-0.189,0.933,0.184,-0.320,0.825,-0.185,-0.346,0.727,981.398,692.003,0.930,912.835,691.601,0.930,1080.556,528.631,1.113,823.705,531.200,1.125,1193.872,318.616,1.059,757.995,346.862,0.933,1172.295,171.295,0.825,718.633,87.506,0.727,-0.022,-0.965,1.402,0.000,-1.272,0.000,-0.019,0.012,0.027,-0.017,-1.167,1.593
0722_162852_0201.png,0.019,0.160,0.953,-0.048,0.161,0.954,0.129,-0.011,1.147,-0.169,-0.020,1.109,0.145,-0.235,0.996,-0.274,-0.219,0.957,0.006,-0.332,0.790,-0.311,-0.348,0.726,978.817,699.788,0.953,912.252,700.454,0.954,1067.274,530.713,1.147,814.731,523.031,1.109,1098.730,315.586,0.996,687.522,322.358,0.957,967.372,140.031,0.790,553.046,84.445,0.726,-0.036,-0.962,1.401,0.000,-351.511,0.000,-0.015,0.041,-0.010,0.171,-0.723,1.274
0722_162852_0202.png,0.024,0.163,0.927,-0.041,0.164,0.932,0.153,-0.010,1.102,-0.139,-0.001,1.141,0.255,-0.263,1.103,-0.186,-0.178,0.929,0.126,-0.324,0.879,-0.233,-0.351,0.722,984.400,707.264,0.927,917.805,707.040,0.932,1092.280,531.614,1.102,844.373,539.500,1.141,1180.198,312.770,1.103,769.767,358.194,0.929,1096.505,189.649,0.879,653.743,78.611,0.722,-0.026,-0.963,1.401,0.000,-6.762,0.000,0.007,-0.016,-0.010,-0.337,-1.118,1.474
0722_162852_0203.png,0.007,0.170,0.919,-0.059,0.173,0.926,0.125,0.000,1.133,-0.172,-0.008,1.098,0.191,-0.211,1.305,-0.215,-0.245,0.976,0.282,-0.272,1.069,-0.207,-0.355,0.741,966.745,715.765,0.919,899.264,718.214,0.926,1064.503,540.382,1.133,811.226,533.362,1.098,1098.916,386.278,1.305,750.649,300.876,0.976,1210.694,298.246,1.069,694.655,84.283,0.741,-0.030,-0.963,1.402,0.000,-351.853,0.000,-0.005,-0.041,0.016,-0.119,-1.034,1.614
0722_162852_0204.png,0.037,0.164,0.928,-0.029,0.162,0.926,0.154,-0.017,1.096,-0.140,-0.008,1.133,0.166,-0.276,1.032,-0.238,-0.175,0.946,-0.012,-0.326,0.853,-0.331,-0.338,0.764,997.787,708.045,0.928,930.553,706.605,0.926,1093.938,525.487,1.096,842.816,533.086,1.133,1113.375,285.252,1.032,721.332,364.195,0.946,946.789,176.839,0.853,548.443,119.665,0.764,-0.029,-0.961,1.401,0.000,-6.176,0.000,0.002,-0.017,0.037,0.015,-1.099,1.181
0722_162852_0205.png,0.029,0.176,0.934,-0.037,0.176,0.936,0.150,-0.004,1.119,-0.146,0.000,1.134,0.106,-0.221,0.947,-0.191,-0.183,0.918,0.003,-0.364,0.739,-0.238,-0.362,0.708,989.628,718.935,0.934,922.917,718.862,0.936,1087.511,536.764,1.119,837.773,539.764,1.134,1066.071,318.392,0.947,761.811,350.301,0.918,964.364,72.494,0.739,640.433,53.977,0.708,-0.032,-0.962,1.401,0.000,-1.874,0.000,0.003,-0.024,-0.034,-0.106,-0.996,1.198
0722_162852_0206.png,0.039,0.153,0.942,-0.028,0.152,0.944,0.165,-0.016,1.109,-0.137,-0.008,1.144,0.242,-0.212,1.265,-0.252,-0.194,1.293,0.396,-0.257,1.051,-0.275,-0.261,1.037,999.608,694.302,0.942,931.573,693.603,0.944,1101.554,526.489,1.109,845.919,533.610,1.144,1142.138,380.383,1.265,774.371,397.445,1.293,1318.545,307.513,1.051,707.752,301.132,1.037,-0.035,-0.965,1.402,0.000,-5.623,0.000,-0.025,0.033,-0.011,-0.153,-1.039,1.321
0722_162852_0207.png,0.040,0.152,0.932,-0.026,0.148,0.925,0.153,-0.019,1.096,-0.142,-0.009,1.138,0.249,-0.224,1.242,-0.203,-0.197,0.962,0.162,-0.278,1.007,-0.209,-0.345,0.752,1000.786,694.899,0.932,933.741,691.811,0.925,1092.753,523.264,1.096,841.231,532.084,1.138,1150.723,368.603,1.242,758.815,345.418,0.962,1112.730,277.528,1.007,695.374,103.733,0.752,-0.024,-0.961,1.401,0.000,-7.268,0.000,-0.005,0.003,0.030,0.172,-1.163,1.507
0722_162852_0208.png,0.000,0.160,0.930,-0.063,0.165,0.943,0.121,-0.003,1.135,-0.165,-0.011,1.098,0.057,-0.178,0.947,-0.205,-0.260,1.024,-0.006,-0.348,0.764,-0.055,-0.332,0.831,959.607,703.134,0.930,896.611,706.356,0.943,1061.373,537.690,1.135,817.142,530.291,1.098,1017.135,361.775,0.947,769.120,298.581,1.024,952.768,107.365,0.764,897.251,159.771,0.831,-0.033,-0.972,1.404,0.000,-351.308,0.000,0.028,0.024,0.033,-0.349,-0.984,1.381
0722_162852_0209.png,0.030,0.171,0.944,-0.036,0.170,0.941,0.142,-0.003,1.123,-0.155,-0.003,1.124,0.074,-0.178,0.917,-0.309,-0.217,1.068,0.007,-0.348,0.717,-0.303,-0.325,0.827,990.048,712.562,0.944,923.488,712.131,0.941,1080.673,537.093,1.123,828.536,537.488,1.124,1036.773,355.087,0.917,684.971,347.051,1.068,969.906,77.785,0.717,611.388,166.251,0.827,-0.030,-0.972,1.403,0.000,-359.223,0.000,-0.003,0.021,-0.002,0.143,-0.810,1.465
0722_162852_0210.png,0.015,0.164,0.926,-0.052,0.166,0.932,0.139,-0.006,1.124,-0.162,-0.007,1.118,0.261,-0.243,1.062,-0.271,-0.252,1.183,0.208,-0.330,0.819,-0.287,-0.304,0.924,975.044,707.994,0.926,907.117,709.401,0.932,1077.807,535.161,1.124,822.173,533.970,1.118,1193.340,322.609,1.062,742.317,337.503,1.183,1201.684,156.367,0.819,664.483,227.530,0.924,-0.029,-0.962,1.401,0.000,-357.664,0.000,-0.015,-0.021,-0.001,-0.181,-1.051,1.552
0722_162852_0211.png,0.012,0.144,0.936,-0.052,0.148,0.941,0.127,-0.007,1.143,-0.165,-0.014,1.112,0.114,-0.182,0.923,-0.295,-0.246,1.086,0.103,-0.353,0.709,-0.170,-0.321,0.863,972.605,686.606,0.936,907.030,689.288,0.941,1066.046,533.914,1.142,819.127,527.754,1.112,1077.453,352.339,0.923,701.911,324.871,1.086,1097.641,67.051,0.709,772.203,186.320,0.863,-0.034,-0.964,1.402,0.000,-352.715,0.000,0.011,0.028,-0.013,-0.081,-1.249,1.335
0722_162852_0212.png,0.027,0.172,0.940,-0.039,0.172,0.939,0.140,-0.004,1.133,-0.160,-0.007,1.120,0.218,-0.236,1.253,-0.280,-0.216,1.247,0.242,-0.287,0.989,-0.379,-0.284,1.006,987.675,714.045,0.940,920.444,714.174,0.939,1077.283,536.951,1.133,824.463,534.469,1.120,1125.205,361.142,1.253,746.664,375.366,1.247,1192.153,264.223,0.989,602.046,271.689,1.006,-0.034,-0.963,1.401,0.000,-356.365,0.000,-0.009,-0.007,-0.025,0.147,-0.964,1.130
0722_162852_0213.png,0.039,0.164,0.945,-0.026,0.161,0.939,0.150,-0.012,1.114,-0.144,-0.006,1.137,0.186,-0.234,1.255,-0.126,-0.183,0.922,0.201,-0.285,0.995,-0.110,-0.356,0.712,999.028,705.000,0.945,933.577,703.433,0.939,1087.674,530.041,1.114,839.869,534.694,1.137,1101.230,362.809,1.255,830.124,350.971,0.922,1151.668,267.932,0.995,813.264,65.072,0.712,-0.030,-0.965,1.402,0.000,-3.461,0.000,0.010,0.018,-0.009,0.182,-0.829,1.642
0722_162852_0214.png,0.018,0.146,0.937,-0.049,0.147,0.941,0.145,-0.012,1.121,-0.159,-0.009,1.133,0.153,-0.246,0.985,-0.212,-0.254,1.035,0.125,-0.343,0.739,-0.053,-0.321,0.830,978.605,687.902,0.937,910.284,688.471,0.941,1083.418,529.880,1.121,826.219,532.531,1.133,1108.160,302.502,0.985,765.709,306.402,1.035,1121.289,98.372,0.739,898.952,172.372,0.830,-0.025,-0.965,1.402,0.000,-1.360,0.000,-0.028,0.030,-0.010,-0.192,-1.239,1.354
0722_162852_0215.png,0.032,0.197,0.937,-0.034,0.196,0.935,0.150,-0.002,1.101,-0.142,0.007,1.138,0.178,-0.188,0.897,-0.291,-0.193,1.257,0.207,-0.370,0.699,-0.398,-0.289,1.032,992.023,739.887,0.937,925.735,739.403,0.935,1089.695,538.561,1.101,841.750,545.828,1.138,1149.280,340.871,0.897,739.995,394.227,1.257,1242.326,36.579,0.699,593.730,274.173,1.032,-0.024,-0.967,1.402,0.000,-6.363,0.000,0.009,-0.038,-0.013,-0.054,-0.651,1.310
0722_162852_0216.png,0.018,0.168,0.939,-0.047,0.169,0.939,0.130,-0.002,1.138,-0.164,-0.007,1.120,0.075,-0.185,0.925,-0.298,-0.243,1.091,0.025,-0.363,0.717,-0.320,-0.334,0.835,978.684,709.951,0.939,912.561,710.613,0.939,1068.233,537.945,1.138,820.349,534.338,1.120,1037.310,350.219,0.925,699.990,328.210,1.091,993.289,58.410,0.717,595.748,159.347,0.835,-0.030,-0.962,1.401,0.000,-355.171,0.000,0.008,-0.007,-0.037,0.089,-1.012,1.281
0722_162852_0217.png,0.013,0.166,0.941,-0.053,0.168,0.944,0.121,-0.002,1.149,-0.172,-0.016,1.091,0.283,-0.214,1.139,-0.205,-0.277,1.061,0.383,-0.298,0.914,-0.169,-0.328,0.809,973.163,707.598,0.941,906.581,709.140,0.944,1059.996,538.095,1.149,809.991,526.418,1.091,1196.445,361.174,1.139,776.542,291.858,1.061,1358.871,229.804,0.914,761.423,154.819,0.809,-0.039,-0.969,1.403,0.000,-347.385,0.000,-0.006,0.026,0.013,0.134,-0.816,1.301
0722_162852_0218.png,0.028,0.179,0.934,-0.039,0.179,0.933,0.149,-0.006,1.115,-0.157,-0.003,1.130,0.185,-0.281,1.098,-0.194,-0.255,1.024,0.170,-0.327,0.835,-0.054,-0.335,0.809,988.969,722.546,0.934,919.929,722.108,0.933,1086.883,534.846,1.115,828.280,537.893,1.130,1120.005,296.731,1.098,780.061,303.507,1.024,1153.264,166.847,0.835,896.369,146.200,0.809,-0.027,-0.961,1.401,0.000,-1.789,0.000,-0.030,-0.032,-0.015,0.017,-0.903,1.255
0722_162852_0219.png,0.011,0.174,0.930,-0.052,0.176,0.936,0.134,-0.001,1.114,-0.154,0.002,1.127,0.145,-0.253,1.013,-0.206,-0.256,1.059,-0.015,-0.343,0.828,-0.179,-0.344,0.812,971.533,718.402,0.930,906.777,719.067,0.936,1074.577,539.392,1.114,830.005,541.833,1.127,1096.456,302.881,1.013,775.038,310.318,1.059,942.923,145.366,0.828,749.923,136.670,0.812,-0.022,-0.971,1.403,0.000,-1.385,0.000,0.028,-0.009,-0.002,-0.262,-0.929,1.498
0722_162852_0220.png,-0.003,0.159,0.927,-0.067,0.164,0.940,0.121,-0.009,1.141,-0.173,-0.021,1.088,0.074,-0.195,0.961,-0.326,-0.229,1.169,-0.024,-0.338,0.770,-0.398,-0.294,0.933,957.212,702.939,0.927,892.118,706.190,0.940,1061.187,532.717,1.141,808.695,521.739,1.088,1033.239,347.332,0.961,694.794,353.681,1.169,930.261,123.283,0.770,554.593,239.796,0.933,-0.035,-0.962,1.401,0.000,-348.389,0.000,-0.009,0.002,0.042,-0.319,-0.912,1.441
0722_162852_0221.png,0.034,0.172,0.939,-0.029,0.170,0.935,0.141,0.000,1.119,-0.145,0.001,1.124,0.154,-0.182,0.910,-0.139,-0.192,0.933,0.169,-0.360,0.706,-0.098,-0.364,0.735,994.584,714.256,0.939,930.223,713.401,0.935,1080.202,540.118,1.119,837.085,541.200,1.124,1121.476,349.951,0.910,818.231,343.834,0.933,1188.072,55.708,0.706,833.104,69.048,0.735,-0.033,-0.975,1.404,0.000,0.031,0.000,0.034,0.014,0.000,0.194,-0.951,1.401
0722_162852_0222.png,0.041,0.173,0.935,-0.024,0.170,0.930,0.152,-0.007,1.106,-0.142,-0.003,1.125,0.088,-0.182,0.916,-0.219,-0.176,0.932,0.024,-0.351,0.731,-0.292,-0.344,0.744,1001.944,715.496,0.935,935.656,714.257,0.930,1090.515,533.623,1.106,839.691,537.485,1.125,1051.278,351.201,0.916,736.485,360.942,0.932,991.403,82.807,0.731,586.165,100.521,0.744,-0.034,-0.970,1.403,0.000,-2.684,0.000,0.007,-0.001,0.030,0.208,-0.931,1.310
0722_162852_0223.png,0.008,0.167,0.943,-0.058,0.170,0.950,0.126,-0.010,1.143,-0.171,-0.020,1.099,0.208,-0.217,1.290,-0.168,-0.270,1.009,0.254,-0.264,1.040,-0.109,-0.337,0.766,968.375,708.554,0.943,902.320,709.742,0.950,1064.594,531.335,1.143,812.076,522.273,1.099,1113.061,380.112,1.290,801.361,285.131,1.009,1191.916,298.433,1.040,824.788,122.179,0.766,-0.035,-0.961,1.401,0.000,-350.208,0.000,-0.010,0.018,0.019,-0.085,-0.683,1.220
0722_162852_0224.png,-0.001,0.168,0.935,-0.065,0.171,0.938,0.095,0.002,1.156,-0.184,-0.012,1.092,0.044,-0.177,0.943,-0.245,-0.278,1.084,-0.002,-0.354,0.737,-0.238,-0.347,0.824,958.794,710.787,0.935,894.119,712.959,0.938,1038.444,541.719,1.156,799.529,529.151,1.092,1004.771,361.687,0.943,744.853,296.092,1.084,957.817,83.718,0.737,684.936,138.709,0.824,-0.025,-0.963,1.401,0.000,-345.750,0.000,0.033,-0.006,-0.027,0.194,-0.875,1.605
0722_162852_0225.png,0.006,0.183,0.925,-0.059,0.185,0.930,0.119,0.005,1.132,-0.173,-0.003,1.095,0.162,-0.242,1.036,-0.285,-0.196,1.257,0.011,-0.332,0.846,-0.420,-0.279,1.053,966.676,727.878,0.925,900.194,729.242,0.930,1060.135,544.480,1.132,810.018,537.280,1.095,1109.055,318.076,1.036,744.639,391.660,1.257,972.709,166.412,0.846,580.268,287.855,1.053,-0.028,-0.971,1.403,0.000,-351.450,0.000,0.008,-0.025,0.024,-0.028,-0.945,1.132
0722_162852_0226.png,0.013,0.169,0.942,-0.052,0.170,0.944,0.126,-0.003,1.132,-0.166,-0.006,1.120,0.185,-0.244,1.021,-0.242,-0.242,1.217,0.070,-0.343,0.804,-0.228,-0.299,0.957,972.769,710.276,0.942,907.654,710.860,0.944,1065.497,537.443,1.132,819.362,535.018,1.120,1131.850,312.999,1.021,770.852,350.994,1.217,1042.427,134.086,0.804,733.668,243.330,0.957,-0.024,-0.968,1.403,0.000,-356.350,0.000,0.019,0.015,-0.014,0.012,-0.968,1.070
0722_162852_0227.png,0.001,0.153,0.937,-0.064,0.157,0.940,0.106,0.001,1.157,-0.185,-0.012,1.100,0.147,-0.176,0.933,-0.294,-0.257,1.071,0.190,-0.349,0.717,-0.150,-0.328,0.852,961.273,695.495,0.937,894.843,698.479,0.940,1047.101,541.079,1.157,800.393,530.020,1.100,1109.698,360.536,0.933,698.964,312.189,1.071,1211.683,76.608,0.717,792.209,174.179,0.852,-0.026,-0.966,1.402,0.000,-347.652,0.000,0.002,0.017,-0.038,0.125,-1.215,1.286
0722_162852_0228.png,-0.007,0.147,0.933,-0.072,0.153,0.943,0.110,-0.003,1.154,-0.182,-0.018,1.088,0.277,-0.203,1.094,-0.271,-0.171,1.281,0.380,-0.307,0.877,-0.271,-0.263,1.036,953.126,689.572,0.933,887.767,694.264,0.943,1050.323,537.552,1.154,801.221,524.212,1.088,1200.792,363.740,1.094,758.674,412.897,1.281,1372.157,207.555,0.877,711.114,298.909,1.036,-0.033,-0.969,1.403,0.000,-345.802,0.000,-0.007,0.037,0.008,-0.161,-1.008,1.698
