rolosa10/RGSpipe/dataset/synthetic_dataset/Coods3D_unique0722_173507.csv
filename,left_eye,left_eye,left_eye,right_eye,right_eye,right_eye,left_shoulder,left_shoulder,left_shoulder,right_shoulder,right_shoulder,right_shoulder,left_elbow,left_elbow,left_elbow,right_elbow,right_elbow,right_elbow,left_wrist,left_wrist,left_wrist,right_wrist,right_wrist,right_wrist,left_eye_2D,left_eye_2D,left_eye_2D,right_eye_2D,right_eye_2D,right_eye_2D,left_shoulder_2D,left_shoulder_2D,left_shoulder_2D,right_shoulder_2D,right_shoulder_2D,right_shoulder_2D,left_elbow_2D,left_elbow_2D,left_elbow_2D,right_elbow_2D,right_elbow_2D,right_elbow_2D,left_wrist_2D,left_wrist_2D,left_wrist_2D,right_wrist_2D,right_wrist_2D,right_wrist_2D,root_position,root_position,root_position,root_pitch,root_yaw,root_roll,root_scale,root_scale,root_scale,look_at,look_at,look_at
0722_173507_0001.png,0.005,0.149,0.933,-0.062,0.154,0.939,0.118,0.000,1.156,-0.180,-0.015,1.089,0.141,-0.173,0.938,-0.312,-0.247,1.051,0.163,-0.341,0.725,-0.212,-0.320,0.817,964.819,691.537,0.933,896.832,695.580,0.939,1056.646,540.036,1.156,802.476,526.589,1.089,1102.855,364.353,0.938,678.062,316.247,1.051,1173.364,92.373,0.725,713.601,166.935,0.817,-0.038,-0.969,1.403,0.000,-345.831,0.000,-0.030,0.029,-0.007,0.007,-1.047,1.729
0722_173507_0002.png,0.024,0.177,0.924,-0.041,0.178,0.925,0.134,0.006,1.127,-0.159,0.000,1.102,0.226,-0.225,1.247,-0.181,-0.191,0.915,0.335,-0.286,1.019,-0.165,-0.363,0.720,985.031,722.026,0.924,917.944,722.909,0.925,1073.267,544.908,1.127,822.868,540.110,1.102,1132.276,368.391,1.247,771.809,341.669,0.915,1272.566,273.485,1.019,742.181,60.935,0.720,-0.037,-0.973,1.404,0.000,-353.875,0.000,0.009,-0.023,0.020,0.108,-1.078,1.318
0722_173507_0003.png,0.032,0.156,0.941,-0.034,0.156,0.943,0.154,-0.020,1.109,-0.144,-0.014,1.134,0.115,-0.251,0.987,-0.287,-0.189,1.275,0.065,-0.342,0.751,-0.409,-0.261,1.058,992.544,697.864,0.941,925.559,697.580,0.943,1092.459,523.247,1.109,839.361,528.519,1.134,1071.077,298.096,0.987,745.888,399.074,1.275,1042.099,107.176,0.751,592.295,305.004,1.058,-0.031,-0.962,1.401,0.000,-3.825,0.000,-0.008,0.026,0.021,-0.106,-0.830,1.530
0722_173507_0004.png,0.043,0.156,0.928,-0.022,0.154,0.928,0.167,-0.011,1.092,-0.124,0.001,1.143,0.258,-0.240,1.199,-0.160,-0.174,0.934,0.312,-0.294,0.950,-0.194,-0.343,0.730,1004.246,699.715,0.928,937.090,697.741,0.928,1105.140,530.440,1.092,856.527,540.642,1.143,1164.379,349.978,1.199,797.467,363.227,0.934,1272.370,245.621,0.950,707.900,92.658,0.730,-0.035,-0.970,1.403,0.000,-9.046,0.000,0.004,0.008,0.011,-0.155,-1.260,1.395
0722_173507_0005.png,0.014,0.171,0.940,-0.051,0.173,0.943,0.129,0.000,1.130,-0.162,-0.002,1.121,0.059,-0.176,0.922,-0.241,-0.176,1.307,-0.007,-0.349,0.721,-0.308,-0.269,1.067,973.703,713.441,0.940,908.665,714.136,0.943,1068.356,539.831,1.130,822.339,538.114,1.121,1020.523,358.122,0.922,784.912,411.672,1.307,950.402,79.327,0.721,685.104,300.277,1.067,-0.025,-0.971,1.403,0.000,-357.049,0.000,0.020,0.014,-0.015,-0.055,-0.962,1.114
0722_173507_0006.png,0.000,0.171,0.940,-0.065,0.175,0.951,0.122,0.003,1.144,-0.174,-0.006,1.103,0.080,-0.173,0.931,-0.226,-0.250,1.003,0.040,-0.344,0.723,-0.077,-0.333,0.800,960.234,712.510,0.940,895.033,714.803,0.951,1061.374,542.543,1.144,810.144,534.498,1.103,1041.821,363.494,0.931,745.772,302.707,1.003,1012.072,87.989,0.723,868.547,144.088,0.800,-0.032,-0.974,1.404,0.000,-350.717,0.000,-0.006,0.030,-0.007,-0.229,-0.786,1.396
0722_173507_0007.png,0.005,0.167,0.939,-0.062,0.169,0.945,0.120,-0.004,1.144,-0.178,-0.015,1.095,0.136,-0.218,0.989,-0.165,-0.270,1.028,0.025,-0.332,0.781,-0.101,-0.328,0.784,964.608,708.803,0.939,897.595,710.416,0.945,1060.099,537.006,1.144,805.424,527.214,1.095,1091.021,329.911,0.989,807.531,289.736,1.028,990.541,135.677,0.781,838.004,142.195,0.784,-0.031,-0.969,1.403,0.000,-349.379,0.000,-0.019,0.024,0.019,-0.028,-0.852,1.093
0722_173507_0008.png,-0.001,0.143,0.936,-0.066,0.146,0.938,0.101,-0.003,1.154,-0.187,-0.016,1.098,0.042,-0.179,0.949,-0.244,-0.253,1.197,-0.014,-0.351,0.750,-0.235,-0.300,0.935,958.980,684.991,0.936,892.865,687.929,0.938,1043.549,537.142,1.154,797.935,525.887,1.098,1002.065,360.559,0.949,766.242,338.998,1.197,942.089,95.146,0.750,720.766,235.362,0.935,-0.022,-0.965,1.402,0.000,-347.601,0.000,0.009,0.029,-0.016,0.160,-1.243,1.495
0722_173507_0009.png,0.056,0.169,0.950,-0.008,0.164,0.940,0.166,-0.020,1.083,-0.111,-0.002,1.161,0.269,-0.264,1.051,-0.269,-0.204,1.228,0.298,-0.343,0.799,-0.314,-0.295,0.980,1015.730,709.222,0.950,952.100,706.374,0.940,1106.032,522.680,1.083,869.431,538.544,1.161,1203.226,301.519,1.051,751.900,382.102,1.228,1315.024,131.708,0.799,655.174,253.963,0.980,-0.027,-0.964,1.402,0.000,-14.970,0.000,0.029,0.021,-0.019,0.088,-0.766,1.385
0722_173507_0010.png,0.029,0.172,0.929,-0.037,0.173,0.934,0.158,-0.005,1.107,-0.142,0.002,1.135,0.130,-0.266,1.033,-0.297,-0.179,1.270,0.086,-0.341,0.783,-0.367,-0.276,1.033,989.930,715.958,0.929,922.018,716.027,0.934,1095.958,535.818,1.107,841.415,541.465,1.135,1080.120,294.868,1.033,737.272,405.907,1.270,1064.346,125.608,0.783,622.200,285.709,1.033,-0.033,-0.968,1.403,0.000,-4.455,0.000,-0.014,-0.013,-0.006,-0.286,-1.065,1.204
0722_173507_0011.png,0.006,0.170,0.924,-0.061,0.174,0.932,0.120,0.003,1.148,-0.178,-0.011,1.088,0.227,-0.239,1.078,-0.325,-0.245,1.074,0.100,-0.322,0.859,-0.368,-0.328,0.826,965.711,714.539,0.924,897.675,717.587,0.932,1058.997,542.179,1.148,804.749,530.174,1.088,1160.556,329.185,1.078,672.341,323.209,1.074,1070.656,183.990,0.859,536.547,162.179,0.826,-0.036,-0.963,1.402,0.000,-347.055,0.000,-0.022,-0.027,-0.001,-0.045,-1.034,1.364
0722_173507_0012.png,0.041,0.182,0.923,-0.025,0.183,0.927,0.170,-0.010,1.089,-0.126,0.001,1.135,0.200,-0.251,0.974,-0.312,-0.190,1.209,0.114,-0.348,0.753,-0.261,-0.294,0.980,1002.419,727.486,0.923,934.266,727.147,0.927,1108.401,531.188,1.089,854.353,540.457,1.135,1155.006,295.154,0.974,714.744,390.682,1.209,1104.478,100.900,0.753,706.719,254.289,0.980,-0.039,-0.964,1.402,0.000,-7.941,0.000,-0.009,-0.038,0.031,-0.303,-0.894,1.208
0722_173507_0013.png,0.061,0.178,0.946,-0.006,0.175,0.939,0.179,-0.008,1.094,-0.117,0.007,1.156,0.280,-0.226,1.215,-0.223,-0.205,1.008,0.391,-0.285,0.975,-0.211,-0.344,0.773,1021.623,718.940,0.946,954.366,716.701,0.939,1115.963,533.273,1.094,864.048,545.390,1.156,1179.102,362.908,1.215,749.655,346.979,1.008,1341.936,261.850,0.975,700.537,117.239,0.773,-0.039,-0.969,1.403,0.000,-10.990,0.000,-0.020,0.008,-0.039,0.053,-0.860,1.205
0722_173507_0014.png,0.047,0.153,0.932,-0.021,0.151,0.928,0.164,-0.019,1.105,-0.142,-0.012,1.131,0.248,-0.265,1.042,-0.277,-0.235,1.208,0.125,-0.318,0.820,-0.312,-0.283,0.958,1007.878,696.016,0.932,938.617,694.273,0.928,1101.294,524.052,1.105,840.859,529.604,1.131,1186.352,297.884,1.042,741.591,354.655,1.208,1104.798,170.847,0.820,650.546,259.121,0.958,-0.037,-0.960,1.401,0.000,-3.964,0.000,-0.034,0.001,0.030,0.134,-1.041,1.654
0722_173507_0015.png,0.027,0.174,0.923,-0.039,0.173,0.923,0.148,-0.001,1.106,-0.148,0.005,1.133,0.182,-0.185,0.901,-0.201,-0.246,1.033,0.216,-0.365,0.703,-0.056,-0.339,0.832,987.614,718.742,0.923,919.765,717.767,0.923,1086.981,539.078,1.106,835.557,544.349,1.133,1152.077,344.847,0.901,775.392,313.621,1.033,1252.077,46.631,0.703,896.128,152.569,0.832,-0.025,-0.967,1.402,0.000,-4.217,0.000,-0.001,-0.036,-0.007,-0.069,-1.208,1.307
0722_173507_0016.png,0.034,0.185,0.939,-0.030,0.184,0.939,0.151,-0.002,1.110,-0.136,0.004,1.138,0.267,-0.225,1.215,-0.144,-0.179,0.921,0.394,-0.299,0.994,-0.155,-0.359,0.711,994.496,726.864,0.939,929.574,726.314,0.939,1089.581,538.313,1.110,845.964,543.759,1.138,1169.228,364.193,1.215,811.044,355.318,0.921,1336.850,254.322,0.994,752.710,60.163,0.711,-0.031,-0.969,1.403,0.000,-4.559,0.000,0.027,-0.013,-0.023,-0.052,-0.699,1.617
0722_173507_0017.png,0.049,0.164,0.930,-0.016,0.161,0.927,0.167,-0.010,1.102,-0.124,0.000,1.145,0.210,-0.230,0.939,-0.115,-0.184,0.930,0.201,-0.371,0.708,-0.108,-0.364,0.720,1009.703,708.017,0.930,943.094,705.613,0.927,1103.657,531.534,1.102,857.000,540.092,1.145,1172.288,307.104,0.939,842.520,351.896,0.930,1229.903,41.851,0.708,817.298,59.025,0.720,-0.038,-0.961,1.401,0.000,-7.498,0.000,0.010,-0.024,-0.027,0.020,-1.181,1.411
0722_173507_0018.png,-0.011,0.170,0.927,-0.073,0.175,0.938,0.099,0.002,1.143,-0.180,-0.010,1.091,0.047,-0.171,0.938,-0.242,-0.190,0.900,-0.002,-0.341,0.739,-0.305,-0.367,0.716,948.609,714.787,0.927,885.677,717.614,0.938,1042.282,541.557,1.143,803.037,531.238,1.091,1007.395,366.794,0.938,704.067,338.923,0.900,956.802,101.716,0.739,555.287,52.887,0.716,-0.022,-0.968,1.403,0.000,-348.025,0.000,0.043,-0.007,0.014,-0.167,-0.902,1.463
0722_173507_0019.png,0.072,0.186,0.930,0.006,0.181,0.919,0.185,-0.011,1.072,-0.108,0.008,1.153,0.195,-0.280,1.012,-0.267,-0.208,1.095,0.176,-0.347,0.757,-0.315,-0.319,0.861,1033.427,730.521,0.930,966.129,727.281,0.919,1123.868,530.677,1.072,870.814,546.587,1.153,1142.925,276.851,1.012,728.145,358.957,1.095,1181.652,103.643,0.757,612.509,187.470,0.861,-0.040,-0.965,1.402,0.000,-14.576,0.000,-0.025,-0.042,0.002,0.224,-0.890,1.392
0722_173507_0020.png,0.006,0.167,0.925,-0.058,0.169,0.930,0.116,0.002,1.137,-0.171,-0.005,1.107,0.087,-0.179,0.924,-0.186,-0.243,0.970,0.062,-0.357,0.717,-0.067,-0.361,0.765,965.993,711.383,0.925,900.624,713.364,0.930,1057.056,541.370,1.137,813.063,535.476,1.107,1049.916,355.805,0.924,777.219,301.998,0.970,1041.905,67.163,0.717,877.281,90.522,0.765,-0.025,-0.964,1.402,0.000,-352.699,0.000,0.028,-0.026,-0.013,-0.020,-1.085,1.564
0722_173507_0021.png,0.044,0.172,0.940,-0.020,0.169,0.933,0.155,-0.017,1.084,-0.128,-0.004,1.142,0.295,-0.243,1.073,-0.207,-0.167,0.946,0.338,-0.326,0.837,-0.282,-0.326,0.754,1004.348,714.359,0.940,939.652,712.697,0.933,1096.425,524.960,1.084,853.023,536.934,1.142,1221.556,324.862,1.073,752.286,372.131,0.946,1344.336,169.725,0.837,604.843,128.559,0.754,-0.025,-0.968,1.402,0.000,-10.776,0.000,0.022,0.010,0.039,0.096,-0.769,1.332
0722_173507_0022.png,0.018,0.181,0.936,-0.047,0.182,0.942,0.139,-0.003,1.124,-0.156,-0.007,1.110,0.192,-0.260,1.071,-0.317,-0.212,1.047,0.015,-0.316,0.890,-0.409,-0.325,0.835,978.794,723.480,0.936,912.909,724.186,0.942,1077.474,537.179,1.124,826.184,534.414,1.110,1130.783,308.818,1.071,672.521,347.567,1.047,975.537,202.248,0.890,494.275,169.343,0.835,-0.035,-0.969,1.403,0.000,-356.067,0.000,0.005,-0.003,0.025,-0.158,-0.699,1.285
0722_173507_0023.png,0.030,0.152,0.930,-0.035,0.151,0.932,0.153,-0.009,1.101,-0.138,-0.001,1.136,0.158,-0.262,1.025,-0.222,-0.232,1.037,-0.007,-0.327,0.836,-0.095,-0.326,0.832,990.715,695.506,0.930,924.245,694.583,0.932,1092.176,532.452,1.101,844.071,539.461,1.136,1106.465,296.895,1.025,756.044,327.612,1.037,951.960,167.419,0.836,851.738,167.432,0.832,-0.029,-0.973,1.404,0.000,-5.895,0.000,0.011,0.026,0.019,-0.170,-1.230,1.485
0722_173507_0024.png,0.060,0.163,0.945,-0.007,0.159,0.939,0.179,-0.020,1.088,-0.113,-0.003,1.161,0.203,-0.191,1.292,-0.272,-0.214,1.091,0.345,-0.257,1.073,-0.190,-0.320,0.857,1019.993,703.834,0.945,952.925,701.190,0.939,1116.753,522.120,1.088,867.874,537.182,1.161,1109.169,399.069,1.292,722.467,353.142,1.091,1265.274,311.982,1.073,749.518,184.824,0.857,-0.036,-0.961,1.401,0.000,-13.416,0.000,-0.015,0.017,-0.025,-0.034,-0.853,1.486
0722_173507_0025.png,0.019,0.172,0.935,-0.047,0.173,0.941,0.145,-0.011,1.108,-0.150,-0.005,1.133,0.223,-0.209,1.276,-0.282,-0.213,1.246,0.200,-0.278,1.025,-0.413,-0.279,1.028,978.957,715.072,0.935,912.775,715.326,0.941,1084.426,530.800,1.108,834.263,535.770,1.133,1126.153,384.066,1.276,744.671,377.350,1.246,1145.901,281.528,1.025,578.470,281.717,1.028,-0.024,-0.964,1.402,0.000,-3.747,0.000,0.003,-0.004,0.006,-0.284,-0.822,1.351
0722_173507_0026.png,0.037,0.164,0.928,-0.029,0.161,0.924,0.155,-0.004,1.104,-0.141,0.005,1.139,0.275,-0.247,1.067,-0.267,-0.235,1.095,0.320,-0.334,0.819,-0.118,-0.320,0.892,997.978,708.003,0.928,930.374,705.697,0.924,1093.207,536.909,1.104,842.523,543.809,1.139,1204.711,320.074,1.067,728.580,336.251,1.095,1331.970,152.632,0.819,834.238,198.952,0.892,-0.028,-0.969,1.403,0.000,-5.852,0.000,-0.002,-0.015,-0.014,0.049,-1.216,1.563
0722_173507_0027.png,0.020,0.152,0.927,-0.046,0.155,0.931,0.136,-0.006,1.132,-0.160,-0.013,1.101,0.103,-0.248,1.030,-0.220,-0.262,1.031,0.036,-0.329,0.797,-0.067,-0.325,0.834,980.776,696.292,0.927,913.494,698.354,0.931,1074.379,534.807,1.132,821.632,528.620,1.101,1055.239,311.529,1.030,757.238,298.666,1.031,1002.679,148.010,0.797,884.099,169.837,0.834,-0.039,-0.967,1.403,0.000,-352.809,0.000,-0.004,0.010,0.035,-0.028,-1.109,1.605
0722_173507_0028.png,0.012,0.178,0.946,-0.054,0.179,0.948,0.126,0.004,1.136,-0.169,0.000,1.122,0.262,-0.195,1.252,-0.304,-0.224,1.043,0.294,-0.287,0.997,-0.366,-0.338,0.804,971.758,719.096,0.946,906.005,719.688,0.948,1065.709,542.973,1.136,816.683,540.162,1.122,1159.315,391.820,1.252,682.803,336.106,1.043,1240.391,266.316,0.997,526.860,139.502,0.804,-0.024,-0.972,1.403,0.000,-355.917,0.000,0.004,0.015,-0.038,0.010,-0.761,1.407
0722_173507_0029.png,0.031,0.175,0.929,-0.034,0.174,0.928,0.149,-0.008,1.105,-0.146,-0.004,1.125,0.183,-0.230,1.266,-0.233,-0.244,1.043,0.200,-0.283,1.015,-0.093,-0.330,0.844,991.920,719.198,0.929,924.833,718.723,0.928,1088.148,532.690,1.105,836.521,536.643,1.125,1097.818,366.952,1.266,747.573,317.690,1.043,1147.362,274.946,1.015,855.767,168.109,0.844,-0.030,-0.965,1.402,0.000,-2.746,0.000,0.004,-0.021,0.030,-0.017,-0.985,1.124
0722_173507_0030.png,0.037,0.170,0.936,-0.026,0.168,0.931,0.148,-0.012,1.100,-0.140,-0.005,1.131,0.146,-0.257,1.001,-0.306,-0.212,1.124,-0.017,-0.337,0.820,-0.399,-0.312,0.908,998.090,712.917,0.936,932.988,711.468,0.931,1088.246,529.647,1.100,842.654,535.964,1.131,1098.333,295.384,1.001,701.288,360.520,1.124,940.513,148.711,0.820,542.440,213.701,0.908,-0.028,-0.967,1.402,0.000,-5.177,0.000,0.024,0.001,0.032,0.148,-0.942,1.212
0722_173507_0031.png,-0.001,0.151,0.931,-0.065,0.157,0.939,0.108,0.005,1.152,-0.177,-0.010,1.089,0.075,-0.169,0.939,-0.345,-0.213,1.070,0.044,-0.337,0.731,-0.437,-0.319,0.848,959.065,694.748,0.931,894.079,699.227,0.939,1049.453,543.868,1.152,805.428,531.492,1.089,1036.284,369.224,0.939,653.221,350.591,1.070,1017.402,100.814,0.731,470.207,181.867,0.848,-0.034,-0.975,1.404,0.000,-346.108,0.000,0.015,0.034,0.001,-0.064,-1.103,1.651
0722_173507_0032.png,0.023,0.163,0.929,-0.046,0.162,0.928,0.141,-0.004,1.120,-0.168,-0.005,1.117,0.287,-0.232,1.090,-0.285,-0.217,1.243,0.296,-0.311,0.844,-0.390,-0.271,1.009,983.237,706.452,0.929,912.994,706.340,0.928,1079.644,536.689,1.120,816.596,536.089,1.117,1210.518,337.555,1.090,742.108,373.597,1.243,1294.148,189.399,0.844,592.359,285.046,1.009,-0.025,-0.969,1.403,0.000,-358.254,0.000,-0.042,-0.005,0.019,0.094,-1.223,1.230
0722_173507_0033.png,0.002,0.178,0.930,-0.065,0.182,0.936,0.118,0.003,1.145,-0.181,-0.008,1.098,0.066,-0.176,0.934,-0.250,-0.193,1.294,0.015,-0.351,0.728,-0.305,-0.274,1.045,962.076,722.383,0.930,894.433,724.356,0.936,1057.899,542.563,1.145,803.527,533.479,1.098,1027.054,360.692,0.934,776.528,398.345,1.294,979.420,81.995,0.728,682.622,290.756,1.045,-0.028,-0.964,1.402,0.000,-349.806,0.000,-0.018,-0.029,-0.015,-0.061,-0.940,1.190
0722_173507_0034.png,0.047,0.179,0.943,-0.021,0.178,0.941,0.170,-0.012,1.091,-0.135,0.001,1.145,0.241,-0.212,1.254,-0.241,-0.231,1.059,0.395,-0.258,1.039,-0.087,-0.310,0.855,1007.866,720.569,0.943,938.689,719.725,0.941,1108.367,529.600,1.091,847.730,540.462,1.145,1142.927,379.122,1.254,743.424,332.546,1.059,1321.018,304.062,1.039,863.831,194.843,0.855,-0.031,-0.970,1.403,0.000,-9.173,0.000,-0.046,0.011,0.010,-0.043,-0.675,1.274
0722_173507_0035.png,0.054,0.168,0.935,-0.013,0.165,0.932,0.175,-0.017,1.082,-0.119,-0.001,1.152,0.305,-0.255,1.086,-0.093,-0.175,0.945,0.360,-0.318,0.837,-0.067,-0.344,0.742,1015.116,710.508,0.935,947.135,708.285,0.932,1114.237,525.318,1.082,862.001,539.514,1.152,1227.303,317.052,1.086,866.203,363.933,0.945,1369.176,178.695,0.837,874.609,99.594,0.742,-0.034,-0.966,1.402,0.000,-12.572,0.000,-0.020,0.004,0.009,-0.069,-0.933,1.340
0722_173507_0036.png,0.018,0.166,0.930,-0.046,0.167,0.932,0.132,-0.005,1.125,-0.156,-0.005,1.122,0.265,-0.241,1.129,-0.301,-0.231,1.084,0.330,-0.327,0.886,-0.252,-0.339,0.846,977.957,709.460,0.930,912.780,709.930,0.932,1071.373,536.121,1.125,827.371,535.652,1.122,1183.560,337.138,1.129,695.780,337.461,1.084,1313.715,188.882,0.886,676.967,159.387,0.846,-0.027,-0.963,1.401,0.000,-358.345,0.000,0.029,-0.017,-0.011,-0.029,-0.986,1.658
0722_173507_0037.png,0.022,0.176,0.923,-0.043,0.177,0.927,0.144,-0.002,1.107,-0.149,0.002,1.123,0.160,-0.261,1.032,-0.240,-0.173,0.934,-0.016,-0.332,0.856,-0.328,-0.343,0.751,982.981,721.379,0.923,916.224,721.541,0.927,1083.912,538.250,1.107,833.870,541.281,1.123,1107.733,299.078,1.032,715.459,364.000,0.934,941.712,171.438,0.856,543.977,104.924,0.751,-0.029,-0.969,1.403,0.000,-1.922,0.000,0.011,-0.027,0.021,-0.167,-1.016,1.389
0722_173507_0038.png,0.046,0.157,0.952,-0.020,0.155,0.951,0.166,-0.022,1.106,-0.128,-0.011,1.151,0.248,-0.268,1.145,-0.139,-0.205,0.955,0.246,-0.308,0.882,-0.086,-0.352,0.736,1005.542,696.327,0.952,939.511,695.191,0.951,1102.743,521.495,1.106,853.842,530.744,1.151,1166.318,317.681,1.145,821.526,335.554,0.955,1225.148,207.636,0.882,848.503,84.931,0.736,-0.035,-0.960,1.401,0.000,-7.721,0.000,-0.004,0.040,-0.019,-0.079,-0.814,1.310
0722_173507_0039.png,0.043,0.182,0.929,-0.023,0.179,0.925,0.159,0.006,1.107,-0.136,0.014,1.140,0.293,-0.236,1.101,-0.124,-0.174,0.922,0.368,-0.330,0.857,-0.114,-0.358,0.710,1003.615,726.217,0.929,936.251,724.298,0.925,1096.924,545.320,1.107,846.816,551.541,1.140,1213.126,336.277,1.101,832.425,360.618,0.922,1367.875,174.388,0.857,806.945,60.837,0.710,-0.033,-0.973,1.404,0.000,-5.423,0.000,0.000,-0.030,-0.037,0.072,-1.011,1.667
0722_173507_0040.png,0.049,0.178,0.939,-0.014,0.176,0.933,0.164,-0.018,1.089,-0.119,-0.006,1.144,0.198,-0.270,0.998,-0.295,-0.206,1.124,0.190,-0.358,0.754,-0.405,-0.315,0.916,1010.154,720.267,0.939,945.351,719.174,0.933,1103.308,524.031,1.089,860.920,535.427,1.144,1149.127,282.773,0.998,709.977,365.406,1.124,1199.925,88.504,0.754,539.007,212.722,0.916,-0.034,-0.959,1.401,0.000,-10.218,0.000,0.027,-0.018,0.016,0.014,-0.673,1.466
0722_173507_0041.png,0.015,0.154,0.926,-0.050,0.156,0.930,0.133,-0.015,1.121,-0.160,-0.016,1.113,0.089,-0.185,0.918,-0.244,-0.185,0.921,0.045,-0.352,0.720,-0.325,-0.349,0.733,975.365,698.346,0.926,909.106,699.412,0.930,1072.817,527.684,1.121,823.621,526.192,1.113,1052.446,348.101,0.918,707.831,349.472,0.921,1019.592,75.977,0.720,538.298,87.450,0.733,-0.028,-0.958,1.400,0.000,-357.384,0.000,0.014,-0.012,0.034,-0.110,-1.160,1.307
0722_173507_0042.png,0.016,0.153,0.930,-0.052,0.156,0.935,0.138,-0.003,1.131,-0.167,-0.008,1.108,0.187,-0.239,1.242,-0.200,-0.267,1.059,0.189,-0.272,0.986,-0.150,-0.318,0.811,976.101,696.338,0.930,907.279,698.412,0.935,1076.304,537.413,1.131,816.624,532.843,1.108,1103.468,357.071,1.242,780.385,300.174,1.059,1141.873,277.865,0.986,784.082,166.689,0.811,-0.034,-0.971,1.403,0.000,-354.429,0.000,-0.032,0.021,0.019,-0.104,-1.212,1.382
0722_173507_0043.png,0.029,0.155,0.932,-0.034,0.153,0.928,0.138,-0.010,1.119,-0.146,-0.007,1.132,0.250,-0.240,1.026,-0.228,-0.244,1.024,0.303,-0.356,0.791,-0.124,-0.355,0.807,989.670,698.486,0.932,925.275,697.039,0.928,1077.563,531.702,1.119,837.647,534.475,1.132,1191.797,317.857,1.026,748.152,313.019,1.024,1324.472,112.555,0.791,814.461,121.736,0.807,-0.027,-0.959,1.401,0.000,-1.692,0.000,0.042,-0.015,-0.019,0.123,-1.232,1.510
0722_173507_0044.png,0.012,0.160,0.933,-0.056,0.163,0.939,0.138,-0.011,1.131,-0.171,-0.016,1.110,0.190,-0.205,1.313,-0.167,-0.239,0.963,0.270,-0.252,1.070,-0.099,-0.341,0.734,972.611,703.414,0.933,903.480,704.954,0.939,1076.182,530.433,1.131,813.730,526.083,1.110,1097.905,391.256,1.313,795.192,303.993,0.963,1200.378,316.139,1.070,831.118,97.748,0.734,-0.031,-0.960,1.401,0.000,-354.808,0.000,-0.043,0.000,0.017,-0.149,-0.923,1.420
0722_173507_0045.png,0.010,0.162,0.926,-0.056,0.164,0.930,0.128,0.000,1.125,-0.169,-0.005,1.105,0.187,-0.259,1.101,-0.324,-0.224,1.098,0.180,-0.318,0.853,-0.292,-0.315,0.862,970.130,706.523,0.926,902.802,708.063,0.930,1068.018,539.953,1.125,814.353,536.093,1.105,1121.652,316.790,1.101,679.674,346.012,1.098,1161.032,186.061,0.853,638.356,192.044,0.862,-0.026,-0.974,1.404,0.000,-354.971,0.000,-0.003,0.006,0.034,-0.076,-1.162,1.353
0722_173507_0046.png,-0.004,0.171,0.937,-0.071,0.175,0.946,0.115,0.002,1.152,-0.184,-0.013,1.089,0.261,-0.215,1.080,-0.229,-0.271,1.031,0.265,-0.315,0.836,-0.072,-0.322,0.825,956.079,713.457,0.937,888.953,715.831,0.946,1055.276,541.425,1.152,798.910,528.954,1.089,1189.932,350.790,1.080,748.419,289.902,1.031,1260.995,181.596,0.836,877.271,169.251,0.825,-0.032,-0.969,1.403,0.000,-346.748,0.000,-0.033,0.015,0.002,-0.129,-0.796,1.307
0722_173507_0047.png,0.048,0.182,0.939,-0.018,0.179,0.931,0.162,-0.015,1.081,-0.128,0.001,1.148,0.211,-0.256,0.973,-0.243,-0.240,1.109,0.140,-0.351,0.742,-0.259,-0.321,0.863,1008.283,724.688,0.939,941.915,723.164,0.931,1102.580,527.060,1.081,854.085,540.683,1.148,1166.314,289.303,0.973,751.610,333.913,1.109,1139.131,90.482,0.742,674.520,186.724,0.863,-0.024,-0.965,1.402,0.000,-12.279,0.000,-0.004,-0.013,0.016,0.088,-0.749,1.162
0722_173507_0048.png,0.020,0.164,0.943,-0.047,0.165,0.943,0.132,0.001,1.140,-0.168,-0.004,1.118,0.192,-0.178,0.928,-0.132,-0.223,0.951,0.252,-0.351,0.722,-0.072,-0.355,0.720,979.946,705.640,0.943,912.731,706.283,0.943,1069.991,540.644,1.140,817.085,536.351,1.118,1156.898,357.960,0.928,828.263,316.968,0.951,1292.566,77.339,0.722,865.098,71.145,0.720,-0.031,-0.971,1.403,0.000,-354.516,0.000,-0.013,0.024,-0.032,0.127,-0.943,1.508
0722_173507_0049.png,0.055,0.155,0.949,-0.010,0.151,0.941,0.167,-0.023,1.102,-0.127,-0.013,1.145,0.145,-0.282,1.141,-0.314,-0.200,1.182,0.106,-0.306,0.884,-0.265,-0.294,0.942,1015.313,695.219,0.949,949.687,692.880,0.941,1104.077,520.357,1.102,854.177,529.372,1.145,1081.054,305.111,1.141,707.399,378.856,1.182,1073.695,210.700,0.884,692.414,243.337,0.942,-0.037,-0.960,1.401,0.000,-7.420,0.000,-0.003,0.033,0.006,0.208,-0.912,1.297
0722_173507_0050.png,0.028,0.169,0.939,-0.037,0.170,0.940,0.143,-0.008,1.126,-0.150,-0.010,1.120,0.080,-0.195,0.938,-0.298,-0.209,1.226,-0.016,-0.354,0.749,-0.231,-0.291,0.986,988.677,711.360,0.939,922.843,711.659,0.940,1080.664,532.960,1.126,832.229,531.848,1.120,1041.418,341.962,0.938,729.029,378.156,1.226,939.227,90.689,0.749,737.411,259.111,0.986,-0.037,-0.963,1.401,0.000,-357.722,0.000,0.012,-0.001,0.001,0.019,-0.884,1.256
0722_173507_0051.png,0.051,0.185,0.928,-0.014,0.180,0.918,0.162,-0.008,1.072,-0.125,0.010,1.147,0.241,-0.234,1.213,-0.287,-0.195,1.083,0.300,-0.297,0.967,-0.386,-0.318,0.879,1011.795,729.729,0.928,945.596,726.485,0.918,1103.635,533.335,1.072,856.782,548.079,1.147,1149.154,356.234,1.213,707.874,368.729,1.083,1255.045,247.842,0.967,542.458,195.587,0.879,-0.023,-0.971,1.403,0.000,-13.887,0.000,0.001,-0.031,0.020,0.197,-0.995,1.186
0722_173507_0052.png,0.039,0.169,0.933,-0.026,0.168,0.935,0.165,-0.013,1.085,-0.118,0.002,1.154,0.129,-0.252,0.959,-0.222,-0.172,0.965,-0.006,-0.356,0.756,-0.324,-0.342,0.782,999.978,712.412,0.933,933.938,710.888,0.935,1104.981,528.203,1.085,862.535,542.035,1.154,1087.790,289.883,0.959,741.467,370.398,0.965,951.888,91.916,0.756,566.053,123.562,0.782,-0.028,-0.966,1.402,0.000,-12.902,0.000,0.015,0.000,-0.009,-0.306,-0.917,1.475
0722_173507_0053.png,0.041,0.182,0.945,-0.024,0.179,0.937,0.151,-0.004,1.120,-0.146,0.000,1.138,0.197,-0.208,1.299,-0.227,-0.241,1.023,0.255,-0.279,1.041,-0.104,-0.346,0.803,1001.496,722.654,0.945,935.382,721.292,0.937,1088.340,536.669,1.120,838.197,540.188,1.138,1103.923,387.399,1.299,748.416,315.531,1.023,1192.679,284.745,1.041,836.605,130.938,0.803,-0.032,-0.962,1.401,0.000,-2.396,0.000,-0.002,-0.019,-0.045,0.265,-0.823,1.344
0722_173507_0054.png,-0.009,0.174,0.934,-0.073,0.180,0.949,0.112,0.009,1.154,-0.179,-0.004,1.098,0.230,-0.234,1.179,-0.185,-0.256,0.984,0.247,-0.309,0.918,-0.090,-0.358,0.750,950.493,716.790,0.934,886.487,720.598,0.949,1052.024,547.364,1.154,804.849,536.603,1.098,1145.245,350.862,1.179,781.456,292.656,0.984,1216.084,219.766,0.918,846.044,85.726,0.750,-0.032,-0.972,1.403,0.000,-347.661,0.000,0.002,0.004,-0.037,-0.324,-0.881,1.438
0722_173507_0055.png,0.064,0.164,0.946,-0.004,0.162,0.941,0.183,-0.023,1.077,-0.111,-0.005,1.158,0.083,-0.233,0.946,-0.273,-0.192,1.261,-0.013,-0.339,0.729,-0.437,-0.253,1.066,1023.850,705.194,0.946,956.357,703.271,0.941,1121.269,519.487,1.077,868.538,536.263,1.158,1043.190,306.172,0.946,753.895,395.175,1.261,942.540,97.002,0.729,570.487,314.532,1.066,-0.037,-0.966,1.402,0.000,-14.666,0.000,-0.029,0.035,0.013,-0.049,-0.782,1.180
0722_173507_0056.png,0.001,0.167,0.927,-0.062,0.170,0.931,0.101,0.004,1.148,-0.179,-0.012,1.080,0.192,-0.202,1.296,-0.280,-0.253,1.024,0.292,-0.272,1.069,-0.185,-0.342,0.803,961.394,710.821,0.927,896.284,713.434,0.931,1043.633,542.901,1.148,802.330,529.501,1.080,1101.161,391.838,1.296,699.911,305.562,1.024,1219.522,297.690,1.069,740.579,134.356,0.803,-0.030,-0.971,1.403,0.000,-345.011,0.000,0.029,0.000,0.024,0.135,-1.001,1.408
0722_173507_0057.png,0.015,0.156,0.941,-0.052,0.159,0.949,0.139,-0.005,1.139,-0.164,-0.011,1.114,0.144,-0.269,1.127,-0.275,-0.243,1.034,0.091,-0.305,0.870,-0.173,-0.327,0.804,974.998,697.315,0.941,907.841,699.527,0.949,1076.300,535.816,1.139,820.096,530.933,1.114,1081.360,313.147,1.127,707.546,316.990,1.034,1059.841,206.413,0.870,755.830,153.281,0.804,-0.037,-0.969,1.403,0.000,-354.102,0.000,-0.025,0.037,-0.010,-0.197,-1.058,1.142
0722_173507_0058.png,0.031,0.172,0.939,-0.034,0.173,0.941,0.150,-0.002,1.122,-0.145,-0.001,1.127,0.247,-0.244,1.184,-0.306,-0.214,1.091,0.136,-0.299,0.949,-0.383,-0.322,0.860,991.660,714.203,0.939,925.506,714.441,0.941,1087.172,538.351,1.122,837.528,539.371,1.127,1158.207,343.790,1.184,692.996,353.230,1.091,1095.882,240.803,0.949,535.997,183.383,0.860,-0.038,-0.971,1.403,0.000,0.134,0.000,0.006,0.010,-0.013,-0.072,-0.979,1.102
0722_173507_0059.png,0.016,0.161,0.940,-0.047,0.164,0.945,0.130,-0.007,1.137,-0.156,-0.012,1.118,0.242,-0.231,1.033,-0.283,-0.219,1.226,0.293,-0.347,0.797,-0.385,-0.297,0.993,976.327,703.047,0.940,912.576,704.549,0.945,1068.534,534.088,1.137,827.416,530.200,1.118,1183.096,327.359,1.033,740.350,370.338,1.226,1309.654,125.491,0.797,591.432,256.069,0.993,-0.035,-0.962,1.401,0.000,-354.850,0.000,0.036,0.012,-0.020,-0.101,-1.008,1.161
0722_173507_0060.png,0.006,0.195,0.932,-0.060,0.196,0.933,0.113,0.013,1.142,-0.183,0.004,1.100,0.148,-0.241,1.033,-0.327,-0.229,1.059,-0.013,-0.338,0.842,-0.401,-0.338,0.824,966.396,739.421,0.932,898.877,740.243,0.933,1053.935,551.126,1.142,802.099,543.181,1.100,1095.886,318.297,1.033,666.050,334.109,1.059,944.770,158.190,0.842,497.019,149.847,0.824,-0.023,-0.971,1.403,0.000,-350.501,0.000,-0.006,-0.039,-0.027,0.179,-0.767,1.414
0722_173507_0061.png,0.025,0.177,0.939,-0.040,0.176,0.938,0.135,-0.001,1.123,-0.157,-0.003,1.114,0.131,-0.245,1.017,-0.213,-0.251,1.034,-0.017,-0.334,0.823,-0.201,-0.341,0.792,984.884,718.898,0.939,919.215,718.901,0.938,1074.198,539.201,1.123,825.619,537.475,1.114,1082.175,310.885,1.017,764.354,309.259,1.034,940.783,154.535,0.823,719.166,130.988,0.792,-0.031,-0.974,1.404,0.000,-357.065,0.000,0.015,0.012,0.019,0.135,-0.838,1.205
0722_173507_0062.png,0.048,0.170,0.947,-0.015,0.166,0.940,0.159,-0.008,1.098,-0.125,0.004,1.147,0.215,-0.264,1.098,-0.192,-0.172,0.940,0.045,-0.315,0.904,-0.259,-0.343,0.740,1008.389,710.648,0.947,944.469,708.352,0.940,1097.743,533.481,1.098,856.402,543.114,1.147,1146.203,310.901,1.098,765.953,366.419,0.940,1007.597,209.255,0.904,626.734,99.913,0.740,-0.031,-0.976,1.404,0.000,-8.887,0.000,0.029,0.037,-0.005,0.131,-0.865,1.356
0722_173507_0063.png,0.029,0.173,0.931,-0.036,0.174,0.937,0.159,-0.002,1.106,-0.134,0.006,1.141,0.178,-0.183,1.310,-0.215,-0.173,0.935,0.254,-0.271,1.068,-0.296,-0.347,0.736,989.904,716.586,0.931,923.639,716.681,0.937,1096.517,537.941,1.106,848.204,544.606,1.141,1089.559,406.893,1.310,741.155,364.343,0.935,1186.397,298.721,1.068,577.462,92.066,0.736,-0.033,-0.970,1.403,0.000,-5.711,0.000,0.006,-0.009,-0.023,-0.358,-1.045,1.309
0722_173507_0064.png,0.027,0.162,0.939,-0.038,0.161,0.936,0.130,-0.007,1.138,-0.162,-0.014,1.109,0.248,-0.222,1.250,-0.280,-0.225,0.989,0.397,-0.277,1.041,-0.324,-0.349,0.761,987.375,703.647,0.939,921.473,703.816,0.936,1068.443,533.780,1.138,821.022,527.895,1.109,1148.296,371.386,1.250,690.977,323.564,0.989,1322.475,287.267,1.041,554.847,103.230,0.761,-0.036,-0.961,1.401,0.000,-353.000,0.000,0.012,0.003,-0.001,0.304,-0.977,1.401
0722_173507_0065.png,0.011,0.171,0.934,-0.054,0.173,0.934,0.112,-0.004,1.147,-0.175,-0.015,1.096,0.058,-0.190,0.953,-0.242,-0.268,1.184,-0.013,-0.357,0.759,-0.230,-0.315,0.923,971.415,714.401,0.934,905.512,715.619,0.934,1053.196,537.050,1.147,808.237,526.820,1.096,1017.694,350.787,0.953,765.884,324.820,1.184,943.195,92.190,0.759,723.044,215.505,0.923,-0.031,-0.959,1.400,0.000,-348.580,0.000,0.017,-0.023,-0.006,0.230,-0.921,1.259
0722_173507_0066.png,0.052,0.189,0.934,-0.015,0.188,0.933,0.175,-0.006,1.081,-0.120,0.009,1.148,0.132,-0.246,0.964,-0.297,-0.199,1.162,0.003,-0.345,0.758,-0.191,-0.300,0.942,1012.847,732.454,0.934,944.732,731.433,0.933,1113.767,534.428,1.081,860.669,547.438,1.148,1090.086,297.070,0.964,716.927,377.056,1.162,963.534,107.437,0.758,767.462,237.501,0.942,-0.035,-0.972,1.404,0.000,-11.889,0.000,-0.019,-0.015,0.007,-0.124,-0.680,1.454
0722_173507_0067.png,0.029,0.174,0.936,-0.039,0.174,0.936,0.147,-0.004,1.124,-0.160,-0.004,1.122,0.277,-0.210,1.252,-0.296,-0.240,1.084,0.281,-0.280,0.996,-0.164,-0.316,0.865,989.179,716.804,0.936,920.060,716.833,0.936,1084.447,536.734,1.124,824.607,536.197,1.122,1170.198,380.489,1.252,700.582,329.116,1.084,1228.615,272.619,0.996,779.823,192.219,0.865,-0.033,-0.965,1.402,0.000,-358.307,0.000,-0.033,-0.013,-0.009,0.066,-0.947,1.219
0722_173507_0068.png,0.031,0.168,0.929,-0.037,0.168,0.926,0.142,-0.003,1.128,-0.164,-0.009,1.103,0.102,-0.176,0.928,-0.180,-0.250,0.991,0.059,-0.342,0.732,-0.094,-0.336,0.764,991.356,712.042,0.929,921.552,712.275,0.926,1079.649,537.243,1.128,818.258,532.322,1.103,1064.560,360.000,0.928,787.449,300.086,0.991,1036.607,95.822,0.732,842.853,121.630,0.764,-0.037,-0.966,1.402,0.000,-354.130,0.000,-0.035,-0.014,0.029,0.230,-0.992,1.512
0722_173507_0069.png,0.037,0.161,0.929,-0.028,0.159,0.927,0.157,-0.019,1.077,-0.131,-0.003,1.144,0.299,-0.245,1.080,-0.278,-0.203,1.245,0.338,-0.318,0.841,-0.423,-0.267,1.048,997.819,705.201,0.929,930.797,703.028,0.927,1098.942,523.643,1.077,851.224,537.576,1.144,1223.505,324.158,1.080,747.513,384.684,1.245,1342.451,180.384,0.841,575.858,297.589,1.048,-0.021,-0.968,1.403,0.000,-12.416,0.000,0.002,0.010,0.048,-0.110,-0.935,1.634
0722_173507_0070.png,0.000,0.148,0.931,-0.068,0.152,0.934,0.111,-0.003,1.152,-0.191,-0.018,1.087,0.186,-0.253,1.204,-0.252,-0.252,0.973,0.162,-0.281,0.945,-0.234,-0.338,0.728,960.044,691.223,0.931,890.691,694.449,0.934,1051.977,537.811,1.152,793.198,524.686,1.087,1107.055,340.259,1.204,713.421,293.495,0.973,1122.784,257.136,0.945,654.191,97.820,0.728,-0.027,-0.967,1.402,0.000,-346.447,0.000,-0.042,0.021,0.012,0.094,-1.115,1.624
0722_173507_0071.png,0.004,0.160,0.932,-0.063,0.163,0.936,0.110,0.005,1.156,-0.186,-0.009,1.097,0.065,-0.176,0.944,-0.242,-0.186,1.294,0.023,-0.352,0.738,-0.286,-0.270,1.039,963.662,703.147,0.932,895.739,706.128,0.936,1050.530,544.144,1.156,799.069,532.582,1.097,1025.519,362.853,0.944,781.780,403.230,1.294,989.130,85.744,0.738,697.926,292.567,1.039,-0.029,-0.967,1.402,0.000,-347.228,0.000,-0.016,0.001,-0.036,0.128,-1.140,1.460
0722_173507_0072.png,0.015,0.161,0.942,-0.051,0.162,0.943,0.127,-0.006,1.137,-0.169,-0.012,1.112,0.284,-0.221,1.101,-0.282,-0.204,1.255,0.365,-0.313,0.868,-0.426,-0.268,1.043,975.380,702.864,0.942,908.950,703.712,0.943,1066.634,534.996,1.137,815.738,530.059,1.112,1205.157,349.305,1.101,746.193,385.596,1.255,1359.745,197.196,0.868,572.117,295.881,1.043,-0.029,-0.967,1.402,0.000,-353.965,0.000,-0.001,0.025,0.000,0.083,-0.997,1.108
0722_173507_0073.png,0.049,0.166,0.942,-0.014,0.163,0.937,0.164,-0.014,1.090,-0.115,0.000,1.151,0.203,-0.191,1.283,-0.262,-0.210,1.076,0.336,-0.269,1.075,-0.217,-0.332,0.848,1009.541,707.894,0.942,945.460,705.616,0.937,1103.106,527.489,1.090,864.690,539.862,1.151,1110.127,398.203,1.283,728.190,354.021,1.076,1257.296,301.805,1.075,716.600,167.287,0.848,-0.032,-0.969,1.403,0.000,-11.588,0.000,0.035,0.023,-0.002,-0.031,-0.950,1.182
0722_173507_0074.png,0.023,0.161,0.930,-0.044,0.162,0.935,0.151,0.003,1.120,-0.153,0.006,1.132,0.225,-0.201,1.279,-0.240,-0.175,1.314,0.386,-0.259,1.069,-0.295,-0.259,1.062,983.932,704.434,0.930,915.221,705.076,0.935,1088.507,542.420,1.120,831.232,544.896,1.132,1127.230,390.448,1.279,786.530,413.638,1.314,1303.387,310.103,1.069,695.794,308.295,1.062,-0.031,-0.974,1.404,0.000,-1.328,0.000,-0.027,0.008,-0.029,-0.195,-1.233,1.505
0722_173507_0075.png,0.025,0.159,0.938,-0.042,0.159,0.938,0.142,-0.014,1.120,-0.160,-0.014,1.119,0.177,-0.183,0.918,-0.186,-0.264,1.039,0.208,-0.348,0.720,-0.134,-0.327,0.795,984.995,701.204,0.938,917.278,701.226,0.938,1080.184,528.513,1.120,824.327,528.330,1.119,1142.872,350.011,0.918,789.458,298.039,1.039,1234.557,80.130,0.720,799.334,148.958,0.795,-0.029,-0.964,1.402,0.000,-358.655,0.000,-0.015,0.016,0.028,0.045,-0.989,1.205
0722_173507_0076.png,0.020,0.161,0.939,-0.047,0.163,0.944,0.147,-0.004,1.120,-0.156,-0.002,1.128,0.237,-0.190,1.281,-0.275,-0.174,1.289,0.348,-0.257,1.050,-0.271,-0.258,1.040,980.055,702.900,0.939,912.382,703.755,0.944,1085.191,536.745,1.120,828.198,538.424,1.128,1136.182,398.768,1.281,757.360,411.463,1.289,1274.637,307.270,1.050,711.953,303.825,1.040,-0.029,-0.975,1.404,0.000,-0.480,0.000,-0.023,0.036,0.000,-0.237,-1.044,1.255
0722_173507_0077.png,0.030,0.168,0.924,-0.036,0.166,0.922,0.147,0.000,1.108,-0.154,0.004,1.124,0.200,-0.262,1.066,-0.244,-0.196,1.289,0.016,-0.314,0.884,-0.286,-0.269,1.043,991.260,712.465,0.924,922.509,711.304,0.922,1086.458,540.330,1.108,830.051,543.640,1.124,1138.088,306.085,1.066,779.907,395.605,1.289,977.565,201.961,0.884,699.166,294.666,1.043,-0.027,-0.974,1.404,0.000,-2.155,0.000,-0.015,-0.013,0.017,0.077,-1.171,1.563
0722_173507_0078.png,0.001,0.172,0.933,-0.062,0.175,0.937,0.098,0.008,1.153,-0.178,-0.007,1.087,0.045,-0.174,0.948,-0.288,-0.252,1.077,-0.004,-0.353,0.750,-0.169,-0.337,0.855,961.233,715.413,0.933,897.109,717.868,0.937,1041.099,546.276,1.153,803.989,533.587,1.087,1005.251,365.700,0.948,705.613,317.468,1.077,955.289,92.814,0.750,772.598,164.863,0.855,-0.030,-0.972,1.403,0.000,-345.275,0.000,0.041,0.002,-0.011,0.153,-0.936,1.406
0722_173507_0079.png,-0.012,0.173,0.929,-0.074,0.178,0.943,0.102,-0.002,1.145,-0.178,-0.017,1.082,0.195,-0.174,0.964,-0.335,-0.231,1.125,0.284,-0.342,0.788,-0.419,-0.317,0.899,947.363,717.232,0.929,884.871,719.607,0.943,1044.856,538.127,1.145,803.149,525.282,1.082,1151.874,368.364,0.964,676.770,344.787,1.125,1303.019,127.264,0.788,517.207,205.080,0.899,-0.029,-0.965,1.402,0.000,-345.848,0.000,0.030,-0.007,0.031,-0.273,-0.737,1.427
0722_173507_0080.png,0.019,0.167,0.935,-0.048,0.168,0.935,0.129,-0.008,1.141,-0.172,-0.017,1.102,0.223,-0.258,1.206,-0.298,-0.252,1.044,0.246,-0.295,0.946,-0.198,-0.330,0.813,979.673,710.292,0.935,911.256,711.096,0.935,1067.565,533.493,1.141,811.570,525.707,1.102,1135.509,336.864,1.206,688.569,310.115,1.044,1207.215,243.949,0.946,728.017,154.421,0.813,-0.034,-0.957,1.400,0.000,-351.424,0.000,-0.022,-0.017,0.003,0.192,-0.906,1.333
0722_173507_0081.png,0.051,0.164,0.948,-0.014,0.161,0.942,0.167,-0.019,1.097,-0.121,-0.005,1.156,0.097,-0.196,0.890,-0.237,-0.176,0.962,0.031,-0.369,0.688,-0.351,-0.341,0.774,1011.053,704.610,0.948,945.651,702.326,0.942,1104.686,523.573,1.097,860.233,535.730,1.156,1063.272,330.627,0.890,726.193,366.374,0.962,1002.194,30.157,0.688,528.798,120.409,0.774,-0.031,-0.961,1.401,0.000,-10.857,0.000,0.008,0.018,-0.026,0.029,-0.892,1.200
0722_173507_0082.png,0.029,0.157,0.936,-0.037,0.157,0.936,0.145,-0.010,1.121,-0.153,-0.009,1.123,0.187,-0.260,1.036,-0.185,-0.242,0.994,0.022,-0.324,0.843,-0.163,-0.346,0.755,989.736,700.023,0.936,922.506,699.895,0.936,1083.190,531.770,1.121,830.291,532.210,1.123,1131.564,301.276,1.036,783.092,308.815,0.994,984.481,173.962,0.843,754.675,104.772,0.755,-0.033,-0.965,1.402,0.000,-359.257,0.000,-0.005,0.013,0.009,0.050,-1.097,1.302
0722_173507_0083.png,0.018,0.171,0.948,-0.045,0.171,0.946,0.121,0.000,1.140,-0.164,-0.006,1.115,0.117,-0.229,0.990,-0.157,-0.189,0.902,-0.011,-0.351,0.793,-0.154,-0.369,0.695,978.129,712.048,0.948,914.345,712.312,0.946,1060.910,540.067,1.140,819.924,535.177,1.115,1072.501,319.609,0.990,794.396,340.434,0.902,946.843,118.976,0.793,749.188,35.174,0.695,-0.029,-0.970,1.403,0.000,-353.697,0.000,0.036,0.023,-0.024,0.233,-0.833,1.299
0722_173507_0084.png,0.014,0.167,0.936,-0.052,0.169,0.936,0.121,0.010,1.146,-0.174,0.001,1.106,0.264,-0.210,1.208,-0.301,-0.238,1.103,0.393,-0.288,0.983,-0.319,-0.324,0.846,973.933,709.942,0.936,906.832,711.591,0.936,1060.168,548.326,1.146,810.142,540.711,1.106,1167.618,374.987,1.208,700.484,335.173,1.103,1340.311,261.339,0.983,602.003,175.672,0.846,-0.031,-0.976,1.404,0.000,-350.894,0.000,-0.003,0.013,-0.035,0.162,-1.106,1.429
0722_173507_0085.png,0.023,0.161,0.940,-0.044,0.162,0.943,0.145,-0.011,1.122,-0.158,-0.010,1.128,0.228,-0.243,1.225,-0.155,-0.214,0.948,0.273,-0.284,0.968,-0.095,-0.350,0.728,983.196,703.041,0.940,915.375,703.303,0.943,1083.176,530.651,1.122,826.930,531.991,1.128,1136.796,351.298,1.225,804.330,325.760,0.948,1228.113,261.251,0.968,836.180,82.640,0.728,-0.028,-0.964,1.402,0.000,-0.115,0.000,-0.021,0.016,-0.004,-0.088,-0.963,1.254
0722_173507_0086.png,0.015,0.162,0.937,-0.052,0.163,0.941,0.138,-0.012,1.118,-0.164,-0.012,1.119,0.059,-0.179,0.927,-0.290,-0.205,1.254,-0.021,-0.340,0.741,-0.452,-0.259,1.058,975.275,704.723,0.937,907.584,705.295,0.941,1077.767,529.796,1.118,820.627,530.107,1.119,1020.856,356.268,0.927,739.723,384.768,1.254,933.103,103.402,0.741,553.927,307.460,1.058,-0.024,-0.967,1.402,0.000,-359.125,0.000,-0.018,0.019,0.034,-0.138,-0.882,1.332
0722_173507_0087.png,0.035,0.161,0.938,-0.029,0.159,0.935,0.151,-0.011,1.105,-0.137,-0.002,1.143,0.298,-0.232,1.089,-0.098,-0.180,0.930,0.383,-0.326,0.856,-0.063,-0.354,0.723,995.238,703.237,0.938,930.090,701.443,0.935,1089.538,530.861,1.105,846.335,538.375,1.143,1220.746,337.243,1.089,859.449,355.982,0.930,1385.117,178.089,0.856,876.697,74.038,0.723,-0.026,-0.967,1.402,0.000,-6.505,0.000,0.024,0.014,-0.011,0.004,-1.022,1.501
0722_173507_0088.png,0.020,0.168,0.939,-0.047,0.169,0.939,0.132,-0.009,1.129,-0.167,-0.015,1.105,0.111,-0.180,0.923,-0.266,-0.258,1.064,0.087,-0.345,0.722,-0.114,-0.312,0.864,979.903,710.433,0.939,912.458,710.809,0.939,1071.587,532.032,1.129,816.309,527.329,1.105,1074.238,354.555,0.923,721.998,309.102,1.064,1074.242,85.584,0.722,834.790,196.529,0.864,-0.031,-0.965,1.402,0.000,-354.332,0.000,-0.012,0.010,0.036,0.124,-0.841,1.134
0722_173507_0089.png,0.040,0.159,0.927,-0.027,0.159,0.932,0.170,-0.017,1.093,-0.129,-0.007,1.136,0.309,-0.248,1.087,-0.225,-0.240,1.057,0.372,-0.312,0.847,-0.055,-0.312,0.872,1001.175,702.812,0.927,932.702,702.481,0.932,1108.164,525.174,1.093,851.831,534.083,1.136,1230.403,322.719,1.087,757.107,323.670,1.057,1377.584,189.766,0.847,900.024,199.518,0.872,-0.039,-0.965,1.402,0.000,-7.281,0.000,-0.020,0.003,0.038,-0.305,-1.081,1.282
0722_173507_0090.png,0.027,0.188,0.928,-0.038,0.188,0.927,0.137,0.007,1.125,-0.157,0.004,1.110,0.109,-0.177,0.919,-0.261,-0.183,0.941,0.082,-0.357,0.719,-0.325,-0.356,0.750,987.732,733.012,0.928,920.827,733.220,0.927,1075.802,546.325,1.125,825.397,543.490,1.110,1072.961,356.918,0.919,695.693,355.407,0.941,1068.880,67.340,0.719,548.314,88.225,0.750,-0.035,-0.972,1.404,0.000,-355.865,0.000,0.008,-0.034,0.001,0.138,-0.818,1.605
0722_173507_0091.png,0.051,0.163,0.935,-0.012,0.158,0.925,0.162,-0.017,1.080,-0.117,0.000,1.153,0.266,-0.246,0.989,-0.223,-0.242,1.099,0.303,-0.356,0.754,-0.224,-0.331,0.853,1011.789,706.205,0.935,947.431,701.888,0.925,1102.268,524.811,1.080,863.847,539.721,1.153,1216.259,303.176,0.989,766.950,330.987,1.099,1342.339,91.734,0.754,710.651,171.106,0.853,-0.025,-0.965,1.402,0.000,-14.014,0.000,0.029,0.000,0.005,0.138,-1.041,1.500
0722_173507_0092.png,0.022,0.174,0.931,-0.044,0.175,0.935,0.146,-0.010,1.109,-0.150,-0.006,1.128,0.268,-0.253,1.088,-0.257,-0.256,1.151,0.184,-0.326,0.852,-0.258,-0.314,0.897,982.472,717.507,0.931,915.747,717.694,0.935,1085.215,531.092,1.109,833.881,534.902,1.128,1193.885,318.864,1.088,747.940,328.200,1.151,1164.902,175.976,0.852,686.472,207.251,0.897,-0.027,-0.962,1.401,0.000,-2.581,0.000,0.002,-0.019,0.014,-0.194,-0.804,1.517
0722_173507_0093.png,0.017,0.175,0.935,-0.048,0.176,0.939,0.134,0.006,1.131,-0.158,0.004,1.122,0.265,-0.230,1.154,-0.235,-0.253,1.165,0.338,-0.317,0.909,-0.223,-0.319,0.902,976.804,717.704,0.935,911.286,718.730,0.939,1072.377,545.057,1.131,825.778,543.363,1.122,1177.931,350.630,1.154,768.016,333.736,1.165,1314.129,208.327,0.909,724.746,203.286,0.902,-0.030,-0.973,1.404,0.000,-357.034,0.000,0.016,-0.001,-0.032,-0.089,-0.951,1.513
0722_173507_0094.png,0.049,0.176,0.928,-0.014,0.170,0.918,0.159,-0.010,1.081,-0.123,0.004,1.145,0.089,-0.198,0.900,-0.118,-0.172,0.936,-0.004,-0.366,0.722,-0.114,-0.345,0.732,1010.287,719.841,0.928,945.352,716.138,0.918,1099.926,530.802,1.081,858.203,543.592,1.145,1054.037,331.272,0.900,839.774,365.326,0.936,954.228,58.391,0.722,811.382,92.567,0.732,-0.026,-0.966,1.402,0.000,-12.016,0.000,0.026,-0.030,0.015,0.197,-1.071,1.363
0722_173507_0095.png,0.040,0.160,0.943,-0.027,0.159,0.941,0.159,-0.019,1.105,-0.144,-0.012,1.133,0.274,-0.254,1.065,-0.219,-0.264,1.138,0.195,-0.314,0.829,-0.166,-0.297,0.890,1000.788,701.523,0.943,932.968,700.660,0.941,1096.582,523.999,1.105,839.386,529.752,1.133,1204.988,313.117,1.065,776.657,319.030,1.138,1184.335,179.235,0.829,782.730,222.380,0.890,-0.033,-0.964,1.402,0.000,-4.216,0.000,-0.023,0.029,0.032,0.054,-0.862,1.211
0722_173507_0096.png,-0.002,0.172,0.931,-0.068,0.177,0.944,0.121,-0.002,1.152,-0.180,-0.017,1.088,0.069,-0.174,0.938,-0.330,-0.183,1.248,0.016,-0.340,0.728,-0.309,-0.279,1.002,958.076,715.623,0.931,891.049,718.240,0.944,1060.300,538.007,1.152,803.005,525.182,1.088,1030.089,363.416,0.938,708.224,400.228,1.248,980.665,95.938,0.728,666.677,275.589,1.002,-0.037,-0.960,1.401,0.000,-346.660,0.000,-0.038,-0.015,-0.001,-0.235,-0.793,1.355
0722_173507_0097.png,0.039,0.176,0.942,-0.027,0.173,0.937,0.156,-0.013,1.105,-0.142,-0.004,1.143,0.181,-0.206,1.298,-0.184,-0.228,0.989,0.220,-0.273,1.042,-0.075,-0.346,0.775,999.869,717.402,0.942,932.840,716.085,0.937,1094.062,528.924,1.105,842.225,536.590,1.143,1092.799,389.182,1.298,783.226,321.081,0.989,1161.218,290.565,1.042,868.349,115.245,0.775,-0.027,-0.960,1.401,0.000,-6.331,0.000,-0.010,-0.014,-0.017,0.090,-0.817,1.273
0722_173507_0098.png,0.006,0.184,0.928,-0.059,0.186,0.931,0.114,0.008,1.139,-0.175,-0.001,1.102,0.053,-0.171,0.931,-0.339,-0.214,1.054,-0.004,-0.347,0.729,-0.446,-0.336,0.845,966.083,728.344,0.928,900.003,729.670,0.931,1055.181,546.348,1.139,808.565,539.275,1.102,1014.635,365.110,0.931,653.852,347.319,1.054,955.028,87.385,0.729,458.121,161.444,0.845,-0.025,-0.968,1.403,0.000,-351.409,0.000,0.017,-0.036,-0.014,0.063,-0.891,1.474
0722_173507_0099.png,0.046,0.175,0.946,-0.023,0.173,0.942,0.166,-0.015,1.098,-0.141,-0.004,1.145,0.236,-0.256,1.195,-0.275,-0.220,1.047,0.243,-0.285,0.934,-0.316,-0.320,0.807,1005.847,715.956,0.946,936.696,714.927,0.942,1103.931,527.044,1.098,842.496,536.487,1.145,1147.822,336.482,1.195,710.405,340.298,1.047,1207.227,250.206,0.934,588.312,162.664,0.807,-0.029,-0.964,1.402,0.000,-7.681,0.000,-0.048,0.008,0.002,0.051,-0.719,1.207
0722_173507_0100.png,0.035,0.165,0.945,-0.032,0.166,0.947,0.160,-0.015,1.112,-0.146,-0.011,1.131,0.122,-0.223,0.950,-0.212,-0.249,1.034,0.066,-0.340,0.726,-0.069,-0.319,0.824,995.608,706.405,0.945,927.437,706.424,0.947,1096.664,527.030,1.112,837.563,530.813,1.131,1082.004,317.085,0.950,765.238,311.016,1.034,1046.931,93.836,0.726,880.697,171.645,0.824,-0.037,-0.965,1.402,0.000,-2.381,0.000,-0.031,0.027,0.018,-0.105,-0.700,1.461
0722_173507_0101.png,0.027,0.173,0.925,-0.042,0.172,0.924,0.148,-0.001,1.109,-0.159,0.004,1.128,0.229,-0.236,1.235,-0.289,-0.224,1.046,0.313,-0.284,0.987,-0.319,-0.329,0.806,987.345,717.816,0.925,917.175,716.918,0.924,1086.849,539.341,1.109,825.822,543.159,1.128,1136.768,358.382,1.235,697.597,336.043,1.046,1261.401,266.255,0.987,583.580,152.214,0.806,-0.023,-0.968,1.403,0.000,-2.584,0.000,-0.037,-0.030,-0.001,0.018,-1.112,1.491
0722_173507_0102.png,0.047,0.163,0.953,-0.018,0.161,0.947,0.159,-0.011,1.115,-0.134,-0.005,1.144,0.285,-0.235,1.172,-0.232,-0.251,1.142,0.195,-0.302,0.928,-0.212,-0.315,0.882,1006.785,702.889,0.953,941.679,701.301,0.947,1095.968,530.312,1.115,848.698,536.094,1.144,1191.626,349.710,1.172,767.111,330.636,1.142,1160.203,230.950,0.928,731.801,200.619,0.882,-0.036,-0.967,1.403,0.000,-4.617,0.000,0.007,0.039,-0.027,0.152,-0.859,1.317
0722_173507_0103.png,0.013,0.151,0.935,-0.050,0.154,0.942,0.128,-0.011,1.135,-0.157,-0.015,1.117,0.245,-0.228,1.029,-0.127,-0.194,0.909,0.298,-0.347,0.798,-0.100,-0.369,0.707,972.827,693.252,0.935,909.240,695.243,0.942,1066.868,530.919,1.135,826.363,527.150,1.117,1186.362,329.304,1.029,827.577,336.907,0.909,1314.881,126.747,0.798,825.537,42.664,0.707,-0.032,-0.961,1.401,0.000,-355.013,0.000,0.040,0.015,-0.006,-0.131,-0.980,1.695
0722_173507_0104.png,0.003,0.165,0.929,-0.060,0.168,0.937,0.119,-0.003,1.135,-0.169,-0.012,1.095,0.093,-0.210,0.975,-0.113,-0.186,0.903,-0.017,-0.342,0.786,-0.058,-0.356,0.717,963.554,708.617,0.929,898.778,710.882,0.937,1059.782,537.477,1.135,813.232,529.378,1.095,1050.984,335.615,0.975,840.683,343.914,0.903,939.112,126.194,0.786,883.032,68.053,0.717,-0.031,-0.969,1.403,0.000,-350.698,0.000,0.020,0.007,0.035,-0.144,-0.858,1.635
0722_173507_0105.png,0.031,0.184,0.936,-0.034,0.183,0.934,0.148,-0.013,1.101,-0.145,-0.007,1.129,0.221,-0.232,1.253,-0.237,-0.240,1.035,0.274,-0.287,1.008,-0.124,-0.336,0.825,991.765,726.461,0.936,925.537,726.127,0.934,1087.507,528.590,1.101,837.951,534.434,1.129,1127.335,363.669,1.253,742.713,319.902,1.035,1219.032,268.938,1.008,816.837,152.190,0.825,-0.026,-0.961,1.401,0.000,-4.577,0.000,0.010,-0.026,0.029,0.006,-0.644,1.330
0722_173507_0106.png,0.048,0.155,0.930,-0.021,0.152,0.929,0.175,-0.014,1.084,-0.126,0.002,1.155,0.156,-0.264,0.983,-0.103,-0.172,0.940,-0.009,-0.330,0.784,-0.079,-0.341,0.730,1008.682,698.295,0.930,938.763,695.192,0.929,1113.235,527.541,1.084,856.173,541.754,1.155,1111.024,284.272,0.983,855.379,365.816,0.940,948.840,140.543,0.784,856.587,95.970,0.730,-0.030,-0.968,1.403,0.000,-12.456,0.000,-0.043,0.012,-0.007,-0.144,-1.210,1.482
0722_173507_0107.png,0.021,0.156,0.926,-0.046,0.155,0.925,0.136,-0.009,1.117,-0.163,-0.009,1.118,0.168,-0.277,1.149,-0.177,-0.251,1.009,0.143,-0.308,0.895,-0.054,-0.335,0.798,981.277,699.975,0.926,913.221,699.712,0.925,1075.753,532.119,1.117,821.364,532.438,1.118,1099.282,311.042,1.149,793.160,302.954,1.009,1111.633,212.175,0.895,896.178,140.558,0.798,-0.024,-0.964,1.402,0.000,-359.138,0.000,-0.007,-0.009,0.027,0.068,-1.222,1.441
0722_173507_0108.png,0.033,0.169,0.949,-0.033,0.169,0.950,0.156,-0.010,1.103,-0.138,-0.001,1.145,0.206,-0.239,0.970,-0.243,-0.238,1.188,0.151,-0.348,0.736,-0.231,-0.295,0.930,992.881,709.775,0.949,926.854,709.220,0.950,1094.230,531.053,1.103,844.966,539.424,1.145,1162.212,306.248,0.970,765.382,349.474,1.188,1155.176,89.841,0.736,724.322,238.196,0.930,-0.026,-0.973,1.404,0.000,-7.188,0.000,-0.001,0.041,-0.006,-0.178,-0.726,1.361
0722_173507_0109.png,0.048,0.164,0.944,-0.016,0.160,0.934,0.156,-0.015,1.094,-0.133,-0.004,1.140,0.225,-0.259,1.024,-0.313,-0.180,1.221,0.231,-0.337,0.781,-0.282,-0.285,0.989,1008.655,705.145,0.944,944.075,702.544,0.934,1095.707,527.077,1.094,849.149,536.394,1.140,1168.583,299.771,1.024,716.400,399.578,1.221,1241.367,130.052,0.781,688.700,266.233,0.989,-0.028,-0.971,1.403,0.000,-8.081,0.000,0.014,0.030,0.031,0.275,-0.924,1.301
0722_173507_0110.png,0.044,0.185,0.924,-0.021,0.182,0.920,0.163,-0.004,1.083,-0.126,0.009,1.141,0.223,-0.274,1.111,-0.162,-0.193,0.967,0.054,-0.316,0.917,-0.130,-0.353,0.763,1005.535,729.989,0.924,938.310,728.014,0.920,1103.127,536.369,1.083,854.836,547.658,1.141,1151.225,305.615,1.111,800.906,350.132,0.967,1015.576,211.957,0.917,797.742,100.623,0.763,-0.030,-0.971,1.403,0.000,-10.452,0.000,0.006,-0.037,0.016,-0.028,-0.959,1.404
0722_173507_0111.png,0.007,0.166,0.945,-0.058,0.169,0.950,0.112,-0.001,1.158,-0.174,-0.015,1.096,0.209,-0.208,1.002,-0.321,-0.236,1.056,0.254,-0.347,0.773,-0.379,-0.334,0.813,967.320,706.640,0.945,902.276,708.668,0.950,1052.091,539.150,1.158,808.707,526.898,1.096,1158.119,342.455,1.002,671.250,327.861,1.056,1272.745,113.259,0.773,516.799,148.975,0.813,-0.037,-0.965,1.402,0.000,-346.463,0.000,0.012,0.025,-0.028,0.106,-0.831,1.228
0722_173507_0112.png,0.011,0.168,0.934,-0.055,0.171,0.937,0.120,0.006,1.150,-0.175,-0.004,1.107,0.148,-0.243,1.026,-0.311,-0.210,1.220,-0.012,-0.338,0.830,-0.430,-0.291,0.990,971.533,711.365,0.934,904.515,713.429,0.937,1059.376,545.165,1.150,809.995,536.944,1.107,1097.394,314.812,1.026,717.867,376.313,1.220,946.269,152.900,0.830,546.959,260.727,0.990,-0.032,-0.968,1.403,0.000,-350.383,0.000,-0.003,-0.007,-0.046,0.097,-1.151,1.171
0722_173507_0113.png,0.028,0.159,0.940,-0.038,0.159,0.938,0.139,-0.007,1.124,-0.157,-0.009,1.116,0.109,-0.242,1.008,-0.267,-0.244,1.065,0.049,-0.335,0.775,-0.118,-0.316,0.865,988.383,701.327,0.940,921.853,701.223,0.938,1077.969,533.967,1.124,826.464,532.430,1.116,1063.250,311.553,1.008,721.483,322.426,1.065,1019.872,128.754,0.775,830.310,193.108,0.865,-0.033,-0.971,1.403,0.000,-357.312,0.000,0.002,0.030,0.023,0.143,-0.963,1.447
0722_173507_0114.png,0.045,0.179,0.935,-0.020,0.177,0.933,0.167,-0.003,1.091,-0.120,0.010,1.150,0.266,-0.253,1.047,-0.298,-0.191,1.109,0.291,-0.345,0.797,-0.416,-0.315,0.903,1006.057,722.371,0.935,939.919,720.675,0.933,1105.509,537.011,1.091,861.081,548.395,1.150,1201.449,310.487,1.047,704.707,376.566,1.109,1307.516,128.657,0.797,521.938,208.696,0.903,-0.033,-0.973,1.404,0.000,-10.776,0.000,0.014,-0.003,-0.020,-0.139,-0.855,1.579
0722_173507_0115.png,0.029,0.170,0.930,-0.036,0.168,0.928,0.147,-0.008,1.100,-0.145,0.000,1.135,0.145,-0.257,0.996,-0.309,-0.213,1.165,-0.017,-0.341,0.810,-0.413,-0.304,0.944,989.703,713.953,0.930,923.115,712.634,0.928,1086.753,533.152,1.100,838.696,540.013,1.135,1098.332,295.116,0.996,707.567,366.231,1.165,940.329,140.253,0.810,544.214,233.986,0.944,-0.023,-0.967,1.402,0.000,-5.762,0.000,0.011,-0.013,0.013,-0.017,-0.966,1.586
0722_173507_0116.png,0.055,0.166,0.942,-0.010,0.163,0.935,0.170,-0.013,1.083,-0.119,0.002,1.149,0.240,-0.258,1.145,-0.255,-0.225,1.143,0.108,-0.294,0.926,-0.288,-0.303,0.899,1015.866,707.979,0.942,949.845,705.410,0.935,1109.402,528.184,1.083,861.298,541.487,1.149,1159.596,325.708,1.145,747.821,353.001,1.143,1071.468,237.834,0.926,655.150,219.228,0.899,-0.033,-0.975,1.404,0.000,-12.070,0.000,-0.001,0.036,0.021,0.064,-0.932,1.226
0722_173507_0117.png,0.063,0.155,0.934,-0.001,0.148,0.924,0.174,-0.019,1.077,-0.108,-0.001,1.154,0.172,-0.284,1.104,-0.262,-0.208,1.084,0.141,-0.323,0.849,-0.205,-0.323,0.858,1024.000,697.601,0.934,958.875,692.384,0.924,1113.819,523.162,1.077,870.748,538.844,1.154,1108.129,295.151,1.104,730.395,357.734,1.084,1118.075,178.523,0.849,732.497,182.621,0.858,-0.035,-0.967,1.402,0.000,-14.432,0.000,0.012,0.015,0.016,0.169,-1.226,1.350
0722_173507_0118.png,0.028,0.171,0.942,-0.037,0.170,0.938,0.135,-0.002,1.128,-0.159,-0.005,1.118,0.099,-0.179,0.916,-0.326,-0.207,1.062,0.065,-0.352,0.710,-0.412,-0.325,0.843,987.902,712.714,0.942,922.149,712.334,0.938,1073.621,537.926,1.128,824.906,536.054,1.118,1062.873,353.890,0.916,668.039,354.645,1.062,1047.394,68.777,0.710,494.817,173.189,0.843,-0.030,-0.970,1.403,0.000,-356.928,0.000,0.011,0.013,-0.002,0.234,-0.831,1.527
0722_173507_0119.png,0.044,0.194,0.933,-0.023,0.193,0.928,0.162,-0.006,1.081,-0.134,0.007,1.138,0.273,-0.258,1.089,-0.256,-0.237,1.139,0.177,-0.318,0.860,-0.280,-0.308,0.895,1004.813,738.311,0.933,936.783,737.680,0.928,1102.807,534.336,1.081,847.929,545.658,1.138,1198.516,314.814,1.089,746.504,342.056,1.139,1155.431,188.264,0.860,662.732,212.204,0.895,-0.027,-0.972,1.403,0.000,-10.080,0.000,-0.018,-0.027,0.034,0.012,-0.633,1.330
0722_173507_0120.png,0.013,0.155,0.941,-0.053,0.155,0.940,0.117,-0.012,1.142,-0.174,-0.022,1.100,0.276,-0.223,1.117,-0.141,-0.245,0.962,0.353,-0.308,0.886,-0.056,-0.348,0.741,972.809,696.347,0.941,906.865,697.182,0.940,1057.189,529.846,1.142,809.232,521.109,1.100,1195.101,350.092,1.117,821.114,297.690,0.962,1339.081,208.952,0.886,887.835,93.164,0.741,-0.029,-0.961,1.401,0.000,-350.406,0.000,0.009,0.023,0.022,0.229,-0.885,1.465
0722_173507_0121.png,0.001,0.152,0.933,-0.062,0.157,0.945,0.123,-0.008,1.140,-0.167,-0.017,1.101,0.076,-0.176,0.931,-0.311,-0.231,1.041,0.030,-0.340,0.727,-0.362,-0.332,0.808,961.509,694.769,0.933,897.413,698.170,0.945,1062.518,533.440,1.140,815.596,525.572,1.101,1037.660,359.891,0.931,675.761,328.886,1.041,999.356,95.018,0.727,534.139,149.613,0.808,-0.034,-0.966,1.402,0.000,-351.076,0.000,0.014,0.026,0.019,-0.296,-1.026,1.391
0722_173507_0122.png,0.005,0.174,0.920,-0.059,0.178,0.930,0.126,0.006,1.129,-0.164,0.001,1.108,0.056,-0.178,0.932,-0.230,-0.266,1.144,-0.011,-0.358,0.741,-0.214,-0.328,0.887,965.263,719.882,0.920,899.993,722.392,0.930,1065.964,545.095,1.129,819.171,541.082,1.108,1016.883,358.852,0.932,768.975,318.878,1.144,945.524,80.604,0.741,730.938,187.854,0.887,-0.029,-0.970,1.403,0.000,-354.610,0.000,0.021,-0.033,-0.004,-0.267,-1.141,1.360
0722_173507_0123.png,0.046,0.169,0.941,-0.022,0.166,0.934,0.162,-0.016,1.100,-0.143,-0.006,1.143,0.133,-0.254,0.974,-0.182,-0.178,0.933,0.005,-0.340,0.759,-0.217,-0.346,0.728,1006.080,711.075,0.941,937.583,709.140,0.934,1099.634,526.380,1.100,840.986,535.040,1.143,1090.243,292.305,0.974,774.969,358.209,0.933,966.093,114.718,0.759,676.670,88.442,0.728,-0.028,-0.960,1.401,0.000,-7.002,0.000,-0.036,-0.005,0.000,0.177,-0.882,1.338
0722_173507_0124.png,0.027,0.167,0.929,-0.039,0.167,0.930,0.148,-0.011,1.114,-0.151,-0.009,1.126,0.199,-0.187,0.910,-0.244,-0.190,1.313,0.249,-0.358,0.712,-0.300,-0.269,1.069,987.946,711.090,0.929,920.203,710.976,0.930,1085.938,530.270,1.114,832.575,532.804,1.126,1168.079,345.028,0.910,783.297,402.142,1.313,1292.057,62.267,0.712,693.013,300.646,1.069,-0.030,-0.958,1.400,0.000,-1.289,0.000,-0.006,-0.029,0.006,-0.062,-1.075,1.219
0722_173507_0125.png,0.000,0.171,0.923,-0.067,0.176,0.935,0.121,0.003,1.147,-0.178,-0.010,1.092,0.183,-0.171,0.937,-0.242,-0.274,1.047,0.241,-0.340,0.732,-0.054,-0.322,0.863,959.672,715.907,0.923,892.289,719.436,0.935,1060.533,542.504,1.147,804.759,531.630,1.092,1145.303,366.504,0.937,740.236,290.631,1.047,1273.130,97.723,0.732,900.064,184.452,0.863,-0.034,-0.964,1.402,0.000,-348.165,0.000,-0.026,-0.029,-0.006,-0.237,-1.098,1.154
0722_173507_0126.png,0.021,0.177,0.918,-0.044,0.179,0.921,0.135,0.005,1.124,-0.158,0.000,1.104,0.168,-0.174,0.921,-0.246,-0.240,1.013,0.198,-0.350,0.723,-0.150,-0.347,0.798,981.315,723.024,0.918,914.184,724.420,0.921,1074.499,544.333,1.124,824.263,540.427,1.104,1133.200,360.103,0.921,729.475,314.921,1.013,1221.035,79.990,0.723,781.335,126.853,0.798,-0.036,-0.969,1.403,0.000,-354.793,0.000,0.011,-0.044,0.018,-0.042,-1.212,1.206
0722_173507_0127.png,0.032,0.169,0.946,-0.037,0.169,0.947,0.153,-0.006,1.130,-0.157,-0.008,1.122,0.200,-0.257,1.043,-0.235,-0.261,1.151,0.178,-0.325,0.787,-0.206,-0.298,0.890,992.123,709.547,0.946,923.208,709.863,0.947,1088.379,534.861,1.130,827.054,533.303,1.122,1142.416,305.763,1.043,765.426,324.045,1.151,1174.617,147.416,0.787,740.001,221.319,0.890,-0.039,-0.967,1.403,0.000,-357.343,0.000,-0.042,0.023,-0.010,0.031,-0.867,1.073
0722_173507_0128.png,0.034,0.174,0.939,-0.029,0.174,0.936,0.141,-0.009,1.121,-0.144,-0.009,1.119,0.084,-0.188,0.923,-0.277,-0.205,0.996,0.030,-0.363,0.729,-0.363,-0.349,0.796,994.648,716.612,0.939,930.651,716.340,0.936,1079.683,532.664,1.121,837.872,532.194,1.119,1046.659,346.598,0.923,695.737,344.086,0.996,999.275,66.202,0.729,526.528,123.387,0.796,-0.038,-0.962,1.401,0.000,-358.348,0.000,0.041,-0.010,0.011,0.166,-0.784,1.395
0722_173507_0129.png,0.009,0.173,0.932,-0.056,0.176,0.940,0.132,-0.008,1.125,-0.163,-0.012,1.108,0.269,-0.230,1.069,-0.309,-0.217,1.209,0.278,-0.326,0.832,-0.428,-0.288,0.992,968.726,717.063,0.932,902.984,718.253,0.940,1071.472,533.585,1.125,819.643,530.115,1.108,1199.696,335.264,1.069,716.651,368.947,1.209,1278.151,168.022,0.832,549.168,264.285,0.992,-0.030,-0.964,1.402,0.000,-355.432,0.000,0.003,-0.009,0.032,-0.246,-0.758,1.410
0722_173507_0130.png,0.015,0.140,0.938,-0.052,0.143,0.940,0.123,-0.006,1.152,-0.173,-0.019,1.097,0.087,-0.192,0.957,-0.200,-0.246,0.958,0.003,-0.342,0.753,-0.166,-0.348,0.717,975.253,682.019,0.938,907.903,684.838,0.940,1061.462,535.051,1.152,810.305,523.956,1.097,1046.302,348.823,0.957,761.866,295.709,0.958,963.630,107.982,0.753,739.417,77.926,0.717,-0.039,-0.967,1.402,0.000,-348.123,0.000,-0.014,0.044,-0.002,0.138,-1.218,1.433
0722_173507_0131.png,0.023,0.182,0.934,-0.045,0.182,0.936,0.147,-0.005,1.115,-0.160,-0.001,1.129,0.150,-0.266,1.028,-0.154,-0.195,0.933,-0.017,-0.328,0.828,-0.097,-0.354,0.725,983.633,725.458,0.934,914.429,725.411,0.936,1085.509,536.020,1.115,825.489,538.784,1.129,1098.660,294.177,1.028,802.697,341.480,0.933,939.986,163.220,0.828,833.397,75.253,0.725,-0.025,-0.963,1.401,0.000,-1.512,0.000,-0.034,-0.028,-0.009,-0.082,-0.811,1.330
0722_173507_0132.png,0.030,0.159,0.929,-0.038,0.159,0.929,0.148,-0.002,1.129,-0.160,-0.003,1.122,0.243,-0.222,1.263,-0.155,-0.218,0.946,0.382,-0.269,1.036,-0.107,-0.355,0.718,991.013,702.629,0.929,921.155,702.831,0.929,1084.723,538.667,1.129,824.564,537.309,1.122,1143.087,373.005,1.263,803.889,321.247,0.946,1310.754,293.078,1.036,818.834,69.805,0.718,-0.035,-0.965,1.402,0.000,-357.504,0.000,-0.037,-0.013,-0.023,0.086,-1.284,1.400
0722_173507_0133.png,0.053,0.173,0.935,-0.013,0.171,0.933,0.175,-0.011,1.089,-0.115,0.004,1.153,0.099,-0.220,0.926,-0.295,-0.172,1.255,-0.018,-0.359,0.726,-0.340,-0.284,1.015,1014.060,715.907,0.935,946.873,713.816,0.933,1113.148,530.657,1.089,864.861,543.415,1.153,1061.462,313.581,0.926,736.246,409.584,1.255,936.449,70.499,0.726,641.616,274.335,1.015,-0.037,-0.966,1.402,0.000,-11.666,0.000,-0.004,-0.006,-0.019,-0.119,-1.001,1.192
0722_173507_0134.png,0.059,0.157,0.940,-0.004,0.150,0.928,0.167,-0.020,1.083,-0.108,-0.003,1.159,0.241,-0.238,0.941,-0.189,-0.224,1.021,0.268,-0.370,0.712,-0.098,-0.346,0.808,1019.743,698.773,0.940,956.394,693.330,0.928,1107.014,522.175,1.083,871.448,537.748,1.159,1203.889,299.364,0.941,783.742,331.709,1.021,1318.134,46.377,0.712,844.988,132.833,0.808,-0.030,-0.962,1.401,0.000,-14.717,0.000,0.036,0.009,-0.013,0.209,-1.135,1.408
0722_173507_0135.png,-0.001,0.153,0.932,-0.064,0.159,0.942,0.106,-0.001,1.158,-0.175,-0.015,1.096,0.196,-0.255,1.113,-0.302,-0.248,1.129,0.214,-0.338,0.855,-0.317,-0.329,0.871,958.937,695.834,0.932,895.164,700.425,0.942,1046.661,539.335,1.158,808.476,526.935,1.096,1127.329,322.334,1.113,706.032,330.977,1.129,1197.648,164.443,0.855,614.475,181.067,0.871,-0.035,-0.962,1.401,0.000,-346.036,0.000,0.032,0.007,-0.035,-0.093,-1.101,1.506
0722_173507_0136.png,0.044,0.183,0.930,-0.019,0.182,0.930,0.165,-0.007,1.084,-0.113,0.008,1.146,0.109,-0.235,0.948,-0.241,-0.203,1.260,-0.019,-0.363,0.759,-0.282,-0.294,1.017,1005.290,727.374,0.930,940.440,725.997,0.930,1104.794,534.070,1.084,866.008,546.358,1.146,1069.855,304.547,0.948,778.150,386.923,1.260,936.772,84.502,0.759,696.407,264.734,1.017,-0.034,-0.970,1.403,0.000,-11.856,0.000,0.038,-0.020,0.003,-0.223,-0.924,1.132
0722_173507_0137.png,0.001,0.180,0.942,-0.063,0.183,0.951,0.120,-0.002,1.141,-0.172,-0.008,1.115,0.088,-0.181,0.919,-0.225,-0.267,1.036,0.060,-0.357,0.704,-0.056,-0.340,0.841,961.257,721.416,0.942,896.771,722.631,0.951,1059.713,538.361,1.141,813.239,533.399,1.115,1050.939,352.823,0.919,753.797,295.326,1.036,1041.142,58.514,0.704,896.559,155.983,0.841,-0.024,-0.962,1.401,0.000,-353.775,0.000,0.014,-0.008,-0.033,-0.187,-0.713,1.229
0722_173507_0138.png,0.023,0.168,0.941,-0.043,0.168,0.940,0.134,-0.006,1.129,-0.161,-0.008,1.121,0.229,-0.224,1.254,-0.275,-0.217,0.990,0.335,-0.281,1.018,-0.324,-0.347,0.764,982.829,709.636,0.941,916.707,709.650,0.940,1073.143,534.760,1.129,823.753,533.236,1.121,1133.288,369.826,1.254,695.781,332.063,0.990,1272.781,277.437,1.018,556.567,107.706,0.764,-0.028,-0.965,1.402,0.000,-357.306,0.000,0.007,0.007,-0.009,0.113,-0.871,1.430
0722_173507_0139.png,0.015,0.160,0.944,-0.052,0.161,0.947,0.132,-0.008,1.138,-0.170,-0.012,1.119,0.183,-0.182,0.927,-0.286,-0.191,1.278,0.232,-0.352,0.721,-0.432,-0.259,1.063,975.086,700.721,0.944,907.720,701.688,0.947,1070.515,533.427,1.138,815.726,529.469,1.119,1147.247,353.068,0.927,746.946,397.508,1.278,1265.588,76.478,0.721,573.358,308.398,1.063,-0.028,-0.963,1.402,0.000,-355.006,0.000,-0.019,0.024,-0.019,0.006,-0.951,1.249
0722_173507_0140.png,0.011,0.154,0.942,-0.054,0.157,0.947,0.127,-0.007,1.138,-0.167,-0.013,1.113,0.147,-0.265,1.083,-0.285,-0.241,1.046,0.111,-0.325,0.830,-0.307,-0.331,0.800,971.227,695.921,0.942,905.693,697.522,0.947,1066.103,534.270,1.138,817.332,529.212,1.113,1088.931,307.507,1.083,700.566,321.047,1.046,1087.672,167.271,0.830,594.743,146.945,0.800,-0.030,-0.969,1.403,0.000,-353.821,0.000,0.006,0.041,0.000,-0.058,-0.965,1.381
0722_173507_0141.png,0.007,0.162,0.940,-0.058,0.165,0.946,0.121,-0.007,1.139,-0.170,-0.014,1.105,0.267,-0.223,1.088,-0.228,-0.242,0.981,0.273,-0.322,0.847,-0.130,-0.346,0.763,967.008,703.878,0.940,901.954,705.396,0.946,1060.990,534.418,1.139,813.731,527.707,1.105,1193.267,344.998,1.088,738.637,305.011,0.981,1265.923,178.267,0.847,798.310,109.037,0.763,-0.029,-0.967,1.402,0.000,-352.170,0.000,0.013,0.026,0.011,-0.054,-0.833,1.404
0722_173507_0142.png,0.031,0.168,0.928,-0.036,0.168,0.929,0.150,0.003,1.121,-0.153,0.003,1.122,0.171,-0.257,1.043,-0.105,-0.177,0.918,-0.017,-0.320,0.864,-0.057,-0.352,0.719,992.157,711.732,0.928,923.294,711.795,0.929,1087.323,542.510,1.121,830.042,542.680,1.122,1116.084,305.432,1.043,851.318,356.709,0.918,941.748,187.873,0.864,884.784,74.561,0.719,-0.036,-0.973,1.404,0.000,-358.998,0.000,-0.022,-0.007,-0.007,0.028,-1.139,1.510
0722_173507_0143.png,-0.006,0.159,0.929,-0.071,0.164,0.937,0.105,0.005,1.152,-0.186,-0.010,1.086,0.205,-0.167,0.960,-0.336,-0.210,1.181,0.302,-0.335,0.773,-0.227,-0.294,0.956,953.860,702.891,0.929,887.527,706.871,0.937,1046.652,544.319,1.152,797.564,531.339,1.086,1162.793,374.390,0.960,689.477,370.666,1.181,1331.428,127.799,0.773,734.537,247.795,0.956,-0.029,-0.972,1.404,0.000,-345.742,0.000,-0.005,0.015,0.000,-0.050,-0.997,1.718
0722_173507_0144.png,0.056,0.157,0.930,-0.010,0.153,0.927,0.175,-0.024,1.079,-0.115,-0.008,1.147,0.198,-0.267,0.980,-0.217,-0.246,1.096,0.079,-0.339,0.766,-0.195,-0.316,0.852,1017.383,700.013,0.930,950.225,697.278,0.927,1114.430,519.270,1.079,865.045,533.638,1.147,1152.031,280.418,0.980,771.463,326.115,1.096,1058.393,118.750,0.766,742.435,186.877,0.852,-0.038,-0.962,1.401,0.000,-12.544,0.000,-0.004,0.004,0.038,-0.037,-1.099,1.279
0722_173507_0145.png,0.012,0.181,0.931,-0.056,0.183,0.936,0.134,-0.008,1.126,-0.170,-0.012,1.107,0.248,-0.236,1.241,-0.287,-0.236,1.228,0.169,-0.282,0.997,-0.372,-0.287,0.986,971.965,724.998,0.931,903.619,725.658,0.936,1073.056,533.274,1.126,813.974,529.443,1.107,1150.387,359.320,1.241,737.798,357.084,1.228,1121.642,270.737,0.997,601.514,263.060,0.986,-0.028,-0.958,1.400,0.000,-355.191,0.000,-0.026,-0.035,0.021,-0.116,-0.729,1.268
0722_173507_0146.png,0.055,0.166,0.933,-0.008,0.161,0.925,0.166,-0.019,1.076,-0.110,-0.001,1.152,0.299,-0.250,1.052,-0.271,-0.203,1.222,0.360,-0.339,0.818,-0.412,-0.288,1.022,1015.666,709.094,0.933,951.340,705.372,0.925,1106.946,523.481,1.076,869.018,538.916,1.152,1230.242,313.944,1.052,748.950,381.915,1.222,1379.249,145.237,0.818,576.523,271.710,1.022,-0.030,-0.964,1.402,0.000,-14.508,0.000,0.033,-0.006,0.016,0.091,-1.059,1.266
0722_173507_0147.png,0.003,0.173,0.941,-0.063,0.175,0.946,0.118,0.007,1.146,-0.180,-0.002,1.109,0.265,-0.194,1.246,-0.332,-0.217,1.159,0.280,-0.284,0.990,-0.409,-0.301,0.914,963.260,714.645,0.941,896.527,716.281,0.946,1057.572,545.565,1.146,805.637,538.524,1.109,1162.665,392.114,1.246,687.904,361.816,1.159,1229.433,266.914,0.990,533.986,226.455,0.914,-0.025,-0.974,1.404,0.000,-351.622,0.000,-0.010,0.018,-0.033,0.002,-0.788,1.690
0722_173507_0148.png,-0.010,0.191,0.925,-0.074,0.197,0.939,0.108,0.015,1.150,-0.183,0.001,1.087,0.241,-0.218,1.085,-0.250,-0.244,0.977,0.203,-0.333,0.845,-0.179,-0.359,0.744,950.080,736.573,0.925,884.812,739.385,0.939,1049.586,552.797,1.150,800.158,540.948,1.087,1171.456,348.518,1.085,716.467,302.785,0.977,1188.696,165.062,0.845,731.556,80.727,0.744,-0.030,-0.973,1.404,0.000,-346.380,0.000,-0.004,-0.035,-0.022,-0.271,-0.865,1.213
0722_173507_0149.png,0.027,0.146,0.946,-0.037,0.146,0.945,0.139,-0.021,1.125,-0.151,-0.021,1.126,0.192,-0.248,0.998,-0.319,-0.222,1.149,0.193,-0.348,0.758,-0.403,-0.305,0.917,987.258,687.175,0.946,922.533,687.002,0.945,1077.593,522.117,1.125,832.393,522.346,1.126,1143.132,303.594,0.998,695.849,356.477,1.149,1202.176,103.813,0.758,542.324,224.137,0.917,-0.031,-0.958,1.400,0.000,-359.051,0.000,0.022,0.037,0.012,0.072,-1.014,1.204
0722_173507_0150.png,0.043,0.157,0.937,-0.023,0.155,0.933,0.161,-0.020,1.097,-0.134,-0.009,1.146,0.300,-0.251,1.086,-0.117,-0.181,0.931,0.316,-0.324,0.834,-0.100,-0.350,0.722,1003.454,699.835,0.937,936.343,697.591,0.933,1099.370,522.885,1.097,848.922,532.940,1.146,1222.593,320.022,1.086,840.755,354.760,0.931,1320.354,171.161,0.834,828.907,79.632,0.722,-0.029,-0.959,1.401,0.000,-8.494,0.000,-0.006,0.004,0.004,0.027,-1.084,1.254
0722_173507_0151.png,0.009,0.168,0.937,-0.056,0.171,0.943,0.118,0.001,1.150,-0.171,-0.010,1.100,0.073,-0.180,0.940,-0.299,-0.243,1.054,0.030,-0.357,0.735,-0.321,-0.340,0.805,969.085,710.630,0.937,903.718,712.797,0.943,1057.650,541.116,1.150,812.485,531.375,1.100,1033.457,358.045,0.940,690.264,320.574,1.054,999.383,77.900,0.735,580.660,138.205,0.805,-0.036,-0.967,1.402,0.000,-348.892,0.000,0.013,0.006,-0.022,0.015,-0.869,1.478
0722_173507_0152.png,0.050,0.139,0.938,-0.015,0.136,0.936,0.172,-0.021,1.097,-0.118,-0.008,1.154,0.217,-0.236,0.937,-0.251,-0.200,1.275,0.222,-0.361,0.701,-0.268,-0.273,1.020,1011.106,681.437,0.938,944.660,678.530,0.936,1109.124,521.808,1.097,862.937,533.506,1.154,1180.457,300.679,0.937,772.561,390.671,1.275,1260.946,50.725,0.701,710.410,285.039,1.020,-0.037,-0.962,1.401,0.000,-10.244,0.000,0.004,0.036,-0.013,-0.091,-1.231,1.567
0722_173507_0153.png,0.036,0.166,0.950,-0.028,0.165,0.948,0.148,-0.012,1.120,-0.140,-0.009,1.132,0.147,-0.256,1.006,-0.293,-0.206,1.215,-0.015,-0.340,0.818,-0.367,-0.292,0.977,995.577,705.855,0.950,931.617,705.410,0.948,1085.542,529.446,1.120,842.496,532.049,1.132,1099.258,298.092,1.006,730.895,378.695,1.215,942.748,145.284,0.818,602.409,256.007,0.977,-0.035,-0.965,1.402,0.000,-1.456,0.000,0.030,0.030,-0.006,0.061,-0.744,1.370
0722_173507_0154.png,0.053,0.164,0.933,-0.012,0.158,0.926,0.170,-0.016,1.086,-0.115,0.001,1.161,0.229,-0.240,1.236,-0.179,-0.236,1.028,0.290,-0.299,0.979,-0.170,-0.352,0.782,1014.192,706.660,0.933,947.570,702.162,0.926,1109.214,526.057,1.086,865.389,541.022,1.161,1136.056,355.056,1.236,794.272,321.325,1.028,1241.997,249.788,0.979,753.731,111.419,0.782,-0.029,-0.958,1.400,0.000,-13.841,0.000,0.003,-0.020,-0.037,0.045,-1.222,1.248
0722_173507_0155.png,0.027,0.152,0.938,-0.039,0.154,0.945,0.157,-0.010,1.111,-0.140,-0.003,1.138,0.070,-0.181,0.915,-0.258,-0.184,1.287,-0.016,-0.347,0.724,-0.304,-0.261,1.040,987.003,694.260,0.938,920.523,694.913,0.945,1094.785,531.626,1.111,842.785,537.115,1.138,1032.278,351.901,0.915,769.555,404.196,1.287,938.676,84.241,0.724,681.987,300.955,1.040,-0.033,-0.972,1.404,0.000,-4.248,0.000,-0.007,0.044,-0.001,-0.345,-1.046,1.501
0722_173507_0156.png,-0.003,0.163,0.917,-0.069,0.167,0.920,0.101,0.005,1.143,-0.189,-0.011,1.076,0.189,-0.167,0.963,-0.164,-0.272,1.020,0.271,-0.335,0.785,-0.101,-0.336,0.782,956.465,708.999,0.917,888.527,712.276,0.920,1043.947,543.925,1.143,792.557,530.495,1.076,1146.217,374.770,0.963,807.015,286.453,1.020,1288.144,134.439,0.785,836.771,130.873,0.782,-0.023,-0.970,1.403,0.000,-345.447,0.000,-0.005,-0.023,0.039,0.113,-1.193,1.502
0722_173507_0157.png,0.017,0.175,0.935,-0.049,0.176,0.937,0.129,-0.001,1.137,-0.167,-0.008,1.104,0.104,-0.217,0.976,-0.248,-0.264,1.057,-0.017,-0.344,0.779,-0.071,-0.323,0.870,977.184,717.662,0.935,910.244,718.675,0.937,1067.670,539.395,1.137,816.164,532.840,1.104,1061.073,328.399,0.976,736.844,302.905,1.057,939.030,119.468,0.779,882.088,186.920,0.870,-0.034,-0.966,1.402,0.000,-352.292,0.000,-0.003,-0.009,0.000,0.067,-0.776,1.611
0722_173507_0158.png,0.056,0.185,0.939,-0.008,0.182,0.933,0.172,-0.008,1.081,-0.106,0.010,1.157,0.232,-0.268,1.021,-0.103,-0.178,0.947,0.122,-0.354,0.790,-0.103,-0.362,0.743,1016.560,727.835,0.939,951.628,725.702,0.933,1111.625,533.162,1.081,873.259,548.103,1.157,1175.930,290.209,1.021,856.816,361.448,0.947,1106.639,114.107,0.790,828.187,76.315,0.743,-0.033,-0.970,1.403,0.000,-14.647,0.000,0.028,-0.011,-0.025,-0.063,-0.774,1.378
0722_173507_0159.png,0.040,0.172,0.950,-0.024,0.168,0.941,0.150,-0.013,1.098,-0.138,-0.002,1.145,0.103,-0.253,0.989,-0.212,-0.173,0.940,0.036,-0.348,0.754,-0.285,-0.339,0.741,1000.246,711.741,0.950,935.736,709.939,0.941,1090.214,528.669,1.098,845.409,538.072,1.145,1058.940,297.149,0.989,745.646,365.121,0.940,1005.855,100.734,0.754,594.481,105.043,0.741,-0.022,-0.969,1.403,0.000,-8.290,0.000,0.016,0.027,0.004,0.180,-0.751,1.318
0722_173507_0160.png,0.021,0.154,0.923,-0.044,0.154,0.926,0.146,-0.018,1.096,-0.147,-0.010,1.130,0.164,-0.272,1.025,-0.253,-0.231,1.246,-0.017,-0.324,0.853,-0.263,-0.283,1.000,981.635,698.147,0.923,914.651,697.679,0.926,1086.337,524.691,1.096,836.492,531.813,1.130,1111.934,287.951,1.025,766.893,363.822,1.246,940.919,179.085,0.853,710.155,270.811,1.000,-0.022,-0.962,1.401,0.000,-5.718,0.000,0.008,-0.006,0.049,-0.207,-1.088,1.654
0722_173507_0161.png,0.020,0.152,0.932,-0.047,0.155,0.937,0.141,-0.004,1.132,-0.162,-0.008,1.111,0.088,-0.176,0.924,-0.278,-0.186,1.271,0.034,-0.343,0.720,-0.431,-0.255,1.067,980.255,695.513,0.932,912.141,697.416,0.937,1078.510,537.020,1.132,821.635,532.898,1.111,1050.510,358.786,0.924,751.890,400.950,1.271,1005.245,87.371,0.720,576.014,312.507,1.067,-0.037,-0.971,1.403,0.000,-354.819,0.000,-0.022,0.025,0.009,-0.084,-1.104,1.596
0722_173507_0162.png,0.039,0.167,0.923,-0.029,0.165,0.923,0.165,-0.006,1.096,-0.136,0.004,1.140,0.176,-0.261,0.997,-0.192,-0.177,0.942,0.153,-0.347,0.749,-0.234,-0.349,0.743,1000.016,711.990,0.923,930.447,710.393,0.923,1103.193,534.658,1.096,846.152,543.383,1.140,1128.037,291.197,0.997,766.702,361.762,0.942,1154.874,99.916,0.749,661.168,94.033,0.743,-0.032,-0.967,1.402,0.000,-7.427,0.000,-0.027,-0.026,0.000,-0.134,-1.269,1.295
0722_173507_0163.png,-0.004,0.168,0.932,-0.071,0.172,0.939,0.107,-0.001,1.152,-0.188,-0.016,1.085,0.126,-0.227,1.006,-0.262,-0.274,1.044,0.102,-0.340,0.771,-0.101,-0.321,0.842,955.548,711.544,0.932,888.302,713.923,0.939,1048.352,539.318,1.152,795.598,525.807,1.085,1078.917,325.824,1.006,721.046,290.909,1.044,1085.835,120.270,0.771,845.466,176.978,0.842,-0.028,-0.964,1.402,0.000,-345.719,0.000,-0.019,-0.003,0.006,0.005,-0.804,1.578
0722_173507_0164.png,0.019,0.171,0.920,-0.047,0.174,0.928,0.149,-0.002,1.106,-0.152,0.002,1.121,0.152,-0.259,1.030,-0.297,-0.206,1.227,-0.018,-0.323,0.844,-0.438,-0.277,1.021,979.537,717.165,0.920,911.349,718.006,0.928,1088.461,538.653,1.106,831.483,541.792,1.121,1100.245,300.963,1.030,729.396,380.165,1.227,939.707,175.701,0.844,552.254,282.282,1.021,-0.030,-0.972,1.404,0.000,-1.952,0.000,-0.015,-0.019,0.031,-0.303,-1.025,1.590
0722_173507_0165.png,0.055,0.175,0.947,-0.012,0.171,0.938,0.169,-0.010,1.087,-0.128,0.005,1.154,0.246,-0.265,1.071,-0.278,-0.202,1.233,0.090,-0.312,0.861,-0.306,-0.277,0.981,1015.133,715.774,0.947,948.281,713.158,0.938,1107.660,531.162,1.087,854.846,544.458,1.154,1178.672,304.554,1.071,745.919,383.901,1.233,1059.768,195.230,0.861,662.820,271.056,0.981,-0.027,-0.974,1.404,0.000,-11.981,0.000,-0.025,0.026,-0.008,0.170,-0.836,1.208
0722_173507_0166.png,0.018,0.177,0.948,-0.048,0.178,0.953,0.140,0.002,1.133,-0.160,0.001,1.128,0.103,-0.214,0.959,-0.196,-0.264,1.092,0.004,-0.352,0.745,-0.143,-0.325,0.832,978.231,717.400,0.948,911.913,718.113,0.953,1077.565,541.821,1.133,824.975,540.895,1.128,1062.145,328.077,0.959,789.555,309.831,1.092,965.345,90.287,0.745,796.488,167.918,0.832,-0.030,-0.973,1.404,0.000,-357.883,0.000,-0.011,0.026,-0.040,-0.128,-0.754,1.310
0722_173507_0167.png,0.010,0.169,0.932,-0.054,0.172,0.940,0.131,-0.005,1.121,-0.157,-0.007,1.114,0.238,-0.226,1.022,-0.237,-0.205,0.958,0.289,-0.341,0.799,-0.254,-0.355,0.749,969.711,712.302,0.932,905.750,713.625,0.940,1070.747,535.526,1.121,826.272,534.081,1.114,1181.469,329.978,1.022,724.746,336.409,0.958,1303.968,133.945,0.799,637.739,89.001,0.749,-0.028,-0.969,1.403,0.000,-357.350,0.000,0.032,0.006,0.027,-0.253,-0.820,1.582
0722_173507_0168.png,0.028,0.181,0.931,-0.036,0.182,0.932,0.141,-0.008,1.120,-0.150,-0.009,1.114,0.251,-0.219,1.263,-0.169,-0.241,0.981,0.333,-0.290,1.028,-0.144,-0.358,0.752,988.902,725.241,0.931,922.973,725.385,0.932,1079.870,533.468,1.120,831.737,532.252,1.114,1149.056,375.303,1.263,795.997,305.900,0.981,1268.253,272.007,1.028,777.585,86.584,0.752,-0.036,-0.960,1.401,0.000,-357.615,0.000,0.019,-0.036,0.021,0.046,-0.721,1.478
0722_173507_0169.png,0.004,0.172,0.927,-0.060,0.174,0.932,0.117,0.002,1.132,-0.169,-0.002,1.113,0.215,-0.222,1.010,-0.198,-0.266,1.040,0.253,-0.357,0.782,-0.162,-0.357,0.791,963.790,716.072,0.927,899.078,717.647,0.932,1058.173,541.946,1.132,815.437,538.189,1.113,1162.226,330.701,1.010,779.205,296.321,1.040,1268.155,106.045,0.782,765.522,111.123,0.791,-0.021,-0.966,1.402,0.000,-354.867,0.000,0.034,-0.026,-0.015,-0.087,-1.012,1.576
0722_173507_0170.png,0.026,0.169,0.929,-0.039,0.170,0.933,0.148,-0.012,1.107,-0.147,-0.009,1.119,0.190,-0.223,0.961,-0.291,-0.231,1.084,0.154,-0.346,0.745,-0.194,-0.318,0.867,986.609,713.397,0.929,919.779,713.707,0.933,1087.390,529.825,1.107,834.779,532.180,1.119,1147.772,319.314,0.961,704.976,337.198,1.084,1156.075,98.868,0.745,746.672,191.331,0.867,-0.033,-0.965,1.402,0.000,-1.118,0.000,0.004,-0.006,0.049,-0.147,-0.778,1.650
0722_173507_0171.png,0.031,0.162,0.954,-0.036,0.162,0.955,0.152,-0.018,1.117,-0.149,-0.014,1.134,0.307,-0.233,1.104,-0.191,-0.236,0.992,0.381,-0.306,0.864,-0.057,-0.331,0.787,991.191,701.458,0.954,924.643,701.359,0.955,1089.305,524.754,1.117,835.086,528.288,1.134,1224.306,339.226,1.104,777.161,314.115,0.992,1379.591,203.272,0.864,891.154,139.894,0.787,-0.031,-0.964,1.402,0.000,-2.175,0.000,-0.015,0.046,0.007,-0.054,-0.627,1.396
0722_173507_0172.png,0.018,0.163,0.928,-0.045,0.165,0.934,0.138,-0.007,1.122,-0.149,-0.007,1.121,0.161,-0.261,1.029,-0.139,-0.186,0.910,-0.003,-0.341,0.844,-0.131,-0.363,0.705,978.611,706.774,0.928,914.019,708.020,0.934,1076.949,534.402,1.122,833.525,534.303,1.121,1108.739,298.955,1.029,814.649,345.181,0.910,957.018,155.410,0.844,782.863,50.683,0.705,-0.033,-0.963,1.402,0.000,-358.727,0.000,0.033,-0.013,0.001,-0.222,-1.155,1.217
0722_173507_0173.png,0.032,0.155,0.932,-0.035,0.155,0.935,0.162,-0.012,1.107,-0.141,-0.003,1.145,0.204,-0.219,1.276,-0.181,-0.234,1.000,0.240,-0.272,1.014,-0.164,-0.346,0.755,993.023,698.565,0.932,924.143,697.982,0.935,1099.617,529.551,1.107,843.244,537.184,1.145,1112.118,376.382,1.276,787.786,317.502,1.000,1184.646,284.736,1.014,753.923,104.722,0.755,-0.031,-0.962,1.401,0.000,-6.190,0.000,-0.029,0.000,-0.023,-0.249,-1.216,1.335
0722_173507_0174.png,0.005,0.153,0.940,-0.059,0.157,0.947,0.108,-0.007,1.154,-0.172,-0.021,1.091,0.137,-0.242,1.031,-0.235,-0.264,1.006,-0.013,-0.332,0.841,-0.091,-0.341,0.802,964.863,694.859,0.940,901.111,697.565,0.947,1049.047,534.395,1.154,810.215,521.427,1.091,1086.528,317.062,1.031,737.661,290.583,1.006,945.386,164.376,0.841,852.139,136.055,0.802,-0.037,-0.965,1.402,0.000,-345.803,0.000,0.033,0.037,0.005,0.057,-0.965,1.207
0722_173507_0175.png,0.012,0.156,0.930,-0.055,0.158,0.932,0.128,-0.007,1.135,-0.175,-0.013,1.109,0.080,-0.180,0.924,-0.277,-0.227,0.976,0.030,-0.348,0.717,-0.288,-0.346,0.741,972.606,699.740,0.930,903.750,701.041,0.932,1067.411,534.268,1.135,809.701,529.109,1.109,1041.976,354.576,0.924,690.254,319.221,0.976,1000.433,78.456,0.717,590.431,96.663,0.741,-0.026,-0.961,1.401,0.000,-353.898,0.000,-0.026,-0.006,0.002,0.046,-1.158,1.379
0722_173507_0176.png,0.052,0.152,0.947,-0.013,0.150,0.946,0.173,-0.031,1.082,-0.110,-0.013,1.160,0.180,-0.193,1.286,-0.218,-0.172,0.963,0.218,-0.266,1.038,-0.323,-0.327,0.771,1011.987,692.703,0.947,946.567,691.132,0.946,1112.404,512.515,1.082,870.104,529.009,1.160,1092.960,397.190,1.286,745.142,369.735,0.963,1159.240,296.839,1.038,561.506,136.689,0.771,-0.033,-0.958,1.400,0.000,-14.573,0.000,0.010,0.042,0.009,-0.239,-0.805,1.300
0722_173507_0177.png,0.032,0.157,0.942,-0.035,0.158,0.946,0.160,-0.013,1.112,-0.140,-0.005,1.145,0.292,-0.246,1.083,-0.278,-0.215,1.234,0.273,-0.323,0.826,-0.353,-0.282,0.984,992.222,698.809,0.942,925.083,698.644,0.946,1096.597,529.118,1.112,843.947,535.700,1.145,1216.015,324.370,1.083,745.537,374.374,1.234,1274.624,167.870,0.826,618.795,267.642,0.984,-0.032,-0.965,1.402,0.000,-5.250,0.000,-0.015,0.028,-0.025,-0.230,-0.921,1.548
0722_173507_0178.png,0.038,0.182,0.936,-0.024,0.180,0.932,0.150,-0.001,1.101,-0.133,0.006,1.133,0.289,-0.221,1.048,-0.235,-0.177,1.300,0.379,-0.337,0.835,-0.304,-0.277,1.070,999.080,724.775,0.936,935.086,723.603,0.932,1089.264,538.979,1.101,848.583,545.098,1.133,1222.689,339.585,1.048,787.749,410.649,1.300,1391.604,155.699,0.835,690.053,293.482,1.070,-0.031,-0.976,1.404,0.000,-5.370,0.000,0.043,0.000,0.012,0.078,-0.847,1.349
0722_173507_0179.png,0.021,0.159,0.933,-0.042,0.159,0.933,0.134,-0.004,1.119,-0.151,-0.003,1.123,0.278,-0.221,1.167,-0.157,-0.235,0.990,0.390,-0.305,0.948,-0.058,-0.352,0.780,981.874,702.035,0.933,917.374,702.069,0.933,1074.257,536.912,1.119,832.145,537.742,1.123,1186.330,359.915,1.167,809.334,314.008,0.990,1351.612,234.297,0.948,889.746,110.475,0.780,-0.028,-0.972,1.403,0.000,0.306,0.000,0.038,0.015,0.007,-0.009,-1.062,1.645
0722_173507_0180.png,0.047,0.155,0.936,-0.019,0.152,0.931,0.162,-0.019,1.090,-0.129,-0.007,1.141,0.142,-0.269,1.017,-0.182,-0.181,0.951,-0.016,-0.325,0.823,-0.213,-0.343,0.754,1007.309,697.688,0.936,940.908,695.328,0.931,1101.321,523.748,1.090,852.088,534.130,1.141,1092.432,288.176,1.017,777.945,358.909,0.951,941.266,164.304,0.823,691.747,107.705,0.754,-0.031,-0.967,1.402,0.000,-8.898,0.000,0.003,0.025,0.037,0.059,-0.954,1.658
0722_173507_0181.png,-0.004,0.167,0.928,-0.066,0.172,0.941,0.116,-0.003,1.134,-0.167,-0.011,1.099,0.145,-0.268,1.114,-0.175,-0.247,0.979,0.100,-0.326,0.869,-0.087,-0.356,0.766,956.088,711.194,0.928,893.684,713.841,0.941,1057.270,537.086,1.134,815.507,530.064,1.099,1084.139,310.817,1.114,789.947,299.794,0.979,1069.890,183.121,0.869,852.375,97.648,0.766,-0.029,-0.968,1.403,0.000,-351.627,0.000,0.040,0.002,0.030,-0.352,-0.896,1.390
0722_173507_0182.png,0.004,0.180,0.932,-0.062,0.184,0.943,0.125,0.009,1.147,-0.173,-0.001,1.103,0.258,-0.228,1.092,-0.241,-0.252,1.192,0.311,-0.328,0.843,-0.230,-0.306,0.925,964.345,723.530,0.932,897.792,726.112,0.943,1063.624,547.197,1.147,810.906,538.843,1.103,1184.612,341.296,1.092,767.497,338.579,1.192,1310.726,170.089,0.843,723.103,225.019,0.925,-0.035,-0.969,1.403,0.000,-350.286,0.000,-0.015,-0.015,-0.036,-0.208,-0.929,1.228
0722_173507_0183.png,0.058,0.169,0.927,-0.008,0.165,0.921,0.175,-0.014,1.080,-0.116,0.001,1.148,0.173,-0.282,1.030,-0.276,-0.167,1.010,-0.016,-0.326,0.854,-0.395,-0.325,0.837,1019.177,713.374,0.927,951.682,709.992,0.921,1113.837,527.389,1.080,863.546,541.178,1.148,1119.771,279.622,1.030,700.100,382.394,1.010,942.149,176.834,0.854,511.499,170.461,0.837,-0.036,-0.964,1.402,0.000,-12.401,0.000,-0.009,-0.023,0.014,0.070,-1.131,1.274
0722_173507_0184.png,0.030,0.167,0.936,-0.038,0.166,0.937,0.157,-0.013,1.107,-0.153,-0.006,1.137,0.142,-0.253,0.981,-0.297,-0.197,1.275,0.103,-0.341,0.736,-0.253,-0.265,1.023,990.951,709.628,0.936,920.933,709.055,0.937,1094.500,528.468,1.107,832.009,534.573,1.137,1097.749,294.984,0.981,738.656,393.348,1.275,1092.812,99.001,0.736,724.694,293.408,1.023,-0.026,-0.961,1.401,0.000,-4.539,0.000,-0.048,-0.006,0.000,-0.093,-0.907,1.398
0722_173507_0185.png,0.008,0.169,0.933,-0.058,0.171,0.936,0.115,0.010,1.152,-0.179,-0.001,1.103,0.074,-0.174,0.932,-0.142,-0.240,0.960,0.037,-0.354,0.718,-0.055,-0.362,0.729,967.935,711.710,0.933,900.789,714.051,0.936,1054.607,548.028,1.152,805.413,538.784,1.103,1035.424,362.556,0.932,818.927,302.628,0.960,1009.123,71.424,0.718,887.833,67.288,0.729,-0.030,-0.971,1.403,0.000,-349.229,0.000,-0.004,-0.003,-0.047,0.124,-1.139,1.318
0722_173507_0186.png,0.003,0.162,0.935,-0.064,0.164,0.938,0.116,-0.005,1.138,-0.182,-0.015,1.096,0.086,-0.193,0.955,-0.178,-0.261,1.004,0.001,-0.340,0.758,-0.056,-0.330,0.789,962.575,705.129,0.935,895.210,706.651,0.938,1057.216,535.559,1.138,802.509,527.093,1.096,1045.396,347.471,0.955,791.251,292.243,1.004,961.793,113.946,0.758,892.954,142.228,0.789,-0.024,-0.968,1.403,0.000,-350.670,0.000,-0.014,0.017,0.032,0.026,-0.917,1.352
0722_173507_0187.png,0.023,0.155,0.947,-0.042,0.156,0.948,0.139,-0.015,1.123,-0.153,-0.014,1.127,0.089,-0.210,0.944,-0.276,-0.242,1.166,-0.017,-0.349,0.749,-0.312,-0.305,0.915,983.072,696.194,0.947,918.145,696.384,0.948,1078.027,527.096,1.123,831.326,527.949,1.127,1049.263,328.983,0.944,734.924,342.560,1.166,938.574,96.729,0.749,636.065,223.492,0.915,-0.029,-0.964,1.402,0.000,0.335,0.000,0.017,0.040,0.008,-0.050,-0.927,1.125
0722_173507_0188.png,0.026,0.155,0.928,-0.040,0.154,0.927,0.142,-0.014,1.115,-0.157,-0.012,1.122,0.134,-0.246,0.985,-0.280,-0.214,1.260,-0.018,-0.338,0.795,-0.430,-0.271,1.055,986.738,698.779,0.928,918.873,698.294,0.927,1081.016,528.443,1.115,827.374,529.890,1.122,1089.531,302.106,0.985,748.721,378.543,1.260,938.121,135.952,0.795,572.602,295.726,1.055,-0.027,-0.959,1.400,0.000,-0.218,0.000,-0.005,-0.014,0.021,0.059,-1.147,1.524
0722_173507_0189.png,0.024,0.171,0.918,-0.043,0.172,0.921,0.148,0.006,1.114,-0.156,0.008,1.119,0.209,-0.240,1.014,-0.298,-0.213,1.213,0.127,-0.340,0.785,-0.371,-0.289,0.972,985.182,717.381,0.918,915.554,717.847,0.921,1086.300,545.460,1.114,827.329,546.498,1.119,1156.019,314.757,1.014,726.362,373.248,1.213,1113.363,128.438,0.785,597.245,257.073,0.972,-0.031,-0.974,1.404,0.000,0.120,0.000,-0.024,-0.032,0.005,-0.097,-1.266,1.497
0722_173507_0190.png,0.036,0.175,0.929,-0.031,0.175,0.932,0.166,-0.008,1.093,-0.134,0.003,1.142,0.194,-0.274,1.039,-0.116,-0.175,0.936,0.013,-0.322,0.850,-0.096,-0.348,0.735,997.152,719.132,0.929,928.243,718.473,0.932,1104.771,532.777,1.093,848.370,542.526,1.142,1137.115,289.118,1.039,842.570,362.297,0.936,975.006,180.371,0.850,836.101,90.171,0.735,-0.032,-0.967,1.402,0.000,-8.389,0.000,-0.026,-0.016,0.003,-0.287,-0.969,1.284
0722_173507_0191.png,-0.007,0.171,0.930,-0.071,0.177,0.943,0.115,0.007,1.145,-0.177,-0.004,1.098,0.235,-0.213,1.037,-0.309,-0.230,1.029,0.293,-0.335,0.808,-0.358,-0.340,0.793,952.998,714.823,0.930,888.495,718.314,0.943,1055.443,545.457,1.145,806.908,536.519,1.098,1175.074,344.829,1.037,674.153,327.742,1.029,1305.133,145.599,0.808,530.626,131.499,0.793,-0.029,-0.973,1.404,0.000,-349.622,0.000,0.005,0.003,-0.011,-0.325,-0.996,1.293
0722_173507_0192.png,0.048,0.149,0.933,-0.017,0.146,0.928,0.163,-0.022,1.091,-0.124,-0.010,1.145,0.305,-0.248,1.093,-0.153,-0.218,0.983,0.373,-0.320,0.855,-0.058,-0.344,0.779,1008.463,692.356,0.933,942.667,689.269,0.928,1101.779,520.509,1.091,856.566,531.742,1.145,1225.287,324.197,1.093,812.498,329.348,0.983,1374.461,183.873,0.855,889.555,120.770,0.779,-0.032,-0.960,1.401,0.000,-9.757,0.000,0.015,0.010,0.024,0.057,-1.163,1.441
0722_173507_0193.png,0.018,0.160,0.944,-0.048,0.162,0.950,0.144,-0.009,1.132,-0.157,-0.010,1.129,0.271,-0.234,1.200,-0.214,-0.249,1.007,0.349,-0.294,0.949,-0.192,-0.346,0.755,978.394,701.117,0.944,911.994,702.405,0.950,1080.687,532.315,1.132,827.964,531.698,1.129,1174.691,354.343,1.200,757.712,304.671,1.007,1310.392,245.616,0.949,718.337,103.862,0.755,-0.033,-0.962,1.401,0.000,-358.225,0.000,-0.012,0.021,-0.032,-0.206,-0.850,1.565
0722_173507_0194.png,0.027,0.168,0.930,-0.039,0.168,0.930,0.142,-0.006,1.122,-0.155,-0.007,1.117,0.196,-0.209,1.299,-0.178,-0.245,0.993,0.309,-0.268,1.070,-0.087,-0.348,0.770,987.938,711.453,0.930,920.508,711.623,0.930,1080.459,535.236,1.122,827.836,534.264,1.117,1103.777,387.279,1.299,789.117,304.965,0.993,1234.775,301.651,1.070,852.640,110.010,0.770,-0.033,-0.964,1.402,0.000,-357.867,0.000,-0.002,-0.017,0.008,0.058,-1.037,1.381
0722_173507_0195.png,0.022,0.156,0.931,-0.044,0.157,0.932,0.136,-0.008,1.129,-0.162,-0.013,1.107,0.147,-0.180,0.924,-0.209,-0.260,1.021,0.156,-0.347,0.724,-0.074,-0.330,0.813,982.571,699.034,0.931,915.067,700.023,0.932,1074.403,532.997,1.129,820.904,528.482,1.107,1111.314,354.773,0.924,765.128,297.892,1.021,1164.469,84.773,0.724,873.733,154.033,0.813,-0.035,-0.965,1.402,0.000,-354.461,0.000,-0.006,0.008,0.030,0.059,-0.983,1.711
0722_173507_0196.png,0.017,0.146,0.940,-0.047,0.148,0.945,0.137,-0.012,1.133,-0.154,-0.013,1.131,0.131,-0.268,1.035,-0.209,-0.258,1.023,0.081,-0.349,0.781,-0.071,-0.344,0.809,977.583,687.853,0.940,912.659,689.170,0.945,1075.312,529.756,1.133,830.456,529.477,1.131,1080.302,293.963,1.035,765.268,300.064,1.023,1058.342,114.752,0.781,876.038,134.990,0.809,-0.030,-0.959,1.401,0.000,-358.551,0.000,0.018,0.022,-0.035,-0.168,-1.187,1.346
0722_173507_0197.png,-0.010,0.158,0.921,-0.074,0.164,0.933,0.109,-0.003,1.143,-0.182,-0.015,1.089,0.248,-0.204,1.035,-0.269,-0.224,0.945,0.335,-0.329,0.825,-0.292,-0.357,0.724,949.569,703.351,0.921,884.302,707.622,0.933,1050.686,537.619,1.143,801.251,526.729,1.089,1188.135,352.354,1.035,689.369,314.890,0.945,1346.385,161.105,0.825,576.250,71.221,0.724,-0.026,-0.962,1.401,0.000,-348.103,0.000,0.003,-0.017,0.020,-0.267,-1.120,1.455
0722_173507_0198.png,0.028,0.179,0.939,-0.041,0.180,0.940,0.148,-0.007,1.129,-0.161,-0.009,1.120,0.232,-0.255,1.219,-0.218,-0.263,1.030,0.241,-0.290,0.954,-0.072,-0.331,0.814,988.138,721.456,0.939,918.900,721.729,0.940,1084.431,534.399,1.129,823.521,532.595,1.120,1141.124,341.000,1.219,758.680,296.879,1.030,1200.703,250.711,0.954,875.467,153.034,0.814,-0.035,-0.958,1.400,0.000,-357.111,0.000,-0.039,-0.025,-0.015,0.032,-0.715,1.475
0722_173507_0199.png,0.045,0.177,0.926,-0.020,0.174,0.921,0.161,-0.005,1.089,-0.126,0.007,1.140,0.219,-0.253,1.197,-0.111,-0.175,0.935,0.251,-0.310,0.944,-0.096,-0.353,0.735,1005.887,721.805,0.926,939.609,719.437,0.921,1100.231,535.947,1.089,854.536,545.878,1.140,1133.939,338.982,1.197,847.139,361.807,0.935,1212.658,228.121,0.944,835.933,83.040,0.735,-0.031,-0.971,1.403,0.000,-9.132,0.000,0.018,-0.026,0.012,0.036,-1.059,1.410
0722_173507_0200.png,0.028,0.182,0.930,-0.038,0.183,0.934,0.153,-0.005,1.106,-0.147,-0.002,1.121,0.202,-0.269,1.157,-0.250,-0.227,1.023,0.196,-0.304,0.904,-0.183,-0.333,0.801,988.544,726.094,0.930,920.882,726.298,0.934,1091.125,535.493,1.106,835.204,538.490,1.121,1125.952,319.362,1.157,728.051,329.138,1.023,1165.831,219.801,0.904,742.562,144.474,0.801,-0.034,-0.970,1.403,0.000,-1.780,0.000,-0.010,-0.014,0.036,-0.182,-0.754,1.343
0722_173507_0201.png,0.026,0.167,0.934,-0.038,0.169,0.939,0.145,0.001,1.123,-0.144,0.001,1.125,0.113,-0.185,0.920,-0.123,-0.183,0.917,0.084,-0.366,0.723,-0.106,-0.363,0.715,986.168,710.367,0.934,921.437,711.256,0.939,1082.848,540.615,1.123,838.689,541.053,1.125,1076.402,349.191,0.920,832.491,350.483,0.917,1070.184,57.983,0.723,819.367,57.014,0.715,-0.038,-0.973,1.404,0.000,-359.288,0.000,0.028,0.011,-0.015,-0.155,-0.968,1.582
0722_173507_0202.png,0.032,0.162,0.940,-0.031,0.160,0.936,0.144,-0.012,1.105,-0.138,-0.003,1.140,0.170,-0.231,0.951,-0.137,-0.221,0.980,0.113,-0.365,0.731,-0.060,-0.356,0.769,992.076,704.236,0.940,928.225,702.466,0.936,1083.747,530.098,1.105,844.584,537.172,1.140,1129.769,308.638,0.951,827.326,325.800,0.980,1107.463,65.228,0.731,885.335,99.150,0.769,-0.023,-0.967,1.402,0.000,-6.145,0.000,0.042,0.017,0.000,0.051,-0.933,1.581
0722_173507_0203.png,0.015,0.156,0.928,-0.049,0.157,0.932,0.134,-0.006,1.117,-0.152,-0.003,1.130,0.126,-0.256,1.011,-0.231,-0.240,1.026,0.088,-0.359,0.770,-0.124,-0.349,0.811,974.967,699.527,0.928,910.346,699.936,0.932,1074.053,535.159,1.117,832.269,537.702,1.130,1078.325,299.211,1.011,745.753,317.255,1.026,1068.731,96.022,0.770,814.354,131.440,0.811,-0.023,-0.967,1.402,0.000,-1.472,0.000,0.037,-0.001,-0.008,-0.169,-1.189,1.585
0722_173507_0204.png,0.035,0.162,0.938,-0.029,0.161,0.937,0.155,-0.007,1.099,-0.130,0.004,1.147,0.068,-0.185,0.901,-0.215,-0.168,0.942,-0.014,-0.359,0.709,-0.301,-0.335,0.744,995.810,704.791,0.938,930.589,703.016,0.937,1094.453,533.777,1.099,852.043,543.242,1.147,1032.154,344.713,0.901,742.600,370.461,0.942,941.244,58.041,0.709,575.578,111.161,0.744,-0.027,-0.974,1.404,0.000,-8.674,0.000,0.024,0.026,-0.012,-0.141,-1.153,1.168
0722_173507_0205.png,0.011,0.181,0.934,-0.053,0.182,0.934,0.115,0.003,1.138,-0.172,-0.005,1.103,0.127,-0.243,1.019,-0.194,-0.252,0.989,-0.012,-0.347,0.824,-0.173,-0.365,0.750,971.659,724.477,0.934,906.486,725.180,0.934,1055.943,542.621,1.138,812.099,535.799,1.103,1078.686,313.512,1.019,773.799,297.488,0.989,945.860,139.439,0.824,740.318,76.544,0.750,-0.026,-0.967,1.402,0.000,-351.709,0.000,0.028,-0.022,-0.006,0.182,-0.804,1.493
0722_173507_0206.png,0.051,0.155,0.929,-0.015,0.152,0.928,0.175,-0.015,1.079,-0.116,0.002,1.153,0.183,-0.271,1.006,-0.205,-0.228,1.052,0.017,-0.327,0.812,-0.055,-0.319,0.855,1012.678,698.756,0.929,944.691,695.487,0.928,1114.550,527.074,1.079,864.739,541.963,1.153,1133.358,283.778,1.006,774.507,333.791,1.052,979.624,156.982,0.812,898.395,185.320,0.855,-0.034,-0.971,1.403,0.000,-13.493,0.000,-0.013,0.018,0.011,-0.154,-1.244,1.359
0722_173507_0207.png,0.013,0.162,0.935,-0.053,0.164,0.943,0.141,-0.015,1.114,-0.158,-0.014,1.120,0.180,-0.192,0.925,-0.326,-0.219,1.101,0.167,-0.347,0.725,-0.327,-0.310,0.866,972.822,704.301,0.935,906.462,705.300,0.943,1080.578,526.935,1.114,825.948,528.250,1.120,1145.333,342.862,0.925,678.103,350.449,1.101,1179.662,85.115,0.725,600.455,199.677,0.866,-0.027,-0.965,1.402,0.000,-0.079,0.000,-0.007,0.019,0.045,-0.334,-0.840,1.300
0722_173507_0208.png,0.047,0.147,0.934,-0.017,0.144,0.932,0.166,-0.022,1.088,-0.115,-0.007,1.152,0.108,-0.261,0.982,-0.102,-0.183,0.941,-0.018,-0.350,0.771,-0.091,-0.354,0.736,1007.473,689.865,0.934,942.308,686.841,0.932,1105.151,520.685,1.088,865.159,534.034,1.152,1064.895,287.354,0.982,856.545,355.355,0.941,938.019,107.975,0.771,841.737,82.103,0.736,-0.032,-0.962,1.401,0.000,-12.120,0.000,0.028,0.020,0.007,-0.115,-1.176,1.480
0722_173507_0209.png,0.015,0.162,0.933,-0.050,0.164,0.937,0.135,0.000,1.126,-0.159,-0.001,1.124,0.280,-0.221,1.175,-0.169,-0.183,0.913,0.390,-0.300,0.946,-0.181,-0.360,0.707,975.398,705.469,0.933,909.357,706.466,0.937,1074.130,539.602,1.126,825.529,539.318,1.124,1186.434,361.062,1.175,783.671,349.512,0.913,1352.082,238.233,0.946,716.586,55.240,0.707,-0.027,-0.971,1.403,0.000,-358.535,0.000,0.010,0.010,-0.016,-0.142,-1.170,1.275
0722_173507_0210.png,0.028,0.164,0.939,-0.037,0.163,0.939,0.145,-0.019,1.110,-0.147,-0.014,1.131,0.150,-0.263,1.003,-0.238,-0.265,1.156,-0.017,-0.335,0.819,-0.217,-0.311,0.902,988.506,705.581,0.939,922.768,705.142,0.939,1084.313,523.953,1.110,836.405,528.392,1.131,1101.974,290.924,1.003,764.184,321.853,1.156,940.467,150.515,0.819,731.252,212.080,0.902,-0.027,-0.958,1.400,0.000,-3.129,0.000,0.014,0.003,0.022,-0.025,-0.804,1.444
0722_173507_0211.png,0.046,0.161,0.934,-0.021,0.159,0.929,0.161,-0.013,1.108,-0.141,-0.008,1.132,0.264,-0.237,1.224,-0.211,-0.249,1.035,0.361,-0.283,0.984,-0.067,-0.327,0.828,1006.746,703.978,0.934,938.419,702.294,0.929,1098.125,528.699,1.108,841.211,533.552,1.132,1165.223,355.544,1.224,766.461,310.808,1.035,1308.965,266.727,0.984,883.620,164.717,0.828,-0.037,-0.961,1.401,0.000,-3.465,0.000,-0.022,-0.007,0.011,0.164,-1.034,1.521
0722_173507_0212.png,0.007,0.158,0.926,-0.059,0.163,0.935,0.123,-0.005,1.144,-0.171,-0.017,1.092,0.211,-0.207,0.993,-0.202,-0.259,0.980,0.248,-0.339,0.772,-0.065,-0.341,0.774,967.223,702.147,0.926,900.453,705.421,0.935,1062.560,536.227,1.144,810.822,525.506,1.092,1161.870,341.504,0.993,764.031,288.862,0.980,1265.222,121.967,0.772,880.136,120.878,0.774,-0.038,-0.962,1.401,0.000,-348.441,0.000,-0.009,-0.006,0.016,-0.116,-1.048,1.467
0722_173507_0213.png,0.054,0.171,0.931,-0.011,0.166,0.926,0.173,-0.012,1.080,-0.110,0.006,1.159,0.101,-0.195,0.880,-0.220,-0.165,0.960,0.033,-0.374,0.684,-0.329,-0.332,0.768,1014.815,714.335,0.931,948.223,710.760,0.926,1112.565,529.654,1.080,869.908,545.147,1.159,1069.349,329.357,0.880,742.035,376.544,0.960,1005.955,19.938,0.684,552.084,128.529,0.768,-0.031,-0.965,1.402,0.000,-14.698,0.000,0.009,-0.016,-0.025,-0.068,-1.053,1.449
0722_173507_0214.png,0.010,0.179,0.923,-0.056,0.184,0.935,0.140,0.008,1.135,-0.163,0.002,1.108,0.153,-0.263,1.079,-0.276,-0.240,1.035,0.110,-0.331,0.822,-0.178,-0.337,0.804,970.269,723.866,0.923,902.909,726.702,0.935,1077.055,547.033,1.135,819.878,541.985,1.108,1095.189,308.201,1.079,706.302,319.367,1.035,1087.749,157.460,0.822,750.124,141.992,0.804,-0.038,-0.970,1.403,0.000,-353.708,0.000,-0.024,-0.031,-0.020,-0.328,-0.960,1.582
0722_173507_0215.png,0.049,0.169,0.943,-0.017,0.168,0.940,0.167,-0.012,1.094,-0.129,-0.002,1.138,0.218,-0.258,1.019,-0.235,-0.224,1.046,0.085,-0.323,0.810,-0.119,-0.319,0.836,1009.831,710.884,0.943,943.028,709.733,0.940,1104.981,529.343,1.094,851.897,538.233,1.138,1163.906,299.153,1.019,745.886,336.427,1.046,1059.281,161.145,0.810,824.680,177.403,0.836,-0.037,-0.974,1.404,0.000,-7.524,0.000,-0.009,0.034,0.033,0.025,-0.840,1.089
0722_173507_0216.png,-0.005,0.171,0.929,-0.071,0.176,0.939,0.109,0.004,1.154,-0.185,-0.011,1.088,0.217,-0.227,1.256,-0.223,-0.277,1.032,0.241,-0.284,0.996,-0.055,-0.332,0.831,955.266,714.884,0.929,888.512,718.067,0.939,1049.957,543.378,1.154,798.693,530.282,1.088,1124.175,368.412,1.256,754.124,284.767,1.032,1189.866,268.931,0.996,897.156,160.603,0.831,-0.031,-0.965,1.402,0.000,-345.805,0.000,-0.016,-0.013,-0.017,-0.087,-0.847,1.644
0722_173507_0217.png,0.044,0.162,0.936,-0.019,0.158,0.931,0.157,-0.014,1.102,-0.125,-0.004,1.147,0.121,-0.247,0.959,-0.095,-0.180,0.929,-0.017,-0.363,0.763,-0.069,-0.354,0.717,1004.694,704.266,0.936,940.311,701.644,0.931,1095.455,527.671,1.102,856.052,536.756,1.147,1080.102,295.454,0.959,862.442,355.362,0.929,938.797,87.392,0.763,867.912,70.423,0.717,-0.031,-0.960,1.401,0.000,-8.145,0.000,0.037,-0.008,-0.020,0.074,-0.973,1.712
0722_173507_0218.png,0.054,0.190,0.935,-0.012,0.185,0.925,0.167,-0.007,1.083,-0.129,0.008,1.145,0.158,-0.266,1.000,-0.190,-0.253,1.089,-0.017,-0.334,0.814,-0.140,-0.324,0.840,1015.044,732.790,0.935,947.903,730.698,0.925,1106.439,534.235,1.083,853.287,546.462,1.145,1110.566,286.586,1.000,794.115,319.218,1.089,940.651,149.573,0.814,801.255,173.500,0.840,-0.029,-0.969,1.403,0.000,-11.069,0.000,-0.018,-0.030,0.006,0.221,-0.812,1.285
0722_173507_0219.png,0.033,0.178,0.933,-0.033,0.177,0.934,0.157,-0.012,1.104,-0.140,-0.005,1.137,0.275,-0.219,1.247,-0.146,-0.203,0.949,0.284,-0.293,0.994,-0.098,-0.359,0.739,993.677,721.031,0.933,926.385,720.670,0.934,1094.913,529.563,1.104,843.250,536.152,1.137,1169.815,373.346,1.247,813.773,336.544,0.949,1231.427,259.690,0.994,834.465,78.435,0.739,-0.031,-0.958,1.400,0.000,-5.294,0.000,-0.004,-0.032,-0.002,-0.147,-0.781,1.493
0722_173507_0220.png,0.032,0.146,0.929,-0.035,0.145,0.931,0.157,-0.020,1.095,-0.141,-0.009,1.139,0.125,-0.198,0.903,-0.254,-0.190,1.301,0.052,-0.353,0.711,-0.309,-0.257,1.062,992.472,689.547,0.929,924.318,688.186,0.931,1096.040,522.946,1.095,842.254,532.076,1.139,1091.740,331.672,0.903,774.368,401.432,1.301,1029.325,68.698,0.711,683.548,309.732,1.062,-0.026,-0.964,1.402,0.000,-7.481,0.000,-0.014,0.018,0.033,-0.158,-1.214,1.459
0722_173507_0221.png,0.044,0.181,0.948,-0.020,0.179,0.943,0.156,-0.005,1.112,-0.131,0.003,1.144,0.199,-0.272,1.073,-0.166,-0.213,0.969,0.025,-0.332,0.879,-0.105,-0.363,0.751,1004.272,721.625,0.948,939.967,720.368,0.943,1093.664,536.148,1.112,851.013,542.542,1.144,1136.480,299.104,1.073,796.789,331.127,0.969,986.971,181.027,0.879,826.436,80.325,0.751,-0.034,-0.968,1.403,0.000,-5.528,0.000,0.026,0.003,-0.040,0.112,-0.730,1.418
0722_173507_0222.png,0.003,0.149,0.933,-0.064,0.154,0.937,0.112,0.003,1.154,-0.183,-0.010,1.094,0.082,-0.172,0.936,-0.240,-0.267,1.044,0.052,-0.342,0.722,-0.055,-0.317,0.858,962.635,691.946,0.933,895.066,695.765,0.937,1052.460,542.775,1.154,800.700,530.893,1.094,1043.022,365.248,0.936,740.965,296.418,1.044,1028.690,89.476,0.722,898.893,188.355,0.858,-0.031,-0.972,1.403,0.000,-347.013,0.000,-0.017,0.029,-0.016,0.050,-1.248,1.440
0722_173507_0223.png,0.000,0.167,0.936,-0.066,0.171,0.941,0.110,0.003,1.151,-0.184,-0.009,1.100,0.266,-0.219,1.169,-0.301,-0.248,1.044,0.150,-0.303,0.942,-0.212,-0.337,0.805,959.563,710.130,0.936,892.957,712.564,0.941,1050.913,542.527,1.151,801.272,532.445,1.100,1176.114,361.646,1.169,685.473,313.887,1.044,1111.328,233.979,0.942,709.011,141.650,0.805,-0.026,-0.967,1.402,0.000,-348.659,0.000,-0.005,0.002,-0.028,0.019,-1.012,1.251
0722_173507_0224.png,0.003,0.169,0.928,-0.065,0.172,0.935,0.120,0.006,1.146,-0.183,-0.005,1.099,0.236,-0.237,1.090,-0.298,-0.252,1.063,0.246,-0.321,0.836,-0.314,-0.328,0.806,962.583,712.656,0.928,893.848,715.372,0.935,1059.777,544.731,1.146,801.899,535.674,1.099,1166.272,332.863,1.090,693.111,314.203,1.063,1239.840,174.383,0.836,589.308,152.351,0.806,-0.028,-0.969,1.403,0.000,-349.867,0.000,-0.033,-0.012,-0.018,-0.050,-0.993,1.615
0722_173507_0225.png,0.050,0.180,0.936,-0.014,0.178,0.933,0.170,-0.013,1.076,-0.108,0.005,1.154,0.102,-0.194,0.881,-0.252,-0.177,1.291,0.036,-0.370,0.690,-0.290,-0.278,1.051,1011.263,722.682,0.936,945.951,721.066,0.933,1110.493,528.513,1.076,871.057,544.037,1.154,1069.697,330.887,0.881,774.603,409.883,1.291,1009.651,29.499,0.690,697.986,288.463,1.051,-0.032,-0.968,1.403,0.000,-14.854,0.000,0.025,-0.005,0.003,-0.192,-0.784,1.327
0722_173507_0226.png,0.046,0.168,0.938,-0.019,0.164,0.930,0.159,-0.020,1.084,-0.130,-0.006,1.148,0.230,-0.235,0.941,-0.126,-0.177,0.937,0.246,-0.357,0.713,-0.121,-0.345,0.730,1006.327,710.679,0.938,940.309,708.228,0.930,1099.601,522.028,1.084,852.667,535.374,1.148,1192.468,302.265,0.941,832.080,359.905,0.937,1287.868,63.714,0.713,802.108,91.428,0.730,-0.023,-0.961,1.401,0.000,-11.800,0.000,0.003,-0.005,0.020,0.114,-0.888,1.312
0722_173507_0227.png,-0.002,0.166,0.928,-0.067,0.171,0.934,0.101,0.013,1.159,-0.187,-0.003,1.091,0.205,-0.241,1.177,-0.172,-0.243,0.947,0.229,-0.315,0.913,-0.088,-0.369,0.717,958.299,710.212,0.928,891.476,714.106,0.934,1042.878,550.562,1.159,796.982,537.687,1.091,1126.007,345.456,1.177,786.837,296.242,0.947,1198.514,211.899,0.913,843.772,50.402,0.717,-0.029,-0.972,1.403,0.000,-345.298,0.000,0.002,-0.008,-0.046,0.095,-1.151,1.496
0722_173507_0228.png,0.031,0.185,0.936,-0.033,0.184,0.935,0.146,-0.005,1.101,-0.141,0.002,1.130,0.205,-0.266,1.070,-0.280,-0.197,1.021,0.061,-0.327,0.866,-0.370,-0.336,0.823,991.333,727.477,0.936,926.219,726.961,0.935,1086.297,535.798,1.101,841.107,541.514,1.130,1142.664,303.923,1.070,699.099,356.260,1.021,1026.499,180.749,0.866,532.814,151.390,0.823,-0.027,-0.972,1.403,0.000,-4.736,0.000,0.027,-0.008,0.023,-0.022,-0.771,1.152
