rolosa10/RGSpipe/dataset/synthetic_dataset/Coods3D_unique0722_191641.csv
filename,left_eye,left_eye,left_eye,right_eye,right_eye,right_eye,left_shoulder,left_shoulder,left_shoulder,right_shoulder,right_shoulder,right_shoulder,left_elbow,left_elbow,left_elbow,right_elbow,right_elbow,right_elbow,left_wrist,left_wrist,left_wrist,right_wrist,right_wrist,right_wrist,left_eye_2D,left_eye_2D,left_eye_2D,right_eye_2D,right_eye_2D,right_eye_2D,left_shoulder_2D,left_shoulder_2D,left_shoulder_2D,right_shoulder_2D,right_shoulder_2D,right_shoulder_2D,left_elbow_2D,left_elbow_2D,left_elbow_2D,right_elbow_2D,right_elbow_2D,right_elbow_2D,left_wrist_2D,left_wrist_2D,left_wrist_2D,right_wrist_2D,right_wrist_2D,right_wrist_2D,root_position,root_position,root_position,root_pitch,root_yaw,root_roll,root_scale,root_scale,root_scale,look_at,look_at,look_at
0722_191641_0001.png,0.006,0.182,0.929,-0.059,0.187,0.940,0.128,0.005,1.137,-0.164,-0.002,1.110,0.170,-0.248,1.029,-0.152,-0.254,0.993,0.029,-0.346,0.825,-0.094,-0.362,0.752,965.691,726.806,0.929,900.761,728.880,0.940,1066.653,543.830,1.137,819.012,538.469,1.110,1117.052,310.807,1.029,814.680,296.762,0.993,993.191,141.338,0.825,841.078,82.456,0.752,-0.033,-0.965,1.402,0.000,-353.268,0.000,0.012,-0.033,-0.026,-0.278,-0.834,1.477
0722_191641_0002.png,0.014,0.160,0.935,-0.049,0.162,0.938,0.126,-0.001,1.136,-0.161,-0.006,1.117,0.140,-0.182,0.918,-0.318,-0.181,1.242,0.156,-0.359,0.707,-0.314,-0.295,0.999,974.582,702.507,0.935,909.892,703.919,0.938,1065.589,538.803,1.136,822.758,535.037,1.117,1104.747,351.597,0.918,716.754,401.650,1.242,1170.324,57.510,0.707,661.000,259.320,0.999,-0.030,-0.967,1.402,0.000,-354.917,0.000,0.030,0.008,-0.020,-0.016,-0.993,1.724
0722_191641_0003.png,0.042,0.152,0.936,-0.024,0.150,0.936,0.169,-0.011,1.100,-0.123,0.002,1.158,0.231,-0.244,0.964,-0.290,-0.171,1.011,0.219,-0.362,0.715,-0.414,-0.331,0.823,1002.976,694.839,0.936,935.784,692.422,0.936,1105.682,530.550,1.100,858.550,541.945,1.158,1188.323,299.111,0.964,686.957,379.503,1.011,1251.565,58.158,0.715,481.100,157.431,0.823,-0.031,-0.966,1.402,0.000,-10.322,0.000,-0.003,0.016,-0.047,-0.183,-1.184,1.624
0722_191641_0004.png,0.054,0.165,0.927,-0.013,0.160,0.923,0.176,-0.009,1.078,-0.118,0.009,1.158,0.102,-0.258,0.991,-0.199,-0.219,1.029,0.026,-0.345,0.749,-0.079,-0.330,0.815,1015.002,709.333,0.927,946.086,704.970,0.923,1115.193,531.897,1.078,863.442,547.546,1.158,1057.460,292.046,0.991,776.470,337.316,1.029,992.638,101.928,0.749,867.898,154.610,0.815,-0.030,-0.970,1.403,0.000,-14.445,0.000,-0.026,-0.009,-0.017,-0.044,-1.193,1.531
0722_191641_0005.png,0.034,0.175,0.933,-0.030,0.173,0.926,0.143,-0.012,1.106,-0.149,-0.007,1.127,0.242,-0.263,1.070,-0.282,-0.237,1.077,0.248,-0.337,0.823,-0.185,-0.331,0.857,994.981,718.848,0.933,929.084,717.545,0.926,1082.959,529.540,1.106,834.533,533.693,1.127,1175.368,306.062,1.070,710.955,330.336,1.077,1246.708,150.601,0.823,755.271,172.445,0.857,-0.026,-0.959,1.400,0.000,-2.939,0.000,0.015,-0.033,0.023,0.239,-0.897,1.348
0722_191641_0006.png,0.008,0.174,0.928,-0.056,0.176,0.931,0.120,0.003,1.130,-0.170,-0.003,1.103,0.103,-0.221,0.985,-0.176,-0.185,0.904,0.010,-0.350,0.780,-0.183,-0.362,0.710,968.176,717.844,0.928,902.319,719.179,0.931,1061.073,542.382,1.130,813.475,537.143,1.103,1059.931,326.484,0.985,774.444,345.575,0.904,972.573,113.347,0.780,715.495,55.227,0.710,-0.025,-0.972,1.403,0.000,-353.424,0.000,0.018,-0.010,0.017,-0.016,-1.055,1.182
0722_191641_0007.png,-0.002,0.178,0.933,-0.068,0.181,0.941,0.111,0.006,1.148,-0.183,-0.009,1.080,0.269,-0.209,1.187,-0.190,-0.251,0.971,0.385,-0.282,0.969,-0.085,-0.340,0.753,957.971,721.581,0.933,891.015,723.325,0.941,1052.288,544.944,1.148,798.658,531.673,1.080,1175.569,372.612,1.187,774.105,294.147,0.971,1338.209,263.546,0.969,852.181,110.484,0.753,-0.032,-0.975,1.404,0.000,-345.673,0.000,-0.019,0.010,0.025,-0.020,-0.685,1.543
0722_191641_0008.png,0.041,0.191,0.934,-0.026,0.191,0.931,0.159,-0.002,1.104,-0.143,0.002,1.124,0.165,-0.276,1.096,-0.288,-0.225,1.087,0.127,-0.321,0.844,-0.190,-0.319,0.866,1001.863,735.056,0.934,933.705,734.704,0.931,1096.532,537.896,1.104,839.299,541.826,1.124,1103.400,300.677,1.096,708.442,342.852,1.087,1103.593,178.589,0.844,751.099,189.782,0.866,-0.037,-0.970,1.403,0.000,-2.729,0.000,-0.017,-0.027,0.024,0.070,-0.701,1.253
0722_191641_0009.png,0.018,0.189,0.932,-0.048,0.191,0.937,0.132,0.004,1.138,-0.164,-0.004,1.102,0.227,-0.228,1.262,-0.243,-0.262,1.041,0.356,-0.284,1.036,-0.083,-0.337,0.842,978.280,733.264,0.932,911.378,734.198,0.937,1070.053,543.052,1.138,818.755,536.191,1.102,1131.128,368.430,1.262,738.229,300.320,1.041,1286.746,279.323,1.036,865.843,159.301,0.842,-0.038,-0.964,1.402,0.000,-351.876,0.000,-0.002,-0.039,-0.010,-0.003,-0.795,1.102
0722_191641_0010.png,0.054,0.168,0.947,-0.009,0.165,0.941,0.168,-0.019,1.088,-0.112,-0.004,1.154,0.179,-0.184,1.295,-0.121,-0.178,0.937,0.228,-0.274,1.053,-0.133,-0.348,0.727,1014.408,709.090,0.947,950.516,707.185,0.941,1106.642,523.607,1.088,867.920,536.968,1.154,1091.506,404.736,1.295,837.082,359.589,0.937,1165.974,293.038,1.053,786.544,84.440,0.727,-0.034,-0.965,1.402,0.000,-12.373,0.000,0.032,0.022,-0.003,0.005,-0.741,1.397
0722_191641_0011.png,0.049,0.183,0.932,-0.017,0.182,0.931,0.174,-0.013,1.080,-0.115,0.004,1.156,0.114,-0.229,0.917,-0.277,-0.181,1.030,0.029,-0.367,0.703,-0.385,-0.331,0.835,1010.221,727.072,0.932,942.627,725.617,0.931,1113.092,528.311,1.080,865.640,543.314,1.156,1078.576,302.867,0.917,704.095,373.313,1.030,998.654,43.313,0.703,521.938,162.598,0.835,-0.032,-0.961,1.401,0.000,-13.819,0.000,-0.006,-0.035,-0.017,-0.211,-0.785,1.394
0722_191641_0012.png,0.002,0.165,0.937,-0.062,0.169,0.946,0.118,-0.010,1.138,-0.168,-0.016,1.109,0.164,-0.184,0.927,-0.265,-0.262,1.056,0.210,-0.355,0.722,-0.119,-0.335,0.852,961.533,707.609,0.937,897.898,709.448,0.946,1058.994,531.941,1.138,815.731,525.951,1.109,1128.249,351.255,0.927,720.931,304.071,1.056,1236.743,73.125,0.722,827.532,165.822,0.852,-0.027,-0.959,1.400,0.000,-352.840,0.000,0.029,-0.001,0.000,-0.203,-0.801,1.457
0722_191641_0013.png,0.036,0.173,0.935,-0.027,0.174,0.941,0.161,-0.010,1.104,-0.122,-0.002,1.141,0.279,-0.248,1.056,-0.264,-0.183,1.278,0.333,-0.345,0.816,-0.277,-0.288,1.034,996.633,715.583,0.935,932.645,715.551,0.941,1098.678,531.059,1.104,858.259,538.493,1.141,1211.613,316.948,1.056,763.199,403.757,1.278,1348.521,138.298,0.816,704.775,275.116,1.034,-0.039,-0.964,1.402,0.000,-6.526,0.000,0.038,-0.006,-0.010,-0.330,-0.844,1.388
0722_191641_0014.png,0.010,0.137,0.934,-0.057,0.141,0.941,0.133,-0.012,1.139,-0.169,-0.019,1.108,0.176,-0.257,1.049,-0.162,-0.220,0.932,-0.016,-0.308,0.871,-0.113,-0.349,0.710,970.267,679.294,0.934,902.772,682.413,0.941,1071.032,529.917,1.139,814.909,523.611,1.108,1119.219,307.063,1.049,795.035,315.729,0.932,942.889,203.679,0.871,808.798,72.236,0.710,-0.034,-0.964,1.402,0.000,-352.901,0.000,-0.023,0.038,0.013,-0.150,-1.156,1.666
0722_191641_0015.png,-0.009,0.151,0.938,-0.073,0.156,0.951,0.113,-0.011,1.149,-0.179,-0.020,1.106,0.217,-0.205,1.297,-0.269,-0.270,1.070,0.215,-0.272,1.040,-0.092,-0.320,0.878,950.695,692.707,0.938,886.769,696.357,0.951,1053.281,531.305,1.149,806.194,522.545,1.106,1118.789,390.033,1.297,721.227,299.655,1.070,1156.996,291.458,1.040,859.963,193.274,0.878,-0.026,-0.958,1.400,0.000,-350.296,0.000,0.007,0.021,-0.014,-0.302,-0.939,1.512
0722_191641_0016.png,0.016,0.178,0.942,-0.049,0.179,0.943,0.128,-0.005,1.134,-0.164,-0.009,1.115,0.085,-0.184,0.925,-0.186,-0.247,0.983,0.044,-0.359,0.723,-0.165,-0.361,0.743,976.152,719.638,0.942,910.698,720.102,0.943,1067.564,536.141,1.134,820.107,532.508,1.115,1046.878,351.280,0.925,779.852,301.005,0.983,1017.318,67.847,0.723,748.873,77.849,0.743,-0.029,-0.963,1.401,0.000,-355.168,0.000,0.014,-0.008,-0.012,0.042,-0.687,1.464
0722_191641_0017.png,0.023,0.163,0.940,-0.041,0.164,0.944,0.142,-0.006,1.121,-0.146,-0.004,1.131,0.230,-0.211,1.263,-0.182,-0.229,0.982,0.385,-0.272,1.060,-0.075,-0.351,0.774,983.304,704.457,0.940,918.779,704.826,0.944,1080.703,534.493,1.121,836.824,536.582,1.131,1132.966,381.035,1.263,783.472,318.543,0.982,1304.979,295.737,1.060,867.709,108.865,0.774,-0.031,-0.969,1.403,0.000,-0.974,0.000,0.027,0.024,-0.012,-0.161,-1.036,1.158
0722_191641_0018.png,0.038,0.164,0.941,-0.029,0.163,0.941,0.162,-0.010,1.109,-0.137,-0.001,1.147,0.234,-0.201,1.280,-0.232,-0.240,1.051,0.370,-0.264,1.056,-0.075,-0.325,0.849,998.135,705.845,0.941,930.593,704.805,0.941,1098.607,531.850,1.109,846.038,539.407,1.147,1134.099,390.654,1.280,750.370,322.666,1.051,1293.153,302.319,1.056,876.223,176.077,0.849,-0.031,-0.966,1.402,0.000,-6.302,0.000,-0.016,0.015,-0.032,-0.118,-0.986,1.357
0722_191641_0019.png,0.026,0.141,0.940,-0.039,0.142,0.943,0.148,-0.021,1.115,-0.147,-0.017,1.132,0.187,-0.191,1.308,-0.281,-0.200,1.263,0.231,-0.257,1.062,-0.454,-0.256,1.078,986.272,683.151,0.940,920.167,683.346,0.943,1086.649,521.974,1.115,836.819,525.595,1.132,1095.985,401.086,1.308,748.724,389.185,1.263,1167.099,309.720,1.062,559.489,314.369,1.078,-0.031,-0.961,1.401,0.000,-2.278,0.000,0.004,0.041,0.020,-0.173,-1.166,1.205
0722_191641_0020.png,0.023,0.181,0.934,-0.045,0.183,0.938,0.145,0.000,1.131,-0.161,-0.004,1.115,0.285,-0.206,1.255,-0.322,-0.222,1.177,0.252,-0.284,1.001,-0.399,-0.299,0.931,983.502,724.841,0.934,914.810,725.658,0.938,1081.928,539.596,1.131,823.071,536.567,1.115,1175.959,383.944,1.255,699.663,360.608,1.177,1199.065,270.137,1.001,552.768,234.737,0.931,-0.037,-0.963,1.402,0.000,-355.862,0.000,-0.031,-0.027,-0.017,-0.067,-0.764,1.517
0722_191641_0021.png,-0.002,0.167,0.920,-0.067,0.174,0.932,0.117,0.006,1.150,-0.178,-0.008,1.093,0.223,-0.224,1.036,-0.279,-0.248,0.997,0.264,-0.342,0.797,-0.245,-0.356,0.752,957.686,712.862,0.920,891.185,717.603,0.932,1056.525,544.746,1.150,805.481,533.463,1.093,1164.647,334.224,1.036,693.833,303.714,0.997,1274.544,131.958,0.797,649.883,89.409,0.752,-0.035,-0.962,1.401,0.000,-347.462,0.000,-0.011,-0.039,-0.025,-0.240,-1.134,1.501
0722_191641_0022.png,0.032,0.184,0.940,-0.032,0.184,0.941,0.150,-0.002,1.116,-0.137,0.003,1.137,0.277,-0.243,1.143,-0.227,-0.235,1.025,0.344,-0.327,0.894,-0.135,-0.355,0.801,992.438,726.178,0.940,927.714,725.929,0.941,1088.123,537.874,1.116,845.056,542.140,1.137,1190.944,338.000,1.143,749.491,321.956,1.025,1325.910,192.468,0.894,799.996,118.598,0.801,-0.033,-0.965,1.402,0.000,-3.310,0.000,0.028,-0.019,-0.036,-0.091,-0.700,1.615
0722_191641_0023.png,0.052,0.164,0.932,-0.015,0.160,0.926,0.171,-0.011,1.079,-0.125,0.006,1.154,0.296,-0.234,1.163,-0.178,-0.167,0.944,0.386,-0.293,0.920,-0.228,-0.335,0.739,1012.827,707.782,0.932,944.327,703.868,0.926,1110.460,530.517,1.079,857.069,545.324,1.154,1202.288,348.396,1.163,780.644,371.707,0.944,1359.345,236.815,0.920,666.213,108.185,0.739,-0.026,-0.972,1.404,0.000,-13.408,0.000,-0.029,0.009,0.001,0.035,-1.010,1.734
0722_191641_0024.png,0.051,0.165,0.935,-0.017,0.161,0.930,0.172,-0.016,1.078,-0.125,0.003,1.158,0.216,-0.199,1.267,-0.121,-0.171,0.940,0.393,-0.252,1.071,-0.115,-0.340,0.728,1011.476,707.354,0.935,942.537,704.130,0.930,1111.814,526.067,1.078,857.395,542.203,1.158,1121.864,390.651,1.267,837.906,366.721,0.940,1309.393,315.908,1.071,810.313,96.214,0.728,-0.025,-0.968,1.403,0.000,-14.350,0.000,-0.038,0.012,0.000,-0.040,-0.967,1.521
0722_191641_0025.png,0.054,0.198,0.933,-0.013,0.197,0.930,0.176,-0.004,1.083,-0.121,0.010,1.145,0.151,-0.258,0.984,-0.132,-0.171,0.935,-0.017,-0.338,0.795,-0.141,-0.347,0.730,1015.410,741.791,0.933,946.818,741.071,0.930,1114.877,536.255,1.083,859.415,548.352,1.145,1105.909,290.435,0.984,825.455,366.038,0.935,939.964,135.578,0.795,775.897,87.600,0.730,-0.037,-0.970,1.403,0.000,-10.959,0.000,-0.025,-0.038,0.002,-0.064,-0.624,1.411
0722_191641_0026.png,0.012,0.166,0.931,-0.053,0.169,0.938,0.131,-0.009,1.134,-0.165,-0.015,1.106,0.056,-0.181,0.937,-0.219,-0.282,1.099,-0.017,-0.349,0.744,-0.188,-0.327,0.844,972.127,709.295,0.931,905.828,710.904,0.938,1069.456,532.570,1.134,818.406,527.004,1.106,1017.224,355.999,0.937,770.756,296.389,1.099,938.680,94.183,0.744,748.382,171.805,0.844,-0.033,-0.959,1.401,0.000,-353.418,0.000,0.001,-0.013,0.012,-0.126,-0.875,1.461
0722_191641_0027.png,0.036,0.159,0.937,-0.028,0.160,0.941,0.161,-0.015,1.104,-0.127,-0.008,1.138,0.157,-0.270,1.026,-0.138,-0.182,0.927,-0.016,-0.331,0.843,-0.149,-0.352,0.722,996.718,701.305,0.937,931.725,701.236,0.941,1098.487,526.783,1.104,853.668,533.717,1.138,1105.197,290.052,1.026,818.597,353.179,0.927,941.921,166.302,0.843,763.885,75.616,0.722,-0.038,-0.965,1.402,0.000,-5.745,0.000,0.023,0.020,0.013,-0.266,-0.915,1.484
0722_191641_0028.png,0.046,0.185,0.931,-0.020,0.181,0.926,0.164,-0.001,1.095,-0.133,0.010,1.143,0.151,-0.248,0.975,-0.210,-0.236,1.046,0.004,-0.347,0.775,-0.059,-0.331,0.847,1007.386,728.428,0.931,939.507,726.365,0.926,1102.115,539.168,1.095,849.234,548.426,1.143,1106.829,297.680,0.975,769.362,325.364,1.046,964.915,113.786,0.775,893.258,168.403,0.847,-0.031,-0.971,1.403,0.000,-8.296,0.000,-0.013,-0.027,-0.013,0.083,-0.885,1.578
0722_191641_0029.png,0.056,0.184,0.950,-0.011,0.181,0.944,0.174,-0.006,1.094,-0.123,0.008,1.157,0.100,-0.246,0.978,-0.184,-0.172,0.944,-0.018,-0.348,0.752,-0.245,-0.348,0.736,1015.973,724.089,0.950,948.838,722.433,0.944,1111.142,534.696,1.094,859.027,546.816,1.157,1057.302,300.269,0.978,774.491,366.221,0.944,937.789,100.275,0.752,643.260,90.165,0.736,-0.033,-0.972,1.403,0.000,-11.049,0.000,-0.023,0.013,-0.041,0.042,-0.673,1.376
0722_191641_0030.png,0.033,0.176,0.927,-0.032,0.176,0.929,0.158,-0.011,1.096,-0.134,-0.001,1.138,0.086,-0.188,0.898,-0.307,-0.212,1.160,0.015,-0.361,0.706,-0.250,-0.312,0.925,994.347,720.496,0.927,927.287,719.833,0.929,1097.300,530.688,1.096,848.010,539.153,1.138,1050.608,340.973,0.898,708.705,366.244,1.160,979.524,53.711,0.706,703.134,219.616,0.925,-0.030,-0.962,1.401,0.000,-7.272,0.000,0.005,-0.032,0.008,-0.225,-0.992,1.169
0722_191641_0031.png,0.034,0.188,0.933,-0.032,0.187,0.932,0.151,-0.001,1.115,-0.147,0.002,1.128,0.244,-0.212,1.274,-0.323,-0.207,1.091,0.346,-0.285,1.037,-0.434,-0.322,0.877,994.598,731.340,0.933,927.194,730.955,0.932,1088.711,539.256,1.115,836.169,541.883,1.128,1142.423,381.787,1.274,678.723,359.631,1.091,1277.010,278.974,1.037,489.665,190.136,0.877,-0.033,-0.964,1.402,0.000,-1.493,0.000,-0.004,-0.040,-0.017,0.039,-0.853,1.244
0722_191641_0032.png,0.045,0.172,0.934,-0.022,0.169,0.929,0.160,-0.003,1.101,-0.138,0.005,1.136,0.247,-0.222,0.968,-0.288,-0.188,1.253,0.281,-0.347,0.740,-0.247,-0.277,1.010,1005.327,715.388,0.934,937.762,713.421,0.929,1098.219,537.112,1.101,844.571,544.034,1.136,1202.497,322.120,0.968,741.165,397.536,1.253,1321.389,93.990,0.740,727.589,279.246,1.010,-0.032,-0.974,1.404,0.000,-5.802,0.000,-0.011,0.002,0.006,0.126,-1.069,1.285
0722_191641_0033.png,0.036,0.174,0.936,-0.028,0.173,0.934,0.152,-0.014,1.100,-0.133,-0.005,1.136,0.084,-0.191,0.908,-0.276,-0.224,1.078,0.018,-0.365,0.722,-0.320,-0.333,0.846,996.506,716.757,0.936,931.668,715.923,0.934,1091.414,528.070,1.100,848.483,535.442,1.136,1047.816,339.668,0.908,716.031,342.427,1.078,984.182,58.754,0.722,600.160,166.157,0.846,-0.030,-0.962,1.401,0.000,-6.277,0.000,0.031,-0.012,0.015,-0.044,-0.833,1.280
0722_191641_0034.png,0.015,0.154,0.926,-0.049,0.156,0.929,0.130,-0.012,1.127,-0.162,-0.016,1.110,0.093,-0.245,1.001,-0.294,-0.195,1.268,0.028,-0.345,0.774,-0.390,-0.280,1.045,975.768,698.201,0.926,909.403,699.443,0.929,1069.539,529.771,1.127,820.889,526.365,1.110,1048.688,307.761,1.001,739.438,393.901,1.268,994.502,115.528,0.774,605.114,284.748,1.045,-0.029,-0.958,1.400,0.000,-355.508,0.000,0.014,-0.016,0.025,-0.029,-1.179,1.377
0722_191641_0035.png,0.006,0.175,0.928,-0.060,0.177,0.928,0.109,-0.001,1.142,-0.183,-0.015,1.083,0.265,-0.223,1.169,-0.199,-0.270,1.002,0.190,-0.302,0.936,-0.085,-0.342,0.785,966.080,719.852,0.928,898.527,720.988,0.928,1050.875,538.970,1.142,799.512,527.126,1.083,1175.783,358.954,1.169,770.917,283.927,1.002,1153.447,233.212,0.936,857.250,126.110,0.785,-0.027,-0.964,1.402,0.000,-347.223,0.000,-0.004,-0.025,0.035,0.216,-0.809,1.527
0722_191641_0036.png,0.010,0.170,0.930,-0.056,0.172,0.938,0.133,-0.005,1.124,-0.163,-0.009,1.108,0.159,-0.259,1.047,-0.328,-0.222,1.096,0.135,-0.333,0.804,-0.343,-0.318,0.860,969.719,713.508,0.930,903.514,714.947,0.938,1072.666,535.564,1.124,819.881,532.463,1.108,1104.151,305.270,1.047,675.671,347.634,1.096,1119.536,146.352,0.804,580.742,188.272,0.860,-0.030,-0.968,1.403,0.000,-355.774,0.000,0.000,-0.002,0.032,-0.224,-0.822,1.574
0722_191641_0037.png,0.031,0.157,0.938,-0.038,0.156,0.937,0.153,-0.011,1.113,-0.156,-0.006,1.134,0.276,-0.248,1.072,-0.192,-0.206,0.956,0.201,-0.313,0.829,-0.173,-0.340,0.729,991.467,699.644,0.938,921.761,698.810,0.937,1091.116,531.012,1.113,829.184,535.262,1.134,1205.176,320.387,1.072,768.926,334.871,0.956,1190.707,180.537,0.829,734.533,96.423,0.729,-0.027,-0.967,1.402,0.000,-2.845,0.000,-0.044,0.021,0.003,0.005,-1.069,1.385
0722_191641_0038.png,0.029,0.170,0.930,-0.039,0.171,0.932,0.153,-0.003,1.114,-0.155,-0.002,1.118,0.169,-0.255,1.033,-0.278,-0.217,1.229,-0.020,-0.311,0.856,-0.349,-0.274,0.988,989.847,713.963,0.930,920.102,714.274,0.932,1090.724,537.780,1.114,828.091,538.570,1.118,1115.747,304.833,1.033,745.209,371.870,1.229,938.239,194.935,0.856,623.928,276.392,0.988,-0.035,-0.973,1.404,0.000,0.409,0.000,-0.038,0.002,0.028,-0.070,-0.999,1.356
0722_191641_0039.png,0.045,0.169,0.934,-0.020,0.164,0.926,0.158,-0.011,1.093,-0.133,0.001,1.144,0.143,-0.258,0.983,-0.249,-0.215,1.263,-0.017,-0.344,0.793,-0.261,-0.284,1.009,1005.791,711.879,0.934,939.540,708.861,0.926,1097.230,530.516,1.093,849.510,540.571,1.144,1098.793,290.441,0.983,772.721,377.754,1.263,939.677,128.065,0.793,714.084,271.859,1.009,-0.027,-0.966,1.402,0.000,-8.924,0.000,0.006,-0.011,0.002,0.169,-1.138,1.175
0722_191641_0040.png,-0.009,0.178,0.929,-0.072,0.183,0.942,0.103,0.005,1.148,-0.178,-0.009,1.087,0.198,-0.240,1.085,-0.299,-0.250,1.075,0.077,-0.329,0.874,-0.194,-0.337,0.851,950.447,721.858,0.929,887.451,724.639,0.942,1045.229,544.261,1.148,804.524,532.249,1.087,1133.600,329.349,1.085,695.298,319.077,1.075,1043.358,181.530,0.874,743.569,163.361,0.851,-0.030,-0.969,1.403,0.000,-346.267,0.000,0.032,-0.012,0.004,-0.225,-0.819,1.380
0722_191641_0041.png,0.011,0.160,0.943,-0.054,0.164,0.952,0.133,-0.002,1.141,-0.162,-0.007,1.119,0.263,-0.208,1.015,-0.197,-0.257,1.018,0.340,-0.338,0.790,-0.056,-0.338,0.804,971.022,701.402,0.943,906.038,703.605,0.952,1070.683,538.357,1.141,822.325,534.103,1.119,1206.029,345.301,1.015,776.249,300.390,1.018,1369.238,133.505,0.790,893.400,140.126,0.804,-0.034,-0.970,1.403,0.000,-354.525,0.000,0.005,0.035,-0.029,-0.200,-0.859,1.639
0722_191641_0042.png,-0.010,0.164,0.926,-0.075,0.171,0.940,0.117,-0.002,1.147,-0.183,-0.014,1.095,0.091,-0.179,0.932,-0.272,-0.273,1.072,0.065,-0.350,0.721,-0.088,-0.315,0.883,950.027,708.669,0.926,883.772,712.569,0.940,1056.923,538.318,1.147,801.015,527.935,1.095,1053.242,357.671,0.932,718.943,297.723,1.072,1045.847,78.425,0.721,865.635,200.729,0.883,-0.028,-0.961,1.401,0.000,-348.814,0.000,-0.026,-0.019,-0.006,-0.330,-0.950,1.563
0722_191641_0043.png,0.021,0.170,0.945,-0.042,0.172,0.951,0.140,-0.009,1.121,-0.144,-0.007,1.129,0.239,-0.254,1.109,-0.279,-0.211,1.020,0.090,-0.321,0.905,-0.355,-0.343,0.805,980.930,711.248,0.945,917.984,711.811,0.951,1078.743,532.743,1.121,838.344,534.334,1.129,1165.069,321.991,1.109,700.332,343.679,1.020,1054.860,202.899,0.905,540.331,135.179,0.805,-0.032,-0.968,1.403,0.000,-0.472,0.000,0.042,0.024,-0.005,-0.227,-0.748,1.247
0722_191641_0044.png,0.010,0.187,0.929,-0.056,0.190,0.936,0.130,-0.002,1.132,-0.169,-0.008,1.104,0.264,-0.212,1.021,-0.204,-0.269,1.024,0.341,-0.336,0.803,-0.054,-0.337,0.818,970.561,731.711,0.929,903.196,732.547,0.936,1069.506,538.304,1.132,814.401,532.850,1.104,1205.583,342.450,1.021,770.709,290.328,1.024,1364.028,142.051,0.803,896.682,147.644,0.818,-0.031,-0.960,1.401,0.000,-353.474,0.000,-0.013,-0.045,0.007,-0.126,-0.724,1.267
0722_191641_0045.png,0.052,0.180,0.941,-0.014,0.176,0.933,0.166,-0.001,1.099,-0.128,0.010,1.148,0.176,-0.177,1.304,-0.178,-0.217,0.998,0.230,-0.268,1.056,-0.071,-0.344,0.785,1012.379,721.840,0.941,945.839,719.404,0.933,1103.753,539.368,1.099,853.946,548.616,1.148,1088.104,410.692,1.304,790.842,333.005,0.998,1167.138,298.362,1.056,873.485,123.160,0.785,-0.033,-0.974,1.404,0.000,-8.415,0.000,-0.005,0.003,-0.030,0.141,-0.881,1.514
0722_191641_0046.png,0.019,0.171,0.932,-0.048,0.172,0.934,0.133,-0.007,1.132,-0.167,-0.013,1.105,0.242,-0.258,1.142,-0.325,-0.234,1.149,0.103,-0.303,0.923,-0.397,-0.307,0.909,979.006,714.217,0.932,911.091,715.075,0.934,1071.700,534.001,1.132,816.535,528.511,1.105,1161.291,325.227,1.142,690.864,346.634,1.149,1066.332,228.119,0.923,544.247,219.230,0.909,-0.033,-0.960,1.401,0.000,-353.543,0.000,-0.014,-0.020,0.016,0.057,-0.957,1.116
0722_191641_0047.png,0.025,0.162,0.932,-0.038,0.163,0.935,0.141,-0.005,1.123,-0.145,-0.003,1.129,0.085,-0.189,0.916,-0.275,-0.216,1.231,0.033,-0.370,0.715,-0.378,-0.299,1.000,985.565,705.642,0.932,921.051,705.973,0.935,1079.426,536.087,1.123,837.946,537.289,1.129,1047.888,344.244,0.916,747.524,373.378,1.231,1004.459,48.240,0.715,600.279,255.214,1.000,-0.033,-0.964,1.402,0.000,-0.081,0.000,0.037,-0.007,-0.022,-0.091,-1.192,1.242
0722_191641_0048.png,0.015,0.177,0.932,-0.049,0.180,0.939,0.135,0.000,1.134,-0.159,-0.003,1.119,0.129,-0.241,0.992,-0.153,-0.189,0.904,-0.013,-0.353,0.794,-0.150,-0.371,0.697,975.779,720.942,0.932,909.944,722.274,0.939,1072.869,540.196,1.134,824.854,537.282,1.119,1084.095,309.303,0.992,799.050,341.193,0.904,944.691,117.296,0.794,755.006,33.030,0.697,-0.033,-0.962,1.401,0.000,-355.840,0.000,0.010,-0.030,-0.035,-0.143,-0.877,1.489
0722_191641_0049.png,0.002,0.154,0.933,-0.062,0.159,0.939,0.107,-0.002,1.154,-0.177,-0.017,1.087,0.125,-0.174,0.938,-0.257,-0.270,1.108,0.143,-0.343,0.728,-0.256,-0.326,0.852,962.215,697.379,0.933,897.024,700.815,0.939,1048.004,538.433,1.154,805.140,524.777,1.087,1086.265,363.256,0.938,739.794,308.119,1.108,1146.602,92.466,0.728,673.865,176.334,0.852,-0.035,-0.966,1.402,0.000,-345.130,0.000,0.016,0.019,0.002,0.039,-0.947,1.695
0722_191641_0050.png,0.006,0.155,0.938,-0.060,0.159,0.946,0.121,-0.010,1.150,-0.174,-0.022,1.097,0.279,-0.226,1.130,-0.164,-0.246,0.947,0.351,-0.306,0.890,-0.103,-0.356,0.716,965.932,697.455,0.938,899.831,700.052,0.946,1059.725,532.125,1.150,809.544,521.093,1.097,1194.636,349.491,1.130,794.800,293.270,0.947,1334.935,212.417,0.890,823.764,66.923,0.716,-0.036,-0.959,1.401,0.000,-348.271,0.000,-0.008,0.018,0.001,-0.071,-0.914,1.346
0722_191641_0051.png,0.045,0.174,0.938,-0.023,0.171,0.933,0.164,-0.011,1.093,-0.138,0.001,1.142,0.096,-0.233,0.959,-0.159,-0.195,0.959,0.022,-0.342,0.735,-0.126,-0.343,0.745,1005.477,716.216,0.938,937.021,714.611,0.933,1102.433,530.558,1.093,845.313,540.422,1.142,1055.603,308.840,0.959,802.233,346.440,0.959,987.886,97.784,0.735,799.302,101.844,0.745,-0.029,-0.969,1.403,0.000,-8.377,0.000,-0.030,0.004,0.012,0.053,-0.811,1.497
0722_191641_0052.png,0.038,0.167,0.939,-0.026,0.165,0.935,0.150,-0.006,1.121,-0.142,-0.003,1.135,0.287,-0.239,1.088,-0.124,-0.186,0.915,0.315,-0.336,0.835,-0.108,-0.365,0.702,998.990,709.422,0.939,933.286,708.179,0.935,1087.125,535.114,1.121,840.590,537.887,1.135,1211.212,331.161,1.088,831.528,347.147,0.915,1318.116,157.653,0.835,813.108,45.168,0.702,-0.035,-0.963,1.401,0.000,-1.658,0.000,0.014,-0.008,-0.034,0.154,-0.999,1.498
0722_191641_0053.png,0.042,0.187,0.927,-0.025,0.186,0.930,0.172,0.000,1.089,-0.124,0.013,1.147,0.128,-0.244,0.968,-0.114,-0.173,0.936,-0.017,-0.348,0.768,-0.104,-0.354,0.731,1002.854,731.470,0.927,934.331,730.511,0.930,1110.016,539.644,1.089,856.823,550.669,1.147,1086.212,299.874,0.968,844.024,364.285,0.936,938.682,109.482,0.768,824.625,79.088,0.731,-0.035,-0.972,1.404,0.000,-10.141,0.000,-0.017,-0.028,-0.016,-0.286,-0.873,1.495
0722_191641_0054.png,0.030,0.170,0.933,-0.039,0.170,0.936,0.158,-0.013,1.100,-0.149,-0.004,1.137,0.148,-0.255,0.985,-0.152,-0.236,1.004,-0.012,-0.328,0.789,-0.095,-0.331,0.767,990.117,712.731,0.933,920.481,712.317,0.936,1096.709,529.186,1.100,835.719,536.728,1.137,1102.901,294.032,0.985,815.983,316.133,1.004,946.086,144.158,0.789,841.839,128.919,0.767,-0.026,-0.965,1.402,0.000,-5.959,0.000,-0.041,-0.004,0.013,-0.192,-0.878,1.410
0722_191641_0055.png,0.025,0.163,0.925,-0.041,0.164,0.926,0.140,-0.005,1.116,-0.156,-0.006,1.109,0.179,-0.240,1.007,-0.246,-0.219,1.252,0.054,-0.331,0.805,-0.255,-0.278,1.007,985.242,707.743,0.925,917.645,708.202,0.926,1079.697,536.146,1.116,826.016,534.841,1.109,1129.497,313.749,1.007,773.107,373.946,1.252,1024.150,149.187,0.805,719.219,277.255,1.007,-0.033,-0.971,1.403,0.000,-357.538,0.000,0.000,-0.003,0.046,0.013,-1.208,1.180
0722_191641_0056.png,0.009,0.164,0.942,-0.058,0.167,0.951,0.135,-0.008,1.132,-0.166,-0.010,1.122,0.181,-0.254,1.224,-0.304,-0.241,1.099,0.161,-0.286,0.961,-0.178,-0.312,0.875,968.812,705.894,0.942,902.355,707.301,0.951,1073.547,533.114,1.132,818.943,531.227,1.122,1100.423,342.985,1.224,696.834,331.181,1.099,1118.885,256.586,0.961,767.001,200.842,0.875,-0.027,-0.964,1.402,0.000,-356.998,0.000,-0.017,0.019,-0.015,-0.253,-0.830,1.353
0722_191641_0057.png,0.039,0.175,0.935,-0.027,0.174,0.936,0.166,-0.005,1.088,-0.125,0.010,1.155,0.281,-0.237,1.164,-0.207,-0.243,1.091,0.144,-0.301,0.942,-0.188,-0.328,0.836,999.564,718.289,0.935,932.140,716.644,0.936,1104.911,535.491,1.088,856.712,548.364,1.155,1189.400,346.495,1.164,779.288,328.327,1.091,1105.101,235.709,0.942,746.167,166.454,0.836,-0.026,-0.973,1.404,0.000,-12.043,0.000,-0.007,0.006,-0.026,-0.253,-0.899,1.512
0722_191641_0058.png,0.028,0.161,0.943,-0.038,0.161,0.946,0.150,-0.014,1.119,-0.151,-0.012,1.125,0.139,-0.256,1.014,-0.325,-0.210,1.079,0.101,-0.335,0.770,-0.380,-0.313,0.848,988.561,702.067,0.943,921.556,702.352,0.946,1087.434,528.274,1.119,832.749,529.613,1.125,1090.361,299.784,1.014,673.520,354.736,1.079,1084.848,125.961,0.770,533.573,188.723,0.848,-0.034,-0.966,1.402,0.000,-0.109,0.000,-0.012,0.031,0.018,-0.094,-0.835,1.294
0722_191641_0059.png,0.049,0.159,0.939,-0.017,0.156,0.934,0.167,-0.025,1.080,-0.121,-0.007,1.156,0.253,-0.256,0.975,-0.126,-0.177,0.940,0.262,-0.349,0.731,-0.130,-0.343,0.729,1009.200,701.117,0.939,942.528,698.489,0.934,1106.944,518.342,1.080,860.354,534.137,1.156,1206.518,290.349,0.975,832.499,360.454,0.940,1301.273,85.751,0.731,790.517,92.729,0.729,-0.026,-0.960,1.401,0.000,-13.984,0.000,-0.005,0.014,0.010,-0.043,-0.853,1.594
0722_191641_0060.png,0.039,0.170,0.938,-0.028,0.167,0.932,0.153,-0.007,1.112,-0.153,-0.003,1.128,0.225,-0.253,1.030,-0.311,-0.209,1.211,0.094,-0.322,0.813,-0.422,-0.277,0.984,999.904,711.927,0.938,931.069,710.601,0.932,1091.222,534.114,1.112,830.762,537.307,1.128,1167.267,306.351,1.030,715.783,375.708,1.211,1070.545,163.079,0.813,551.996,271.839,0.984,-0.031,-0.969,1.403,0.000,-1.901,0.000,-0.034,0.005,0.012,0.230,-0.989,1.253
0722_191641_0061.png,0.007,0.179,0.924,-0.059,0.183,0.934,0.133,0.003,1.134,-0.169,-0.003,1.108,0.266,-0.239,1.177,-0.270,-0.240,1.007,0.327,-0.306,0.926,-0.225,-0.349,0.768,967.064,724.100,0.924,899.572,726.254,0.934,1071.155,542.248,1.134,815.117,537.343,1.108,1174.757,346.993,1.177,705.157,313.340,1.007,1296.362,225.988,0.926,681.028,107.340,0.768,-0.031,-0.963,1.402,0.000,-353.936,0.000,-0.019,-0.042,-0.014,-0.275,-1.017,1.227
0722_191641_0062.png,-0.006,0.161,0.933,-0.071,0.166,0.941,0.105,0.009,1.156,-0.185,-0.005,1.097,0.230,-0.230,1.114,-0.331,-0.231,1.101,0.250,-0.323,0.859,-0.276,-0.325,0.851,953.725,703.871,0.933,887.836,708.013,0.941,1046.761,547.208,1.156,799.377,535.901,1.097,1156.453,343.553,1.114,674.255,340.882,1.101,1236.578,182.696,0.859,651.189,177.083,0.851,-0.027,-0.973,1.404,0.000,-347.125,0.000,0.000,0.017,-0.037,-0.086,-1.195,1.244
0722_191641_0063.png,0.034,0.162,0.929,-0.030,0.161,0.928,0.147,-0.012,1.112,-0.143,-0.010,1.121,0.221,-0.221,1.271,-0.125,-0.185,0.917,0.378,-0.272,1.074,-0.107,-0.356,0.719,994.919,705.380,0.929,928.968,704.888,0.928,1086.122,529.400,1.112,838.722,531.410,1.121,1125.640,374.633,1.271,830.398,348.226,0.917,1294.684,298.897,1.074,818.913,69.425,0.719,-0.036,-0.962,1.401,0.000,-0.818,0.000,0.021,-0.010,0.031,0.058,-1.011,1.525
0722_191641_0064.png,0.029,0.163,0.944,-0.035,0.163,0.945,0.143,-0.012,1.127,-0.145,-0.011,1.129,0.276,-0.242,1.088,-0.266,-0.247,1.085,0.254,-0.335,0.838,-0.139,-0.328,0.866,988.989,703.834,0.944,924.637,703.955,0.945,1080.680,530.129,1.127,837.515,530.723,1.129,1200.821,328.671,1.088,726.943,323.206,1.085,1248.227,159.830,0.838,807.045,180.149,0.866,-0.035,-0.961,1.401,0.000,-359.427,0.000,0.029,0.014,-0.018,-0.016,-0.958,1.082
0722_191641_0065.png,0.005,0.157,0.928,-0.063,0.161,0.935,0.125,0.004,1.148,-0.181,-0.007,1.100,0.193,-0.249,1.068,-0.238,-0.177,1.303,0.005,-0.309,0.880,-0.291,-0.258,1.051,964.715,700.539,0.928,895.436,704.200,0.935,1063.654,543.627,1.148,803.634,534.317,1.100,1131.635,318.690,1.068,785.894,410.664,1.303,965.644,205.713,0.880,696.492,306.767,1.051,-0.032,-0.969,1.403,0.000,-349.749,0.000,-0.044,0.002,-0.021,-0.087,-1.136,1.668
0722_191641_0066.png,0.027,0.172,0.943,-0.037,0.171,0.941,0.138,-0.009,1.124,-0.151,-0.008,1.129,0.127,-0.261,1.015,-0.279,-0.222,1.233,0.087,-0.358,0.768,-0.369,-0.297,0.993,987.372,713.271,0.943,922.522,712.868,0.941,1077.106,532.560,1.124,832.581,533.682,1.129,1078.936,295.718,1.015,745.055,368.830,1.233,1068.309,96.632,0.768,606.221,255.874,0.993,-0.029,-0.961,1.401,0.000,0.034,0.000,0.024,-0.005,-0.021,0.102,-0.890,1.162
0722_191641_0067.png,0.002,0.194,0.929,-0.063,0.196,0.936,0.108,0.008,1.144,-0.177,-0.006,1.083,0.183,-0.203,1.307,-0.203,-0.252,0.974,0.249,-0.277,1.066,-0.071,-0.353,0.775,961.781,738.390,0.929,896.353,739.308,0.936,1049.562,547.048,1.144,804.350,535.068,1.083,1093.439,392.398,1.307,761.818,293.714,0.974,1181.860,292.840,1.066,872.690,106.121,0.775,-0.032,-0.970,1.403,0.000,-346.376,0.000,0.017,-0.032,0.014,0.042,-0.649,1.310
0722_191641_0068.png,0.006,0.160,0.923,-0.057,0.165,0.931,0.116,0.003,1.138,-0.165,-0.006,1.096,0.213,-0.237,1.073,-0.239,-0.238,1.214,0.108,-0.335,0.859,-0.231,-0.306,0.963,965.966,704.948,0.923,902.203,708.298,0.931,1056.813,542.921,1.138,817.230,534.783,1.096,1148.649,329.804,1.073,772.854,353.771,1.214,1080.073,169.402,0.859,731.491,237.635,0.963,-0.033,-0.972,1.404,0.000,-350.219,0.000,0.045,-0.001,0.015,-0.110,-1.084,1.716
0722_191641_0069.png,0.046,0.190,0.935,-0.019,0.188,0.933,0.166,-0.001,1.094,-0.124,0.011,1.143,0.205,-0.261,1.017,-0.110,-0.175,0.933,0.083,-0.348,0.797,-0.097,-0.357,0.729,1007.221,733.198,0.935,940.856,732.068,0.933,1104.103,539.372,1.094,856.757,548.822,1.143,1151.608,295.960,1.017,848.379,361.416,0.933,1058.935,125.281,0.797,834.116,74.174,0.729,-0.035,-0.973,1.404,0.000,-8.724,0.000,0.009,-0.018,-0.012,-0.070,-0.837,1.146
0722_191641_0070.png,0.028,0.167,0.928,-0.038,0.166,0.928,0.145,-0.009,1.111,-0.152,-0.007,1.119,0.195,-0.269,1.070,-0.277,-0.211,1.250,0.012,-0.314,0.892,-0.414,-0.274,1.041,988.646,710.694,0.928,921.125,710.515,0.928,1084.040,532.636,1.111,830.584,534.152,1.119,1133.604,301.157,1.070,749.031,379.489,1.250,973.199,205.604,0.892,581.593,290.219,1.041,-0.031,-0.966,1.402,0.000,-0.312,0.000,-0.001,-0.010,0.036,0.014,-0.948,1.586
0722_191641_0071.png,0.000,0.170,0.943,-0.065,0.174,0.953,0.112,-0.002,1.157,-0.177,-0.015,1.098,0.232,-0.237,1.085,-0.170,-0.247,0.948,0.252,-0.332,0.832,-0.091,-0.366,0.717,959.516,710.989,0.943,894.894,713.197,0.953,1051.777,538.343,1.157,806.778,526.686,1.098,1163.356,332.116,1.085,789.684,291.861,0.948,1247.534,160.225,0.832,839.012,54.106,0.717,-0.034,-0.962,1.401,0.000,-347.148,0.000,0.007,0.012,-0.032,-0.084,-0.719,1.403
0722_191641_0072.png,0.043,0.171,0.937,-0.020,0.169,0.932,0.154,-0.012,1.110,-0.132,-0.006,1.135,0.180,-0.223,0.939,-0.238,-0.252,1.086,0.148,-0.371,0.720,-0.256,-0.343,0.837,1003.865,713.364,0.937,939.378,712.023,0.932,1091.756,529.966,1.110,849.533,535.042,1.135,1142.209,314.018,0.939,751.394,319.629,1.086,1154.895,50.189,0.720,669.706,150.682,0.837,-0.037,-0.959,1.401,0.000,-4.002,0.000,0.034,-0.019,-0.006,0.130,-0.863,1.581
0722_191641_0073.png,0.052,0.161,0.934,-0.013,0.157,0.930,0.169,-0.010,1.097,-0.117,0.003,1.151,0.218,-0.209,0.910,-0.235,-0.228,1.061,0.215,-0.372,0.692,-0.116,-0.335,0.848,1013.012,703.387,0.934,947.198,700.178,0.930,1106.952,531.552,1.097,863.535,542.349,1.151,1188.057,321.819,0.910,749.653,335.883,1.061,1255.052,28.971,0.692,830.060,164.317,0.848,-0.037,-0.966,1.402,0.000,-9.935,0.000,0.017,0.002,-0.028,0.009,-1.197,1.414
0722_191641_0074.png,0.042,0.182,0.919,-0.024,0.181,0.922,0.171,-0.004,1.079,-0.120,0.011,1.144,0.100,-0.186,0.889,-0.264,-0.204,1.246,0.029,-0.362,0.704,-0.307,-0.287,1.003,1003.168,728.137,0.919,934.910,726.755,0.922,1110.863,536.104,1.079,860.550,548.795,1.144,1066.992,341.326,0.889,758.773,384.564,1.246,999.655,50.724,0.704,668.966,267.487,1.003,-0.034,-0.971,1.403,0.000,-11.798,0.000,-0.005,-0.039,0.014,-0.319,-1.036,1.383
0722_191641_0075.png,0.054,0.165,0.935,-0.012,0.162,0.932,0.177,-0.013,1.089,-0.119,0.001,1.150,0.204,-0.272,1.018,-0.240,-0.240,1.135,0.191,-0.340,0.764,-0.235,-0.309,0.881,1015.429,707.826,0.935,947.431,705.609,0.932,1114.256,528.472,1.089,861.564,540.666,1.150,1150.728,285.973,1.018,758.551,338.880,1.135,1198.372,116.904,0.764,706.554,206.053,0.881,-0.038,-0.967,1.403,0.000,-10.771,0.000,-0.018,0.008,-0.001,-0.071,-1.014,1.381
0722_191641_0076.png,0.004,0.166,0.935,-0.060,0.169,0.942,0.121,0.000,1.136,-0.169,-0.006,1.112,0.203,-0.203,1.290,-0.195,-0.253,1.005,0.336,-0.269,1.072,-0.079,-0.349,0.787,963.945,708.516,0.935,899.119,710.481,0.942,1061.322,539.802,1.136,815.295,535.079,1.112,1109.827,390.388,1.290,775.059,300.221,1.005,1258.421,300.896,1.072,864.874,118.623,0.787,-0.026,-0.969,1.403,0.000,-353.976,0.000,0.019,0.010,-0.009,-0.161,-1.009,1.306
0722_191641_0077.png,0.050,0.176,0.928,-0.015,0.171,0.920,0.164,-0.012,1.073,-0.126,0.004,1.144,0.202,-0.278,1.049,-0.089,-0.171,0.949,0.040,-0.318,0.854,-0.049,-0.341,0.758,1011.165,719.928,0.928,944.026,716.969,0.920,1105.530,529.266,1.073,855.001,543.523,1.144,1142.669,287.881,1.049,871.026,368.280,0.949,1004.537,185.750,0.854,898.371,111.981,0.758,-0.026,-0.971,1.403,0.000,-12.934,0.000,-0.009,-0.014,0.039,0.120,-1.042,1.162
0722_191641_0078.png,0.004,0.163,0.930,-0.060,0.169,0.942,0.127,0.001,1.141,-0.165,-0.006,1.110,0.140,-0.228,0.987,-0.244,-0.196,1.287,0.029,-0.351,0.777,-0.278,-0.280,1.034,964.002,707.023,0.930,899.342,710.394,0.942,1065.619,540.585,1.141,818.491,534.487,1.110,1095.144,320.427,0.987,779.462,394.844,1.287,995.420,110.739,0.777,704.231,282.155,1.034,-0.034,-0.966,1.402,0.000,-352.598,0.000,0.011,-0.004,-0.024,-0.295,-0.995,1.608
0722_191641_0079.png,0.019,0.166,0.940,-0.046,0.167,0.939,0.123,-0.001,1.145,-0.166,-0.008,1.114,0.223,-0.248,1.074,-0.252,-0.255,1.028,0.105,-0.337,0.849,-0.133,-0.350,0.803,979.130,708.316,0.940,913.909,709.105,0.939,1062.199,539.101,1.145,818.442,533.059,1.114,1157.624,320.527,1.074,726.872,304.365,1.028,1077.960,162.647,0.849,802.807,124.949,0.803,-0.032,-0.963,1.401,0.000,-352.610,0.000,0.021,-0.003,-0.040,0.199,-0.961,1.468
0722_191641_0080.png,-0.009,0.163,0.922,-0.074,0.169,0.930,0.101,0.002,1.149,-0.186,-0.011,1.092,0.261,-0.217,1.116,-0.218,-0.279,1.034,0.351,-0.322,0.888,-0.196,-0.355,0.779,950.324,708.573,0.922,884.675,712.455,0.930,1043.420,541.663,1.149,797.769,530.445,1.092,1182.083,354.703,1.116,759.679,283.376,1.034,1335.324,195.330,0.888,721.241,106.701,0.779,-0.022,-0.962,1.401,0.000,-347.414,0.000,0.014,-0.031,-0.011,-0.099,-1.130,1.493
0722_191641_0081.png,0.011,0.170,0.943,-0.053,0.172,0.946,0.118,-0.007,1.147,-0.171,-0.017,1.100,0.259,-0.210,1.039,-0.264,-0.203,0.925,0.347,-0.333,0.822,-0.299,-0.362,0.714,971.586,711.774,0.943,906.302,712.735,0.946,1057.678,534.529,1.147,811.994,525.067,1.100,1197.285,347.503,1.039,688.595,330.978,0.925,1361.750,154.831,0.822,561.634,58.341,0.714,-0.033,-0.961,1.401,0.000,-349.461,0.000,0.013,0.006,-0.004,0.131,-0.701,1.383
0722_191641_0082.png,0.002,0.188,0.929,-0.064,0.191,0.936,0.116,0.009,1.141,-0.179,-0.003,1.087,0.104,-0.171,0.936,-0.277,-0.185,1.267,0.091,-0.346,0.735,-0.262,-0.276,1.025,961.734,732.412,0.929,894.667,733.822,0.936,1056.504,547.628,1.141,803.058,537.289,1.087,1066.130,366.018,0.936,751.866,401.210,1.267,1078.239,91.953,0.735,717.429,283.790,1.025,-0.030,-0.974,1.404,0.000,-348.332,0.000,-0.011,-0.016,0.018,-0.043,-0.798,1.142
0722_191641_0083.png,0.000,0.165,0.934,-0.063,0.170,0.945,0.121,0.000,1.135,-0.165,-0.004,1.117,0.264,-0.219,1.071,-0.283,-0.213,1.233,0.306,-0.337,0.833,-0.396,-0.293,1.007,960.077,708.395,0.934,896.804,710.791,0.945,1061.652,539.906,1.135,819.223,536.568,1.117,1194.754,345.134,1.071,741.508,375.391,1.233,1309.695,154.943,0.833,585.659,263.468,1.007,-0.024,-0.969,1.403,0.000,-355.334,0.000,0.033,0.009,-0.020,-0.310,-0.986,1.409
0722_191641_0084.png,0.025,0.163,0.940,-0.043,0.162,0.936,0.136,-0.008,1.126,-0.170,-0.011,1.115,0.226,-0.199,1.292,-0.284,-0.210,1.255,0.199,-0.259,1.041,-0.413,-0.263,1.032,985.607,704.763,0.940,916.780,704.229,0.936,1075.019,533.003,1.126,814.671,530.822,1.115,1126.404,393.513,1.292,744.769,380.602,1.255,1142.269,303.485,1.041,579.461,297.516,1.032,-0.025,-0.966,1.402,0.000,-356.761,0.000,-0.034,0.015,0.016,0.262,-0.900,1.524
0722_191641_0085.png,0.007,0.153,0.925,-0.060,0.158,0.932,0.128,0.000,1.138,-0.174,-0.010,1.095,0.226,-0.212,1.271,-0.215,-0.251,0.992,0.393,-0.253,1.075,-0.058,-0.325,0.799,966.986,697.531,0.925,898.801,700.961,0.932,1066.880,539.831,1.138,809.049,531.222,1.095,1129.353,381.268,1.271,753.988,299.265,0.992,1307.401,316.455,1.075,890.954,152.745,0.799,-0.034,-0.972,1.404,0.000,-350.489,0.000,-0.027,0.013,0.027,-0.141,-1.232,1.407
0722_191641_0086.png,0.053,0.149,0.946,-0.012,0.145,0.942,0.172,-0.024,1.091,-0.111,-0.008,1.161,0.163,-0.277,1.153,-0.260,-0.204,1.047,0.145,-0.313,0.890,-0.272,-0.334,0.812,1013.369,689.362,0.946,948.133,686.420,0.942,1110.240,519.247,1.091,868.990,533.641,1.161,1094.823,311.386,1.153,723.595,354.202,1.047,1114.906,205.640,0.890,640.958,148.387,0.812,-0.034,-0.962,1.401,0.000,-13.016,0.000,0.015,0.041,-0.020,-0.114,-1.090,1.209
0722_191641_0087.png,0.008,0.187,0.928,-0.057,0.190,0.935,0.129,0.002,1.125,-0.165,0.000,1.113,0.076,-0.176,0.918,-0.315,-0.225,1.171,0.025,-0.351,0.717,-0.395,-0.311,0.934,968.251,732.141,0.928,902.296,733.148,0.935,1069.268,542.099,1.125,819.278,539.673,1.113,1039.124,357.475,0.918,703.743,357.331,1.171,993.661,74.171,0.717,557.504,223.527,0.934,-0.026,-0.966,1.402,0.000,-356.334,0.000,0.009,-0.039,-0.003,-0.220,-0.856,1.182
0722_191641_0088.png,0.041,0.169,0.928,-0.028,0.168,0.931,0.173,-0.011,1.082,-0.130,0.005,1.152,0.216,-0.276,1.040,-0.252,-0.227,1.079,0.050,-0.316,0.836,-0.108,-0.308,0.866,1002.240,713.420,0.928,931.760,711.900,0.931,1112.382,530.189,1.082,852.684,543.982,1.152,1157.669,287.325,1.040,737.992,339.639,1.079,1017.103,180.158,0.836,841.236,201.983,0.866,-0.028,-0.969,1.403,0.000,-12.069,0.000,-0.050,-0.005,0.001,-0.271,-0.929,1.646
0722_191641_0089.png,0.023,0.173,0.922,-0.042,0.175,0.924,0.134,0.004,1.128,-0.158,-0.001,1.105,0.207,-0.261,1.138,-0.221,-0.220,0.962,0.224,-0.325,0.885,-0.189,-0.360,0.743,983.484,718.613,0.922,916.750,719.767,0.924,1072.743,543.767,1.128,824.239,539.408,1.105,1132.606,321.888,1.138,741.365,322.072,0.962,1200.234,190.358,0.885,718.271,79.449,0.743,-0.036,-0.970,1.403,0.000,-354.313,0.000,0.015,-0.031,0.009,0.054,-1.204,1.229
0722_191641_0090.png,0.045,0.164,0.930,-0.022,0.162,0.931,0.175,-0.014,1.087,-0.119,0.003,1.159,0.166,-0.278,1.003,-0.245,-0.193,1.003,-0.017,-0.338,0.811,-0.316,-0.342,0.785,1005.878,707.976,0.930,937.139,705.726,0.931,1113.016,528.160,1.087,862.165,542.451,1.159,1116.913,276.584,1.003,728.019,356.762,1.003,940.377,143.964,0.811,576.756,125.924,0.785,-0.031,-0.961,1.401,0.000,-12.907,0.000,-0.021,-0.016,-0.035,-0.264,-1.057,1.585
0722_191641_0091.png,0.051,0.185,0.932,-0.015,0.183,0.928,0.168,-0.012,1.074,-0.121,0.004,1.144,0.225,-0.219,1.245,-0.195,-0.220,1.027,0.357,-0.278,1.030,-0.078,-0.329,0.824,1011.597,728.817,0.932,944.686,727.731,0.928,1109.044,529.217,1.074,859.783,543.171,1.144,1131.717,372.770,1.245,779.854,336.021,1.027,1289.629,283.343,1.030,870.162,160.722,0.824,-0.031,-0.970,1.403,0.000,-12.713,0.000,-0.002,-0.014,0.039,-0.036,-0.679,1.436
0722_191641_0092.png,0.007,0.160,0.936,-0.060,0.163,0.940,0.118,-0.001,1.148,-0.178,-0.012,1.097,0.179,-0.228,1.017,-0.280,-0.211,1.242,0.069,-0.332,0.799,-0.374,-0.276,1.003,966.891,702.452,0.936,899.762,704.689,0.940,1057.447,539.544,1.148,805.554,529.496,1.097,1127.141,326.437,1.017,745.452,378.743,1.242,1041.658,144.878,0.799,605.376,278.481,1.003,-0.031,-0.969,1.403,0.000,-348.923,0.000,-0.012,0.021,-0.003,0.063,-1.039,1.270
0722_191641_0093.png,0.003,0.156,0.939,-0.061,0.158,0.943,0.114,-0.011,1.138,-0.175,-0.018,1.106,0.135,-0.247,1.018,-0.279,-0.208,1.258,-0.002,-0.335,0.817,-0.341,-0.278,1.016,963.416,697.976,0.939,898.421,699.285,0.943,1055.004,530.726,1.138,809.062,524.139,1.106,1086.159,309.517,1.018,748.858,382.607,1.258,957.863,149.725,0.817,641.085,279.980,1.016,-0.022,-0.963,1.401,0.000,-352.357,0.000,0.020,0.023,0.018,0.027,-0.962,1.225
0722_191641_0094.png,0.015,0.171,0.920,-0.049,0.174,0.924,0.123,0.007,1.133,-0.162,-0.002,1.094,0.059,-0.167,0.934,-0.327,-0.202,1.032,-0.004,-0.336,0.742,-0.447,-0.334,0.847,975.160,717.229,0.920,909.755,719.404,0.924,1062.967,545.497,1.133,819.157,537.951,1.094,1019.633,370.558,0.934,658.511,353.628,1.032,955.196,109.473,0.742,458.465,165.299,0.847,-0.036,-0.973,1.404,0.000,-350.876,0.000,0.032,-0.021,0.026,0.010,-1.110,1.463
0722_191641_0095.png,0.028,0.170,0.941,-0.036,0.171,0.942,0.139,-0.005,1.126,-0.150,-0.007,1.117,0.185,-0.199,1.302,-0.278,-0.193,1.255,0.243,-0.271,1.059,-0.451,-0.268,1.076,987.966,712.152,0.941,923.248,712.456,0.942,1077.544,535.893,1.126,832.468,534.013,1.117,1095.317,395.051,1.302,748.932,393.349,1.255,1178.379,296.690,1.059,561.808,303.162,1.076,-0.037,-0.970,1.403,0.000,-356.910,0.000,0.026,0.018,0.009,0.053,-0.858,1.190
0722_191641_0096.png,0.044,0.166,0.929,-0.023,0.164,0.926,0.161,-0.015,1.100,-0.136,-0.007,1.133,0.229,-0.280,1.113,-0.276,-0.226,1.224,0.053,-0.307,0.922,-0.350,-0.288,0.985,1004.667,709.657,0.929,936.753,708.235,0.926,1099.530,527.030,1.100,845.662,533.810,1.133,1155.555,300.512,1.113,745.574,364.412,1.224,1014.563,223.584,0.922,621.891,261.537,0.985,-0.036,-0.960,1.401,0.000,-5.355,0.000,-0.009,-0.023,0.024,0.051,-1.056,1.329
0722_191641_0097.png,0.043,0.188,0.933,-0.022,0.186,0.927,0.152,0.000,1.113,-0.140,0.004,1.128,0.166,-0.272,1.184,-0.258,-0.225,1.030,0.139,-0.319,0.921,-0.213,-0.350,0.798,1003.593,732.045,0.933,937.614,730.962,0.927,1089.916,540.161,1.113,841.787,543.193,1.128,1093.701,321.643,1.184,721.604,332.566,1.030,1103.494,210.373,0.921,706.702,122.801,0.798,-0.036,-0.965,1.402,0.000,-1.975,0.000,0.014,-0.043,-0.015,0.229,-0.851,1.424
0722_191641_0098.png,0.043,0.153,0.928,-0.020,0.150,0.925,0.157,-0.014,1.099,-0.129,-0.006,1.133,0.132,-0.190,0.901,-0.281,-0.217,1.081,0.108,-0.362,0.708,-0.239,-0.328,0.855,1004.382,696.614,0.928,939.087,694.363,0.925,1095.456,527.556,1.099,851.591,534.607,1.133,1099.113,339.179,0.901,713.097,349.116,1.081,1104.438,53.849,0.708,694.662,174.908,0.855,-0.036,-0.965,1.402,0.000,-5.912,0.000,0.030,0.002,0.030,0.075,-1.260,1.403
0722_191641_0099.png,0.035,0.175,0.944,-0.033,0.175,0.945,0.160,-0.008,1.108,-0.143,0.000,1.141,0.250,-0.212,1.256,-0.222,-0.249,1.064,0.166,-0.272,1.010,-0.211,-0.328,0.810,994.818,716.429,0.944,926.823,716.066,0.945,1097.085,533.324,1.108,840.655,539.756,1.141,1149.626,379.218,1.256,761.462,317.866,1.064,1115.972,283.594,1.010,712.340,154.371,0.810,-0.031,-0.969,1.403,0.000,-5.125,0.000,-0.026,0.013,-0.015,-0.150,-0.787,1.235
0722_191641_0100.png,0.014,0.173,0.932,-0.052,0.175,0.936,0.130,0.001,1.133,-0.167,-0.004,1.110,0.143,-0.179,0.921,-0.282,-0.240,1.037,0.156,-0.354,0.714,-0.196,-0.336,0.806,974.047,716.109,0.932,907.028,717.306,0.936,1069.301,540.487,1.133,817.021,536.164,1.110,1108.095,355.046,0.921,701.158,320.220,1.037,1168.027,68.469,0.714,728.289,143.392,0.806,-0.030,-0.968,1.403,0.000,-354.480,0.000,-0.004,-0.009,-0.004,-0.037,-0.968,1.309
0722_191641_0101.png,0.051,0.179,0.925,-0.015,0.176,0.921,0.169,-0.004,1.084,-0.126,0.008,1.136,0.224,-0.252,1.191,-0.175,-0.166,0.937,0.270,-0.299,0.942,-0.220,-0.336,0.743,1012.595,723.651,0.925,944.629,721.476,0.921,1108.107,536.321,1.084,854.635,546.577,1.136,1139.242,338.828,1.191,782.302,371.393,0.937,1232.608,238.373,0.942,677.843,110.282,0.743,-0.036,-0.975,1.404,0.000,-9.175,0.000,-0.009,-0.018,0.033,0.049,-1.104,1.156
0722_191641_0102.png,-0.009,0.163,0.934,-0.071,0.168,0.945,0.101,0.004,1.151,-0.178,-0.008,1.096,0.225,-0.204,1.255,-0.145,-0.193,0.887,0.400,-0.275,1.071,-0.116,-0.374,0.683,951.341,705.616,0.934,888.579,709.253,0.945,1043.381,543.512,1.151,805.343,532.865,1.096,1130.587,385.403,1.255,804.752,333.288,0.887,1315.072,295.477,1.071,798.586,20.001,0.683,-0.027,-0.972,1.403,0.000,-347.546,0.000,0.041,0.020,-0.016,-0.154,-0.976,1.460
0722_191641_0103.png,-0.003,0.175,0.945,-0.066,0.177,0.953,0.108,0.002,1.147,-0.178,-0.009,1.099,0.157,-0.259,1.144,-0.188,-0.254,0.990,0.118,-0.315,0.890,-0.085,-0.352,0.767,957.398,715.626,0.945,893.655,717.055,0.953,1049.481,541.327,1.147,806.350,531.981,1.099,1090.777,324.900,1.144,779.618,295.929,0.990,1085.534,203.574,0.890,854.045,103.278,0.767,-0.026,-0.973,1.404,0.000,-349.181,0.000,0.024,0.030,-0.005,-0.052,-0.703,1.189
0722_191641_0104.png,0.020,0.152,0.932,-0.048,0.153,0.934,0.141,-0.011,1.122,-0.166,-0.011,1.120,0.271,-0.236,1.194,-0.200,-0.276,1.103,0.344,-0.285,0.949,-0.143,-0.309,0.852,980.662,695.177,0.932,911.525,695.525,0.934,1079.060,530.859,1.122,819.337,530.347,1.120,1176.147,352.174,1.194,787.105,302.355,1.103,1304.599,254.153,0.949,800.315,195.045,0.852,-0.026,-0.964,1.402,0.000,-358.345,0.000,-0.031,0.012,0.017,-0.001,-1.099,1.557
0722_191641_0105.png,0.000,0.171,0.931,-0.063,0.175,0.937,0.106,0.007,1.145,-0.175,-0.005,1.094,0.220,-0.169,0.963,-0.229,-0.269,1.091,0.334,-0.341,0.788,-0.205,-0.338,0.838,959.878,715.152,0.931,895.838,717.561,0.937,1047.770,545.430,1.145,807.577,535.674,1.094,1177.336,373.122,0.963,760.464,305.759,1.091,1362.652,129.204,0.788,727.878,156.203,0.838,-0.028,-0.973,1.404,0.000,-348.463,0.000,0.038,0.004,-0.001,-0.004,-0.932,1.477
0722_191641_0106.png,0.040,0.182,0.941,-0.025,0.178,0.932,0.152,-0.002,1.103,-0.137,0.008,1.148,0.284,-0.202,1.236,-0.205,-0.203,0.974,0.233,-0.302,0.985,-0.224,-0.361,0.749,1000.469,723.664,0.941,935.002,721.182,0.932,1091.278,538.233,1.103,846.802,546.929,1.148,1178.207,384.595,1.236,759.983,341.868,0.974,1184.747,248.593,0.985,675.810,80.907,0.749,-0.023,-0.968,1.403,0.000,-7.970,0.000,0.014,-0.016,-0.043,0.163,-0.980,1.215
0722_191641_0107.png,0.024,0.159,0.931,-0.043,0.160,0.935,0.151,-0.002,1.116,-0.153,0.000,1.126,0.250,-0.189,1.279,-0.237,-0.180,0.940,0.322,-0.263,1.037,-0.275,-0.344,0.737,984.481,702.343,0.931,915.937,703.084,0.935,1088.599,538.520,1.116,830.491,540.399,1.126,1145.556,399.478,1.279,720.704,358.421,0.940,1254.820,298.475,1.037,604.844,96.098,0.737,-0.032,-0.975,1.404,0.000,-0.684,0.000,-0.025,0.020,0.005,-0.188,-1.156,1.466
0722_191641_0108.png,0.054,0.154,0.942,-0.010,0.149,0.935,0.166,-0.020,1.098,-0.118,-0.008,1.150,0.164,-0.258,0.969,-0.244,-0.232,1.217,0.138,-0.364,0.727,-0.234,-0.298,0.961,1014.432,694.933,0.942,950.039,691.651,0.935,1103.573,522.918,1.098,862.185,533.656,1.150,1120.619,286.915,0.969,769.277,358.972,1.217,1140.803,64.130,0.727,728.691,244.645,0.961,-0.036,-0.961,1.401,0.000,-9.551,0.000,0.026,0.020,-0.010,0.132,-1.065,1.419
0722_191641_0109.png,-0.002,0.167,0.934,-0.068,0.172,0.944,0.114,-0.001,1.154,-0.181,-0.016,1.087,0.236,-0.213,1.037,-0.322,-0.247,1.064,0.287,-0.329,0.806,-0.366,-0.326,0.815,958.100,710.198,0.934,891.570,712.999,0.944,1054.042,539.389,1.154,801.783,525.968,1.087,1176.816,344.845,1.037,671.934,319.178,1.064,1299.165,151.434,0.806,533.285,159.570,0.815,-0.035,-0.964,1.402,0.000,-345.790,0.000,-0.020,0.003,-0.002,-0.101,-0.759,1.671
0722_191641_0110.png,0.001,0.164,0.925,-0.062,0.168,0.932,0.112,-0.002,1.137,-0.172,-0.010,1.100,0.235,-0.217,1.248,-0.193,-0.245,0.970,0.399,-0.283,1.058,-0.074,-0.358,0.767,961.141,708.691,0.925,896.589,711.111,0.932,1053.576,538.503,1.137,810.995,531.131,1.100,1139.287,374.342,1.248,771.098,299.425,0.970,1319.110,285.692,1.058,867.783,95.957,0.767,-0.025,-0.964,1.402,0.000,-351.251,0.000,0.034,-0.017,0.009,-0.081,-1.014,1.587
0722_191641_0111.png,0.018,0.182,0.930,-0.048,0.183,0.930,0.122,0.006,1.137,-0.169,-0.004,1.090,0.251,-0.223,1.086,-0.219,-0.271,1.108,0.211,-0.325,0.852,-0.194,-0.324,0.857,978.106,725.805,0.930,911.415,726.753,0.930,1061.643,545.316,1.137,812.680,536.085,1.090,1179.559,344.647,1.086,771.592,307.436,1.108,1195.704,177.438,0.852,744.706,179.840,0.857,-0.036,-0.974,1.404,0.000,-349.362,0.000,0.008,-0.012,0.024,0.219,-0.852,1.342
0722_191641_0112.png,0.037,0.172,0.926,-0.026,0.170,0.924,0.154,-0.001,1.100,-0.130,0.008,1.138,0.221,-0.255,1.025,-0.267,-0.213,1.063,0.229,-0.356,0.780,-0.323,-0.341,0.837,998.214,716.767,0.926,932.909,714.879,0.924,1093.108,539.271,1.100,851.455,546.794,1.138,1165.128,303.756,1.025,720.797,349.242,1.063,1239.750,105.310,0.780,592.770,152.623,0.837,-0.031,-0.972,1.403,0.000,-6.864,0.000,0.035,-0.020,-0.008,-0.032,-1.140,1.493
0722_191641_0113.png,0.031,0.173,0.930,-0.035,0.173,0.933,0.156,-0.005,1.115,-0.146,-0.001,1.132,0.235,-0.224,0.967,-0.246,-0.199,1.299,0.265,-0.355,0.734,-0.283,-0.274,1.043,992.120,716.662,0.930,923.804,716.697,0.933,1092.844,535.727,1.115,837.482,538.953,1.132,1191.195,319.452,0.967,779.594,394.275,1.299,1303.357,79.337,0.734,701.586,289.954,1.043,-0.035,-0.962,1.401,0.000,-2.018,0.000,-0.017,-0.028,-0.020,-0.130,-1.009,1.388
0722_191641_0114.png,0.029,0.158,0.933,-0.038,0.159,0.935,0.149,0.001,1.123,-0.151,0.003,1.131,0.136,-0.237,0.986,-0.312,-0.203,1.050,-0.016,-0.340,0.789,-0.409,-0.326,0.830,989.202,701.382,0.933,921.460,701.367,0.935,1086.141,540.998,1.123,832.903,542.611,1.131,1090.932,311.078,0.986,677.070,356.421,1.050,940.685,129.823,0.789,491.076,166.719,0.830,-0.033,-0.973,1.404,0.000,-0.470,0.000,-0.011,0.014,-0.028,-0.037,-1.176,1.620
0722_191641_0115.png,0.040,0.174,0.939,-0.026,0.175,0.941,0.163,-0.009,1.103,-0.133,-0.002,1.134,0.184,-0.186,1.302,-0.223,-0.239,1.052,0.230,-0.262,1.058,-0.060,-0.319,0.862,1000.879,716.712,0.939,933.988,716.453,0.941,1100.933,532.305,1.103,848.339,538.531,1.134,1094.031,404.378,1.302,758.552,323.592,1.052,1166.706,304.462,1.058,893.883,188.028,0.862,-0.039,-0.970,1.403,0.000,-4.989,0.000,-0.005,0.012,0.016,-0.145,-0.740,1.423
0722_191641_0116.png,-0.004,0.174,0.925,-0.066,0.179,0.937,0.109,0.005,1.141,-0.170,-0.005,1.095,0.151,-0.174,0.934,-0.152,-0.201,0.907,0.194,-0.349,0.734,-0.101,-0.375,0.715,955.518,718.373,0.925,892.834,721.445,0.937,1051.134,544.174,1.141,811.988,535.239,1.095,1114.047,363.220,0.934,800.300,329.637,0.907,1211.958,87.803,0.734,826.283,41.024,0.715,-0.030,-0.970,1.403,0.000,-349.324,0.000,0.045,-0.014,0.005,-0.247,-0.920,1.504
0722_191641_0117.png,0.063,0.171,0.938,-0.005,0.168,0.932,0.183,-0.015,1.077,-0.117,0.002,1.153,0.110,-0.248,0.970,-0.284,-0.210,1.183,-0.014,-0.332,0.757,-0.305,-0.285,0.935,1023.999,713.518,0.938,955.263,711.244,0.932,1121.154,526.481,1.077,863.707,541.622,1.153,1068.220,296.676,0.970,731.683,371.470,1.183,942.489,123.678,0.757,649.922,249.893,0.935,-0.037,-0.970,1.403,0.000,-13.287,0.000,-0.041,0.013,0.017,0.025,-0.762,1.662
0722_191641_0118.png,0.030,0.187,0.930,-0.034,0.188,0.935,0.153,0.002,1.106,-0.134,0.007,1.132,0.267,-0.237,1.041,-0.281,-0.183,1.258,0.324,-0.347,0.808,-0.397,-0.288,1.046,990.585,731.489,0.930,925.568,731.535,0.935,1091.432,541.383,1.106,847.082,546.242,1.132,1203.525,323.840,1.041,747.665,401.364,1.258,1341.330,131.493,0.808,598.593,278.224,1.046,-0.035,-0.972,1.404,0.000,-3.995,0.000,0.029,-0.023,-0.006,-0.260,-0.869,1.213
0722_191641_0119.png,0.053,0.165,0.942,-0.013,0.160,0.930,0.165,-0.018,1.090,-0.136,-0.003,1.152,0.166,-0.263,1.202,-0.209,-0.213,0.995,0.145,-0.288,0.940,-0.150,-0.338,0.767,1013.645,706.768,0.942,946.215,703.048,0.930,1103.971,524.622,1.090,848.058,537.250,1.152,1091.614,331.793,1.202,760.440,336.742,0.995,1106.467,248.025,0.940,774.383,121.591,0.767,-0.024,-0.962,1.401,0.000,-10.814,0.000,-0.035,0.002,-0.006,0.290,-0.989,1.341
0722_191641_0120.png,-0.005,0.163,0.936,-0.073,0.167,0.945,0.120,-0.003,1.145,-0.187,-0.013,1.101,0.245,-0.203,1.010,-0.314,-0.240,1.172,0.307,-0.327,0.784,-0.186,-0.284,0.944,954.793,705.379,0.936,886.688,707.972,0.945,1059.900,537.695,1.145,798.910,528.870,1.101,1190.730,348.362,1.010,705.457,345.328,1.172,1332.975,143.806,0.784,772.187,253.951,0.944,-0.025,-0.966,1.402,0.000,-350.458,0.000,-0.045,0.014,-0.003,-0.180,-0.819,1.678
0722_191641_0121.png,0.020,0.171,0.934,-0.046,0.173,0.939,0.138,-0.004,1.133,-0.160,-0.008,1.115,0.256,-0.247,1.085,-0.327,-0.209,1.196,0.161,-0.328,0.850,-0.283,-0.301,0.949,980.334,713.970,0.934,913.415,715.029,0.939,1075.732,536.293,1.133,823.729,532.842,1.115,1184.742,323.977,1.085,699.533,373.866,1.196,1140.491,173.264,0.850,676.903,238.020,0.949,-0.035,-0.962,1.401,0.000,-355.412,0.000,-0.004,-0.014,-0.013,-0.056,-0.889,1.427
0722_191641_0122.png,0.062,0.180,0.940,-0.002,0.176,0.929,0.171,-0.012,1.089,-0.113,0.002,1.149,0.154,-0.249,0.955,-0.242,-0.223,1.232,0.122,-0.370,0.720,-0.245,-0.300,0.978,1022.430,722.310,0.940,957.930,719.747,0.929,1109.514,529.899,1.089,866.234,541.793,1.149,1113.361,291.763,0.955,772.848,367.711,1.232,1121.322,51.856,0.720,721.331,248.597,0.978,-0.038,-0.964,1.402,0.000,-10.992,0.000,0.020,-0.019,-0.009,0.223,-0.818,1.429
0722_191641_0123.png,0.001,0.150,0.937,-0.064,0.154,0.943,0.113,-0.005,1.148,-0.179,-0.016,1.098,0.088,-0.192,0.953,-0.246,-0.248,0.984,0.020,-0.348,0.751,-0.147,-0.343,0.761,961.514,692.735,0.937,895.673,695.543,0.943,1053.571,536.072,1.148,805.322,525.988,1.098,1047.396,348.800,0.953,722.160,300.362,0.984,985.156,99.507,0.751,775.851,110.776,0.761,-0.029,-0.968,1.402,0.000,-348.894,0.000,0.003,0.034,0.004,-0.011,-1.003,1.562
0722_191641_0124.png,0.026,0.196,0.935,-0.039,0.195,0.934,0.139,0.008,1.120,-0.153,0.009,1.124,0.090,-0.177,0.910,-0.284,-0.201,1.247,0.045,-0.359,0.707,-0.457,-0.283,1.064,986.554,739.209,0.935,920.625,739.036,0.934,1078.195,546.419,1.120,830.493,547.203,1.124,1054.191,354.674,0.910,743.807,386.511,1.247,1020.162,56.733,0.707,551.386,287.511,1.064,-0.029,-0.972,1.404,0.000,0.339,0.000,0.016,-0.033,-0.023,0.070,-0.821,1.122
0722_191641_0125.png,0.001,0.163,0.934,-0.063,0.167,0.940,0.108,0.006,1.150,-0.178,-0.006,1.097,0.211,-0.216,1.253,-0.267,-0.254,1.045,0.243,-0.287,0.997,-0.130,-0.334,0.830,961.329,705.539,0.934,896.088,708.489,0.940,1049.625,545.286,1.150,805.507,534.984,1.097,1120.198,376.281,1.253,717.036,309.047,1.045,1191.627,266.558,0.997,810.677,157.127,0.830,-0.029,-0.974,1.404,0.000,-348.085,0.000,0.017,0.020,-0.018,0.022,-1.077,1.365
0722_191641_0126.png,0.026,0.180,0.923,-0.039,0.182,0.928,0.150,0.001,1.107,-0.140,0.006,1.128,0.181,-0.247,0.996,-0.273,-0.232,1.107,0.066,-0.353,0.786,-0.141,-0.327,0.901,986.494,725.922,0.923,920.519,726.141,0.928,1088.976,541.052,1.107,842.122,545.236,1.128,1132.963,304.469,0.996,725.498,340.827,1.107,1039.717,112.396,0.786,811.003,195.382,0.901,-0.033,-0.970,1.403,0.000,-3.219,0.000,0.021,-0.034,0.000,-0.257,-1.024,1.365
0722_191641_0127.png,0.001,0.168,0.927,-0.063,0.171,0.933,0.105,-0.005,1.147,-0.177,-0.020,1.081,0.225,-0.205,1.021,-0.335,-0.240,1.094,0.296,-0.337,0.813,-0.335,-0.329,0.854,960.784,712.211,0.927,895.551,714.424,0.933,1047.302,535.756,1.147,803.845,522.143,1.081,1170.020,349.040,1.021,668.633,331.206,1.094,1305.842,145.545,0.813,586.417,173.087,0.854,-0.032,-0.960,1.401,0.000,-345.355,0.000,0.021,-0.020,0.029,0.036,-0.880,1.376
0722_191641_0128.png,0.006,0.160,0.941,-0.062,0.164,0.947,0.125,-0.003,1.147,-0.179,-0.012,1.108,0.068,-0.177,0.933,-0.247,-0.262,1.025,0.011,-0.345,0.723,-0.083,-0.323,0.820,965.834,702.170,0.941,897.826,704.223,0.947,1063.837,537.168,1.147,806.261,529.358,1.108,1028.930,359.778,0.933,730.841,297.021,1.025,974.343,86.714,0.723,864.311,165.760,0.820,-0.029,-0.965,1.402,0.000,-351.322,0.000,-0.034,0.022,-0.021,-0.052,-0.860,1.592
0722_191641_0129.png,0.044,0.188,0.930,-0.024,0.186,0.928,0.167,-0.002,1.088,-0.135,0.011,1.143,0.298,-0.238,1.151,-0.191,-0.241,1.054,0.385,-0.301,0.908,-0.161,-0.328,0.807,1005.328,732.090,0.930,935.792,730.704,0.928,1106.388,538.370,1.088,847.779,548.950,1.143,1205.940,343.104,1.151,788.170,322.719,1.054,1363.243,224.920,0.908,770.311,153.181,0.807,-0.030,-0.973,1.404,0.000,-9.385,0.000,-0.036,-0.023,0.003,-0.050,-0.837,1.403
0722_191641_0130.png,0.055,0.187,0.931,-0.012,0.183,0.924,0.173,-0.003,1.079,-0.121,0.014,1.155,0.264,-0.222,1.225,-0.173,-0.193,0.977,0.393,-0.286,0.997,-0.147,-0.350,0.758,1015.910,731.367,0.931,947.667,728.336,0.924,1112.325,537.056,1.079,860.568,551.608,1.155,1164.780,367.310,1.225,791.413,352.587,0.977,1334.501,266.792,0.997,775.814,101.558,0.758,-0.028,-0.971,1.403,0.000,-13.681,0.000,-0.023,-0.030,-0.023,0.058,-0.915,1.426
0722_191641_0131.png,0.030,0.190,0.935,-0.034,0.190,0.936,0.149,-0.001,1.106,-0.138,0.005,1.133,0.276,-0.240,1.084,-0.273,-0.217,1.214,0.272,-0.340,0.839,-0.313,-0.306,0.968,990.116,733.158,0.935,925.179,732.912,0.936,1087.784,539.179,1.106,843.885,544.459,1.133,1201.868,329.181,1.084,746.260,369.708,1.214,1268.484,154.685,0.839,652.670,239.524,0.968,-0.030,-0.970,1.403,0.000,-4.397,0.000,0.029,-0.023,-0.004,-0.134,-0.720,1.350
0722_191641_0132.png,0.034,0.164,0.953,-0.032,0.161,0.947,0.147,-0.016,1.111,-0.151,-0.009,1.140,0.241,-0.223,0.967,-0.174,-0.227,0.983,0.277,-0.345,0.736,-0.065,-0.339,0.771,993.505,703.395,0.953,927.428,702.124,0.947,1085.603,526.385,1.111,833.970,532.290,1.140,1197.045,320.600,0.967,791.687,320.832,0.983,1318.185,93.930,0.736,879.666,121.754,0.771,-0.022,-0.965,1.402,0.000,-4.533,0.000,-0.008,0.038,0.000,0.156,-0.733,1.405
0722_191641_0133.png,0.055,0.180,0.931,-0.010,0.175,0.923,0.170,-0.006,1.082,-0.120,0.010,1.151,0.097,-0.198,0.900,-0.299,-0.187,1.094,-0.018,-0.360,0.721,-0.422,-0.313,0.895,1016.367,723.403,0.931,949.565,719.910,0.923,1109.219,535.149,1.082,861.168,548.490,1.151,1062.289,330.860,0.900,699.923,377.162,1.094,936.125,64.544,0.721,511.649,207.130,0.895,-0.031,-0.971,1.403,0.000,-12.523,0.000,-0.003,-0.021,-0.008,0.127,-1.030,1.361
0722_191641_0134.png,0.020,0.171,0.927,-0.042,0.172,0.931,0.139,-0.001,1.111,-0.143,0.003,1.128,0.234,-0.249,1.060,-0.225,-0.245,1.055,0.249,-0.348,0.817,-0.237,-0.351,0.815,980.800,715.357,0.927,916.708,715.501,0.931,1079.155,539.114,1.111,839.175,542.521,1.128,1169.561,316.603,1.060,757.403,319.477,1.055,1250.238,134.517,0.817,683.305,129.732,0.815,-0.027,-0.971,1.403,0.000,-2.467,0.000,0.047,-0.013,0.001,-0.198,-1.129,1.280
0722_191641_0135.png,0.000,0.184,0.927,-0.066,0.189,0.935,0.108,0.016,1.152,-0.181,0.001,1.087,0.136,-0.229,1.027,-0.200,-0.272,1.049,-0.012,-0.339,0.834,-0.154,-0.346,0.794,959.726,729.078,0.927,893.304,731.920,0.935,1048.983,553.331,1.152,801.644,541.114,1.087,1085.553,327.637,1.027,779.157,293.591,1.049,945.831,154.053,0.834,775.396,125.370,0.794,-0.033,-0.975,1.404,0.000,-345.878,0.000,0.002,-0.021,-0.025,-0.008,-0.917,1.415
0722_191641_0136.png,0.001,0.171,0.936,-0.062,0.173,0.940,0.105,-0.001,1.144,-0.176,-0.011,1.100,0.100,-0.184,0.938,-0.154,-0.249,0.971,0.098,-0.363,0.737,-0.055,-0.364,0.754,961.454,713.539,0.936,897.564,715.023,0.940,1047.064,539.520,1.144,807.552,530.751,1.100,1061.351,353.884,0.938,809.026,296.031,0.971,1086.483,71.513,0.737,890.371,80.583,0.754,-0.024,-0.965,1.402,0.000,-349.695,0.000,0.041,-0.002,-0.008,0.086,-0.818,1.534
0722_191641_0137.png,0.059,0.187,0.928,-0.007,0.183,0.922,0.177,-0.005,1.071,-0.113,0.013,1.151,0.158,-0.234,0.929,-0.260,-0.214,1.118,0.124,-0.361,0.703,-0.149,-0.310,0.900,1020.685,731.419,0.928,953.004,728.770,0.922,1116.735,535.478,1.071,866.433,550.886,1.151,1121.802,300.590,0.929,738.776,358.188,1.118,1127.686,52.298,0.703,802.410,211.941,0.900,-0.034,-0.974,1.404,0.000,-14.547,0.000,-0.014,-0.023,0.010,0.033,-0.828,1.590
0722_191641_0138.png,0.020,0.173,0.925,-0.046,0.173,0.924,0.131,0.000,1.131,-0.166,-0.004,1.112,0.266,-0.243,1.133,-0.251,-0.252,1.023,0.327,-0.324,0.885,-0.253,-0.351,0.774,980.843,717.661,0.925,913.000,718.174,0.924,1070.002,540.359,1.131,817.993,536.789,1.112,1183.498,336.233,1.133,726.850,305.636,1.023,1311.154,192.125,0.885,649.103,108.929,0.774,-0.029,-0.961,1.401,0.000,-355.228,0.000,-0.002,-0.047,-0.014,0.135,-1.147,1.355
0722_191641_0139.png,0.030,0.168,0.940,-0.034,0.167,0.938,0.145,-0.014,1.103,-0.143,-0.007,1.133,0.097,-0.188,0.905,-0.218,-0.244,1.044,0.051,-0.358,0.711,-0.062,-0.326,0.857,990.375,709.854,0.940,925.357,709.066,0.938,1084.943,528.016,1.103,839.580,534.041,1.133,1062.407,342.053,0.905,761.499,317.349,1.044,1027.878,61.010,0.711,891.283,177.905,0.857,-0.025,-0.967,1.402,0.000,-4.841,0.000,0.023,0.016,0.028,0.000,-0.871,1.122
0722_191641_0140.png,0.009,0.169,0.932,-0.057,0.171,0.935,0.122,-0.006,1.139,-0.177,-0.015,1.099,0.262,-0.231,1.208,-0.336,-0.236,1.082,0.354,-0.289,0.970,-0.335,-0.323,0.836,969.597,712.632,0.932,901.736,713.882,0.935,1062.094,535.055,1.139,807.204,526.862,1.099,1166.356,357.712,1.208,664.218,332.213,1.082,1306.977,256.781,0.970,579.539,172.536,0.836,-0.029,-0.960,1.401,0.000,-350.954,0.000,-0.016,-0.015,0.014,0.060,-0.853,1.436
0722_191641_0141.png,0.047,0.180,0.940,-0.016,0.176,0.931,0.157,-0.013,1.088,-0.124,0.000,1.145,0.148,-0.199,0.893,-0.252,-0.236,1.125,0.116,-0.372,0.697,-0.293,-0.327,0.884,1007.210,721.776,0.940,943.258,719.913,0.931,1096.813,528.827,1.088,856.741,540.200,1.145,1117.462,327.841,0.893,746.935,340.782,1.125,1118.591,32.430,0.697,644.659,188.686,0.884,-0.027,-0.966,1.402,0.000,-10.528,0.000,0.034,-0.010,0.010,0.148,-0.786,1.287
0722_191641_0142.png,0.056,0.176,0.947,-0.007,0.171,0.935,0.165,-0.015,1.087,-0.114,0.001,1.158,0.230,-0.252,1.200,-0.156,-0.180,0.948,0.243,-0.311,0.938,-0.202,-0.358,0.744,1016.507,716.669,0.947,952.883,713.634,0.935,1104.706,526.723,1.087,866.791,541.100,1.158,1142.449,340.134,1.200,803.017,359.018,0.948,1206.442,224.638,0.938,702.359,81.729,0.744,-0.028,-0.963,1.401,0.000,-13.636,0.000,0.029,-0.001,-0.027,0.187,-0.834,1.255
0722_191641_0143.png,0.001,0.180,0.925,-0.064,0.184,0.937,0.128,0.000,1.129,-0.169,-0.006,1.101,0.074,-0.190,0.948,-0.318,-0.226,1.178,-0.020,-0.347,0.762,-0.412,-0.300,0.948,961.400,725.313,0.925,895.451,727.110,0.937,1068.097,539.878,1.129,813.833,534.439,1.101,1034.489,349.315,0.948,703.078,357.745,1.178,934.653,107.741,0.762,546.594,239.199,0.948,-0.030,-0.967,1.402,0.000,-353.431,0.000,-0.007,-0.027,0.025,-0.342,-0.811,1.416
0722_191641_0144.png,0.023,0.167,0.938,-0.040,0.169,0.944,0.142,-0.015,1.118,-0.143,-0.014,1.120,0.083,-0.188,0.919,-0.190,-0.229,0.974,0.025,-0.357,0.726,-0.185,-0.355,0.750,983.126,709.763,0.938,919.488,710.425,0.944,1081.143,527.316,1.118,838.345,527.890,1.120,1045.484,345.639,0.919,774.555,316.273,0.974,992.599,72.378,0.726,725.435,90.506,0.750,-0.036,-0.961,1.401,0.000,-359.402,0.000,0.038,0.005,0.028,-0.209,-0.695,1.516
0722_191641_0145.png,0.050,0.167,0.931,-0.018,0.165,0.930,0.176,-0.010,1.092,-0.125,0.004,1.151,0.151,-0.260,0.981,-0.306,-0.183,1.056,-0.017,-0.336,0.785,-0.431,-0.314,0.857,1011.144,710.823,0.931,941.614,708.702,0.930,1113.571,531.357,1.092,856.594,543.018,1.151,1106.119,288.255,0.981,684.489,375.072,1.056,939.989,132.952,0.785,482.010,191.444,0.857,-0.036,-0.966,1.402,0.000,-10.197,0.000,-0.035,-0.009,-0.017,-0.118,-1.062,1.463
0722_191641_0146.png,0.003,0.156,0.923,-0.062,0.160,0.929,0.116,-0.003,1.140,-0.177,-0.015,1.087,0.190,-0.247,1.229,-0.169,-0.234,0.943,0.184,-0.285,0.977,-0.126,-0.349,0.722,963.236,700.891,0.923,896.252,704.031,0.929,1057.095,537.775,1.140,805.375,527.154,1.087,1106.824,349.002,1.229,789.636,304.275,0.943,1139.584,263.019,0.977,794.040,79.978,0.722,-0.031,-0.967,1.402,0.000,-348.454,0.000,-0.004,-0.001,0.039,-0.052,-1.189,1.325
0722_191641_0147.png,0.052,0.170,0.944,-0.014,0.166,0.936,0.167,-0.012,1.101,-0.131,0.000,1.152,0.124,-0.266,1.003,-0.134,-0.195,0.950,-0.017,-0.342,0.784,-0.087,-0.355,0.734,1012.510,711.113,0.944,945.475,708.458,0.936,1104.272,529.628,1.101,852.207,539.819,1.152,1077.597,287.570,1.003,825.381,344.868,0.950,939.509,125.127,0.784,847.201,79.478,0.734,-0.031,-0.963,1.401,0.000,-8.856,0.000,-0.018,0.002,-0.032,0.162,-0.899,1.445
0722_191641_0148.png,0.042,0.182,0.932,-0.024,0.180,0.927,0.153,-0.004,1.115,-0.147,-0.002,1.122,0.228,-0.256,1.209,-0.199,-0.236,0.994,0.242,-0.300,0.950,-0.184,-0.348,0.757,1003.121,725.402,0.932,935.484,724.569,0.927,1090.461,536.708,1.115,835.685,538.046,1.122,1139.526,338.916,1.209,769.303,313.792,0.994,1202.628,239.738,0.950,729.027,102.776,0.757,-0.038,-0.963,1.402,0.000,-0.155,0.000,-0.009,-0.035,0.005,0.249,-0.908,1.290
0722_191641_0149.png,0.010,0.184,0.935,-0.057,0.186,0.942,0.127,0.007,1.142,-0.171,-0.001,1.108,0.089,-0.174,0.924,-0.146,-0.206,0.918,0.053,-0.351,0.711,-0.071,-0.363,0.708,969.965,726.806,0.935,902.881,728.295,0.942,1066.139,545.698,1.142,812.961,539.228,1.108,1051.998,360.609,0.924,808.602,326.858,0.918,1031.499,70.396,0.711,864.604,51.827,0.708,-0.032,-0.969,1.403,0.000,-352.229,0.000,-0.013,-0.018,-0.032,-0.080,-0.847,1.239
0722_191641_0150.png,0.032,0.155,0.933,-0.036,0.156,0.934,0.151,-0.007,1.126,-0.155,-0.008,1.118,0.107,-0.258,1.044,-0.329,-0.215,1.086,0.037,-0.323,0.800,-0.362,-0.312,0.846,992.520,698.206,0.933,923.452,698.700,0.934,1087.661,534.326,1.126,828.288,532.845,1.118,1057.559,305.052,1.044,672.022,351.882,1.086,1004.067,155.967,0.800,553.477,188.768,0.846,-0.039,-0.967,1.403,0.000,-357.409,0.000,-0.031,0.014,0.009,0.031,-1.117,1.474
0722_191641_0151.png,0.014,0.163,0.926,-0.054,0.165,0.931,0.139,-0.004,1.128,-0.170,-0.008,1.113,0.184,-0.259,1.221,-0.323,-0.235,1.082,0.175,-0.284,0.959,-0.367,-0.317,0.836,974.578,707.118,0.926,904.562,708.567,0.931,1077.306,536.409,1.128,814.358,533.545,1.113,1103.659,338.085,1.221,676.122,333.029,1.082,1133.539,257.910,0.959,542.423,178.803,0.836,-0.028,-0.963,1.402,0.000,-356.105,0.000,-0.044,-0.018,0.004,-0.100,-1.008,1.720
0722_191641_0152.png,0.026,0.163,0.946,-0.038,0.162,0.943,0.134,-0.015,1.126,-0.154,-0.016,1.122,0.177,-0.187,0.916,-0.321,-0.211,1.056,0.220,-0.355,0.712,-0.406,-0.329,0.839,986.467,703.882,0.946,922.190,703.566,0.943,1073.170,527.453,1.126,829.136,526.606,1.122,1143.749,345.715,0.916,670.589,349.863,1.056,1254.131,65.370,0.712,499.871,167.531,0.839,-0.030,-0.960,1.401,0.000,-357.991,0.000,0.029,0.018,0.009,0.176,-0.777,1.376
0722_191641_0153.png,0.021,0.164,0.938,-0.046,0.164,0.937,0.137,-0.010,1.126,-0.168,-0.013,1.114,0.283,-0.237,1.152,-0.223,-0.269,1.056,0.342,-0.296,0.906,-0.200,-0.325,0.805,981.656,706.510,0.938,912.958,706.639,0.937,1075.726,531.226,1.126,816.514,528.924,1.114,1193.818,344.175,1.152,759.071,298.272,1.056,1318.879,229.411,0.906,724.162,155.790,0.805,-0.027,-0.963,1.401,0.000,-356.655,0.000,-0.029,0.005,0.020,0.113,-0.926,1.288
0722_191641_0154.png,0.045,0.164,0.947,-0.021,0.163,0.943,0.157,-0.016,1.113,-0.137,-0.011,1.134,0.130,-0.190,0.905,-0.254,-0.229,1.030,0.103,-0.360,0.702,-0.173,-0.334,0.804,1004.885,704.958,0.947,939.259,703.969,0.943,1094.269,526.125,1.113,844.813,530.387,1.134,1096.420,340.006,0.905,725.863,328.218,1.030,1099.832,52.498,0.702,755.619,144.479,0.804,-0.038,-0.962,1.401,0.000,-2.972,0.000,0.005,0.020,0.006,0.154,-0.809,1.274
0722_191641_0155.png,0.029,0.177,0.937,-0.035,0.176,0.935,0.142,-0.001,1.124,-0.149,0.001,1.130,0.062,-0.184,0.922,-0.269,-0.244,1.158,-0.011,-0.365,0.726,-0.311,-0.326,0.902,989.907,719.202,0.937,924.514,718.768,0.935,1079.774,539.353,1.124,834.772,540.533,1.130,1024.363,349.850,0.922,739.412,339.449,1.158,945.282,61.415,0.726,631.758,196.330,0.902,-0.031,-0.965,1.402,0.000,-0.058,0.000,0.022,-0.019,-0.035,0.084,-0.913,1.494
0722_191641_0156.png,0.020,0.167,0.929,-0.046,0.169,0.935,0.144,-0.009,1.123,-0.156,-0.012,1.109,0.290,-0.217,1.222,-0.240,-0.264,1.167,0.215,-0.285,0.987,-0.219,-0.301,0.914,980.643,710.683,0.929,913.283,711.981,0.935,1081.680,532.402,1.123,826.037,529.560,1.109,1185.457,371.021,1.222,764.621,324.499,1.167,1167.356,264.859,0.987,732.233,226.672,0.914,-0.038,-0.963,1.402,0.000,-356.098,0.000,-0.011,-0.008,0.035,-0.197,-0.990,1.134
0722_191641_0157.png,0.030,0.165,0.940,-0.037,0.167,0.947,0.160,-0.015,1.115,-0.144,-0.010,1.133,0.118,-0.199,0.919,-0.132,-0.229,0.975,0.027,-0.352,0.721,-0.054,-0.342,0.748,990.349,707.028,0.940,922.652,707.596,0.947,1096.612,527.413,1.115,839.266,531.210,1.133,1082.313,333.798,0.919,831.592,316.357,0.975,995.556,75.457,0.721,891.770,105.259,0.748,-0.037,-0.961,1.401,0.000,-2.424,0.000,-0.026,0.009,-0.001,-0.273,-0.761,1.504
0722_191641_0158.png,0.044,0.157,0.923,-0.024,0.155,0.924,0.172,-0.014,1.080,-0.127,0.001,1.149,0.245,-0.250,0.971,-0.310,-0.182,1.070,0.239,-0.343,0.729,-0.436,-0.304,0.878,1005.065,701.643,0.923,935.153,699.127,0.924,1111.763,527.307,1.080,854.950,541.107,1.149,1200.388,295.501,0.971,684.758,377.836,1.070,1272.156,92.854,0.729,487.351,210.978,0.878,-0.030,-0.968,1.402,0.000,-12.056,0.000,-0.035,-0.003,0.019,-0.202,-1.211,1.527
0722_191641_0159.png,-0.005,0.150,0.920,-0.068,0.157,0.931,0.107,0.001,1.147,-0.176,-0.014,1.080,0.198,-0.242,1.094,-0.299,-0.185,1.245,0.037,-0.313,0.906,-0.377,-0.282,1.021,954.746,695.251,0.920,890.353,700.726,0.931,1048.839,540.958,1.147,805.084,527.564,1.080,1131.719,329.408,1.094,731.334,398.479,1.245,998.567,211.622,0.906,609.111,277.017,1.021,-0.034,-0.970,1.403,0.000,-345.280,0.000,0.019,0.008,0.031,-0.188,-1.206,1.584
0722_191641_0160.png,0.021,0.186,0.924,-0.043,0.188,0.929,0.141,0.004,1.116,-0.148,0.004,1.116,0.105,-0.233,0.990,-0.258,-0.209,0.992,-0.015,-0.354,0.794,-0.322,-0.353,0.784,981.842,731.866,0.924,916.371,732.527,0.929,1079.828,543.508,1.116,833.526,543.571,1.116,1061.012,315.916,0.990,713.004,339.400,0.992,941.575,116.169,0.794,569.003,111.281,0.784,-0.034,-0.971,1.403,0.000,-358.893,0.000,0.027,-0.037,0.010,-0.159,-0.834,1.590
0722_191641_0161.png,0.019,0.154,0.928,-0.045,0.156,0.933,0.140,-0.006,1.117,-0.148,-0.004,1.128,0.228,-0.220,1.255,-0.303,-0.193,1.017,0.356,-0.284,1.036,-0.418,-0.336,0.828,979.398,698.106,0.928,914.382,698.884,0.933,1079.185,534.665,1.117,835.296,536.739,1.128,1132.646,373.354,1.255,676.228,359.410,1.017,1286.469,279.489,1.036,479.932,153.938,0.828,-0.029,-0.967,1.402,0.000,-0.960,0.000,0.030,0.002,-0.001,-0.202,-1.230,1.493
0722_191641_0162.png,0.017,0.177,0.930,-0.048,0.179,0.937,0.145,0.000,1.116,-0.154,0.002,1.124,0.113,-0.181,0.908,-0.276,-0.212,1.243,0.082,-0.358,0.705,-0.384,-0.282,1.012,977.883,721.230,0.930,910.932,722.077,0.937,1083.585,540.129,1.116,830.062,541.823,1.124,1078.596,350.297,0.908,748.431,378.119,1.243,1070.326,57.800,0.705,599.084,274.718,1.012,-0.029,-0.971,1.403,0.000,-0.543,0.000,-0.006,-0.012,0.000,-0.263,-0.848,1.615
0722_191641_0163.png,0.031,0.178,0.935,-0.033,0.177,0.931,0.141,-0.004,1.110,-0.146,-0.001,1.122,0.178,-0.263,1.055,-0.221,-0.174,0.928,0.007,-0.329,0.876,-0.294,-0.342,0.739,991.560,721.170,0.935,926.786,720.513,0.931,1080.766,536.521,1.110,836.321,539.024,1.122,1120.836,302.500,1.055,733.529,361.960,0.928,967.598,183.179,0.876,581.223,99.243,0.739,-0.029,-0.971,1.403,0.000,-1.418,0.000,0.033,-0.005,0.026,0.131,-0.924,1.098
0722_191641_0164.png,0.035,0.166,0.950,-0.033,0.165,0.951,0.161,-0.017,1.100,-0.139,-0.004,1.156,0.099,-0.224,0.925,-0.312,-0.213,1.121,0.015,-0.357,0.703,-0.386,-0.309,0.878,994.977,706.094,0.950,927.317,705.155,0.951,1099.036,525.078,1.100,845.792,536.303,1.156,1062.209,309.410,0.925,695.359,359.310,1.121,979.796,57.316,0.703,542.170,205.940,0.878,-0.022,-0.963,1.401,0.000,-9.603,0.000,-0.027,0.028,-0.030,-0.198,-0.745,1.346
0722_191641_0165.png,0.006,0.152,0.937,-0.062,0.155,0.942,0.122,-0.007,1.148,-0.179,-0.015,1.110,0.167,-0.271,1.101,-0.338,-0.236,1.084,0.128,-0.321,0.839,-0.312,-0.323,0.828,965.669,694.114,0.937,897.793,696.521,0.942,1061.433,534.430,1.148,806.255,526.790,1.110,1104.299,305.982,1.101,663.700,332.684,1.084,1105.312,176.019,0.839,601.330,169.168,0.828,-0.027,-0.960,1.401,0.000,-351.500,0.000,-0.025,0.012,-0.029,-0.029,-1.123,1.329
0722_191641_0166.png,0.048,0.177,0.947,-0.018,0.174,0.941,0.161,-0.010,1.111,-0.134,-0.002,1.145,0.244,-0.238,1.234,-0.315,-0.195,1.210,0.296,-0.293,0.974,-0.301,-0.300,0.958,1007.987,717.405,0.947,941.886,715.950,0.941,1098.236,531.294,1.111,848.526,538.101,1.145,1148.210,356.636,1.234,712.315,386.636,1.210,1249.476,253.840,0.974,661.167,242.562,0.958,-0.035,-0.961,1.401,0.000,-5.616,0.000,-0.003,-0.006,-0.035,0.158,-0.776,1.357
0722_191641_0167.png,0.029,0.182,0.930,-0.037,0.182,0.930,0.147,-0.002,1.107,-0.151,0.001,1.120,0.219,-0.238,1.226,-0.306,-0.189,1.241,0.241,-0.289,0.975,-0.356,-0.283,1.009,989.438,726.482,0.930,921.907,726.243,0.930,1086.291,538.304,1.107,832.178,541.029,1.120,1129.901,355.097,1.226,725.659,395.256,1.241,1194.533,258.621,0.975,624.197,273.378,1.009,-0.030,-0.972,1.404,0.000,-1.563,0.000,-0.003,-0.015,0.033,-0.015,-0.925,1.066
0722_191641_0168.png,0.027,0.162,0.937,-0.039,0.163,0.941,0.148,-0.010,1.122,-0.150,-0.010,1.123,0.167,-0.247,0.996,-0.267,-0.249,1.083,0.027,-0.335,0.793,-0.100,-0.312,0.890,987.773,704.101,0.937,920.842,704.667,0.941,1085.774,531.124,1.122,832.721,531.338,1.123,1119.854,304.690,0.996,725.393,321.587,1.083,992.395,138.034,0.793,853.346,206.232,0.890,-0.036,-0.964,1.402,0.000,-359.036,0.000,-0.006,0.012,0.007,-0.107,-0.997,1.172
0722_191641_0169.png,0.016,0.186,0.924,-0.049,0.187,0.928,0.135,0.003,1.115,-0.158,0.003,1.114,0.102,-0.217,0.966,-0.222,-0.252,1.044,-0.017,-0.351,0.779,-0.060,-0.334,0.860,976.518,731.247,0.924,910.150,731.756,0.928,1074.762,542.565,1.115,825.200,542.281,1.114,1060.427,326.011,0.966,757.580,310.502,1.044,939.246,111.164,0.779,893.871,170.388,0.860,-0.027,-0.971,1.403,0.000,-358.531,0.000,0.015,-0.035,0.019,-0.116,-0.897,1.342
0722_191641_0170.png,0.033,0.179,0.928,-0.034,0.178,0.924,0.147,0.003,1.109,-0.157,0.005,1.119,0.271,-0.241,1.124,-0.191,-0.239,1.015,0.316,-0.308,0.879,-0.077,-0.331,0.801,994.031,723.806,0.928,924.891,722.859,0.924,1086.438,542.233,1.109,826.584,544.279,1.119,1189.185,336.286,1.124,780.763,316.405,1.015,1302.132,207.003,0.879,868.198,147.074,0.801,-0.028,-0.976,1.404,0.000,-0.870,0.000,-0.026,-0.014,0.026,0.174,-0.925,1.617
0722_191641_0171.png,0.061,0.152,0.937,-0.005,0.146,0.929,0.176,-0.021,1.077,-0.115,-0.002,1.158,0.178,-0.193,1.276,-0.104,-0.174,0.946,0.217,-0.263,1.027,-0.092,-0.340,0.740,1022.231,694.564,0.937,955.334,689.782,0.929,1115.261,521.693,1.077,865.467,538.136,1.158,1092.506,396.055,1.276,855.358,365.078,0.946,1160.521,296.363,1.027,841.732,102.509,0.740,-0.031,-0.967,1.402,0.000,-14.654,0.000,-0.018,0.029,0.010,0.116,-1.033,1.700
0722_191641_0172.png,0.006,0.179,0.921,-0.058,0.182,0.926,0.117,0.005,1.136,-0.173,-0.007,1.085,0.262,-0.219,1.202,-0.234,-0.257,1.194,0.391,-0.291,0.993,-0.213,-0.304,0.942,966.684,725.304,0.921,899.980,727.173,0.926,1057.865,543.802,1.136,808.223,533.785,1.085,1167.264,366.399,1.202,773.738,335.214,1.194,1334.953,261.309,0.993,744.775,232.870,0.942,-0.032,-0.969,1.403,0.000,-348.677,0.000,0.007,-0.033,0.034,-0.004,-0.822,1.718
0722_191641_0173.png,0.050,0.157,0.932,-0.015,0.153,0.925,0.163,-0.019,1.089,-0.128,-0.007,1.142,0.126,-0.256,0.977,-0.196,-0.176,0.943,0.069,-0.346,0.744,-0.261,-0.340,0.748,1010.758,700.029,0.932,944.278,696.929,0.925,1102.651,523.567,1.089,853.645,534.457,1.142,1082.603,291.010,0.977,762.155,362.874,0.943,1048.043,96.990,0.744,627.891,107.456,0.748,-0.032,-0.963,1.401,0.000,-9.397,0.000,0.003,0.001,0.028,0.128,-1.011,1.705
0722_191641_0174.png,0.036,0.163,0.939,-0.027,0.161,0.936,0.145,-0.002,1.120,-0.142,0.000,1.128,0.117,-0.184,0.909,-0.290,-0.210,1.186,0.093,-0.361,0.703,-0.209,-0.303,0.953,996.505,704.625,0.939,932.150,703.636,0.936,1083.050,538.261,1.120,840.609,539.929,1.128,1082.484,347.964,0.909,727.189,371.714,1.186,1085.469,51.607,0.703,751.791,237.760,0.953,-0.035,-0.974,1.404,0.000,-0.579,0.000,0.034,0.024,-0.009,0.149,-1.046,1.499
0722_191641_0175.png,0.031,0.166,0.925,-0.032,0.165,0.922,0.140,-0.004,1.113,-0.146,-0.001,1.124,0.109,-0.224,0.957,-0.242,-0.199,1.291,0.000,-0.362,0.765,-0.295,-0.288,1.050,991.784,711.032,0.925,926.527,709.826,0.922,1079.908,536.455,1.113,836.777,538.824,1.124,1068.655,317.471,0.957,782.015,393.100,1.291,959.555,89.680,0.765,693.070,279.226,1.050,-0.029,-0.965,1.402,0.000,-1.291,0.000,0.036,-0.030,0.005,0.132,-1.132,1.621
0722_191641_0176.png,0.025,0.181,0.934,-0.041,0.182,0.940,0.147,-0.003,1.119,-0.148,-0.004,1.117,0.275,-0.240,1.153,-0.306,-0.222,1.093,0.178,-0.307,0.921,-0.264,-0.323,0.858,985.017,723.833,0.934,918.873,724.458,0.940,1085.177,537.101,1.119,833.663,536.890,1.117,1186.440,341.926,1.153,693.912,347.178,1.093,1143.850,223.099,0.921,667.454,181.675,0.858,-0.038,-0.969,1.403,0.000,-358.616,0.000,0.004,-0.008,0.017,-0.199,-0.762,1.254
0722_191641_0177.png,0.042,0.170,0.934,-0.021,0.167,0.928,0.153,-0.013,1.100,-0.131,-0.005,1.136,0.239,-0.267,1.064,-0.243,-0.246,1.194,0.116,-0.339,0.847,-0.243,-0.313,0.942,1003.152,713.368,0.934,938.622,711.534,0.928,1092.073,528.898,1.100,850.145,536.139,1.136,1173.782,301.275,1.064,766.548,344.251,1.194,1090.214,158.920,0.847,714.610,224.456,0.942,-0.032,-0.961,1.401,0.000,-6.202,0.000,0.035,-0.018,0.011,0.133,-0.870,1.660
0722_191641_0178.png,0.002,0.180,0.922,-0.063,0.185,0.929,0.109,0.010,1.148,-0.177,-0.003,1.089,0.115,-0.171,0.932,-0.228,-0.275,1.138,0.123,-0.350,0.723,-0.208,-0.333,0.877,961.707,726.145,0.922,895.779,729.151,0.929,1049.919,548.491,1.148,805.222,536.969,1.089,1077.219,365.095,0.932,769.585,309.924,1.138,1121.622,79.609,0.723,734.889,178.401,0.877,-0.032,-0.967,1.402,0.000,-346.727,0.000,0.016,-0.043,-0.017,-0.027,-1.082,1.183
0722_191641_0179.png,0.035,0.177,0.937,-0.031,0.175,0.934,0.153,-0.008,1.106,-0.143,0.000,1.140,0.185,-0.247,0.973,-0.248,-0.253,1.109,0.095,-0.356,0.745,-0.260,-0.329,0.852,995.224,719.804,0.937,928.032,718.675,0.934,1091.589,532.994,1.106,840.518,539.781,1.140,1141.221,298.503,0.973,747.001,323.306,1.109,1080.816,86.079,0.745,670.419,173.033,0.852,-0.026,-0.963,1.401,0.000,-5.604,0.000,-0.005,-0.021,-0.018,0.013,-0.823,1.543
0722_191641_0180.png,0.024,0.165,0.939,-0.042,0.165,0.938,0.141,-0.016,1.117,-0.159,-0.015,1.121,0.171,-0.280,1.160,-0.324,-0.227,1.158,0.147,-0.302,0.905,-0.400,-0.298,0.923,984.599,707.557,0.939,917.075,707.419,0.938,1080.201,526.174,1.117,824.797,527.124,1.121,1100.209,310.320,1.160,694.215,353.258,1.158,1114.424,222.772,0.905,547.680,232.675,0.923,-0.027,-0.959,1.401,0.000,0.275,0.000,-0.012,0.002,0.029,0.045,-0.813,1.324
0722_191641_0181.png,0.014,0.177,0.948,-0.053,0.179,0.951,0.127,-0.001,1.146,-0.173,-0.010,1.108,0.242,-0.246,1.145,-0.244,-0.254,1.007,0.079,-0.297,0.938,-0.241,-0.346,0.754,973.608,717.964,0.948,906.593,718.733,0.951,1065.222,539.017,1.146,811.455,531.499,1.108,1161.094,335.487,1.145,729.501,300.365,1.007,1040.087,238.529,0.938,656.543,103.895,0.754,-0.033,-0.966,1.402,0.000,-351.431,0.000,-0.018,0.012,-0.023,0.085,-0.659,1.292
0722_191641_0182.png,0.007,0.175,0.941,-0.057,0.176,0.942,0.109,0.004,1.143,-0.176,-0.007,1.096,0.095,-0.205,0.975,-0.240,-0.261,1.049,-0.001,-0.347,0.778,-0.069,-0.327,0.865,967.335,717.045,0.941,902.502,717.995,0.942,1051.019,543.365,1.143,807.290,534.203,1.096,1052.983,339.700,0.975,742.416,303.649,1.049,958.999,115.776,0.778,884.240,180.220,0.865,-0.027,-0.975,1.404,0.000,-349.303,0.000,0.025,0.020,0.006,0.212,-0.810,1.248
0722_191641_0183.png,0.014,0.175,0.938,-0.051,0.176,0.941,0.131,0.000,1.131,-0.165,-0.002,1.124,0.192,-0.182,0.921,-0.280,-0.204,1.265,0.253,-0.359,0.718,-0.447,-0.272,1.067,974.484,717.685,0.938,908.112,718.271,0.941,1070.249,540.013,1.131,820.378,538.564,1.124,1158.049,352.301,0.921,749.424,386.822,1.265,1295.780,63.830,0.718,561.387,297.314,1.067,-0.025,-0.966,1.402,0.000,-357.348,0.000,0.002,-0.009,-0.034,-0.038,-0.930,1.260
0722_191641_0184.png,0.028,0.166,0.932,-0.040,0.165,0.930,0.146,-0.007,1.116,-0.160,-0.005,1.125,0.105,-0.251,1.006,-0.333,-0.213,1.083,0.036,-0.336,0.767,-0.397,-0.315,0.850,988.192,709.605,0.932,918.947,708.988,0.930,1084.048,534.261,1.116,824.638,536.142,1.125,1058.870,303.118,1.006,667.796,352.793,1.083,1004.846,122.906,0.767,515.529,187.280,0.850,-0.026,-0.965,1.402,0.000,-0.641,0.000,-0.030,-0.011,0.005,0.078,-0.953,1.690
0722_191641_0185.png,0.041,0.162,0.931,-0.025,0.160,0.926,0.153,-0.007,1.112,-0.147,-0.005,1.120,0.181,-0.194,1.303,-0.241,-0.243,1.047,0.259,-0.259,1.067,-0.091,-0.319,0.851,1002.098,705.433,0.931,934.140,704.309,0.926,1090.974,534.214,1.112,835.006,535.749,1.120,1092.401,398.242,1.303,740.835,319.389,1.047,1191.135,309.372,1.067,858.602,183.346,0.851,-0.037,-0.970,1.403,0.000,-0.327,0.000,-0.012,0.004,0.033,0.203,-1.074,1.532
0722_191641_0186.png,0.005,0.176,0.927,-0.059,0.181,0.937,0.118,0.009,1.147,-0.169,-0.003,1.096,0.169,-0.258,1.096,-0.321,-0.229,1.094,0.148,-0.337,0.841,-0.299,-0.335,0.848,965.498,720.365,0.927,900.393,723.478,0.937,1058.033,547.281,1.147,813.301,537.433,1.096,1106.310,316.532,1.096,680.998,341.034,1.094,1126.946,158.326,0.841,625.361,164.164,0.848,-0.037,-0.970,1.403,0.000,-348.488,0.000,0.016,-0.020,-0.021,-0.139,-0.989,1.386
0722_191641_0187.png,0.007,0.169,0.940,-0.061,0.171,0.946,0.132,-0.003,1.135,-0.175,-0.008,1.111,0.091,-0.176,0.927,-0.281,-0.245,1.035,0.049,-0.344,0.724,-0.158,-0.321,0.813,967.229,710.728,0.940,898.936,712.135,0.946,1070.618,537.648,1.135,809.970,533.012,1.111,1053.264,359.065,0.927,701.768,314.866,1.035,1023.963,88.198,0.724,775.403,164.431,0.813,-0.027,-0.969,1.403,0.000,-354.375,0.000,-0.038,0.018,0.000,-0.144,-0.797,1.468
0722_191641_0188.png,0.003,0.172,0.939,-0.061,0.175,0.944,0.110,-0.004,1.149,-0.176,-0.016,1.098,0.167,-0.252,1.049,-0.210,-0.263,0.987,0.005,-0.334,0.860,-0.066,-0.352,0.783,963.125,714.703,0.939,898.432,716.151,0.944,1050.832,536.684,1.149,807.736,526.424,1.098,1111.319,311.775,1.049,757.806,287.016,0.987,965.800,170.718,0.860,880.401,112.651,0.783,-0.030,-0.960,1.401,0.000,-348.488,0.000,0.022,-0.007,-0.012,0.044,-0.690,1.584
0722_191641_0189.png,0.001,0.187,0.933,-0.063,0.188,0.937,0.101,0.008,1.148,-0.181,-0.006,1.087,0.100,-0.214,0.991,-0.159,-0.227,0.931,0.067,-0.355,0.771,-0.101,-0.372,0.717,960.856,730.048,0.933,895.799,731.310,0.937,1043.942,546.891,1.148,801.650,535.079,1.087,1055.811,334.845,0.991,797.371,307.654,0.931,1043.014,101.958,0.771,825.999,46.535,0.717,-0.027,-0.971,1.403,0.000,-346.394,0.000,0.026,-0.016,0.000,0.170,-0.782,1.186
0722_191641_0190.png,0.013,0.170,0.933,-0.051,0.172,0.935,0.121,-0.001,1.133,-0.164,-0.006,1.111,0.195,-0.209,1.292,-0.122,-0.188,0.904,0.252,-0.285,1.045,-0.083,-0.366,0.703,973.001,713.621,0.933,908.499,714.565,0.935,1061.654,538.982,1.133,819.539,534.610,1.111,1103.390,386.047,1.292,831.824,342.239,0.904,1189.686,280.926,1.045,847.441,44.184,0.703,-0.027,-0.966,1.402,0.000,-354.278,0.000,0.036,-0.008,-0.004,0.051,-1.054,1.111
0722_191641_0191.png,0.059,0.182,0.937,-0.004,0.176,0.924,0.166,-0.008,1.085,-0.116,0.007,1.150,0.288,-0.253,1.092,-0.096,-0.178,0.946,0.274,-0.338,0.841,-0.078,-0.361,0.749,1019.865,724.728,0.937,955.781,721.109,0.924,1105.653,533.213,1.085,863.971,546.052,1.150,1210.533,320.085,1.092,863.739,360.661,0.946,1269.695,157.105,0.841,861.304,81.738,0.749,-0.031,-0.968,1.403,0.000,-12.228,0.000,0.023,-0.023,-0.011,0.298,-0.924,1.410
0722_191641_0192.png,0.038,0.183,0.934,-0.029,0.182,0.931,0.158,-0.010,1.095,-0.141,0.000,1.137,0.134,-0.257,0.988,-0.282,-0.202,1.024,0.081,-0.345,0.749,-0.358,-0.330,0.812,998.517,726.539,0.934,930.334,725.731,0.931,1097.081,531.267,1.095,841.814,539.645,1.137,1089.117,292.814,0.988,698.336,352.703,1.024,1062.796,102.440,0.749,540.370,153.063,0.812,-0.027,-0.964,1.402,0.000,-7.009,0.000,-0.018,-0.026,0.015,-0.010,-0.692,1.582
0722_191641_0193.png,-0.010,0.163,0.931,-0.074,0.169,0.944,0.109,0.002,1.149,-0.181,-0.012,1.089,0.140,-0.238,1.036,-0.192,-0.260,0.992,-0.018,-0.324,0.844,-0.159,-0.348,0.748,949.461,706.209,0.931,884.989,710.037,0.944,1050.552,541.684,1.149,801.688,529.747,1.089,1088.499,321.368,1.036,776.319,290.352,0.992,940.070,174.701,0.844,757.664,97.690,0.748,-0.030,-0.971,1.403,0.000,-346.882,0.000,-0.001,0.019,0.008,-0.269,-0.918,1.488
0722_191641_0194.png,0.022,0.184,0.938,-0.043,0.185,0.944,0.144,0.001,1.123,-0.150,0.002,1.126,0.108,-0.182,0.911,-0.204,-0.260,1.066,0.075,-0.362,0.704,-0.178,-0.342,0.811,982.260,726.173,0.938,916.641,726.746,0.944,1082.197,540.975,1.123,833.331,541.711,1.126,1072.970,349.405,0.911,778.384,307.881,1.066,1061.325,50.753,0.704,751.699,138.564,0.811,-0.033,-0.970,1.403,0.000,0.413,0.000,0.009,-0.008,-0.023,-0.205,-0.801,1.189
0722_191641_0195.png,0.047,0.171,0.935,-0.016,0.167,0.927,0.158,-0.016,1.085,-0.124,-0.003,1.141,0.070,-0.188,0.899,-0.118,-0.175,0.935,-0.015,-0.356,0.720,-0.111,-0.342,0.734,1007.977,713.758,0.935,943.541,711.471,0.927,1098.225,525.898,1.085,856.399,537.396,1.141,1034.503,341.054,0.899,839.998,362.402,0.935,940.277,69.227,0.720,815.938,97.096,0.734,-0.029,-0.966,1.402,0.000,-10.426,0.000,0.031,-0.004,0.036,0.138,-0.920,1.288
0722_191641_0196.png,0.041,0.178,0.932,-0.023,0.175,0.925,0.148,0.000,1.117,-0.143,0.002,1.127,0.101,-0.186,0.911,-0.221,-0.247,1.038,0.058,-0.369,0.712,-0.079,-0.345,0.838,1001.475,721.279,0.932,935.937,719.826,0.925,1085.735,539.750,1.117,839.700,541.830,1.127,1065.597,345.534,0.911,757.995,313.758,1.038,1037.806,46.824,0.712,870.754,148.221,0.838,-0.035,-0.966,1.402,0.000,-0.997,0.000,0.022,-0.032,-0.017,0.262,-1.028,1.439
0722_191641_0197.png,0.041,0.161,0.933,-0.027,0.157,0.927,0.157,-0.011,1.106,-0.149,-0.003,1.141,0.217,-0.237,1.250,-0.300,-0.234,1.126,0.240,-0.279,0.987,-0.144,-0.303,0.917,1001.621,703.968,0.933,932.353,701.229,0.927,1094.967,530.391,1.106,835.763,537.299,1.141,1125.264,359.587,1.250,706.602,342.715,1.126,1191.699,270.738,0.987,810.327,225.760,0.917,-0.026,-0.961,1.401,0.000,-5.433,0.000,-0.037,-0.014,-0.014,0.193,-1.216,1.328
0722_191641_0198.png,0.013,0.169,0.939,-0.051,0.170,0.940,0.119,0.000,1.147,-0.172,-0.008,1.112,0.235,-0.219,1.021,-0.140,-0.239,0.957,0.300,-0.351,0.788,-0.056,-0.369,0.729,973.521,710.953,0.939,907.892,711.994,0.940,1058.312,540.224,1.147,813.227,533.585,1.112,1178.956,335.612,1.021,821.228,302.519,0.957,1321.451,116.714,0.788,886.777,59.145,0.729,-0.028,-0.962,1.401,0.000,-352.007,0.000,0.015,-0.007,-0.044,0.182,-1.046,1.158
0722_191641_0199.png,0.013,0.174,0.934,-0.051,0.177,0.942,0.131,0.003,1.142,-0.162,-0.005,1.106,0.169,-0.266,1.153,-0.262,-0.244,1.020,0.149,-0.318,0.891,-0.180,-0.347,0.787,973.639,716.797,0.934,908.048,718.896,0.942,1068.838,542.884,1.142,820.617,535.926,1.106,1099.724,320.743,1.153,716.036,312.897,1.020,1118.600,200.524,0.891,742.638,120.663,0.787,-0.039,-0.969,1.403,0.000,-351.700,0.000,0.006,-0.003,-0.018,-0.127,-0.819,1.617
0722_191641_0200.png,0.032,0.168,0.925,-0.032,0.168,0.929,0.155,-0.007,1.102,-0.133,0.000,1.133,0.234,-0.267,1.135,-0.270,-0.230,1.176,0.078,-0.314,0.933,-0.336,-0.311,0.938,992.686,712.347,0.925,926.939,712.034,0.929,1093.795,533.590,1.102,848.540,539.754,1.133,1156.113,316.649,1.135,741.711,354.139,1.176,1039.224,220.007,0.933,619.202,224.658,0.938,-0.034,-0.967,1.402,0.000,-5.143,0.000,0.025,-0.017,0.014,-0.214,-1.049,1.508
0722_191641_0201.png,0.004,0.162,0.932,-0.060,0.167,0.942,0.118,0.001,1.149,-0.171,-0.010,1.102,0.183,-0.200,1.316,-0.199,-0.253,0.977,0.238,-0.273,1.062,-0.059,-0.353,0.771,964.397,704.950,0.932,899.396,708.321,0.942,1057.667,541.039,1.149,812.684,531.759,1.102,1092.516,395.371,1.316,766.752,294.057,0.977,1173.535,295.997,1.062,887.783,104.346,0.771,-0.035,-0.966,1.402,0.000,-349.342,0.000,0.014,0.002,-0.026,-0.143,-1.132,1.178
0722_191641_0202.png,-0.003,0.161,0.932,-0.067,0.165,0.941,0.113,-0.001,1.144,-0.175,-0.009,1.108,0.056,-0.182,0.941,-0.192,-0.249,0.977,0.003,-0.361,0.745,-0.160,-0.362,0.734,956.796,703.742,0.932,892.259,706.803,0.941,1054.278,539.475,1.144,809.432,532.498,1.108,1016.711,355.916,0.941,772.657,297.380,0.977,963.738,79.604,0.745,752.585,70.880,0.734,-0.024,-0.965,1.402,0.000,-351.681,0.000,0.019,0.002,-0.023,-0.200,-1.113,1.293
0722_191641_0203.png,0.013,0.173,0.931,-0.054,0.176,0.936,0.132,0.001,1.141,-0.172,-0.007,1.107,0.098,-0.231,0.996,-0.301,-0.250,1.136,-0.018,-0.341,0.779,-0.163,-0.305,0.911,973.755,717.140,0.931,905.036,718.841,0.936,1070.234,540.978,1.141,812.228,534.364,1.107,1053.592,319.117,0.996,708.306,330.949,1.136,937.738,123.899,0.779,789.544,221.862,0.911,-0.034,-0.964,1.402,0.000,-352.353,0.000,-0.031,-0.021,-0.020,-0.044,-1.040,1.101
0722_191641_0204.png,0.010,0.157,0.944,-0.056,0.161,0.955,0.139,-0.009,1.136,-0.162,-0.011,1.124,0.228,-0.258,1.091,-0.255,-0.204,0.950,0.051,-0.308,0.896,-0.284,-0.351,0.725,969.849,698.478,0.944,904.200,700.581,0.955,1076.187,532.669,1.136,822.903,530.338,1.124,1158.725,315.391,1.091,704.822,335.548,0.950,1014.360,213.688,0.896,587.649,78.878,0.725,-0.032,-0.965,1.402,0.000,-356.563,0.000,-0.014,0.035,-0.022,-0.345,-0.916,1.268
0722_191641_0205.png,0.029,0.153,0.933,-0.036,0.152,0.931,0.142,-0.016,1.115,-0.153,-0.015,1.119,0.163,-0.265,1.034,-0.290,-0.207,1.246,-0.013,-0.321,0.856,-0.452,-0.267,1.056,989.974,696.252,0.933,923.263,695.706,0.931,1081.413,526.511,1.115,830.132,527.556,1.119,1109.914,296.113,1.034,738.508,382.124,1.246,945.143,183.453,0.856,553.053,299.672,1.056,-0.030,-0.963,1.401,0.000,0.167,0.000,0.006,0.011,0.041,0.113,-1.131,1.237
0722_191641_0206.png,0.031,0.175,0.932,-0.034,0.175,0.930,0.139,-0.003,1.130,-0.153,-0.006,1.115,0.262,-0.244,1.080,-0.158,-0.230,0.954,0.309,-0.339,0.834,-0.078,-0.365,0.739,991.963,718.783,0.932,925.661,718.853,0.930,1077.272,537.393,1.130,829.358,534.550,1.115,1191.043,325.064,1.080,802.914,311.234,0.954,1312.438,153.734,0.834,859.146,69.556,0.739,-0.038,-0.960,1.401,0.000,-355.949,0.000,0.013,-0.034,-0.014,0.178,-0.892,1.577
0722_191641_0207.png,0.052,0.185,0.929,-0.014,0.182,0.924,0.170,-0.009,1.086,-0.123,0.005,1.142,0.076,-0.185,0.900,-0.212,-0.166,0.945,-0.016,-0.356,0.720,-0.298,-0.332,0.753,1012.950,728.962,0.929,945.372,727.335,0.924,1108.982,532.544,1.086,857.776,543.834,1.142,1040.612,344.842,0.900,746.750,373.511,0.945,938.547,69.173,0.720,584.178,121.238,0.753,-0.036,-0.966,1.402,0.000,-10.137,0.000,-0.006,-0.037,0.011,0.019,-0.780,1.635
0722_191641_0208.png,0.015,0.156,0.947,-0.053,0.157,0.947,0.130,-0.012,1.139,-0.174,-0.017,1.120,0.237,-0.257,1.101,-0.235,-0.250,0.993,0.060,-0.304,0.904,-0.106,-0.337,0.774,975.059,696.814,0.947,907.251,697.338,0.947,1068.688,529.703,1.139,812.380,525.835,1.120,1164.997,317.789,1.101,735.044,300.268,0.993,1022.912,220.548,0.904,830.322,125.879,0.774,-0.025,-0.959,1.400,0.000,-355.173,0.000,-0.026,0.025,-0.020,0.100,-0.982,1.102
0722_191641_0209.png,0.033,0.178,0.932,-0.032,0.176,0.927,0.148,-0.014,1.092,-0.143,-0.005,1.132,0.125,-0.189,0.897,-0.305,-0.188,1.253,0.100,-0.361,0.708,-0.345,-0.284,1.023,993.818,721.842,0.932,927.379,720.800,0.927,1088.765,528.031,1.092,839.521,536.118,1.132,1092.179,339.268,0.897,728.260,397.407,1.253,1094.172,55.432,0.708,639.398,275.622,1.023,-0.023,-0.964,1.401,0.000,-6.792,0.000,0.009,-0.022,0.041,0.063,-0.872,1.088
0722_191641_0210.png,0.011,0.164,0.937,-0.057,0.167,0.945,0.141,-0.008,1.131,-0.169,-0.011,1.116,0.158,-0.247,1.008,-0.242,-0.263,1.051,-0.008,-0.322,0.811,-0.053,-0.309,0.866,971.362,706.246,0.937,902.761,707.909,0.945,1078.809,533.238,1.131,816.406,530.315,1.116,1109.503,306.660,1.008,741.148,301.966,1.051,950.651,162.683,0.811,902.102,200.421,0.866,-0.031,-0.964,1.402,0.000,-356.083,0.000,-0.045,0.009,0.001,-0.268,-0.936,1.215
0722_191641_0211.png,0.052,0.196,0.932,-0.012,0.193,0.925,0.166,-0.006,1.077,-0.115,0.010,1.146,0.199,-0.278,1.053,-0.263,-0.211,1.210,0.047,-0.338,0.849,-0.363,-0.302,0.986,1012.978,740.143,0.932,947.613,738.901,0.925,1106.892,535.140,1.077,864.688,548.547,1.146,1139.637,288.429,1.053,752.891,374.142,1.210,1012.628,161.113,0.849,610.139,248.963,0.986,-0.032,-0.970,1.403,0.000,-12.913,0.000,0.024,-0.038,0.011,0.021,-0.669,1.453
0722_191641_0212.png,0.036,0.154,0.950,-0.030,0.153,0.946,0.148,-0.017,1.124,-0.153,-0.016,1.127,0.144,-0.244,0.986,-0.280,-0.194,1.272,-0.010,-0.329,0.790,-0.449,-0.251,1.078,996.366,694.254,0.950,929.537,693.472,0.946,1085.537,525.597,1.124,830.793,526.267,1.127,1098.787,304.795,0.986,750.581,394.983,1.272,948.454,143.588,0.790,564.283,319.027,1.078,-0.034,-0.963,1.402,0.000,-359.462,0.000,-0.015,0.044,0.011,0.216,-0.877,1.287
0722_191641_0213.png,0.033,0.160,0.938,-0.034,0.159,0.939,0.156,-0.016,1.112,-0.146,-0.010,1.136,0.221,-0.224,0.949,-0.320,-0.206,1.060,0.232,-0.353,0.717,-0.424,-0.319,0.844,993.907,701.943,0.938,925.858,701.441,0.939,1093.442,526.296,1.112,837.993,531.239,1.136,1181.084,315.427,0.949,672.591,355.459,1.060,1267.835,72.087,0.717,481.840,181.008,0.844,-0.032,-0.959,1.400,0.000,-3.529,0.000,-0.020,0.003,-0.005,-0.076,-0.988,1.323
0722_191641_0214.png,0.048,0.135,0.942,-0.017,0.130,0.937,0.167,-0.027,1.093,-0.120,-0.011,1.162,0.117,-0.261,0.962,-0.278,-0.218,1.088,-0.018,-0.351,0.749,-0.207,-0.323,0.853,1008.401,675.924,0.942,942.465,671.568,0.937,1104.981,516.440,1.093,862.031,530.826,1.162,1075.802,282.514,0.962,716.731,349.808,1.088,937.512,94.117,0.749,728.813,179.874,0.853,-0.027,-0.958,1.400,0.000,-12.729,0.000,0.007,0.041,-0.022,-0.033,-1.295,1.426
0722_191641_0215.png,-0.012,0.169,0.927,-0.077,0.174,0.939,0.107,-0.002,1.144,-0.184,-0.017,1.079,0.217,-0.214,1.039,-0.312,-0.180,1.249,0.256,-0.323,0.816,-0.340,-0.277,1.018,947.232,713.137,0.927,882.505,715.778,0.939,1048.766,538.497,1.144,798.100,525.371,1.079,1158.687,343.911,1.039,722.420,403.161,1.249,1258.936,163.598,0.816,642.156,280.864,1.018,-0.028,-0.969,1.403,0.000,-346.019,0.000,-0.003,0.003,0.047,-0.247,-0.788,1.490
0722_191641_0216.png,-0.011,0.164,0.940,-0.075,0.169,0.952,0.106,0.002,1.153,-0.183,-0.011,1.098,0.109,-0.230,1.011,-0.330,-0.231,1.072,-0.014,-0.339,0.802,-0.314,-0.329,0.824,948.566,705.439,0.940,884.816,708.728,0.952,1047.280,541.490,1.153,801.786,530.723,1.098,1062.166,323.567,1.011,667.554,335.462,1.072,943.475,138.283,0.802,597.434,160.596,0.824,-0.026,-0.971,1.403,0.000,-347.864,0.000,0.010,0.033,-0.017,-0.232,-0.866,1.379
0722_191641_0217.png,0.053,0.168,0.933,-0.011,0.164,0.926,0.166,-0.010,1.089,-0.120,0.003,1.143,0.217,-0.203,0.910,-0.202,-0.224,1.029,0.214,-0.364,0.704,-0.092,-0.335,0.822,1014.235,711.152,0.933,948.769,708.221,0.926,1105.284,531.245,1.089,860.452,542.137,1.143,1186.889,327.648,0.910,773.359,332.636,1.029,1249.096,48.622,0.704,853.959,152.387,0.822,-0.036,-0.971,1.403,0.000,-9.949,0.000,0.019,0.003,0.016,0.113,-1.073,1.340
0722_191641_0218.png,0.043,0.167,0.942,-0.024,0.165,0.936,0.155,-0.002,1.123,-0.149,-0.001,1.128,0.226,-0.261,1.097,-0.313,-0.207,1.192,0.070,-0.307,0.884,-0.416,-0.287,0.959,1003.682,708.901,0.942,935.757,707.736,0.936,1091.112,537.909,1.123,834.040,538.854,1.128,1156.131,313.557,1.097,710.651,374.937,1.192,1035.734,209.581,0.884,547.554,255.535,0.959,-0.038,-0.971,1.403,0.000,0.240,0.000,-0.025,0.016,-0.015,0.252,-0.932,1.569
0722_191641_0219.png,0.034,0.159,0.943,-0.029,0.157,0.938,0.142,-0.018,1.112,-0.141,-0.012,1.134,0.108,-0.235,0.959,-0.222,-0.250,1.043,-0.016,-0.357,0.766,-0.075,-0.337,0.851,994.099,700.486,0.943,930.740,699.032,0.938,1081.381,524.818,1.112,841.931,529.520,1.134,1067.439,306.533,0.959,757.796,312.187,1.043,940.357,97.438,0.766,876.373,163.503,0.851,-0.027,-0.960,1.401,0.000,-3.564,0.000,0.045,0.014,0.009,0.164,-0.948,1.289
0722_191641_0220.png,0.052,0.179,0.936,-0.014,0.176,0.930,0.172,-0.011,1.085,-0.115,0.006,1.160,0.303,-0.254,1.111,-0.272,-0.202,1.249,0.368,-0.329,0.858,-0.435,-0.282,1.046,1012.973,722.413,0.936,945.981,719.812,0.930,1111.080,530.015,1.085,865.952,544.675,1.160,1219.658,322.979,1.111,752.515,386.233,1.249,1367.154,175.549,0.858,564.160,283.218,1.046,-0.030,-0.961,1.401,0.000,-13.718,0.000,0.000,-0.029,-0.041,-0.070,-0.918,1.331
0722_191641_0221.png,0.040,0.178,0.941,-0.023,0.175,0.934,0.151,-0.003,1.104,-0.134,0.005,1.141,0.168,-0.265,1.032,-0.238,-0.182,1.302,-0.005,-0.341,0.847,-0.301,-0.279,1.060,1000.831,720.423,0.941,936.597,718.534,0.934,1090.014,537.402,1.104,848.694,544.578,1.141,1114.410,295.425,1.032,786.057,406.713,1.302,954.826,156.832,0.847,689.821,289.980,1.060,-0.028,-0.972,1.403,0.000,-6.433,0.000,0.033,0.000,-0.017,0.148,-0.973,1.114
0722_191641_0222.png,0.026,0.151,0.943,-0.041,0.152,0.942,0.140,-0.010,1.135,-0.164,-0.015,1.114,0.169,-0.182,0.928,-0.268,-0.253,1.063,0.188,-0.345,0.722,-0.111,-0.308,0.859,986.620,692.467,0.943,918.542,692.928,0.942,1077.314,531.792,1.135,820.211,527.599,1.114,1132.968,353.776,0.928,720.128,313.377,1.063,1207.108,84.746,0.722,837.474,199.219,0.859,-0.035,-0.967,1.402,0.000,-354.848,0.000,-0.026,0.041,0.007,0.150,-1.034,1.332
0722_191641_0223.png,0.052,0.186,0.933,-0.012,0.184,0.928,0.167,-0.012,1.072,-0.110,0.005,1.146,0.139,-0.236,0.934,-0.188,-0.163,0.951,0.101,-0.366,0.718,-0.263,-0.328,0.762,1012.830,729.445,0.933,947.992,728.266,0.928,1108.323,529.125,1.072,868.485,543.972,1.146,1101.451,299.636,0.934,772.297,376.850,0.951,1093.991,55.151,0.718,632.076,131.233,0.762,-0.032,-0.970,1.403,0.000,-14.167,0.000,0.031,-0.015,0.034,-0.064,-0.658,1.503
0722_191641_0224.png,0.022,0.159,0.946,-0.043,0.160,0.946,0.137,-0.007,1.133,-0.157,-0.007,1.131,0.198,-0.197,1.307,-0.239,-0.243,1.015,0.313,-0.265,1.071,-0.239,-0.350,0.763,982.269,700.243,0.946,916.612,700.452,0.946,1075.102,534.333,1.133,827.597,533.926,1.131,1104.194,396.799,1.307,736.383,312.078,1.015,1237.509,305.099,1.071,661.880,103.756,0.763,-0.029,-0.964,1.402,0.000,-358.417,0.000,0.008,0.024,-0.041,0.019,-1.081,1.097
0722_191641_0225.png,0.017,0.164,0.928,-0.049,0.168,0.937,0.147,-0.005,1.125,-0.156,-0.008,1.113,0.290,-0.232,1.085,-0.276,-0.208,1.254,0.327,-0.317,0.843,-0.409,-0.269,1.037,977.815,708.581,0.928,910.260,710.615,0.937,1083.902,535.576,1.125,826.312,533.070,1.113,1214.303,336.928,1.085,750.542,382.326,1.254,1328.692,182.309,0.843,584.389,292.874,1.037,-0.038,-0.966,1.402,0.000,-356.403,0.000,-0.022,-0.006,0.016,-0.307,-1.027,1.357
0722_191641_0226.png,0.047,0.163,0.944,-0.021,0.161,0.942,0.169,-0.016,1.092,-0.131,-0.002,1.151,0.125,-0.248,0.966,-0.320,-0.174,1.238,0.017,-0.339,0.744,-0.284,-0.273,0.996,1007.354,704.313,0.944,939.193,702.634,0.942,1107.433,525.912,1.092,852.001,537.935,1.151,1083.259,295.813,0.966,713.782,406.258,1.238,981.451,106.766,0.744,688.638,279.668,0.996,-0.030,-0.969,1.403,0.000,-10.331,0.000,-0.031,0.035,0.003,-0.074,-0.876,1.285
0722_191641_0227.png,-0.002,0.170,0.924,-0.067,0.175,0.933,0.119,-0.003,1.140,-0.179,-0.014,1.094,0.161,-0.254,1.046,-0.233,-0.183,1.306,-0.019,-0.323,0.865,-0.300,-0.268,1.068,958.250,715.338,0.924,891.283,717.837,0.933,1059.240,537.213,1.140,804.687,527.935,1.094,1106.787,309.417,1.046,790.037,406.566,1.306,939.425,185.052,0.865,692.558,301.883,1.068,-0.028,-0.960,1.401,0.000,-349.845,0.000,-0.015,-0.031,0.017,-0.183,-0.858,1.643
0722_191641_0228.png,0.053,0.167,0.938,-0.013,0.164,0.934,0.173,-0.014,1.085,-0.113,0.002,1.156,0.274,-0.240,1.188,-0.280,-0.196,1.228,0.346,-0.301,0.939,-0.359,-0.286,0.990,1013.335,709.248,0.938,946.911,706.668,0.934,1111.650,527.596,1.085,866.868,541.935,1.156,1179.034,347.705,1.188,743.440,387.962,1.228,1309.965,235.744,0.939,614.993,264.795,0.990,-0.033,-0.967,1.402,0.000,-13.264,0.000,0.005,0.010,-0.014,-0.104,-0.954,1.410
