rolosa10/RGSpipe/dataset/synthetic_dataset/Coods3D_unique0723_094046.csv
filename,left_eye,left_eye,left_eye,right_eye,right_eye,right_eye,left_shoulder,left_shoulder,left_shoulder,right_shoulder,right_shoulder,right_shoulder,left_elbow,left_elbow,left_elbow,right_elbow,right_elbow,right_elbow,left_wrist,left_wrist,left_wrist,right_wrist,right_wrist,right_wrist,left_eye_2D,left_eye_2D,left_eye_2D,right_eye_2D,right_eye_2D,right_eye_2D,left_shoulder_2D,left_shoulder_2D,left_shoulder_2D,right_shoulder_2D,right_shoulder_2D,right_shoulder_2D,left_elbow_2D,left_elbow_2D,left_elbow_2D,right_elbow_2D,right_elbow_2D,right_elbow_2D,left_wrist_2D,left_wrist_2D,left_wrist_2D,right_wrist_2D,right_wrist_2D,right_wrist_2D,root_position,root_position,root_position,root_pitch,root_yaw,root_roll,root_scale,root_scale,root_scale,look_at,look_at,look_at
0723_094046_0001.png,0.040,0.181,0.934,-0.024,0.179,0.929,0.151,-0.006,1.108,-0.136,-0.001,1.131,0.216,-0.273,1.088,-0.226,-0.231,1.016,0.075,-0.334,0.874,-0.156,-0.355,0.795,1000.600,724.243,0.934,935.679,723.205,0.929,1089.472,534.509,1.108,845.892,539.093,1.131,1148.503,300.952,1.088,748.828,323.879,1.016,1041.994,176.698,0.874,773.041,115.442,0.795,-0.034,-0.963,1.401,0.000,-3.564,0.000,0.031,-0.032,-0.002,0.124,-0.862,1.388
0723_094046_0002.png,0.016,0.148,0.936,-0.052,0.151,0.940,0.136,-0.007,1.142,-0.169,-0.015,1.107,0.096,-0.178,0.928,-0.276,-0.259,1.079,0.055,-0.344,0.718,-0.092,-0.302,0.892,976.366,690.565,0.936,907.731,692.890,0.940,1073.177,534.326,1.142,814.521,527.306,1.107,1058.595,357.118,0.928,716.218,311.996,1.079,1033.448,84.447,0.718,861.965,217.933,0.892,-0.037,-0.966,1.402,0.000,-352.183,0.000,-0.035,0.028,0.000,-0.034,-1.018,1.725
0723_094046_0003.png,0.024,0.172,0.930,-0.040,0.173,0.931,0.137,0.000,1.124,-0.154,-0.002,1.114,0.230,-0.215,1.262,-0.277,-0.242,1.099,0.192,-0.287,1.013,-0.130,-0.321,0.899,984.628,716.313,0.930,918.669,716.792,0.931,1075.840,540.296,1.124,828.321,538.404,1.114,1133.073,377.685,1.262,719.971,330.592,1.099,1140.179,270.136,1.013,822.433,200.284,0.899,-0.034,-0.970,1.403,0.000,-356.878,0.000,0.019,-0.009,0.008,0.033,-0.886,1.711
0723_094046_0004.png,0.020,0.165,0.940,-0.046,0.166,0.942,0.136,0.000,1.131,-0.163,-0.003,1.116,0.273,-0.211,1.034,-0.222,-0.256,1.053,0.346,-0.327,0.809,-0.206,-0.332,0.801,979.970,706.799,0.940,913.081,707.585,0.942,1074.191,540.157,1.131,821.411,537.235,1.116,1210.557,346.212,1.034,759.422,309.069,1.053,1367.355,155.660,0.809,715.152,145.784,0.801,-0.031,-0.975,1.404,0.000,-355.889,0.000,-0.007,0.030,-0.004,0.015,-0.897,1.577
0723_094046_0005.png,0.031,0.166,0.939,-0.034,0.163,0.934,0.143,-0.004,1.119,-0.150,0.000,1.140,0.065,-0.185,0.907,-0.280,-0.195,1.274,-0.007,-0.363,0.702,-0.441,-0.274,1.071,991.634,708.106,0.939,925.815,706.208,0.934,1081.304,536.267,1.119,834.991,540.384,1.140,1028.382,345.998,0.907,750.919,394.381,1.274,950.973,48.276,0.702,568.890,296.888,1.071,-0.024,-0.965,1.402,0.000,-3.063,0.000,0.012,-0.005,-0.043,0.174,-1.169,1.227
0723_094046_0006.png,0.024,0.182,0.941,-0.041,0.182,0.942,0.142,-0.002,1.112,-0.152,0.001,1.126,0.193,-0.193,1.293,-0.244,-0.219,1.004,0.308,-0.265,1.070,-0.208,-0.344,0.778,984.254,724.180,0.941,918.305,724.094,0.942,1081.453,538.190,1.112,831.553,540.924,1.126,1101.649,397.786,1.293,729.179,332.762,1.004,1233.317,304.598,1.070,705.035,119.805,0.778,-0.026,-0.974,1.404,0.000,-1.617,0.000,0.008,0.009,0.011,-0.056,-0.694,1.356
0723_094046_0007.png,0.023,0.170,0.927,-0.043,0.170,0.927,0.137,-0.003,1.123,-0.162,-0.006,1.108,0.287,-0.218,1.062,-0.228,-0.260,1.045,0.373,-0.320,0.842,-0.053,-0.322,0.862,983.996,714.216,0.927,915.859,714.618,0.927,1075.888,537.708,1.123,820.650,534.775,1.108,1217.268,344.835,1.062,752.629,303.655,1.045,1381.252,178.404,0.842,901.469,184.973,0.862,-0.032,-0.967,1.402,0.000,-355.939,0.000,-0.009,-0.017,0.027,0.096,-0.983,1.538
0723_094046_0008.png,0.051,0.192,0.933,-0.012,0.190,0.927,0.164,-0.004,1.075,-0.112,0.011,1.144,0.148,-0.250,0.969,-0.210,-0.158,0.956,0.013,-0.356,0.779,-0.307,-0.324,0.774,1011.844,735.995,0.933,947.635,734.541,0.927,1105.062,536.081,1.075,867.104,549.540,1.144,1105.432,294.895,0.969,750.960,382.994,0.956,975.311,104.801,0.779,583.127,142.244,0.774,-0.032,-0.976,1.404,0.000,-13.272,0.000,0.041,-0.017,0.023,-0.005,-0.758,1.224
0723_094046_0009.png,0.022,0.161,0.937,-0.046,0.162,0.943,0.152,-0.020,1.107,-0.153,-0.015,1.130,0.189,-0.283,1.105,-0.243,-0.257,1.198,0.174,-0.309,0.851,-0.206,-0.283,0.946,982.197,703.001,0.937,914.021,703.421,0.943,1090.658,522.844,1.107,831.537,527.753,1.130,1122.812,296.498,1.105,766.790,335.957,1.198,1154.244,194.588,0.851,753.291,255.581,0.946,-0.027,-0.960,1.401,0.000,-3.362,0.000,-0.029,0.014,0.035,-0.285,-0.793,1.415
0723_094046_0010.png,0.050,0.168,0.932,-0.015,0.165,0.929,0.169,-0.019,1.086,-0.120,-0.006,1.145,0.210,-0.236,0.935,-0.282,-0.189,1.264,0.212,-0.360,0.708,-0.400,-0.275,1.051,1011.371,711.076,0.932,944.754,709.293,0.929,1108.235,522.992,1.086,860.554,535.039,1.145,1173.861,300.091,0.935,748.268,397.926,1.264,1244.250,56.278,0.708,597.895,291.462,1.051,-0.036,-0.960,1.401,0.000,-10.572,0.000,0.006,-0.014,0.021,-0.057,-1.011,1.067
0723_094046_0011.png,0.004,0.166,0.939,-0.060,0.168,0.941,0.105,0.002,1.150,-0.178,-0.013,1.088,0.080,-0.187,0.959,-0.298,-0.200,1.231,0.022,-0.347,0.759,-0.444,-0.276,1.030,964.254,708.103,0.939,899.191,709.925,0.941,1046.851,541.339,1.150,804.012,528.933,1.088,1039.778,354.928,0.959,729.874,385.454,1.231,988.179,104.770,0.759,550.462,284.856,1.030,-0.031,-0.972,1.403,0.000,-346.153,0.000,0.021,0.026,0.008,0.176,-0.820,1.532
0723_094046_0012.png,0.033,0.148,0.939,-0.033,0.146,0.936,0.150,-0.013,1.109,-0.149,-0.007,1.134,0.227,-0.208,1.263,-0.230,-0.175,0.935,0.380,-0.256,1.056,-0.306,-0.337,0.739,993.780,689.636,0.939,926.324,688.047,0.936,1088.863,528.735,1.109,834.941,533.925,1.134,1131.277,383.614,1.263,726.366,362.170,0.935,1301.875,309.503,1.056,565.837,105.992,0.739,-0.027,-0.971,1.403,0.000,-3.846,0.000,-0.012,0.043,0.019,0.068,-1.246,1.224
0723_094046_0013.png,0.028,0.159,0.933,-0.040,0.161,0.936,0.155,-0.010,1.117,-0.153,-0.008,1.126,0.232,-0.211,0.953,-0.133,-0.228,0.973,0.257,-0.343,0.728,-0.072,-0.338,0.742,989.016,702.500,0.933,919.644,703.012,0.936,1092.297,531.104,1.117,831.068,532.918,1.126,1191.668,329.695,0.953,830.155,317.014,0.973,1295.942,91.728,0.728,867.260,106.688,0.742,-0.035,-0.964,1.402,0.000,-0.542,0.000,-0.038,0.004,0.009,-0.156,-1.097,1.254
0723_094046_0014.png,0.041,0.164,0.932,-0.024,0.162,0.932,0.161,-0.017,1.089,-0.124,-0.005,1.143,0.133,-0.252,0.968,-0.207,-0.239,1.047,-0.016,-0.347,0.781,-0.055,-0.329,0.860,1001.360,706.964,0.932,935.757,705.572,0.932,1100.646,524.932,1.089,856.963,535.848,1.143,1090.678,292.568,0.968,772.190,323.007,1.047,939.911,117.991,0.781,898.808,176.168,0.860,-0.032,-0.964,1.402,0.000,-9.714,0.000,0.023,0.001,0.024,-0.150,-0.938,1.467
0723_094046_0015.png,0.015,0.169,0.932,-0.051,0.170,0.935,0.134,-0.003,1.127,-0.166,-0.005,1.119,0.245,-0.221,1.248,-0.322,-0.222,1.065,0.379,-0.278,1.025,-0.398,-0.326,0.833,975.381,712.050,0.932,907.779,712.756,0.935,1072.878,537.594,1.127,818.930,536.077,1.119,1147.089,371.511,1.248,672.439,341.714,1.065,1311.393,282.027,1.025,505.844,167.342,0.833,-0.025,-0.966,1.402,0.000,-357.321,0.000,-0.010,-0.011,-0.007,-0.044,-1.012,1.392
0723_094046_0016.png,0.059,0.166,0.948,-0.005,0.163,0.940,0.172,-0.022,1.083,-0.116,-0.007,1.149,0.290,-0.233,1.182,-0.231,-0.183,0.990,0.173,-0.287,0.962,-0.292,-0.332,0.790,1019.579,706.151,0.948,954.567,704.455,0.940,1110.670,520.453,1.083,863.667,534.191,1.149,1193.637,352.159,1.182,737.787,364.115,0.990,1130.914,256.011,0.962,608.184,140.951,0.790,-0.035,-0.967,1.403,0.000,-12.123,0.000,0.004,0.037,0.033,0.113,-0.682,1.378
0723_094046_0017.png,0.043,0.174,0.926,-0.020,0.171,0.920,0.152,0.000,1.096,-0.130,0.009,1.133,0.150,-0.272,1.084,-0.149,-0.177,0.937,0.118,-0.342,0.836,-0.168,-0.360,0.747,1004.034,719.000,0.926,939.340,716.294,0.920,1092.197,540.302,1.096,850.535,547.442,1.133,1091.234,301.737,1.084,809.060,360.108,0.937,1094.770,150.255,0.836,746.498,82.193,0.747,-0.031,-0.976,1.404,0.000,-6.487,0.000,0.039,-0.016,0.015,0.174,-1.191,1.349
0723_094046_0018.png,0.027,0.173,0.940,-0.039,0.175,0.946,0.151,-0.003,1.122,-0.145,-0.002,1.127,0.137,-0.241,0.992,-0.279,-0.216,1.216,-0.016,-0.340,0.799,-0.368,-0.291,0.977,986.960,715.591,0.940,921.288,716.372,0.946,1087.831,537.539,1.122,838.032,538.557,1.127,1091.451,308.682,0.992,741.949,371.186,1.216,941.188,134.865,0.799,601.537,256.326,0.977,-0.038,-0.970,1.403,0.000,0.140,0.000,0.005,0.012,-0.011,-0.244,-0.873,1.164
0723_094046_0019.png,0.040,0.161,0.927,-0.026,0.158,0.926,0.163,-0.011,1.095,-0.126,0.001,1.149,0.143,-0.255,0.969,-0.129,-0.178,0.929,-0.005,-0.355,0.769,-0.134,-0.353,0.716,1000.838,704.976,0.927,933.724,702.671,0.926,1101.918,530.497,1.095,855.533,541.158,1.149,1100.506,289.239,0.969,827.705,358.136,0.929,954.226,101.145,0.769,782.124,71.194,0.716,-0.031,-0.962,1.401,0.000,-9.601,0.000,0.007,-0.021,-0.020,-0.142,-1.212,1.511
0723_094046_0020.png,0.038,0.150,0.935,-0.030,0.149,0.934,0.161,-0.012,1.117,-0.148,-0.007,1.138,0.124,-0.195,0.910,-0.218,-0.239,1.008,0.052,-0.356,0.703,-0.078,-0.330,0.795,999.142,692.280,0.935,929.416,691.175,0.934,1097.057,529.868,1.117,836.733,534.184,1.138,1089.721,336.263,0.910,754.571,314.853,1.008,1029.914,58.539,0.703,866.896,144.585,0.795,-0.034,-0.961,1.401,0.000,-2.915,0.000,-0.042,0.008,-0.023,0.014,-1.204,1.539
0723_094046_0021.png,0.009,0.184,0.926,-0.056,0.186,0.932,0.131,-0.002,1.122,-0.165,-0.005,1.107,0.216,-0.177,0.938,-0.189,-0.258,1.015,0.297,-0.348,0.760,-0.054,-0.340,0.810,969.371,729.234,0.926,902.740,730.124,0.932,1070.729,538.433,1.122,818.021,535.654,1.107,1178.756,360.553,0.938,783.237,298.634,1.015,1332.096,103.894,0.760,896.305,141.171,0.810,-0.027,-0.965,1.402,0.000,-356.052,0.000,0.002,-0.037,0.026,-0.195,-0.823,1.251
0723_094046_0022.png,0.011,0.163,0.934,-0.053,0.166,0.937,0.116,-0.003,1.148,-0.172,-0.015,1.098,0.244,-0.219,1.247,-0.130,-0.234,0.941,0.398,-0.280,1.041,-0.055,-0.365,0.721,971.367,706.409,0.934,905.746,708.302,0.937,1055.924,537.226,1.148,811.453,527.276,1.098,1146.295,373.043,1.247,828.736,303.100,0.941,1323.576,283.846,1.041,886.899,58.943,0.721,-0.034,-0.961,1.401,0.000,-348.829,0.000,0.017,-0.005,-0.009,0.125,-0.998,1.317
0723_094046_0023.png,0.021,0.168,0.935,-0.047,0.168,0.933,0.136,0.003,1.130,-0.171,0.001,1.120,0.281,-0.224,1.175,-0.258,-0.246,1.040,0.190,-0.295,0.932,-0.253,-0.332,0.785,981.698,711.245,0.935,912.438,711.141,0.933,1074.091,542.850,1.130,814.649,540.908,1.120,1187.097,359.085,1.175,724.184,314.728,1.040,1154.098,238.810,0.932,653.771,137.591,0.785,-0.025,-0.972,1.403,0.000,-356.895,0.000,-0.033,0.001,-0.020,0.152,-0.998,1.681
0723_094046_0024.png,0.029,0.171,0.930,-0.035,0.170,0.933,0.154,-0.005,1.100,-0.131,0.006,1.146,0.224,-0.269,1.115,-0.188,-0.173,0.932,0.060,-0.323,0.912,-0.246,-0.348,0.725,989.542,714.426,0.930,923.987,713.456,0.933,1093.433,536.077,1.100,850.902,545.105,1.146,1151.154,310.972,1.115,768.271,363.938,0.932,1022.042,203.324,0.912,637.440,84.080,0.725,-0.026,-0.969,1.403,0.000,-8.308,0.000,0.024,-0.012,-0.025,-0.253,-0.983,1.671
0723_094046_0025.png,0.040,0.161,0.942,-0.027,0.158,0.939,0.160,-0.007,1.107,-0.140,0.002,1.146,0.286,-0.189,1.252,-0.300,-0.206,1.072,0.250,-0.276,0.999,-0.309,-0.322,0.828,1000.662,702.345,0.942,932.973,700.355,0.939,1097.168,534.380,1.107,843.593,542.014,1.146,1177.096,396.281,1.252,693.396,357.475,1.072,1197.543,277.648,0.999,605.600,170.124,0.828,-0.029,-0.972,1.404,0.000,-6.432,0.000,-0.019,0.031,-0.026,0.026,-1.096,1.322
0723_094046_0026.png,-0.003,0.170,0.948,-0.069,0.172,0.951,0.100,0.001,1.159,-0.189,-0.013,1.097,0.149,-0.242,1.038,-0.294,-0.233,0.974,-0.008,-0.331,0.841,-0.325,-0.355,0.733,956.864,710.754,0.948,891.125,712.237,0.951,1042.339,540.732,1.159,795.965,528.593,1.097,1096.302,318.622,1.038,672.853,312.110,0.974,950.912,165.680,0.841,538.224,79.533,0.733,-0.024,-0.966,1.402,0.000,-346.604,0.000,0.002,0.023,-0.034,0.180,-0.719,1.432
0723_094046_0027.png,0.050,0.154,0.936,-0.017,0.153,0.939,0.178,-0.021,1.084,-0.114,-0.005,1.153,0.191,-0.283,1.055,-0.180,-0.217,1.006,-0.001,-0.309,0.879,-0.073,-0.331,0.795,1010.396,696.233,0.936,942.919,694.693,0.939,1115.850,521.800,1.084,865.799,536.053,1.153,1132.673,285.170,1.055,789.507,335.180,1.006,959.233,205.285,0.879,872.369,144.623,0.795,-0.037,-0.966,1.402,0.000,-12.548,0.000,-0.012,0.032,0.012,-0.304,-1.021,1.359
0723_094046_0028.png,0.041,0.160,0.929,-0.026,0.157,0.929,0.167,-0.017,1.086,-0.125,-0.002,1.154,0.189,-0.247,0.940,-0.198,-0.259,1.098,0.173,-0.363,0.701,-0.148,-0.324,0.845,1001.885,703.403,0.929,933.799,701.027,0.929,1106.401,524.702,1.086,857.112,538.474,1.154,1151.194,289.689,0.940,788.960,315.367,1.098,1195.221,47.760,0.701,793.228,175.432,0.845,-0.027,-0.960,1.401,0.000,-12.259,0.000,-0.011,-0.012,-0.009,-0.192,-1.052,1.635
0723_094046_0029.png,0.011,0.169,0.933,-0.057,0.170,0.934,0.129,-0.001,1.131,-0.179,-0.008,1.104,0.274,-0.220,1.205,-0.307,-0.244,1.138,0.387,-0.275,0.978,-0.314,-0.299,0.885,971.385,711.895,0.933,901.796,712.863,0.934,1068.252,538.937,1.131,806.058,533.460,1.104,1176.215,366.724,1.205,703.446,335.760,1.138,1336.047,272.275,0.978,622.366,219.118,0.885,-0.025,-0.971,1.403,0.000,-353.579,0.000,-0.040,0.005,0.023,0.054,-0.994,1.243
0723_094046_0030.png,0.018,0.157,0.921,-0.049,0.159,0.924,0.139,-0.007,1.119,-0.164,-0.010,1.108,0.147,-0.225,0.973,-0.266,-0.226,0.993,0.124,-0.340,0.749,-0.254,-0.337,0.767,978.613,702.584,0.921,909.562,703.749,0.924,1078.147,533.875,1.119,819.441,531.751,1.108,1103.247,320.292,0.973,704.995,324.057,0.993,1117.653,107.773,0.749,645.127,122.186,0.767,-0.030,-0.965,1.402,0.000,-356.794,0.000,-0.021,-0.017,0.042,-0.077,-1.287,1.284
0723_094046_0031.png,0.039,0.181,0.939,-0.028,0.181,0.939,0.163,-0.005,1.109,-0.140,0.002,1.140,0.109,-0.186,0.901,-0.246,-0.192,1.303,0.055,-0.362,0.698,-0.285,-0.268,1.047,999.549,723.753,0.939,931.161,723.263,0.939,1100.028,535.649,1.109,843.502,541.709,1.140,1074.658,343.672,0.901,780.313,399.854,1.303,1035.421,46.507,0.698,700.997,296.188,1.047,-0.035,-0.965,1.402,0.000,-4.820,0.000,-0.026,-0.015,-0.026,-0.107,-0.843,1.189
0723_094046_0032.png,0.000,0.158,0.928,-0.068,0.161,0.928,0.104,0.001,1.152,-0.196,-0.014,1.083,0.070,-0.170,0.939,-0.301,-0.235,0.963,0.033,-0.336,0.730,-0.329,-0.343,0.727,959.926,702.253,0.928,890.108,704.699,0.928,1046.004,541.204,1.152,787.833,527.351,1.083,1030.464,367.297,0.939,662.371,308.393,0.963,1002.654,101.904,0.730,529.850,90.816,0.727,-0.023,-0.967,1.402,0.000,-345.557,0.000,-0.039,-0.002,0.012,0.249,-1.123,1.495
0723_094046_0033.png,0.040,0.181,0.934,-0.024,0.179,0.929,0.153,-0.005,1.101,-0.133,0.003,1.135,0.110,-0.189,0.905,-0.242,-0.198,1.285,0.069,-0.370,0.715,-0.285,-0.285,1.041,1000.860,724.718,0.934,935.758,723.423,0.929,1092.089,535.533,1.101,848.104,542.185,1.135,1075.384,341.081,0.905,780.643,393.165,1.285,1051.970,48.022,0.715,699.622,279.365,1.041,-0.032,-0.968,1.403,0.000,-5.741,0.000,0.028,-0.020,0.005,0.086,-0.933,1.152
0723_094046_0034.png,0.059,0.158,0.936,-0.004,0.152,0.927,0.169,-0.019,1.085,-0.109,-0.003,1.152,0.281,-0.234,1.197,-0.116,-0.207,0.975,0.391,-0.300,0.972,-0.061,-0.355,0.766,1019.774,700.513,0.936,955.792,696.260,0.927,1108.561,523.774,1.085,870.253,537.441,1.152,1183.364,353.882,1.197,846.637,338.129,0.975,1342.808,246.778,0.972,884.529,99.235,0.766,-0.036,-0.963,1.402,0.000,-12.722,0.000,0.035,0.007,0.005,0.142,-1.095,1.484
0723_094046_0035.png,0.018,0.158,0.931,-0.045,0.160,0.933,0.125,-0.003,1.131,-0.157,-0.008,1.112,0.127,-0.242,1.007,-0.237,-0.239,1.003,0.000,-0.350,0.809,-0.149,-0.353,0.785,977.927,701.581,0.931,913.938,702.684,0.933,1065.221,537.333,1.131,825.410,533.460,1.112,1079.877,311.774,1.007,735.763,313.373,1.003,960.569,128.545,0.809,780.076,112.390,0.785,-0.031,-0.968,1.403,0.000,-354.785,0.000,0.046,0.007,0.005,0.048,-1.183,1.305
0723_094046_0036.png,0.012,0.160,0.934,-0.055,0.163,0.941,0.135,-0.007,1.131,-0.167,-0.013,1.106,0.232,-0.225,1.250,-0.217,-0.260,1.028,0.279,-0.270,1.002,-0.071,-0.322,0.823,971.953,702.973,0.934,904.727,704.726,0.941,1073.172,533.976,1.131,816.805,528.929,1.106,1136.377,368.843,1.250,758.818,299.378,1.028,1224.721,283.446,1.002,877.405,167.860,0.823,-0.033,-0.968,1.403,0.000,-353.987,0.000,-0.018,0.021,0.029,-0.164,-0.935,1.363
0723_094046_0037.png,0.007,0.164,0.932,-0.058,0.167,0.936,0.110,-0.004,1.151,-0.177,-0.019,1.083,0.198,-0.249,1.088,-0.259,-0.264,1.008,0.029,-0.313,0.900,-0.127,-0.338,0.798,967.446,707.588,0.932,901.039,709.573,0.936,1050.581,536.881,1.151,804.079,522.919,1.083,1132.681,322.555,1.088,715.817,290.836,1.008,990.210,209.169,0.900,808.264,137.537,0.798,-0.035,-0.963,1.401,0.000,-345.136,0.000,0.005,0.000,0.018,0.163,-0.824,1.608
0723_094046_0038.png,0.002,0.175,0.931,-0.061,0.178,0.938,0.106,0.004,1.145,-0.173,-0.011,1.081,0.049,-0.166,0.944,-0.162,-0.233,0.939,-0.006,-0.332,0.749,-0.128,-0.363,0.722,961.996,718.888,0.931,897.907,720.743,0.938,1047.871,543.057,1.145,807.361,530.322,1.081,1009.391,372.701,0.944,795.978,304.118,0.939,951.940,118.519,0.749,791.108,61.250,0.722,-0.034,-0.973,1.404,0.000,-345.622,0.000,0.034,0.007,0.032,0.034,-0.802,1.314
0723_094046_0039.png,0.009,0.158,0.935,-0.056,0.160,0.936,0.112,-0.001,1.153,-0.179,-0.013,1.101,0.050,-0.178,0.938,-0.272,-0.181,1.294,-0.008,-0.352,0.729,-0.276,-0.277,1.039,969.630,700.728,0.935,902.855,702.838,0.936,1052.441,539.407,1.153,805.242,529.104,1.101,1010.680,359.411,0.938,760.087,406.915,1.294,949.345,80.710,0.729,707.785,286.874,1.039,-0.030,-0.961,1.401,0.000,-348.494,0.000,0.003,-0.003,-0.034,0.204,-1.134,1.399
0723_094046_0040.png,0.045,0.170,0.939,-0.023,0.168,0.935,0.161,-0.004,1.108,-0.146,0.002,1.133,0.228,-0.260,1.066,-0.280,-0.204,1.245,0.057,-0.307,0.868,-0.395,-0.267,1.016,1005.110,712.047,0.939,936.164,710.588,0.935,1098.432,536.525,1.108,837.804,541.401,1.133,1163.613,307.918,1.066,746.193,384.385,1.245,1022.454,203.468,0.868,589.966,290.605,1.016,-0.034,-0.974,1.404,0.000,-3.583,0.000,-0.037,0.018,0.005,0.158,-0.967,1.352
0723_094046_0041.png,-0.001,0.162,0.926,-0.069,0.166,0.933,0.119,0.000,1.147,-0.186,-0.013,1.091,0.232,-0.211,1.020,-0.232,-0.276,1.040,0.274,-0.327,0.789,-0.055,-0.316,0.846,959.020,706.343,0.926,889.828,709.550,0.933,1058.312,540.246,1.147,797.663,529.068,1.091,1175.954,343.603,1.020,747.920,287.818,1.040,1289.561,145.697,0.789,898.029,184.555,0.846,-0.029,-0.965,1.402,0.000,-348.179,0.000,-0.045,-0.009,0.006,-0.081,-1.032,1.539
0723_094046_0042.png,0.049,0.172,0.928,-0.015,0.168,0.922,0.164,-0.016,1.080,-0.124,-0.002,1.139,0.278,-0.255,1.148,-0.220,-0.252,1.120,0.176,-0.308,0.922,-0.199,-0.317,0.876,1010.702,715.913,0.928,944.439,713.686,0.922,1104.222,526.172,1.080,856.835,538.226,1.139,1190.282,328.610,1.148,773.309,326.421,1.120,1141.595,221.835,0.922,743.869,195.589,0.876,-0.032,-0.965,1.402,0.000,-10.743,0.000,0.011,-0.017,0.045,0.075,-0.918,1.486
0723_094046_0043.png,0.028,0.165,0.942,-0.038,0.166,0.945,0.152,-0.008,1.119,-0.145,-0.003,1.140,0.229,-0.209,1.278,-0.224,-0.249,1.046,0.393,-0.265,1.072,-0.057,-0.329,0.851,988.143,707.051,0.942,921.731,707.045,0.945,1088.760,533.537,1.119,838.837,537.630,1.140,1130.544,384.393,1.278,756.554,313.339,1.046,1308.352,305.323,1.072,896.189,172.220,0.851,-0.031,-0.965,1.402,0.000,-2.929,0.000,-0.002,0.011,-0.037,-0.180,-1.017,1.146
0723_094046_0044.png,0.040,0.165,0.938,-0.024,0.164,0.938,0.158,-0.018,1.102,-0.128,-0.009,1.138,0.211,-0.258,0.997,-0.257,-0.218,1.034,0.134,-0.353,0.768,-0.233,-0.341,0.807,1000.195,707.406,0.938,935.464,706.734,0.938,1096.163,524.873,1.102,853.194,532.146,1.138,1161.051,294.383,0.997,723.331,339.484,1.034,1125.819,103.045,0.768,685.035,138.164,0.807,-0.036,-0.960,1.401,0.000,-6.079,0.000,0.030,0.002,0.014,-0.093,-0.772,1.641
0723_094046_0045.png,0.052,0.174,0.929,-0.011,0.169,0.920,0.162,-0.007,1.081,-0.114,0.008,1.146,0.111,-0.236,0.949,-0.247,-0.191,1.270,-0.019,-0.362,0.763,-0.309,-0.289,1.037,1013.039,718.208,0.929,949.005,714.410,0.920,1102.735,533.869,1.081,865.467,546.579,1.146,1071.570,303.590,0.949,775.173,397.069,1.270,936.870,88.399,0.763,676.283,274.945,1.037,-0.031,-0.972,1.404,0.000,-12.370,0.000,0.043,-0.015,0.011,0.132,-1.100,1.392
0723_094046_0046.png,0.002,0.148,0.933,-0.062,0.154,0.944,0.122,-0.009,1.144,-0.168,-0.020,1.095,0.266,-0.229,1.162,-0.252,-0.254,1.008,0.336,-0.298,0.925,-0.255,-0.340,0.766,961.978,691.193,0.933,897.581,694.934,0.944,1061.465,532.601,1.144,813.748,522.537,1.095,1178.024,352.573,1.162,721.745,300.110,1.008,1305.110,233.842,0.925,642.716,118.092,0.766,-0.037,-0.965,1.402,0.000,-349.054,0.000,0.007,0.032,0.026,-0.254,-1.002,1.483
0723_094046_0047.png,0.039,0.174,0.949,-0.027,0.173,0.947,0.158,-0.006,1.111,-0.139,0.002,1.143,0.233,-0.193,1.282,-0.201,-0.225,1.001,0.363,-0.264,1.058,-0.092,-0.341,0.784,998.953,714.619,0.949,932.706,713.766,0.947,1094.778,535.276,1.111,844.543,541.518,1.143,1133.051,396.733,1.282,768.623,326.594,1.001,1285.988,302.729,1.058,847.759,126.538,0.784,-0.031,-0.972,1.403,0.000,-5.143,0.000,-0.004,0.027,-0.027,-0.014,-0.775,1.303
0723_094046_0048.png,0.040,0.157,0.939,-0.025,0.155,0.937,0.159,-0.008,1.106,-0.131,0.001,1.143,0.174,-0.247,1.214,-0.230,-0.224,1.031,0.158,-0.295,0.953,-0.142,-0.338,0.809,1000.713,698.906,0.939,934.998,697.295,0.937,1096.643,533.190,1.106,850.991,540.501,1.143,1096.052,346.806,1.214,747.463,333.087,1.031,1118.058,245.862,0.953,793.166,142.393,0.809,-0.034,-0.972,1.404,0.000,-6.304,0.000,0.015,0.031,-0.012,-0.061,-1.216,1.182
0723_094046_0049.png,0.038,0.162,0.935,-0.027,0.161,0.937,0.165,-0.007,1.097,-0.125,0.006,1.153,0.174,-0.210,0.906,-0.298,-0.202,1.150,0.133,-0.370,0.688,-0.239,-0.311,0.910,998.870,705.108,0.935,932.253,703.440,0.937,1102.952,534.114,1.097,856.980,545.124,1.153,1142.579,319.199,0.906,713.786,373.046,1.150,1144.443,28.280,0.688,709.748,215.064,0.910,-0.030,-0.971,1.403,0.000,-10.155,0.000,0.005,0.016,-0.032,-0.238,-1.045,1.624
0723_094046_0050.png,0.029,0.167,0.921,-0.038,0.168,0.925,0.157,-0.005,1.103,-0.144,0.001,1.129,0.149,-0.203,0.922,-0.310,-0.214,1.175,0.087,-0.353,0.718,-0.391,-0.295,0.942,989.941,712.223,0.921,921.048,712.218,0.925,1095.616,535.478,1.103,838.708,540.633,1.129,1113.509,330.821,0.922,708.753,367.123,1.175,1075.038,72.280,0.718,565.233,241.997,0.942,-0.033,-0.968,1.403,0.000,-3.905,0.000,-0.018,-0.025,0.018,-0.234,-1.208,1.344
0723_094046_0051.png,0.047,0.157,0.936,-0.019,0.154,0.937,0.174,-0.019,1.082,-0.112,0.000,1.162,0.232,-0.239,1.217,-0.247,-0.223,1.086,0.293,-0.291,0.962,-0.130,-0.318,0.866,1007.755,699.301,0.936,940.684,696.819,0.937,1113.020,523.611,1.082,868.233,539.854,1.162,1141.425,352.898,1.217,743.245,344.243,1.086,1249.284,252.218,0.962,816.976,190.325,0.866,-0.030,-0.965,1.402,0.000,-14.899,0.000,-0.003,0.020,-0.019,-0.289,-1.023,1.506
0723_094046_0052.png,0.032,0.166,0.948,-0.035,0.165,0.947,0.154,-0.019,1.106,-0.150,-0.011,1.141,0.185,-0.215,1.280,-0.156,-0.242,1.006,0.213,-0.263,1.024,-0.101,-0.333,0.766,992.266,706.154,0.948,924.409,705.540,0.947,1092.029,523.907,1.106,835.216,531.089,1.141,1097.274,380.185,1.280,812.457,311.281,1.006,1158.047,295.840,1.024,835.206,126.617,0.766,-0.024,-0.962,1.401,0.000,-5.568,0.000,-0.028,0.024,0.006,-0.036,-0.669,1.465
0723_094046_0053.png,0.026,0.178,0.931,-0.040,0.177,0.929,0.135,0.000,1.124,-0.161,-0.003,1.108,0.249,-0.241,1.181,-0.264,-0.254,1.138,0.113,-0.297,0.967,-0.285,-0.317,0.887,986.245,721.521,0.931,919.187,721.615,0.929,1073.794,540.331,1.124,822.031,537.090,1.108,1160.867,345.980,1.181,739.276,327.461,1.138,1070.909,247.870,0.967,655.016,199.913,0.887,-0.032,-0.970,1.403,0.000,-355.554,0.000,0.004,-0.017,0.021,0.181,-0.854,1.583
0723_094046_0054.png,0.005,0.165,0.942,-0.061,0.168,0.949,0.118,-0.006,1.149,-0.176,-0.018,1.101,0.231,-0.240,1.220,-0.283,-0.205,1.259,0.297,-0.291,0.967,-0.345,-0.276,1.011,964.785,706.605,0.942,898.726,708.356,0.949,1057.978,534.643,1.149,807.831,524.859,1.101,1140.206,353.187,1.220,746.511,384.859,1.259,1251.976,254.047,0.967,635.223,280.215,1.011,-0.032,-0.961,1.401,0.000,-349.316,0.000,-0.006,0.013,-0.012,-0.024,-0.773,1.382
0723_094046_0055.png,-0.019,0.158,0.930,-0.082,0.165,0.946,0.101,-0.002,1.153,-0.185,-0.017,1.084,0.151,-0.258,1.097,-0.335,-0.218,1.175,0.120,-0.323,0.847,-0.223,-0.297,0.954,940.055,701.484,0.930,877.392,706.238,0.946,1043.169,538.600,1.153,797.722,524.729,1.084,1091.271,316.757,1.097,689.307,363.199,1.175,1094.824,177.089,0.847,737.985,243.537,0.954,-0.028,-0.967,1.402,0.000,-345.039,0.000,0.009,0.016,0.012,-0.378,-0.955,1.433
0723_094046_0056.png,-0.003,0.187,0.919,-0.067,0.191,0.929,0.110,0.011,1.139,-0.177,-0.003,1.081,0.223,-0.217,1.249,-0.268,-0.194,0.918,0.364,-0.282,1.045,-0.304,-0.362,0.726,957.142,733.776,0.919,891.631,735.907,0.929,1051.610,548.788,1.139,804.117,537.685,1.081,1129.445,375.111,1.249,682.688,339.394,0.918,1291.550,283.556,1.045,561.766,65.699,0.726,-0.030,-0.974,1.404,0.000,-347.260,0.000,0.014,-0.035,0.030,-0.124,-0.828,1.476
0723_094046_0057.png,0.021,0.167,0.938,-0.046,0.169,0.943,0.144,-0.007,1.121,-0.156,-0.008,1.117,0.170,-0.248,1.015,-0.252,-0.256,1.110,0.140,-0.332,0.774,-0.252,-0.312,0.860,981.045,709.171,0.938,914.009,709.981,0.943,1082.243,533.774,1.121,826.896,532.981,1.117,1119.275,308.016,1.015,743.916,321.030,1.110,1132.059,132.587,0.774,680.949,194.856,0.860,-0.033,-0.970,1.403,0.000,-358.057,0.000,-0.012,0.022,0.026,-0.160,-0.834,1.350
0723_094046_0058.png,0.051,0.182,0.925,-0.016,0.180,0.922,0.171,-0.009,1.080,-0.125,0.005,1.140,0.299,-0.251,1.059,-0.256,-0.222,1.077,0.352,-0.327,0.818,-0.143,-0.318,0.863,1012.252,726.933,0.925,943.571,725.232,0.922,1110.809,531.974,1.080,855.561,543.875,1.140,1228.753,314.157,1.059,734.219,343.616,1.077,1368.888,160.237,0.818,802.353,189.498,0.863,-0.035,-0.968,1.403,0.000,-10.537,0.000,-0.020,-0.031,0.032,-0.020,-0.939,1.266
0723_094046_0059.png,0.039,0.157,0.945,-0.027,0.156,0.942,0.151,-0.006,1.130,-0.148,-0.007,1.129,0.207,-0.183,0.919,-0.129,-0.228,0.966,0.263,-0.355,0.713,-0.074,-0.353,0.731,999.211,698.263,0.945,932.466,697.725,0.942,1087.316,534.671,1.130,835.584,534.481,1.129,1174.216,350.300,0.919,832.642,315.197,0.966,1310.498,66.276,0.713,863.233,80.902,0.731,-0.040,-0.967,1.402,0.000,-358.639,0.000,-0.007,0.028,-0.029,0.158,-0.941,1.686
0723_094046_0060.png,0.022,0.162,0.927,-0.044,0.162,0.928,0.143,-0.007,1.119,-0.157,-0.004,1.131,0.158,-0.189,0.905,-0.299,-0.238,1.087,0.174,-0.367,0.697,-0.203,-0.330,0.853,982.632,705.880,0.927,914.461,705.730,0.928,1081.536,534.367,1.119,828.300,536.739,1.131,1126.462,341.820,0.905,698.456,332.152,1.087,1197.940,40.160,0.697,733.705,171.639,0.853,-0.025,-0.958,1.400,0.000,-1.175,0.000,-0.010,-0.033,-0.026,-0.055,-1.116,1.704
0723_094046_0061.png,0.002,0.160,0.942,-0.064,0.163,0.949,0.114,-0.005,1.152,-0.179,-0.018,1.094,0.073,-0.194,0.962,-0.328,-0.237,1.086,-0.019,-0.342,0.761,-0.373,-0.318,0.840,961.706,701.240,0.942,895.865,703.458,0.949,1054.042,536.270,1.152,804.698,524.628,1.094,1031.777,348.156,0.962,672.458,332.194,1.086,936.320,113.179,0.761,537.196,179.428,0.840,-0.033,-0.967,1.402,0.000,-347.464,0.000,-0.005,0.034,0.001,-0.009,-0.754,1.624
0723_094046_0062.png,0.002,0.183,0.942,-0.063,0.186,0.949,0.114,0.006,1.147,-0.176,-0.005,1.100,0.149,-0.241,1.035,-0.252,-0.185,1.286,-0.013,-0.332,0.846,-0.306,-0.275,1.039,962.169,724.798,0.942,897.006,726.136,0.949,1054.896,544.950,1.147,807.776,535.877,1.100,1097.317,318.248,1.035,773.299,403.010,1.286,945.325,166.411,0.846,679.821,288.123,1.039,-0.030,-0.971,1.403,0.000,-349.457,0.000,0.008,0.005,-0.021,-0.038,-0.639,1.488
0723_094046_0063.png,0.000,0.175,0.927,-0.063,0.179,0.937,0.113,0.000,1.142,-0.171,-0.010,1.099,0.228,-0.220,1.261,-0.338,-0.215,1.047,0.401,-0.283,1.073,-0.452,-0.339,0.845,959.626,719.658,0.927,895.674,722.029,0.937,1054.426,539.872,1.142,812.149,531.365,1.099,1131.975,373.664,1.261,652.820,344.696,1.047,1315.354,289.516,1.073,452.092,159.230,0.845,-0.030,-0.961,1.401,0.000,-350.055,0.000,0.031,-0.031,-0.007,-0.177,-0.831,1.581
0723_094046_0064.png,0.048,0.158,0.941,-0.016,0.155,0.937,0.163,-0.016,1.097,-0.122,-0.005,1.143,0.085,-0.188,0.902,-0.126,-0.181,0.935,0.009,-0.356,0.712,-0.132,-0.352,0.732,1008.298,699.512,0.941,943.591,697.709,0.937,1101.363,526.419,1.097,858.466,535.663,1.143,1049.111,341.984,0.902,831.379,355.782,0.935,971.673,64.536,0.712,789.115,82.039,0.732,-0.037,-0.969,1.403,0.000,-8.130,0.000,0.027,0.033,0.015,0.002,-0.866,1.710
0723_094046_0065.png,0.045,0.158,0.930,-0.023,0.154,0.926,0.166,-0.017,1.083,-0.134,-0.002,1.150,0.164,-0.270,0.995,-0.320,-0.199,1.117,-0.015,-0.323,0.810,-0.422,-0.297,0.899,1005.578,701.274,0.930,936.203,698.063,0.926,1105.821,524.693,1.083,848.855,538.271,1.150,1116.487,281.638,0.995,687.590,370.953,1.117,941.826,160.756,0.810,513.968,225.746,0.899,-0.024,-0.965,1.402,0.000,-11.674,0.000,-0.038,0.003,0.015,-0.008,-1.166,1.361
0723_094046_0066.png,0.027,0.172,0.932,-0.042,0.173,0.937,0.158,-0.008,1.105,-0.151,-0.001,1.136,0.093,-0.193,0.916,-0.131,-0.177,0.925,-0.019,-0.345,0.728,-0.108,-0.348,0.718,987.168,715.529,0.932,917.462,715.524,0.937,1095.683,532.781,1.105,833.868,538.819,1.136,1056.500,339.505,0.916,825.766,357.581,0.925,934.880,88.484,0.728,816.837,79.767,0.718,-0.028,-0.966,1.402,0.000,-4.599,0.000,-0.044,-0.009,0.001,-0.242,-0.879,1.474
0723_094046_0067.png,-0.003,0.147,0.936,-0.066,0.154,0.950,0.118,-0.007,1.151,-0.171,-0.020,1.094,0.177,-0.248,1.060,-0.174,-0.251,0.963,0.002,-0.314,0.878,-0.140,-0.353,0.726,957.241,689.432,0.936,893.716,693.908,0.950,1057.181,534.477,1.151,811.322,522.964,1.094,1118.315,317.281,1.060,787.957,292.520,0.963,962.254,199.620,0.878,776.461,76.973,0.726,-0.038,-0.967,1.402,0.000,-347.528,0.000,0.008,0.043,0.009,-0.309,-1.029,1.362
0723_094046_0068.png,0.058,0.176,0.934,-0.008,0.171,0.927,0.174,-0.008,1.095,-0.118,0.005,1.150,0.304,-0.250,1.068,-0.202,-0.229,1.025,0.365,-0.338,0.820,-0.090,-0.343,0.809,1018.857,718.812,0.934,952.059,715.920,0.927,1111.049,533.021,1.095,862.687,543.861,1.150,1230.422,317.256,1.068,772.438,327.683,1.025,1383.185,148.150,0.820,853.836,136.311,0.809,-0.039,-0.963,1.402,0.000,-9.836,0.000,0.000,-0.027,-0.029,0.104,-1.099,1.178
0723_094046_0069.png,0.020,0.190,0.942,-0.047,0.190,0.943,0.135,0.008,1.135,-0.168,0.003,1.115,0.080,-0.175,0.926,-0.275,-0.197,1.265,0.027,-0.354,0.721,-0.342,-0.276,1.015,979.916,731.328,0.942,912.160,731.739,0.943,1072.811,546.570,1.135,816.908,542.630,1.115,1041.985,359.823,0.926,753.409,391.611,1.265,995.541,73.395,0.721,639.552,281.408,1.015,-0.031,-0.973,1.404,0.000,-354.805,0.000,-0.021,-0.006,-0.029,0.085,-0.682,1.396
0723_094046_0070.png,-0.002,0.169,0.936,-0.066,0.172,0.943,0.104,-0.005,1.149,-0.179,-0.019,1.091,0.124,-0.182,0.940,-0.220,-0.286,1.104,0.144,-0.356,0.736,-0.192,-0.333,0.847,957.961,712.093,0.936,893.514,713.923,0.943,1046.443,535.599,1.149,804.001,523.780,1.091,1085.470,355.385,0.940,770.467,293.204,1.104,1146.206,80.422,0.736,744.562,165.589,0.847,-0.028,-0.960,1.401,0.000,-347.003,0.000,0.025,-0.005,0.004,0.005,-0.805,1.269
0723_094046_0071.png,0.031,0.174,0.928,-0.036,0.174,0.926,0.145,0.010,1.126,-0.158,0.009,1.121,0.064,-0.173,0.925,-0.300,-0.173,1.272,-0.014,-0.353,0.729,-0.364,-0.279,1.030,991.384,718.611,0.928,922.609,718.462,0.926,1082.311,548.409,1.126,826.315,547.463,1.121,1025.781,361.676,0.925,735.547,410.541,1.272,941.656,80.248,0.729,623.857,282.496,1.030,-0.034,-0.975,1.404,0.000,-357.845,0.000,-0.019,-0.020,-0.030,0.128,-1.184,1.486
0723_094046_0072.png,0.005,0.158,0.939,-0.059,0.161,0.943,0.110,-0.007,1.150,-0.176,-0.021,1.088,0.207,-0.199,1.303,-0.233,-0.265,1.002,0.221,-0.266,1.054,-0.082,-0.334,0.804,965.406,699.853,0.939,900.125,701.836,0.943,1050.837,534.347,1.150,806.132,521.589,1.088,1110.975,394.917,1.303,739.173,288.817,1.002,1159.104,300.265,1.054,863.214,144.252,0.804,-0.034,-0.965,1.402,0.000,-346.302,0.000,0.013,0.028,0.019,0.115,-0.857,1.394
0723_094046_0073.png,0.020,0.172,0.930,-0.047,0.172,0.926,0.128,-0.006,1.128,-0.172,-0.011,1.108,0.196,-0.273,1.147,-0.271,-0.249,1.020,0.182,-0.314,0.889,-0.195,-0.341,0.789,979.994,716.340,0.930,911.794,716.314,0.926,1067.578,534.925,1.128,812.279,530.888,1.108,1122.771,313.376,1.147,707.616,308.233,1.020,1154.477,204.173,0.889,725.112,128.587,0.789,-0.025,-0.959,1.401,0.000,-354.911,0.000,-0.012,-0.034,0.014,0.249,-0.980,1.351
0723_094046_0074.png,0.000,0.169,0.928,-0.066,0.175,0.939,0.119,0.011,1.150,-0.178,0.000,1.099,0.081,-0.169,0.931,-0.246,-0.262,1.050,0.045,-0.346,0.718,-0.067,-0.326,0.857,959.499,713.044,0.928,892.845,717.069,0.939,1058.654,549.350,1.150,806.369,539.614,1.099,1042.605,367.013,0.931,736.702,302.962,1.050,1019.294,81.937,0.718,885.928,178.670,0.857,-0.034,-0.973,1.404,0.000,-348.802,0.000,-0.015,-0.003,-0.034,-0.188,-1.001,1.687
0723_094046_0075.png,0.051,0.171,0.934,-0.017,0.169,0.932,0.178,-0.019,1.080,-0.121,0.000,1.159,0.184,-0.285,1.012,-0.285,-0.201,1.259,0.007,-0.326,0.815,-0.449,-0.263,1.055,1011.834,713.990,0.934,942.194,711.921,0.932,1116.272,523.613,1.080,860.544,539.594,1.159,1133.328,272.552,1.012,744.506,388.291,1.259,968.075,159.104,0.815,555.520,302.771,1.055,-0.030,-0.959,1.401,0.000,-13.983,0.000,-0.042,-0.016,-0.014,-0.180,-0.929,1.269
0723_094046_0076.png,0.047,0.185,0.929,-0.020,0.183,0.927,0.169,-0.005,1.089,-0.130,0.006,1.139,0.104,-0.244,0.983,-0.291,-0.214,1.124,-0.017,-0.340,0.773,-0.199,-0.309,0.899,1008.033,728.914,0.929,939.352,727.718,0.927,1107.481,535.531,1.089,851.524,545.360,1.139,1060.453,303.609,0.983,713.772,359.084,1.124,939.567,121.970,0.773,749.412,212.981,0.899,-0.035,-0.971,1.403,0.000,-8.609,0.000,-0.021,-0.024,0.016,-0.050,-0.825,1.458
0723_094046_0077.png,0.011,0.161,0.926,-0.055,0.164,0.935,0.141,-0.014,1.115,-0.158,-0.013,1.121,0.230,-0.272,1.116,-0.294,-0.246,1.092,0.055,-0.305,0.924,-0.170,-0.317,0.875,971.035,705.524,0.926,904.125,706.965,0.935,1080.389,528.131,1.115,825.827,529.381,1.121,1156.016,308.537,1.116,704.022,326.008,1.092,1016.699,225.954,0.924,775.109,195.736,0.875,-0.027,-0.958,1.400,0.000,-0.023,0.000,-0.008,-0.019,0.024,-0.360,-1.006,1.435
0723_094046_0078.png,0.050,0.172,0.929,-0.017,0.167,0.921,0.165,-0.001,1.099,-0.134,0.010,1.146,0.248,-0.259,1.039,-0.263,-0.227,1.076,0.250,-0.344,0.781,-0.142,-0.328,0.856,1010.774,715.900,0.929,942.511,712.203,0.921,1102.740,539.187,1.099,848.884,548.172,1.146,1186.668,302.581,1.039,727.979,339.810,1.076,1264.123,121.386,0.781,802.312,176.072,0.856,-0.031,-0.969,1.403,0.000,-7.982,0.000,-0.019,-0.027,-0.031,0.181,-1.200,1.533
0723_094046_0079.png,0.004,0.180,0.923,-0.061,0.183,0.930,0.117,0.003,1.139,-0.176,-0.011,1.081,0.232,-0.222,1.053,-0.276,-0.256,1.024,0.189,-0.326,0.825,-0.182,-0.335,0.801,964.523,725.006,0.923,897.223,726.828,0.930,1058.032,542.244,1.139,804.859,530.636,1.081,1169.304,340.004,1.053,704.099,302.184,1.024,1177.615,164.054,0.825,744.252,142.179,0.801,-0.034,-0.968,1.403,0.000,-347.374,0.000,-0.010,-0.028,0.039,-0.037,-0.875,1.275
0723_094046_0080.png,0.045,0.183,0.928,-0.022,0.181,0.927,0.172,-0.007,1.086,-0.127,0.008,1.148,0.101,-0.250,0.979,-0.306,-0.185,1.241,-0.017,-0.345,0.760,-0.339,-0.285,0.996,1006.591,727.086,0.928,937.182,725.474,0.927,1110.420,534.282,1.086,854.558,546.506,1.148,1057.786,297.500,0.979,725.265,398.238,1.241,939.219,108.003,0.760,636.780,267.924,0.996,-0.031,-0.967,1.402,0.000,-10.948,0.000,-0.030,-0.032,-0.010,-0.166,-0.985,1.190
0723_094046_0081.png,0.017,0.163,0.927,-0.048,0.165,0.929,0.122,0.000,1.145,-0.169,-0.010,1.103,0.147,-0.237,1.003,-0.244,-0.200,1.291,0.024,-0.350,0.796,-0.288,-0.285,1.039,977.049,706.821,0.927,910.391,708.815,0.929,1061.002,540.094,1.145,814.571,531.709,1.103,1099.295,315.589,1.003,780.274,393.005,1.291,988.748,121.305,0.796,696.874,279.346,1.039,-0.035,-0.960,1.401,0.000,-350.318,0.000,0.011,-0.029,-0.024,0.140,-1.161,1.469
0723_094046_0082.png,0.016,0.170,0.920,-0.050,0.172,0.925,0.135,0.002,1.126,-0.160,0.001,1.118,0.221,-0.251,1.211,-0.245,-0.252,1.208,0.264,-0.309,0.952,-0.242,-0.311,0.945,976.204,715.340,0.920,908.832,716.663,0.925,1074.439,542.055,1.126,823.504,540.613,1.118,1133.740,342.731,1.211,767.380,341.530,1.208,1223.987,231.016,0.952,716.190,227.336,0.945,-0.029,-0.964,1.402,0.000,-357.347,0.000,0.003,-0.045,-0.018,-0.115,-1.173,1.571
0723_094046_0083.png,0.020,0.186,0.929,-0.044,0.187,0.933,0.138,0.001,1.114,-0.149,0.003,1.119,0.285,-0.226,1.115,-0.185,-0.246,1.018,0.387,-0.324,0.897,-0.164,-0.355,0.783,980.455,730.828,0.929,915.541,731.150,0.933,1077.686,541.267,1.114,833.021,542.382,1.119,1203.400,347.637,1.115,787.611,310.422,1.018,1369.753,196.878,0.897,761.186,108.097,0.783,-0.029,-0.971,1.403,0.000,-0.001,0.000,0.032,-0.026,0.012,-0.131,-0.760,1.553
0723_094046_0084.png,0.022,0.167,0.924,-0.045,0.168,0.926,0.136,0.000,1.130,-0.164,-0.005,1.108,0.167,-0.242,1.009,-0.162,-0.229,0.954,0.144,-0.344,0.766,-0.089,-0.356,0.734,982.361,711.914,0.924,913.715,713.012,0.926,1074.702,539.612,1.130,819.060,535.310,1.108,1117.782,311.572,1.009,798.712,311.580,0.954,1139.234,113.423,0.766,844.059,79.268,0.734,-0.034,-0.964,1.402,0.000,-354.576,0.000,-0.015,-0.030,0.001,0.058,-1.213,1.270
0723_094046_0085.png,0.035,0.159,0.944,-0.030,0.158,0.946,0.159,-0.022,1.084,-0.125,-0.006,1.154,0.144,-0.282,1.079,-0.173,-0.195,0.973,0.110,-0.325,0.827,-0.151,-0.344,0.760,995.512,700.178,0.944,930.224,699.047,0.946,1099.393,520.788,1.084,857.095,535.334,1.154,1086.880,291.703,1.079,790.860,349.090,0.973,1086.470,166.579,0.827,771.288,109.634,0.760,-0.021,-0.968,1.402,0.000,-13.155,0.000,0.014,0.045,0.016,-0.295,-0.765,1.461
0723_094046_0086.png,0.050,0.178,0.925,-0.017,0.174,0.919,0.167,-0.008,1.076,-0.128,0.007,1.143,0.162,-0.234,0.937,-0.229,-0.245,1.175,0.134,-0.351,0.713,-0.191,-0.296,0.925,1011.173,722.949,0.925,942.725,720.232,0.919,1108.028,532.550,1.076,853.609,545.828,1.143,1124.643,302.592,0.937,774.722,341.987,1.175,1138.648,71.100,0.713,763.258,235.435,0.925,-0.029,-0.972,1.404,0.000,-11.961,0.000,-0.021,-0.021,0.035,0.061,-1.015,1.368
0723_094046_0087.png,0.036,0.155,0.932,-0.031,0.154,0.932,0.157,-0.003,1.115,-0.142,0.003,1.138,0.191,-0.259,1.025,-0.182,-0.236,1.007,0.169,-0.343,0.769,-0.083,-0.344,0.780,996.507,697.985,0.932,928.535,696.984,0.932,1094.054,537.701,1.115,840.982,542.166,1.138,1137.536,299.985,1.025,787.950,316.880,1.007,1169.487,116.089,0.769,858.353,120.506,0.780,-0.034,-0.971,1.403,0.000,-3.332,0.000,-0.012,0.010,-0.028,-0.040,-1.276,1.544
0723_094046_0088.png,0.015,0.141,0.934,-0.049,0.144,0.941,0.132,-0.016,1.133,-0.155,-0.020,1.114,0.138,-0.256,1.020,-0.269,-0.200,1.271,-0.015,-0.335,0.828,-0.332,-0.276,1.031,975.181,683.696,0.934,910.853,686.009,0.941,1071.151,526.723,1.133,827.310,522.821,1.114,1088.984,301.053,1.020,758.698,390.638,1.271,942.521,155.357,0.828,654.086,285.077,1.031,-0.035,-0.959,1.401,0.000,-355.005,0.000,0.028,0.025,0.014,-0.168,-1.139,1.477
0723_094046_0089.png,0.047,0.187,0.936,-0.021,0.185,0.933,0.168,-0.002,1.100,-0.136,0.007,1.139,0.145,-0.263,1.022,-0.281,-0.216,1.072,-0.017,-0.329,0.819,-0.318,-0.323,0.830,1007.448,729.895,0.936,938.554,728.871,0.933,1105.040,538.487,1.100,846.697,546.077,1.139,1094.789,294.884,1.022,710.837,347.973,1.072,940.622,157.617,0.819,596.421,170.043,0.830,-0.036,-0.971,1.403,0.000,-6.394,0.000,-0.031,-0.017,-0.010,0.011,-0.848,1.174
0723_094046_0090.png,-0.009,0.168,0.927,-0.075,0.172,0.936,0.109,-0.002,1.144,-0.188,-0.016,1.084,0.202,-0.169,0.959,-0.284,-0.244,1.195,0.289,-0.331,0.776,-0.336,-0.291,0.947,950.795,712.107,0.927,883.809,714.680,0.936,1050.991,538.406,1.144,795.362,526.222,1.084,1160.625,372.638,0.959,733.864,345.439,1.195,1314.292,134.720,0.776,622.509,247.721,0.947,-0.025,-0.966,1.402,0.000,-347.125,0.000,-0.022,-0.005,0.035,-0.145,-0.876,1.429
0723_094046_0091.png,0.053,0.164,0.937,-0.009,0.159,0.928,0.162,-0.012,1.102,-0.120,-0.002,1.145,0.264,-0.200,1.270,-0.269,-0.211,1.224,0.300,-0.295,1.022,-0.314,-0.304,0.976,1014.217,706.340,0.937,950.400,703.002,0.928,1099.711,530.014,1.102,860.270,538.625,1.145,1157.573,390.322,1.270,751.303,375.961,1.224,1238.580,265.625,1.022,653.808,243.808,0.976,-0.037,-0.962,1.401,0.000,-7.751,0.000,0.039,-0.008,-0.020,0.221,-1.096,1.447
0723_094046_0092.png,0.029,0.172,0.946,-0.037,0.172,0.947,0.150,-0.006,1.121,-0.149,-0.002,1.138,0.094,-0.186,0.905,-0.282,-0.197,1.266,0.041,-0.362,0.695,-0.460,-0.262,1.075,989.158,712.644,0.946,922.421,712.498,0.947,1087.438,534.859,1.121,835.463,538.135,1.138,1058.797,344.465,0.905,748.390,392.167,1.266,1016.346,44.713,0.695,552.954,307.990,1.075,-0.030,-0.966,1.402,0.000,-2.098,0.000,-0.009,0.013,-0.036,-0.074,-0.769,1.511
0723_094046_0093.png,0.008,0.182,0.936,-0.055,0.185,0.944,0.121,0.000,1.137,-0.164,-0.007,1.105,0.222,-0.212,1.272,-0.313,-0.218,1.033,0.203,-0.292,1.021,-0.402,-0.343,0.821,967.945,724.859,0.936,904.303,725.986,0.944,1061.041,540.186,1.137,819.138,534.023,1.105,1126.280,381.335,1.272,672.133,339.609,1.033,1149.392,268.113,1.021,493.585,142.789,0.821,-0.032,-0.966,1.402,0.000,-352.407,0.000,0.036,-0.011,-0.003,-0.120,-0.726,1.248
0723_094046_0094.png,0.045,0.156,0.939,-0.023,0.153,0.933,0.160,-0.015,1.112,-0.150,-0.010,1.133,0.277,-0.258,1.094,-0.303,-0.235,1.134,0.154,-0.306,0.866,-0.312,-0.300,0.881,1005.561,697.693,0.939,936.223,695.735,0.933,1096.482,527.290,1.112,834.068,531.532,1.133,1200.513,315.799,1.094,705.584,343.337,1.134,1129.321,204.220,0.866,623.016,216.541,0.881,-0.033,-0.962,1.401,0.000,-2.768,0.000,-0.045,0.012,0.007,0.241,-1.040,1.491
0723_094046_0095.png,0.037,0.157,0.939,-0.028,0.156,0.938,0.155,-0.019,1.099,-0.135,-0.010,1.140,0.168,-0.263,0.998,-0.249,-0.195,1.290,0.012,-0.333,0.806,-0.289,-0.268,1.047,997.216,698.828,0.939,931.421,697.647,0.938,1094.544,523.302,1.099,847.585,531.693,1.140,1120.301,289.463,0.998,776.608,396.287,1.290,974.231,146.423,0.806,697.753,296.884,1.047,-0.029,-0.964,1.402,0.000,-7.009,0.000,0.013,0.024,0.024,-0.082,-1.033,1.088
0723_094046_0096.png,0.046,0.172,0.928,-0.018,0.171,0.929,0.169,-0.015,1.082,-0.117,-0.001,1.142,0.119,-0.191,0.890,-0.255,-0.192,1.274,0.069,-0.362,0.703,-0.322,-0.275,1.043,1007.488,716.471,0.928,941.136,715.264,0.929,1108.651,527.165,1.082,862.702,539.386,1.142,1087.341,336.113,0.890,769.456,396.652,1.274,1053.361,49.830,0.703,666.142,289.143,1.043,-0.037,-0.967,1.402,0.000,-11.043,0.000,0.015,-0.010,0.035,-0.213,-0.937,1.260
0723_094046_0097.png,0.023,0.174,0.945,-0.043,0.174,0.946,0.138,-0.010,1.129,-0.158,-0.011,1.125,0.115,-0.188,0.911,-0.311,-0.192,1.256,0.094,-0.362,0.698,-0.365,-0.285,1.010,982.694,714.987,0.945,916.584,715.170,0.946,1076.585,531.618,1.129,826.240,530.795,1.125,1080.388,343.383,0.911,724.755,394.355,1.256,1088.199,46.275,0.698,616.545,271.980,1.010,-0.030,-0.959,1.400,0.000,-358.020,0.000,0.001,-0.004,-0.019,0.016,-0.697,1.382
0723_094046_0098.png,0.039,0.171,0.940,-0.026,0.167,0.933,0.153,-0.002,1.107,-0.142,0.006,1.142,0.258,-0.242,1.033,-0.270,-0.194,1.269,0.286,-0.342,0.785,-0.338,-0.277,1.021,999.735,712.907,0.940,933.237,710.577,0.933,1091.035,538.234,1.107,841.464,545.017,1.142,1197.829,317.579,1.033,757.859,394.431,1.269,1307.051,125.600,0.785,645.411,281.804,1.021,-0.026,-0.973,1.404,0.000,-5.802,0.000,-0.001,0.009,-0.025,0.152,-0.963,1.605
0723_094046_0099.png,0.032,0.165,0.929,-0.031,0.164,0.928,0.141,-0.007,1.121,-0.143,-0.008,1.118,0.239,-0.242,1.035,-0.222,-0.267,1.146,0.197,-0.351,0.802,-0.189,-0.327,0.894,992.739,708.413,0.929,928.409,708.302,0.928,1079.234,533.833,1.121,838.415,533.437,1.118,1179.845,317.536,1.035,776.233,318.460,1.146,1193.848,124.226,0.802,758.523,191.937,0.894,-0.038,-0.963,1.401,0.000,-358.420,0.000,0.045,-0.017,0.011,0.094,-1.011,1.587
0723_094046_0100.png,0.041,0.174,0.921,-0.024,0.170,0.915,0.157,-0.007,1.083,-0.129,0.007,1.143,0.110,-0.241,0.955,-0.251,-0.183,0.994,-0.018,-0.357,0.760,-0.323,-0.344,0.799,1001.987,719.588,0.921,935.029,716.269,0.915,1098.185,533.723,1.083,852.255,545.495,1.143,1069.969,300.066,0.955,719.412,364.836,0.994,937.642,93.171,0.760,576.224,130.917,0.799,-0.024,-0.967,1.402,0.000,-10.910,0.000,0.012,-0.042,0.011,0.036,-1.203,1.387
0723_094046_0101.png,0.018,0.186,0.933,-0.046,0.187,0.936,0.132,0.005,1.124,-0.157,0.004,1.120,0.191,-0.200,1.299,-0.266,-0.215,0.999,0.300,-0.280,1.070,-0.327,-0.356,0.780,977.932,729.595,0.933,912.875,729.999,0.936,1071.720,544.543,1.124,826.971,543.760,1.120,1099.972,393.882,1.299,706.555,335.278,0.999,1226.696,290.625,1.070,561.396,106.336,0.780,-0.028,-0.971,1.403,0.000,-357.992,0.000,0.027,-0.021,-0.017,-0.042,-0.828,1.415
0723_094046_0102.png,0.003,0.162,0.923,-0.063,0.168,0.934,0.126,-0.001,1.140,-0.171,-0.010,1.103,0.096,-0.179,0.926,-0.304,-0.251,1.097,0.065,-0.353,0.718,-0.179,-0.321,0.874,962.767,706.975,0.923,896.138,710.599,0.934,1065.471,539.079,1.140,812.364,531.655,1.103,1058.238,355.982,0.926,696.436,322.426,1.097,1046.666,72.478,0.718,765.476,190.271,0.874,-0.033,-0.962,1.401,0.000,-351.501,0.000,-0.011,-0.026,-0.008,-0.259,-1.065,1.632
0723_094046_0103.png,0.002,0.175,0.929,-0.062,0.178,0.936,0.114,0.006,1.143,-0.173,-0.003,1.103,0.051,-0.178,0.938,-0.321,-0.232,1.123,-0.008,-0.359,0.740,-0.393,-0.328,0.884,962.444,719.049,0.929,897.310,721.326,0.936,1055.092,544.633,1.143,810.514,536.994,1.103,1011.521,359.284,0.938,688.049,343.637,1.123,949.126,77.983,0.740,537.103,187.048,0.884,-0.028,-0.967,1.402,0.000,-350.828,0.000,0.021,-0.021,-0.023,-0.073,-0.884,1.678
0723_094046_0104.png,0.012,0.165,0.932,-0.053,0.169,0.940,0.136,-0.007,1.134,-0.162,-0.012,1.113,0.241,-0.252,1.077,-0.295,-0.239,1.042,0.248,-0.330,0.824,-0.341,-0.337,0.800,972.721,708.428,0.932,906.335,710.449,0.940,1074.264,534.299,1.134,821.849,530.002,1.113,1173.220,317.570,1.077,690.502,322.215,1.042,1246.486,158.500,0.824,554.835,139.172,0.800,-0.035,-0.960,1.401,0.000,-354.628,0.000,-0.006,-0.012,-0.006,-0.221,-0.889,1.585
0723_094046_0105.png,-0.003,0.142,0.939,-0.070,0.146,0.946,0.115,-0.011,1.154,-0.187,-0.024,1.100,0.134,-0.181,0.936,-0.251,-0.271,1.017,0.151,-0.345,0.723,-0.235,-0.335,0.760,957.231,683.485,0.939,889.525,686.888,0.946,1054.594,530.590,1.154,798.418,519.416,1.100,1096.039,356.325,0.936,725.489,286.579,1.017,1158.954,86.709,0.723,665.931,120.745,0.760,-0.027,-0.959,1.401,0.000,-348.438,0.000,-0.033,0.034,-0.008,-0.066,-1.148,1.259
0723_094046_0106.png,0.030,0.173,0.922,-0.034,0.175,0.927,0.155,-0.003,1.103,-0.131,0.004,1.133,0.102,-0.223,0.951,-0.283,-0.201,1.231,-0.016,-0.363,0.762,-0.456,-0.288,1.056,990.478,718.958,0.922,925.215,719.030,0.927,1093.691,537.536,1.103,850.357,543.367,1.133,1062.287,316.742,0.951,741.384,384.786,1.231,939.562,86.641,0.762,549.449,280.637,1.056,-0.036,-0.967,1.402,0.000,-4.955,0.000,0.032,-0.034,-0.002,-0.309,-1.115,1.392
0723_094046_0107.png,0.017,0.178,0.920,-0.049,0.180,0.925,0.137,0.000,1.119,-0.159,-0.003,1.106,0.284,-0.229,1.153,-0.166,-0.234,0.977,0.386,-0.305,0.931,-0.091,-0.351,0.762,977.444,723.724,0.920,910.131,724.844,0.925,1076.582,540.249,1.119,823.395,537.829,1.106,1194.298,350.719,1.153,798.122,311.703,0.977,1354.966,227.953,0.931,846.640,102.697,0.762,-0.032,-0.968,1.403,0.000,-356.394,0.000,0.002,-0.036,0.034,-0.134,-0.964,1.475
0723_094046_0108.png,0.036,0.183,0.927,-0.030,0.182,0.929,0.161,-0.011,1.092,-0.134,0.000,1.138,0.153,-0.266,0.999,-0.179,-0.175,0.932,-0.017,-0.339,0.814,-0.221,-0.346,0.731,996.943,727.298,0.927,929.158,726.704,0.929,1100.261,530.686,1.092,848.200,539.798,1.138,1105.878,286.523,0.999,777.722,361.034,0.932,940.034,144.449,0.814,672.825,89.491,0.731,-0.031,-0.962,1.401,0.000,-7.825,0.000,-0.005,-0.041,0.015,-0.204,-0.862,1.239
0723_094046_0109.png,0.036,0.162,0.932,-0.027,0.160,0.931,0.153,-0.017,1.095,-0.125,-0.006,1.143,0.242,-0.221,1.249,-0.094,-0.181,0.933,0.398,-0.285,1.057,-0.066,-0.353,0.730,996.886,704.823,0.932,932.896,703.195,0.931,1093.115,525.381,1.095,855.930,535.061,1.143,1144.436,371.464,1.249,863.974,355.798,0.933,1318.109,283.302,1.057,873.447,80.510,0.730,-0.029,-0.961,1.401,0.000,-8.748,0.000,0.048,-0.006,0.009,-0.113,-1.045,1.361
0723_094046_0110.png,0.036,0.143,0.943,-0.030,0.143,0.945,0.162,-0.020,1.110,-0.137,-0.012,1.143,0.296,-0.226,1.198,-0.296,-0.224,1.156,0.184,-0.283,0.967,-0.313,-0.298,0.904,996.752,684.197,0.943,929.726,683.710,0.945,1098.692,523.075,1.110,846.369,529.858,1.143,1195.100,360.954,1.198,716.734,355.686,1.156,1140.617,262.270,0.967,630.761,226.246,0.904,-0.035,-0.964,1.402,0.000,-5.287,0.000,-0.012,0.048,-0.002,-0.195,-1.153,1.223
0723_094046_0111.png,0.035,0.189,0.930,-0.031,0.190,0.933,0.159,-0.002,1.103,-0.139,0.003,1.127,0.234,-0.258,1.175,-0.264,-0.236,1.181,0.244,-0.305,0.919,-0.294,-0.303,0.932,995.826,733.189,0.930,928.286,733.163,0.933,1097.184,538.305,1.103,842.869,542.913,1.127,1149.693,331.061,1.175,747.732,350.302,1.181,1211.941,224.091,0.919,660.349,230.917,0.932,-0.037,-0.970,1.403,0.000,-3.469,0.000,-0.007,-0.025,0.019,-0.167,-0.726,1.369
0723_094046_0112.png,0.052,0.173,0.941,-0.013,0.169,0.935,0.168,-0.013,1.084,-0.119,0.003,1.153,0.115,-0.224,0.922,-0.219,-0.168,0.958,0.033,-0.362,0.712,-0.317,-0.335,0.768,1012.909,714.626,0.941,946.907,712.303,0.935,1107.662,528.543,1.084,861.734,542.240,1.153,1078.536,308.869,0.922,742.247,372.950,0.958,1003.621,56.725,0.712,567.143,125.623,0.768,-0.030,-0.970,1.403,0.000,-12.597,0.000,0.003,0.013,-0.001,0.020,-0.854,1.312
0723_094046_0113.png,0.021,0.184,0.930,-0.044,0.186,0.936,0.140,0.006,1.126,-0.153,0.003,1.114,0.207,-0.228,1.002,-0.247,-0.233,1.016,0.230,-0.352,0.769,-0.177,-0.349,0.789,981.674,727.846,0.930,915.722,728.838,0.936,1078.468,544.658,1.126,829.467,542.479,1.114,1156.718,323.630,1.002,728.793,321.852,1.016,1244.024,105.179,0.769,746.467,119.319,0.789,-0.037,-0.972,1.404,0.000,-356.552,0.000,0.012,-0.018,-0.005,-0.143,-0.916,1.207
0723_094046_0114.png,0.039,0.168,0.932,-0.025,0.164,0.926,0.153,-0.010,1.088,-0.128,0.004,1.147,0.090,-0.191,0.888,-0.240,-0.170,0.963,0.031,-0.368,0.693,-0.350,-0.339,0.785,999.722,711.535,0.932,934.634,708.434,0.926,1094.192,531.279,1.088,853.826,543.085,1.147,1056.774,335.453,0.888,723.321,372.347,0.963,1001.888,34.818,0.693,536.084,128.779,0.785,-0.022,-0.969,1.403,0.000,-11.082,0.000,0.030,-0.004,0.003,0.027,-1.180,1.136
0723_094046_0115.png,0.041,0.171,0.925,-0.022,0.168,0.922,0.160,-0.005,1.093,-0.121,0.007,1.145,0.069,-0.189,0.907,-0.288,-0.187,1.235,-0.017,-0.370,0.726,-0.376,-0.300,1.010,1002.661,715.876,0.925,937.252,713.356,0.922,1099.356,535.879,1.093,859.255,546.062,1.145,1032.279,341.873,0.907,738.516,396.205,1.235,937.624,54.728,0.726,606.344,257.393,1.010,-0.032,-0.968,1.403,0.000,-9.637,0.000,0.035,-0.029,-0.013,-0.078,-1.183,1.442
0723_094046_0116.png,-0.008,0.158,0.933,-0.073,0.163,0.942,0.102,-0.001,1.156,-0.186,-0.014,1.100,0.056,-0.181,0.937,-0.219,-0.263,0.983,0.015,-0.357,0.724,-0.076,-0.356,0.771,951.792,700.966,0.933,886.621,704.697,0.942,1043.649,539.007,1.156,799.318,527.844,1.100,1016.802,356.588,0.937,748.099,285.282,0.983,979.349,70.687,0.724,866.393,101.221,0.771,-0.024,-0.960,1.401,0.000,-347.542,0.000,0.012,-0.005,-0.041,-0.082,-1.147,1.223
0723_094046_0117.png,0.017,0.159,0.942,-0.050,0.159,0.940,0.128,-0.008,1.139,-0.173,-0.013,1.116,0.283,-0.227,1.095,-0.262,-0.217,0.955,0.317,-0.319,0.846,-0.284,-0.353,0.725,977.347,700.791,0.942,909.777,701.203,0.940,1066.875,533.675,1.139,812.810,529.091,1.116,1205.992,343.166,1.095,699.291,324.100,0.955,1316.496,181.021,0.846,587.280,77.299,0.725,-0.026,-0.962,1.401,0.000,-354.390,0.000,-0.016,0.012,-0.017,0.172,-0.974,1.424
0723_094046_0118.png,0.056,0.168,0.945,-0.007,0.164,0.936,0.166,-0.009,1.100,-0.115,0.003,1.151,0.278,-0.243,1.156,-0.293,-0.195,1.166,0.337,-0.318,0.906,-0.427,-0.305,0.961,1016.317,709.530,0.945,952.769,706.507,0.936,1103.542,532.242,1.100,864.751,542.252,1.151,1189.161,340.085,1.156,721.344,381.042,1.166,1314.063,206.502,0.906,537.708,238.100,0.961,-0.037,-0.969,1.403,0.000,-9.347,0.000,0.037,0.016,-0.027,0.171,-1.047,1.142
0723_094046_0119.png,0.049,0.161,0.937,-0.017,0.158,0.934,0.171,-0.022,1.079,-0.115,-0.004,1.157,0.295,-0.259,1.100,-0.292,-0.199,1.213,0.248,-0.321,0.849,-0.219,-0.287,0.977,1009.819,703.317,0.937,943.065,700.955,0.934,1110.921,520.497,1.079,865.676,536.640,1.157,1214.998,316.064,1.100,731.354,384.295,1.213,1237.780,180.929,0.849,746.769,260.378,0.977,-0.029,-0.963,1.401,0.000,-14.556,0.000,0.000,0.013,0.006,-0.189,-1.002,1.191
0723_094046_0120.png,0.047,0.166,0.934,-0.018,0.162,0.931,0.167,-0.016,1.081,-0.116,0.002,1.157,0.211,-0.258,0.967,-0.160,-0.221,1.006,0.143,-0.360,0.730,-0.082,-0.348,0.787,1007.433,708.515,0.934,941.181,705.616,0.931,1106.953,526.189,1.081,864.659,541.429,1.157,1167.459,286.166,0.967,808.595,331.097,1.006,1145.745,71.541,0.730,860.791,119.920,0.787,-0.027,-0.965,1.402,0.000,-14.210,0.000,0.011,0.002,-0.010,-0.133,-1.036,1.331
0723_094046_0121.png,0.029,0.164,0.926,-0.039,0.165,0.931,0.160,-0.001,1.110,-0.145,0.005,1.135,0.193,-0.193,1.299,-0.222,-0.209,0.983,0.318,-0.258,1.071,-0.188,-0.344,0.754,989.483,708.119,0.926,920.255,708.339,0.931,1096.899,539.470,1.110,838.303,544.388,1.135,1101.441,398.483,1.299,744.886,337.259,0.983,1242.837,310.537,1.071,722.611,106.343,0.754,-0.033,-0.972,1.404,0.000,-3.727,0.000,-0.031,-0.006,-0.014,-0.257,-1.210,1.475
0723_094046_0122.png,0.035,0.180,0.941,-0.033,0.179,0.938,0.151,-0.006,1.118,-0.156,-0.004,1.124,0.272,-0.250,1.130,-0.238,-0.236,1.011,0.143,-0.301,0.904,-0.243,-0.336,0.768,995.227,721.406,0.941,926.301,720.983,0.938,1088.759,535.216,1.118,827.836,536.490,1.124,1189.051,329.413,1.130,736.053,317.582,1.011,1110.481,223.679,0.904,658.838,124.408,0.768,-0.032,-0.966,1.402,0.000,-0.053,0.000,-0.036,-0.006,0.004,0.149,-0.752,1.308
0723_094046_0123.png,0.023,0.171,0.924,-0.044,0.173,0.930,0.154,-0.001,1.101,-0.146,0.007,1.135,0.222,-0.212,1.262,-0.217,-0.240,1.047,0.366,-0.270,1.047,-0.057,-0.324,0.853,983.201,716.429,0.924,914.843,716.479,0.930,1093.214,539.230,1.101,837.668,545.810,1.135,1127.652,380.293,1.262,762.675,322.097,1.047,1292.649,294.633,1.047,896.279,179.295,0.853,-0.026,-0.973,1.404,0.000,-5.466,0.000,-0.018,-0.013,0.003,-0.330,-1.102,1.447
0723_094046_0124.png,0.037,0.177,0.923,-0.030,0.176,0.925,0.164,0.002,1.102,-0.136,0.011,1.139,0.120,-0.197,0.911,-0.246,-0.210,1.271,0.030,-0.364,0.717,-0.263,-0.284,1.012,998.563,722.145,0.923,929.616,721.143,0.925,1101.659,541.761,1.102,846.822,548.887,1.139,1085.648,334.574,0.911,775.829,383.257,1.271,999.986,56.444,0.717,712.573,272.705,1.012,-0.034,-0.970,1.403,0.000,-6.132,0.000,-0.018,-0.036,-0.025,-0.154,-1.093,1.596
0723_094046_0125.png,0.010,0.181,0.927,-0.054,0.183,0.932,0.122,0.000,1.133,-0.167,-0.009,1.096,0.206,-0.174,0.943,-0.187,-0.280,1.068,0.288,-0.345,0.758,-0.134,-0.337,0.823,970.592,725.246,0.927,904.851,726.416,0.932,1062.112,539.638,1.133,814.770,532.385,1.096,1168.226,364.108,0.943,793.740,291.179,1.068,1321.680,107.761,0.758,805.186,150.221,0.823,-0.032,-0.965,1.402,0.000,-351.480,0.000,0.018,-0.029,0.026,-0.019,-0.902,1.074
0723_094046_0126.png,0.006,0.174,0.926,-0.058,0.177,0.931,0.114,0.007,1.144,-0.175,-0.004,1.099,0.140,-0.233,1.008,-0.331,-0.228,1.091,0.129,-0.359,0.772,-0.358,-0.336,0.847,966.341,718.274,0.926,900.307,720.537,0.931,1054.488,545.592,1.144,808.975,536.899,1.099,1092.443,320.635,1.008,671.806,341.374,1.091,1119.292,98.068,0.772,558.580,162.427,0.847,-0.029,-0.967,1.402,0.000,-349.753,0.000,0.017,-0.028,-0.020,0.036,-0.958,1.687
0723_094046_0127.png,0.042,0.171,0.926,-0.026,0.170,0.928,0.171,-0.012,1.078,-0.127,0.004,1.148,0.279,-0.256,1.133,-0.277,-0.203,1.066,0.320,-0.306,0.880,-0.263,-0.318,0.834,1003.067,715.410,0.926,933.636,713.786,0.928,1110.639,529.762,1.078,854.895,543.694,1.148,1194.333,324.847,1.133,712.527,359.078,1.066,1305.258,209.679,0.880,660.639,177.599,0.834,-0.029,-0.970,1.403,0.000,-12.378,0.000,-0.031,-0.007,0.022,-0.244,-0.942,1.573
0723_094046_0128.png,0.011,0.176,0.927,-0.056,0.178,0.932,0.127,-0.001,1.140,-0.175,-0.013,1.089,0.166,-0.271,1.173,-0.200,-0.269,1.007,0.120,-0.296,0.917,-0.088,-0.334,0.783,971.383,719.987,0.927,902.496,721.513,0.932,1066.039,538.896,1.140,807.193,528.538,1.089,1094.330,320.243,1.173,770.776,286.167,1.007,1084.530,233.456,0.917,853.516,134.408,0.783,-0.036,-0.964,1.402,0.000,-348.936,0.000,-0.033,-0.023,0.026,0.008,-0.752,1.668
0723_094046_0129.png,0.037,0.167,0.942,-0.030,0.167,0.944,0.166,-0.010,1.100,-0.136,0.001,1.150,0.201,-0.190,1.292,-0.301,-0.204,1.076,0.344,-0.252,1.072,-0.315,-0.319,0.833,997.814,709.033,0.942,929.471,708.230,0.944,1103.532,531.258,1.100,847.897,541.061,1.150,1107.959,400.066,1.292,693.952,359.418,1.076,1265.015,316.341,1.072,600.119,175.981,0.833,-0.030,-0.969,1.403,0.000,-8.405,0.000,-0.030,0.022,-0.022,-0.225,-0.834,1.536
0723_094046_0130.png,0.015,0.174,0.929,-0.050,0.176,0.934,0.128,0.006,1.132,-0.161,0.001,1.109,0.169,-0.263,1.151,-0.256,-0.236,1.018,0.151,-0.323,0.893,-0.276,-0.350,0.780,974.861,718.061,0.929,909.543,719.600,0.934,1067.769,544.767,1.132,822.319,540.465,1.109,1099.765,322.500,1.151,721.144,319.267,1.018,1120.846,196.239,0.893,623.399,112.589,0.780,-0.033,-0.973,1.404,0.000,-354.293,0.000,0.024,-0.009,-0.006,-0.070,-1.083,1.216
0723_094046_0131.png,0.024,0.192,0.931,-0.042,0.193,0.930,0.131,0.010,1.133,-0.164,0.004,1.107,0.058,-0.174,0.935,-0.293,-0.239,1.139,-0.013,-0.355,0.744,-0.316,-0.323,0.886,984.137,736.527,0.931,917.044,736.922,0.930,1070.215,548.612,1.133,819.362,543.703,1.107,1018.966,362.656,0.935,715.531,340.529,1.139,943.954,85.443,0.744,620.969,193.522,0.886,-0.034,-0.972,1.403,0.000,-353.682,0.000,0.002,-0.037,-0.015,0.199,-0.856,1.282
0723_094046_0132.png,0.008,0.177,0.939,-0.054,0.179,0.946,0.126,-0.008,1.128,-0.158,-0.009,1.121,0.247,-0.238,1.203,-0.170,-0.191,0.907,0.307,-0.311,0.955,-0.185,-0.369,0.700,968.503,719.124,0.939,905.596,719.975,0.946,1066.362,533.524,1.128,826.269,532.194,1.121,1155.431,352.178,1.203,782.125,340.299,0.907,1266.055,230.090,0.955,708.956,39.579,0.700,-0.025,-0.960,1.401,0.000,-357.456,0.000,0.044,-0.012,-0.010,-0.229,-0.732,1.263
0723_094046_0133.png,0.052,0.189,0.927,-0.013,0.185,0.920,0.164,0.001,1.098,-0.131,0.008,1.131,0.074,-0.179,0.909,-0.218,-0.165,0.936,-0.014,-0.354,0.725,-0.302,-0.335,0.746,1013.418,733.307,0.927,946.255,731.508,0.920,1102.052,540.546,1.098,849.492,547.047,1.131,1037.594,352.814,0.909,738.208,371.834,0.936,941.258,75.762,0.725,574.939,112.090,0.746,-0.039,-0.971,1.403,0.000,-5.510,0.000,-0.002,-0.042,0.010,0.229,-0.978,1.276
0723_094046_0134.png,-0.009,0.178,0.934,-0.074,0.182,0.944,0.101,0.005,1.155,-0.186,-0.009,1.093,0.201,-0.172,0.954,-0.240,-0.261,1.187,0.301,-0.344,0.760,-0.230,-0.314,0.922,950.445,720.994,0.934,885.351,723.534,0.944,1043.363,544.166,1.155,797.780,532.033,1.093,1160.818,368.949,0.954,767.560,330.930,1.187,1337.107,109.352,0.760,723.189,216.591,0.922,-0.026,-0.965,1.402,0.000,-346.387,0.000,0.008,-0.015,-0.030,-0.095,-0.857,1.212
0723_094046_0135.png,0.034,0.173,0.936,-0.032,0.173,0.940,0.163,-0.010,1.105,-0.133,0.000,1.148,0.166,-0.277,1.031,-0.122,-0.181,0.925,-0.016,-0.335,0.840,-0.114,-0.358,0.709,994.921,715.478,0.936,927.877,714.997,0.940,1100.098,531.611,1.105,850.188,540.195,1.148,1113.036,284.453,1.031,834.563,354.072,0.925,941.977,160.394,0.840,807.347,59.560,0.709,-0.032,-0.961,1.401,0.000,-7.409,0.000,-0.006,-0.015,-0.036,-0.273,-0.882,1.458
0723_094046_0136.png,0.020,0.168,0.923,-0.045,0.170,0.925,0.133,-0.007,1.126,-0.161,-0.013,1.102,0.136,-0.232,0.987,-0.268,-0.191,0.936,0.010,-0.342,0.792,-0.324,-0.353,0.744,980.688,713.196,0.923,913.367,714.254,0.925,1072.432,534.063,1.126,820.683,529.090,1.102,1090.669,316.211,0.987,687.498,346.075,0.936,971.774,129.283,0.792,545.515,88.507,0.744,-0.034,-0.960,1.401,0.000,-353.969,0.000,0.004,-0.034,0.034,0.031,-0.999,1.468
0723_094046_0137.png,0.024,0.173,0.923,-0.040,0.176,0.930,0.149,-0.002,1.113,-0.144,-0.001,1.116,0.069,-0.175,0.920,-0.235,-0.181,1.303,-0.010,-0.343,0.732,-0.303,-0.271,1.072,984.986,718.560,0.923,918.795,719.646,0.930,1087.109,538.300,1.113,836.993,538.900,1.116,1031.225,359.564,0.920,788.678,407.949,1.303,947.020,94.813,0.732,691.183,299.355,1.072,-0.039,-0.970,1.403,0.000,-359.437,0.000,0.012,-0.020,0.026,-0.260,-0.996,1.420
0723_094046_0138.png,-0.012,0.171,0.935,-0.078,0.175,0.947,0.109,-0.002,1.152,-0.188,-0.018,1.084,0.143,-0.173,0.940,-0.225,-0.268,0.995,0.174,-0.339,0.733,-0.203,-0.341,0.746,948.032,713.869,0.935,882.153,716.154,0.947,1050.340,538.197,1.152,795.528,524.511,1.084,1104.859,364.979,0.940,744.845,284.023,0.995,1185.255,100.775,0.733,701.322,105.870,0.746,-0.029,-0.965,1.402,0.000,-345.729,0.000,-0.027,0.007,0.014,-0.220,-0.702,1.426
0723_094046_0139.png,0.022,0.185,0.939,-0.044,0.186,0.941,0.137,0.004,1.126,-0.157,0.002,1.120,0.182,-0.249,1.213,-0.134,-0.222,0.963,0.179,-0.303,0.951,-0.057,-0.358,0.746,981.770,727.060,0.939,916.036,727.409,0.941,1075.546,543.282,1.126,827.029,542.047,1.120,1102.578,344.493,1.213,827.392,321.177,0.963,1139.311,237.287,0.951,887.240,83.851,0.746,-0.031,-0.973,1.404,0.000,-357.540,0.000,0.011,-0.003,-0.015,-0.016,-0.821,1.107
0723_094046_0140.png,0.050,0.167,0.928,-0.017,0.162,0.922,0.169,-0.015,1.088,-0.134,-0.001,1.147,0.294,-0.263,1.084,-0.234,-0.232,1.044,0.338,-0.321,0.830,-0.101,-0.324,0.831,1011.618,710.548,0.928,942.177,707.218,0.922,1107.434,526.931,1.088,849.043,539.063,1.147,1218.000,309.710,1.084,746.529,328.196,1.044,1347.820,172.294,0.830,844.501,169.404,0.831,-0.028,-0.960,1.401,0.000,-10.354,0.000,-0.040,-0.028,0.002,0.121,-1.019,1.673
0723_094046_0141.png,-0.007,0.149,0.944,-0.071,0.154,0.955,0.111,-0.010,1.152,-0.179,-0.021,1.104,0.073,-0.199,0.957,-0.339,-0.230,1.104,-0.015,-0.348,0.754,-0.319,-0.319,0.854,952.942,690.238,0.944,889.016,693.549,0.955,1051.938,531.734,1.152,805.738,521.968,1.104,1032.661,341.943,0.957,667.469,341.510,1.104,940.526,101.522,0.754,604.239,185.024,0.854,-0.027,-0.962,1.401,0.000,-349.296,0.000,0.008,0.043,-0.012,-0.232,-0.949,1.272
0723_094046_0142.png,0.033,0.165,0.942,-0.031,0.163,0.939,0.142,-0.007,1.120,-0.150,-0.007,1.120,0.143,-0.182,0.913,-0.166,-0.242,1.000,0.143,-0.353,0.711,-0.055,-0.339,0.788,993.467,706.121,0.942,928.242,705.574,0.939,1080.391,534.243,1.120,832.889,534.197,1.120,1108.593,349.989,0.913,802.412,310.250,1.000,1151.785,67.112,0.711,893.395,130.510,0.788,-0.034,-0.972,1.404,0.000,-358.781,0.000,0.018,0.030,0.021,0.185,-0.828,1.587
0723_094046_0143.png,0.025,0.164,0.934,-0.044,0.163,0.933,0.146,-0.004,1.120,-0.166,-0.003,1.124,0.227,-0.221,1.258,-0.286,-0.225,1.224,0.278,-0.267,1.004,-0.357,-0.277,0.975,985.734,706.610,0.934,915.434,706.291,0.933,1083.782,536.300,1.120,819.954,537.217,1.124,1131.772,372.620,1.258,737.587,364.840,1.224,1223.118,287.503,1.004,611.730,269.844,0.975,-0.026,-0.969,1.403,0.000,0.296,0.000,-0.049,0.005,0.001,0.059,-1.009,1.587
0723_094046_0144.png,-0.001,0.151,0.917,-0.065,0.157,0.927,0.117,-0.008,1.139,-0.174,-0.020,1.087,0.188,-0.251,1.055,-0.239,-0.273,1.020,0.030,-0.324,0.864,-0.085,-0.332,0.825,959.144,697.065,0.917,893.257,701.465,0.927,1057.599,533.214,1.139,807.954,522.298,1.087,1128.997,314.064,1.055,737.003,285.893,1.020,992.877,183.104,0.864,861.454,156.897,0.825,-0.033,-0.958,1.400,0.000,-348.303,0.000,0.004,-0.027,0.040,-0.223,-1.226,1.469
0723_094046_0145.png,0.057,0.152,0.939,-0.007,0.146,0.928,0.167,-0.023,1.078,-0.121,-0.005,1.153,0.275,-0.225,1.207,-0.235,-0.242,1.182,0.391,-0.279,0.981,-0.199,-0.292,0.932,1018.179,694.227,0.939,952.872,689.285,0.928,1107.054,519.970,1.078,859.974,535.558,1.153,1176.526,362.359,1.207,770.840,345.530,1.182,1339.010,268.997,0.981,757.032,242.364,0.932,-0.026,-0.966,1.402,0.000,-13.859,0.000,-0.004,0.029,0.027,0.240,-1.039,1.598
0723_094046_0146.png,0.052,0.170,0.941,-0.011,0.166,0.934,0.165,-0.025,1.077,-0.111,-0.007,1.154,0.169,-0.282,1.162,-0.201,-0.178,0.967,0.153,-0.319,0.906,-0.289,-0.345,0.785,1012.468,711.484,0.941,948.560,709.489,0.934,1105.288,517.949,1.077,868.731,534.037,1.154,1097.932,309.490,1.162,762.661,364.750,0.967,1120.930,205.293,0.906,609.890,121.718,0.785,-0.028,-0.958,1.400,0.000,-14.878,0.000,0.035,-0.002,0.016,0.003,-0.806,1.131
0723_094046_0147.png,0.014,0.169,0.947,-0.054,0.171,0.951,0.126,-0.006,1.152,-0.173,-0.017,1.100,0.202,-0.204,1.315,-0.276,-0.198,1.269,0.225,-0.260,1.055,-0.445,-0.257,1.068,973.710,709.850,0.947,906.403,711.078,0.951,1064.396,535.359,1.152,810.361,524.913,1.100,1106.198,392.845,1.315,752.989,391.628,1.269,1162.644,305.995,1.055,563.564,311.224,1.068,-0.039,-0.961,1.401,0.000,-348.826,0.000,-0.025,0.016,-0.017,0.081,-0.711,1.249
0723_094046_0148.png,0.020,0.161,0.931,-0.048,0.162,0.931,0.132,0.003,1.138,-0.171,-0.005,1.102,0.231,-0.207,1.001,-0.244,-0.200,1.270,0.272,-0.332,0.775,-0.264,-0.267,1.018,980.300,704.418,0.931,911.233,705.816,0.931,1070.303,542.677,1.138,812.230,535.719,1.102,1179.286,343.490,1.001,777.143,390.333,1.270,1293.688,132.055,0.775,713.755,290.857,1.018,-0.034,-0.974,1.404,0.000,-351.973,0.000,-0.029,0.012,0.007,0.146,-1.182,1.352
0723_094046_0149.png,0.027,0.169,0.928,-0.041,0.168,0.925,0.145,-0.005,1.115,-0.163,-0.002,1.127,0.160,-0.258,1.012,-0.244,-0.266,1.130,-0.018,-0.327,0.824,-0.220,-0.312,0.870,988.058,713.327,0.928,917.901,712.334,0.925,1084.072,536.084,1.115,822.313,538.558,1.127,1110.082,297.348,1.012,754.346,316.009,1.130,939.010,162.729,0.824,719.062,199.289,0.870,-0.023,-0.964,1.402,0.000,-1.214,0.000,-0.040,-0.028,-0.004,0.112,-1.068,1.547
0723_094046_0150.png,0.020,0.185,0.939,-0.043,0.185,0.940,0.135,0.000,1.115,-0.152,0.002,1.122,0.183,-0.253,1.042,-0.294,-0.179,1.256,0.043,-0.336,0.841,-0.370,-0.287,1.032,980.641,727.387,0.939,916.455,727.420,0.940,1074.801,540.172,1.115,831.507,541.529,1.122,1126.626,309.015,1.042,737.189,404.254,1.256,1009.192,160.191,0.841,619.025,275.977,1.032,-0.026,-0.975,1.404,0.000,-0.259,0.000,0.036,0.003,0.013,-0.048,-0.735,1.173
0723_094046_0151.png,0.054,0.175,0.930,-0.013,0.170,0.921,0.169,-0.007,1.079,-0.132,0.008,1.145,0.182,-0.274,1.128,-0.301,-0.202,1.107,0.157,-0.303,0.872,-0.277,-0.306,0.871,1015.097,718.893,0.930,946.269,715.449,0.921,1108.937,533.471,1.079,850.067,546.402,1.145,1113.052,308.839,1.128,701.763,366.751,1.107,1131.495,209.148,0.872,657.702,205.794,0.871,-0.028,-0.974,1.404,0.000,-11.452,0.000,-0.040,-0.007,0.025,0.195,-1.053,1.360
0723_094046_0152.png,0.035,0.150,0.937,-0.029,0.148,0.936,0.153,-0.015,1.100,-0.131,-0.006,1.143,0.214,-0.257,1.011,-0.224,-0.216,1.009,0.219,-0.347,0.768,-0.186,-0.344,0.786,995.558,691.782,0.937,930.747,690.080,0.936,1092.500,526.705,1.100,850.614,535.418,1.143,1161.668,298.730,1.011,748.785,336.636,1.009,1231.500,110.476,0.768,735.544,124.165,0.786,-0.028,-0.969,1.403,0.000,-7.628,0.000,0.030,0.036,0.012,-0.085,-1.032,1.699
0723_094046_0153.png,0.048,0.170,0.933,-0.015,0.167,0.927,0.158,-0.012,1.097,-0.125,-0.003,1.135,0.107,-0.189,0.897,-0.246,-0.190,1.288,0.058,-0.362,0.702,-0.315,-0.280,1.056,1008.710,713.414,0.933,944.249,711.512,0.927,1097.237,529.810,1.097,855.221,537.487,1.135,1073.480,339.975,0.897,778.362,399.684,1.288,1038.467,49.438,0.702,676.450,287.718,1.056,-0.037,-0.965,1.402,0.000,-6.682,0.000,0.036,-0.012,0.020,0.130,-0.881,1.651
0723_094046_0154.png,0.025,0.174,0.942,-0.041,0.173,0.941,0.143,0.001,1.120,-0.153,0.005,1.138,0.123,-0.267,1.070,-0.315,-0.185,1.238,0.064,-0.338,0.813,-0.337,-0.291,0.985,985.208,715.530,0.942,918.865,714.851,0.941,1081.179,540.970,1.120,832.249,544.559,1.138,1069.146,302.333,1.070,717.997,398.134,1.238,1034.359,144.314,0.813,634.898,258.865,0.985,-0.023,-0.972,1.403,0.000,-2.556,0.000,0.002,0.010,-0.043,-0.007,-0.937,1.418
0723_094046_0155.png,0.027,0.164,0.955,-0.038,0.162,0.949,0.136,-0.009,1.124,-0.160,-0.007,1.132,0.183,-0.257,1.036,-0.250,-0.196,1.286,0.014,-0.323,0.843,-0.282,-0.266,1.032,987.103,703.019,0.955,921.635,701.921,0.949,1075.492,532.488,1.124,825.520,534.206,1.132,1127.646,304.277,1.036,775.378,395.472,1.286,975.453,175.546,0.843,699.867,294.998,1.032,-0.022,-0.970,1.403,0.000,-0.533,0.000,0.001,0.047,-0.013,0.246,-0.818,1.301
0723_094046_0156.png,0.020,0.178,0.932,-0.044,0.178,0.930,0.128,0.005,1.129,-0.162,0.003,1.120,0.130,-0.255,1.028,-0.239,-0.247,1.028,0.086,-0.358,0.781,-0.124,-0.353,0.809,980.408,721.865,0.932,914.676,721.794,0.930,1067.737,544.142,1.129,822.353,542.406,1.120,1079.868,304.422,1.028,738.471,311.475,1.028,1064.593,103.805,0.781,814.801,124.810,0.809,-0.025,-0.968,1.402,0.000,-356.988,0.000,0.023,-0.029,-0.031,0.155,-1.023,1.441
0723_094046_0157.png,0.026,0.183,0.935,-0.039,0.183,0.938,0.150,-0.004,1.112,-0.142,0.003,1.140,0.191,-0.265,1.023,-0.154,-0.184,0.921,0.046,-0.349,0.811,-0.169,-0.367,0.709,986.521,725.821,0.935,920.591,725.712,0.938,1088.531,536.703,1.112,841.732,542.138,1.140,1137.836,293.351,1.023,800.867,349.842,0.921,1014.022,130.884,0.811,733.149,47.416,0.709,-0.028,-0.963,1.401,0.000,-4.431,0.000,0.012,-0.031,-0.036,-0.221,-0.827,1.405
0723_094046_0158.png,0.060,0.187,0.929,-0.006,0.180,0.916,0.171,-0.001,1.077,-0.120,0.016,1.152,0.113,-0.226,0.927,-0.090,-0.167,0.940,0.048,-0.367,0.709,-0.060,-0.346,0.734,1020.995,731.039,0.929,954.256,726.502,0.916,1110.770,538.760,1.077,861.268,552.995,1.152,1076.195,308.588,0.927,869.398,370.794,0.940,1024.875,47.521,0.709,881.924,91.554,0.734,-0.029,-0.973,1.404,0.000,-13.596,0.000,-0.011,-0.037,-0.014,0.271,-1.097,1.301
0723_094046_0159.png,0.011,0.156,0.935,-0.051,0.159,0.944,0.135,-0.013,1.124,-0.150,-0.013,1.125,0.219,-0.187,0.932,-0.271,-0.242,1.186,0.304,-0.357,0.746,-0.310,-0.312,0.935,971.505,698.449,0.935,908.591,700.155,0.944,1073.890,528.730,1.124,833.380,529.054,1.125,1183.468,349.177,0.932,742.390,345.969,1.186,1346.790,85.709,0.746,645.013,222.664,0.935,-0.030,-0.960,1.401,0.000,-359.157,0.000,0.042,0.009,0.002,-0.349,-0.994,1.405
0723_094046_0160.png,0.023,0.153,0.936,-0.045,0.154,0.937,0.141,-0.010,1.137,-0.166,-0.015,1.114,0.232,-0.224,1.274,-0.138,-0.234,0.955,0.370,-0.260,1.049,-0.076,-0.345,0.722,983.870,695.062,0.936,914.444,696.135,0.937,1078.264,531.442,1.137,817.891,526.883,1.114,1133.174,372.606,1.274,822.666,306.731,0.955,1295.421,304.150,1.049,859.794,85.045,0.722,-0.035,-0.959,1.401,0.000,-354.565,0.000,-0.040,0.007,-0.006,0.060,-1.145,1.294
0723_094046_0161.png,0.027,0.161,0.936,-0.040,0.162,0.939,0.153,-0.012,1.115,-0.150,-0.008,1.131,0.242,-0.231,0.983,-0.129,-0.184,0.923,0.265,-0.343,0.746,-0.106,-0.353,0.720,987.357,704.031,0.936,919.268,704.252,0.939,1090.141,529.675,1.115,833.581,532.976,1.131,1193.736,316.544,0.983,827.381,350.867,0.923,1298.234,102.765,0.746,819.693,72.878,0.720,-0.031,-0.963,1.401,0.000,-1.991,0.000,-0.022,0.006,0.002,-0.171,-1.005,1.280
0723_094046_0162.png,0.001,0.167,0.937,-0.064,0.171,0.945,0.115,0.003,1.148,-0.176,-0.008,1.100,0.274,-0.212,1.166,-0.201,-0.261,1.005,0.390,-0.299,0.942,-0.081,-0.346,0.783,961.294,709.775,0.937,895.933,712.319,0.945,1055.008,542.785,1.148,807.710,533.279,1.100,1183.587,367.129,1.166,770.008,293.533,1.005,1353.851,237.962,0.942,861.944,119.633,0.783,-0.031,-0.971,1.403,0.000,-349.128,0.000,0.006,0.017,-0.016,-0.078,-0.869,1.521
0723_094046_0163.png,0.037,0.179,0.940,-0.028,0.179,0.940,0.154,-0.009,1.103,-0.135,-0.002,1.129,0.099,-0.183,0.904,-0.216,-0.241,1.049,0.045,-0.353,0.711,-0.057,-0.325,0.865,997.152,721.362,0.940,931.823,721.091,0.940,1093.224,532.587,1.103,845.962,537.991,1.129,1064.454,347.687,0.904,764.170,321.088,1.049,1019.978,68.412,0.711,897.032,182.779,0.865,-0.035,-0.971,1.403,0.000,-4.289,0.000,0.019,0.008,0.029,-0.077,-0.716,1.183
0723_094046_0164.png,0.052,0.186,0.932,-0.014,0.183,0.927,0.170,-0.014,1.078,-0.116,0.004,1.153,0.295,-0.258,1.128,-0.111,-0.174,0.938,0.356,-0.323,0.879,-0.107,-0.349,0.730,1012.990,729.344,0.932,946.123,727.501,0.927,1110.250,528.021,1.078,864.226,543.081,1.153,1208.475,322.736,1.128,847.248,363.122,0.938,1345.362,190.422,0.879,821.087,85.267,0.730,-0.030,-0.961,1.401,0.000,-13.933,0.000,0.001,-0.039,-0.004,-0.041,-0.853,1.109
0723_094046_0165.png,0.039,0.152,0.930,-0.029,0.148,0.927,0.161,-0.013,1.093,-0.141,0.000,1.147,0.186,-0.276,1.044,-0.191,-0.225,1.007,-0.010,-0.311,0.867,-0.056,-0.327,0.801,999.413,695.416,0.930,930.061,692.287,0.927,1099.639,528.931,1.093,842.685,539.696,1.147,1129.508,288.875,1.044,779.854,327.354,1.007,949.407,198.779,0.867,893.901,151.452,0.801,-0.023,-0.968,1.402,0.000,-9.181,0.000,-0.034,0.011,0.003,-0.004,-1.287,1.470
0723_094046_0166.png,0.036,0.178,0.932,-0.032,0.178,0.934,0.165,0.000,1.100,-0.140,0.010,1.144,0.248,-0.254,1.160,-0.257,-0.237,1.167,0.113,-0.294,0.931,-0.262,-0.301,0.906,996.732,721.714,0.932,927.011,720.840,0.934,1102.975,539.850,1.100,843.533,548.294,1.144,1162.851,331.901,1.160,750.530,346.529,1.167,1075.310,239.381,0.931,684.665,223.846,0.906,-0.030,-0.974,1.404,0.000,-7.266,0.000,-0.040,-0.008,-0.021,-0.197,-0.955,1.464
0723_094046_0167.png,0.046,0.154,0.934,-0.017,0.151,0.929,0.155,-0.018,1.105,-0.127,-0.011,1.135,0.162,-0.286,1.130,-0.300,-0.210,1.159,0.139,-0.329,0.875,-0.261,-0.315,0.926,1006.498,697.148,0.934,942.509,694.991,0.929,1093.497,524.798,1.105,853.327,531.025,1.135,1096.526,299.247,1.130,713.734,367.672,1.159,1111.495,182.253,0.875,692.338,216.148,0.926,-0.037,-0.959,1.401,0.000,-5.099,0.000,0.043,0.000,0.017,0.142,-1.033,1.672
0723_094046_0168.png,0.020,0.182,0.932,-0.047,0.183,0.936,0.141,0.002,1.127,-0.159,0.001,1.123,0.062,-0.180,0.923,-0.156,-0.185,0.911,-0.013,-0.358,0.724,-0.154,-0.367,0.706,980.037,725.254,0.932,912.518,725.905,0.936,1078.577,541.532,1.127,825.026,540.805,1.123,1023.884,354.787,0.923,797.476,346.597,0.911,942.583,70.661,0.724,753.104,44.773,0.706,-0.030,-0.965,1.402,0.000,-358.089,0.000,-0.010,-0.031,-0.031,-0.103,-0.958,1.193
0723_094046_0169.png,-0.003,0.168,0.920,-0.066,0.174,0.931,0.113,0.008,1.143,-0.174,-0.002,1.101,0.196,-0.215,1.287,-0.284,-0.197,1.265,0.243,-0.292,1.032,-0.431,-0.285,1.064,957.375,713.555,0.920,892.552,717.670,0.931,1054.361,546.663,1.143,810.163,538.635,1.101,1104.657,381.340,1.287,746.279,391.806,1.265,1183.760,271.170,1.032,574.291,284.772,1.064,-0.028,-0.967,1.402,0.000,-350.341,0.000,0.023,-0.034,-0.027,-0.235,-1.217,1.433
0723_094046_0170.png,-0.003,0.174,0.930,-0.068,0.178,0.937,0.109,0.001,1.144,-0.181,-0.011,1.094,0.047,-0.178,0.943,-0.327,-0.238,1.138,-0.014,-0.352,0.748,-0.396,-0.318,0.897,956.730,718.350,0.930,891.112,720.450,0.937,1050.194,540.467,1.144,802.763,530.545,1.094,1006.911,360.948,0.943,686.900,341.523,1.138,942.773,92.562,0.748,540.724,203.075,0.897,-0.025,-0.964,1.402,0.000,-348.819,0.000,0.010,-0.019,0.001,-0.073,-0.956,1.096
0723_094046_0171.png,0.030,0.175,0.941,-0.034,0.174,0.941,0.149,-0.005,1.109,-0.139,0.001,1.138,0.237,-0.256,1.066,-0.292,-0.203,1.215,0.112,-0.335,0.846,-0.227,-0.298,0.975,990.647,716.852,0.941,925.809,716.293,0.941,1087.360,535.582,1.109,843.627,541.246,1.138,1171.486,311.652,1.066,731.497,380.677,1.215,1085.882,163.472,0.846,738.477,249.729,0.975,-0.028,-0.970,1.403,0.000,-4.712,0.000,0.025,0.009,-0.014,-0.096,-0.824,1.386
0723_094046_0172.png,0.008,0.175,0.925,-0.057,0.178,0.930,0.111,0.002,1.147,-0.174,-0.012,1.087,0.207,-0.212,1.296,-0.163,-0.205,0.895,0.222,-0.284,1.044,-0.109,-0.374,0.699,967.878,719.557,0.925,901.830,721.730,0.930,1052.308,541.305,1.147,807.701,529.310,1.087,1111.953,384.754,1.296,786.347,322.279,0.895,1161.912,281.268,1.044,812.259,30.752,0.699,-0.035,-0.962,1.401,0.000,-346.653,0.000,0.017,-0.035,0.004,0.091,-0.945,1.370
0723_094046_0173.png,0.006,0.156,0.929,-0.058,0.160,0.933,0.110,0.003,1.150,-0.176,-0.009,1.099,0.175,-0.172,0.935,-0.280,-0.200,1.260,0.241,-0.343,0.727,-0.454,-0.273,1.078,966.298,699.834,0.929,900.584,702.929,0.933,1050.831,542.568,1.150,807.634,532.500,1.099,1137.489,365.084,0.935,748.659,389.092,1.260,1274.558,91.026,0.727,559.439,299.245,1.078,-0.030,-0.966,1.402,0.000,-348.412,0.000,0.021,-0.004,-0.026,0.088,-1.203,1.534
0723_094046_0174.png,0.016,0.146,0.930,-0.052,0.148,0.936,0.144,-0.012,1.122,-0.162,-0.013,1.119,0.232,-0.194,0.947,-0.279,-0.204,1.264,0.260,-0.340,0.735,-0.429,-0.257,1.055,976.262,688.829,0.930,907.650,690.532,0.936,1082.010,529.976,1.122,822.383,529.350,1.119,1193.007,345.215,0.947,750.168,386.214,1.264,1295.951,99.485,0.735,573.698,308.819,1.055,-0.030,-0.965,1.402,0.000,-358.240,0.000,-0.030,0.020,0.021,-0.220,-1.213,1.470
0723_094046_0175.png,0.020,0.158,0.936,-0.043,0.160,0.944,0.147,-0.014,1.113,-0.140,-0.009,1.133,0.288,-0.232,1.164,-0.116,-0.187,0.927,0.389,-0.305,0.936,-0.093,-0.360,0.726,980.359,700.167,0.936,916.548,701.091,0.944,1085.193,528.202,1.113,842.352,532.321,1.133,1195.091,350.612,1.164,841.473,348.604,0.927,1355.327,229.610,0.936,838.037,68.515,0.726,-0.031,-0.964,1.402,0.000,-2.976,0.000,0.032,0.018,0.006,-0.367,-0.937,1.473
0723_094046_0176.png,0.059,0.178,0.940,-0.008,0.173,0.931,0.175,-0.009,1.083,-0.122,0.008,1.156,0.292,-0.253,1.041,-0.265,-0.224,1.172,0.325,-0.330,0.786,-0.307,-0.299,0.918,1019.742,720.015,0.940,951.725,717.046,0.931,1114.156,532.218,1.083,859.633,546.676,1.156,1226.933,309.209,1.041,745.272,357.817,1.172,1353.520,140.257,0.786,642.163,230.459,0.918,-0.030,-0.971,1.403,0.000,-13.121,0.000,-0.034,0.002,-0.016,0.115,-0.817,1.574
0723_094046_0177.png,0.029,0.171,0.920,-0.038,0.172,0.924,0.158,-0.002,1.106,-0.146,0.003,1.127,0.301,-0.239,1.122,-0.201,-0.226,0.993,0.383,-0.310,0.883,-0.094,-0.339,0.781,990.251,716.739,0.920,920.704,716.884,0.924,1095.656,538.077,1.106,836.375,542.213,1.127,1215.225,337.228,1.122,767.155,323.766,0.993,1372.219,205.567,0.883,845.263,127.553,0.781,-0.034,-0.968,1.403,0.000,-2.906,0.000,-0.027,-0.033,0.011,-0.215,-1.209,1.297
0723_094046_0178.png,0.032,0.152,0.943,-0.033,0.152,0.945,0.156,-0.017,1.104,-0.136,-0.007,1.144,0.291,-0.208,1.219,-0.296,-0.215,1.172,0.214,-0.284,0.980,-0.192,-0.293,0.944,992.507,693.595,0.943,926.645,692.827,0.945,1094.038,525.785,1.104,846.596,533.960,1.144,1186.818,377.975,1.219,720.005,365.148,1.172,1167.274,264.480,0.980,766.463,245.092,0.944,-0.028,-0.968,1.402,0.000,-6.866,0.000,0.007,0.044,0.002,-0.200,-1.009,1.323
0723_094046_0179.png,0.044,0.163,0.939,-0.021,0.160,0.934,0.162,-0.016,1.092,-0.126,-0.003,1.149,0.286,-0.222,1.209,-0.194,-0.208,0.985,0.238,-0.296,0.961,-0.210,-0.347,0.762,1005.025,705.589,0.939,939.117,703.296,0.934,1100.674,525.827,1.092,855.350,537.358,1.149,1184.710,365.162,1.209,773.216,339.007,0.985,1195.805,247.005,0.961,697.420,106.581,0.762,-0.028,-0.965,1.402,0.000,-10.295,0.000,0.011,0.010,0.001,-0.011,-1.026,1.196
0723_094046_0180.png,0.040,0.161,0.947,-0.023,0.157,0.939,0.149,-0.010,1.107,-0.137,-0.001,1.147,0.296,-0.227,1.066,-0.159,-0.217,0.979,0.378,-0.331,0.834,-0.063,-0.352,0.770,1000.462,702.009,0.947,936.527,699.065,0.939,1087.878,531.509,1.107,846.507,539.430,1.147,1223.945,337.396,1.066,806.104,329.056,0.979,1390.896,163.105,0.834,881.735,105.504,0.770,-0.024,-0.970,1.403,0.000,-7.005,0.000,0.028,0.032,-0.023,0.208,-0.940,1.595
0723_094046_0181.png,0.006,0.156,0.934,-0.058,0.160,0.942,0.125,-0.009,1.137,-0.164,-0.014,1.115,0.057,-0.182,0.926,-0.236,-0.266,1.043,-0.006,-0.351,0.721,-0.069,-0.336,0.851,965.871,698.782,0.934,901.523,701.164,0.942,1064.378,532.205,1.137,819.954,527.835,1.115,1019.026,353.583,0.926,744.909,297.456,1.043,952.389,77.531,0.721,883.213,164.750,0.851,-0.029,-0.959,1.400,0.000,-354.457,0.000,0.024,0.000,-0.014,-0.219,-1.032,1.438
0723_094046_0182.png,0.033,0.152,0.936,-0.032,0.151,0.937,0.153,-0.013,1.106,-0.137,-0.005,1.140,0.193,-0.272,1.137,-0.240,-0.207,0.994,0.177,-0.315,0.879,-0.294,-0.343,0.776,993.071,694.626,0.936,927.219,693.525,0.937,1091.833,528.812,1.106,845.622,535.837,1.140,1121.560,312.210,1.137,730.516,342.201,0.994,1151.671,198.906,0.879,598.938,119.043,0.776,-0.029,-0.968,1.402,0.000,-5.852,0.000,0.015,0.027,0.002,-0.128,-1.205,1.233
0723_094046_0183.png,-0.001,0.166,0.927,-0.067,0.171,0.937,0.119,0.001,1.149,-0.181,-0.015,1.081,0.245,-0.193,1.015,-0.340,-0.213,1.181,0.318,-0.320,0.804,-0.225,-0.284,0.961,959.417,710.259,0.927,891.592,713.449,0.937,1058.835,540.661,1.149,800.762,527.089,1.081,1189.146,359.019,1.015,686.458,368.573,1.181,1336.498,160.858,0.804,737.599,258.987,0.961,-0.036,-0.968,1.403,0.000,-345.875,0.000,-0.038,0.002,0.025,-0.155,-1.008,1.152
0723_094046_0184.png,0.042,0.157,0.935,-0.024,0.154,0.933,0.161,-0.017,1.099,-0.134,-0.006,1.143,0.270,-0.259,1.058,-0.226,-0.258,1.127,0.196,-0.329,0.816,-0.201,-0.315,0.872,1002.223,699.151,0.935,935.120,697.181,0.933,1099.189,525.718,1.099,848.912,534.815,1.143,1202.749,307.229,1.058,769.074,322.378,1.127,1188.351,156.629,0.816,741.288,196.419,0.872,-0.031,-0.963,1.401,0.000,-7.679,0.000,-0.003,0.009,0.005,-0.020,-1.139,1.259
0723_094046_0185.png,-0.005,0.151,0.933,-0.068,0.158,0.946,0.106,-0.003,1.158,-0.174,-0.018,1.092,0.233,-0.237,1.116,-0.163,-0.235,0.924,0.097,-0.319,0.907,-0.124,-0.373,0.696,954.689,694.111,0.933,891.676,699.136,0.946,1047.256,537.755,1.158,808.221,524.593,1.092,1158.282,337.739,1.116,792.019,298.098,0.924,1062.172,205.257,0.907,789.944,30.376,0.696,-0.037,-0.963,1.402,0.000,-345.434,0.000,0.028,0.018,-0.021,-0.210,-1.032,1.528
0723_094046_0186.png,0.021,0.179,0.943,-0.042,0.180,0.945,0.133,-0.005,1.130,-0.151,-0.007,1.122,0.172,-0.184,0.914,-0.312,-0.214,1.066,0.213,-0.360,0.705,-0.379,-0.341,0.840,981.682,720.807,0.943,918.249,721.199,0.945,1072.074,535.724,1.130,831.964,534.051,1.122,1138.442,348.454,0.914,681.459,348.795,1.066,1247.166,54.736,0.705,530.957,153.602,0.840,-0.033,-0.962,1.401,0.000,-357.086,0.000,0.042,-0.009,-0.022,-0.018,-0.681,1.412
0723_094046_0187.png,0.011,0.174,0.931,-0.053,0.177,0.937,0.124,0.008,1.139,-0.162,0.002,1.112,0.185,-0.241,1.034,-0.216,-0.185,0.903,0.070,-0.350,0.819,-0.274,-0.368,0.701,970.948,717.683,0.931,906.549,719.767,0.937,1063.257,546.595,1.139,821.422,541.537,1.112,1130.492,318.056,1.034,732.090,345.268,0.903,1040.858,133.599,0.819,588.698,41.368,0.701,-0.032,-0.971,1.403,0.000,-353.382,0.000,0.033,-0.012,-0.035,-0.106,-1.063,1.339
0723_094046_0188.png,0.040,0.174,0.936,-0.024,0.170,0.928,0.148,-0.005,1.105,-0.146,0.001,1.129,0.281,-0.238,1.139,-0.191,-0.249,1.045,0.346,-0.309,0.898,-0.154,-0.334,0.803,1001.057,716.483,0.936,934.940,714.467,0.928,1087.721,535.846,1.105,836.801,540.726,1.129,1194.592,341.403,1.139,786.278,313.072,1.045,1326.360,212.851,0.898,777.618,144.241,0.803,-0.028,-0.972,1.403,0.000,-3.753,0.000,0.004,-0.002,0.018,0.301,-0.961,1.409
0723_094046_0189.png,0.009,0.168,0.934,-0.055,0.171,0.935,0.105,0.011,1.153,-0.177,-0.002,1.095,0.248,-0.216,1.169,-0.320,-0.219,1.156,0.325,-0.312,0.928,-0.406,-0.314,0.922,969.403,711.470,0.934,904.271,713.498,0.935,1046.345,549.324,1.153,805.933,538.363,1.095,1161.497,364.529,1.169,696.602,359.947,1.156,1293.015,220.261,0.928,541.198,215.693,0.922,-0.031,-0.975,1.404,0.000,-347.039,0.000,0.029,0.009,-0.030,0.278,-1.047,1.523
0723_094046_0190.png,0.062,0.168,0.940,-0.003,0.164,0.932,0.176,-0.021,1.078,-0.112,-0.004,1.151,0.224,-0.281,1.043,-0.161,-0.175,0.951,0.213,-0.332,0.791,-0.206,-0.342,0.754,1022.589,709.489,0.940,956.618,707.066,0.932,1115.003,521.747,1.078,867.186,536.789,1.151,1164.418,284.335,1.043,799.111,364.617,0.951,1215.664,141.119,0.791,699.690,109.010,0.754,-0.036,-0.965,1.402,0.000,-13.429,0.000,-0.003,0.012,0.023,0.091,-0.797,1.469
0723_094046_0191.png,0.025,0.158,0.935,-0.041,0.158,0.933,0.139,-0.008,1.123,-0.158,-0.007,1.127,0.270,-0.245,1.113,-0.304,-0.226,1.061,0.317,-0.322,0.863,-0.282,-0.333,0.819,985.277,701.204,0.935,918.363,700.743,0.933,1077.434,533.493,1.123,826.872,534.213,1.127,1190.640,330.982,1.113,687.378,337.473,1.061,1308.885,185.099,0.863,632.886,152.651,0.819,-0.027,-0.963,1.401,0.000,-359.543,0.000,0.002,0.000,-0.012,0.087,-1.094,1.527
0723_094046_0192.png,0.016,0.191,0.932,-0.050,0.192,0.938,0.137,0.005,1.123,-0.160,0.003,1.113,0.075,-0.176,0.929,-0.209,-0.236,0.994,0.014,-0.352,0.740,-0.085,-0.343,0.789,976.433,734.319,0.932,909.684,734.965,0.938,1076.331,544.182,1.123,823.002,542.197,1.113,1036.765,359.958,0.929,760.279,313.949,0.994,977.357,87.513,0.740,857.630,126.895,0.789,-0.031,-0.973,1.404,0.000,-356.793,0.000,-0.003,-0.020,0.006,-0.159,-0.764,1.164
0723_094046_0193.png,0.006,0.189,0.927,-0.061,0.192,0.935,0.127,0.008,1.134,-0.174,0.000,1.101,0.263,-0.230,1.181,-0.165,-0.251,0.992,0.343,-0.300,0.939,-0.055,-0.344,0.771,965.893,733.784,0.927,898.116,735.147,0.935,1066.657,546.358,1.134,809.734,540.061,1.101,1171.832,354.820,1.181,802.320,299.899,0.992,1307.381,235.783,0.939,891.667,115.414,0.771,-0.029,-0.970,1.403,0.000,-352.474,0.000,-0.021,-0.033,0.000,-0.149,-0.780,1.417
0723_094046_0194.png,0.015,0.172,0.923,-0.050,0.175,0.926,0.124,0.003,1.141,-0.170,-0.007,1.095,0.170,-0.269,1.183,-0.321,-0.239,1.101,0.137,-0.310,0.923,-0.381,-0.328,0.859,975.868,717.370,0.923,908.150,719.406,0.926,1063.476,542.536,1.141,812.450,533.560,1.095,1096.921,323.808,1.183,682.234,333.737,1.101,1100.971,220.913,0.923,537.998,177.358,0.859,-0.036,-0.964,1.402,0.000,-349.805,0.000,-0.003,-0.039,0.000,0.089,-1.147,1.231
0723_094046_0195.png,0.047,0.180,0.934,-0.017,0.177,0.928,0.163,-0.013,1.089,-0.119,0.001,1.149,0.217,-0.278,1.157,-0.275,-0.210,1.075,0.236,-0.331,0.896,-0.279,-0.341,0.843,1007.932,723.359,0.934,942.781,721.350,0.928,1102.042,529.014,1.089,861.297,540.966,1.149,1138.095,311.767,1.157,717.037,353.890,1.075,1210.104,189.320,0.896,645.346,155.377,0.843,-0.031,-0.960,1.401,0.000,-11.113,0.000,0.028,-0.034,-0.012,0.001,-0.929,1.166
0723_094046_0196.png,0.024,0.164,0.923,-0.043,0.164,0.924,0.145,-0.005,1.105,-0.156,-0.001,1.122,0.253,-0.244,1.180,-0.224,-0.211,0.979,0.109,-0.287,0.970,-0.187,-0.339,0.763,984.967,708.989,0.923,916.151,708.553,0.924,1085.116,535.818,1.105,828.039,539.216,1.122,1163.756,343.216,1.180,742.475,335.255,0.979,1067.122,258.509,0.970,726.453,117.607,0.763,-0.025,-0.971,1.403,0.000,-2.166,0.000,-0.015,-0.010,0.039,-0.050,-1.167,1.470
0723_094046_0197.png,0.044,0.167,0.931,-0.021,0.164,0.927,0.160,-0.002,1.103,-0.129,0.008,1.144,0.205,-0.256,1.007,-0.245,-0.222,1.230,0.085,-0.350,0.785,-0.258,-0.300,0.971,1004.510,710.448,0.931,938.266,707.854,0.927,1098.094,538.398,1.103,852.428,546.449,1.144,1153.321,298.547,1.007,770.458,368.014,1.230,1062.535,115.968,0.785,707.195,246.345,0.971,-0.033,-0.971,1.403,0.000,-7.263,0.000,0.014,-0.006,-0.027,0.041,-1.153,1.563
0723_094046_0198.png,0.015,0.151,0.929,-0.051,0.154,0.937,0.141,-0.011,1.124,-0.157,-0.012,1.118,0.250,-0.239,1.216,-0.312,-0.226,1.069,0.155,-0.286,0.978,-0.370,-0.324,0.835,974.933,694.574,0.929,908.413,696.648,0.937,1079.355,530.929,1.124,826.731,529.656,1.118,1155.537,353.142,1.216,682.784,338.614,1.069,1111.226,261.931,0.978,538.552,171.391,0.835,-0.033,-0.963,1.401,0.000,-357.595,0.000,-0.003,0.007,0.014,-0.262,-1.075,1.639
0723_094046_0199.png,0.013,0.148,0.939,-0.054,0.149,0.942,0.135,-0.014,1.128,-0.170,-0.015,1.120,0.205,-0.207,1.291,-0.203,-0.245,0.991,0.253,-0.256,1.041,-0.061,-0.328,0.786,973.593,689.518,0.939,905.345,690.442,0.942,1074.200,528.552,1.128,815.902,527.033,1.120,1110.721,387.363,1.291,765.398,304.555,0.991,1191.610,305.821,1.041,886.669,142.870,0.786,-0.024,-0.964,1.402,0.000,-357.403,0.000,-0.028,0.034,0.012,-0.074,-1.075,1.387
0723_094046_0200.png,0.016,0.140,0.943,-0.048,0.141,0.942,0.118,-0.013,1.145,-0.171,-0.022,1.106,0.173,-0.181,0.933,-0.284,-0.189,1.271,0.227,-0.343,0.725,-0.431,-0.261,1.069,976.465,681.417,0.943,911.061,682.382,0.942,1058.353,529.039,1.145,812.896,520.917,1.106,1136.375,355.864,0.933,747.828,398.679,1.271,1257.627,89.763,0.725,576.210,307.947,1.069,-0.030,-0.962,1.401,0.000,-350.932,0.000,0.015,0.045,0.005,0.261,-1.103,1.469
0723_094046_0201.png,0.027,0.169,0.928,-0.037,0.169,0.925,0.129,-0.003,1.128,-0.158,-0.009,1.100,0.162,-0.266,1.083,-0.307,-0.227,1.056,0.131,-0.333,0.838,-0.310,-0.336,0.826,987.660,713.151,0.928,921.985,713.411,0.925,1068.801,537.665,1.128,823.085,532.229,1.100,1102.355,306.698,1.083,683.862,335.801,1.056,1108.166,162.506,0.838,602.655,153.122,0.826,-0.036,-0.967,1.402,0.000,-353.306,0.000,0.027,-0.017,0.034,0.276,-1.042,1.375
0723_094046_0202.png,0.012,0.154,0.924,-0.054,0.156,0.928,0.132,-0.010,1.121,-0.166,-0.012,1.110,0.274,-0.236,1.096,-0.231,-0.236,0.986,0.246,-0.317,0.857,-0.144,-0.340,0.771,972.082,698.553,0.924,904.402,699.878,0.928,1071.984,531.807,1.121,817.543,529.674,1.110,1198.079,335.109,1.096,737.626,312.601,0.986,1232.996,188.166,0.857,782.923,120.955,0.771,-0.025,-0.964,1.402,0.000,-356.771,0.000,-0.005,-0.007,0.038,-0.102,-1.128,1.612
0723_094046_0203.png,0.047,0.180,0.933,-0.020,0.179,0.934,0.174,-0.012,1.087,-0.123,0.002,1.146,0.284,-0.262,1.071,-0.309,-0.197,1.181,0.223,-0.325,0.824,-0.214,-0.295,0.955,1008.056,723.143,0.933,939.571,722.345,0.934,1112.484,529.762,1.087,857.777,541.578,1.146,1212.093,307.217,1.071,711.160,381.163,1.181,1217.453,164.576,0.824,747.296,246.201,0.955,-0.037,-0.966,1.402,0.000,-10.368,0.000,-0.022,-0.015,0.007,-0.219,-0.754,1.458
0723_094046_0204.png,0.024,0.153,0.933,-0.044,0.155,0.936,0.145,-0.014,1.128,-0.162,-0.018,1.111,0.183,-0.249,1.012,-0.288,-0.256,1.093,0.033,-0.320,0.810,-0.108,-0.298,0.906,984.147,695.997,0.933,914.872,697.041,0.936,1082.176,528.074,1.128,820.916,524.561,1.111,1132.245,306.439,1.012,709.588,317.610,1.093,998.220,164.159,0.810,846.340,227.448,0.906,-0.036,-0.960,1.401,0.000,-355.594,0.000,-0.037,0.009,0.030,-0.022,-0.970,1.569
0723_094046_0205.png,0.022,0.164,0.931,-0.046,0.165,0.934,0.145,-0.004,1.121,-0.162,-0.005,1.118,0.228,-0.242,1.220,-0.298,-0.234,1.065,0.240,-0.280,0.963,-0.329,-0.317,0.821,982.200,707.418,0.931,912.793,708.106,0.934,1083.059,536.524,1.121,821.774,535.851,1.118,1137.976,351.695,1.220,694.233,331.315,1.065,1196.852,263.532,0.963,579.057,172.430,0.821,-0.031,-0.969,1.403,0.000,-358.181,0.000,-0.036,0.004,0.014,-0.080,-1.132,1.178
0723_094046_0206.png,0.018,0.171,0.937,-0.046,0.172,0.938,0.122,0.002,1.142,-0.163,-0.005,1.112,0.199,-0.178,0.933,-0.282,-0.216,1.232,0.278,-0.353,0.732,-0.394,-0.299,1.004,978.196,713.637,0.937,913.754,714.536,0.938,1061.289,541.524,1.142,820.470,535.733,1.112,1162.808,358.981,0.933,742.021,373.380,1.232,1321.985,80.936,0.732,586.898,256.809,1.004,-0.032,-0.966,1.402,0.000,-352.724,0.000,0.035,-0.007,-0.033,0.170,-1.010,1.265
0723_094046_0207.png,0.056,0.175,0.938,-0.010,0.168,0.926,0.168,-0.007,1.084,-0.128,0.009,1.155,0.213,-0.197,1.272,-0.211,-0.163,0.947,0.385,-0.258,1.074,-0.291,-0.331,0.744,1016.674,716.890,0.938,949.619,712.471,0.926,1107.020,533.590,1.084,854.384,547.563,1.155,1119.156,392.949,1.272,748.355,376.053,0.947,1300.715,311.258,1.074,588.468,117.168,0.744,-0.024,-0.972,1.403,0.000,-12.806,0.000,-0.027,-0.001,-0.017,0.261,-0.980,1.529
0723_094046_0208.png,0.004,0.164,0.922,-0.061,0.168,0.927,0.113,0.009,1.143,-0.177,-0.002,1.096,0.136,-0.176,0.939,-0.155,-0.246,0.975,0.159,-0.357,0.740,-0.055,-0.357,0.755,964.094,709.600,0.922,897.400,712.771,0.927,1053.900,547.295,1.143,806.136,538.241,1.096,1097.486,361.511,0.939,809.064,299.701,0.975,1164.246,81.211,0.740,890.137,90.683,0.755,-0.028,-0.972,1.403,0.000,-349.397,0.000,0.009,-0.018,-0.009,0.008,-1.289,1.370
0723_094046_0209.png,0.044,0.180,0.928,-0.019,0.175,0.921,0.159,-0.002,1.085,-0.120,0.013,1.150,0.205,-0.198,1.277,-0.235,-0.169,0.967,0.350,-0.283,1.078,-0.349,-0.347,0.792,1005.584,724.156,0.928,940.349,720.594,0.921,1099.641,537.913,1.085,860.713,550.372,1.150,1112.284,392.414,1.277,729.015,373.821,0.967,1268.397,290.004,1.078,540.461,123.506,0.792,-0.026,-0.971,1.403,0.000,-12.243,0.000,0.033,-0.029,-0.018,0.035,-1.190,1.179
0723_094046_0210.png,0.043,0.162,0.932,-0.021,0.158,0.928,0.160,-0.018,1.080,-0.118,-0.002,1.150,0.157,-0.280,1.023,-0.163,-0.210,0.989,-0.017,-0.337,0.841,-0.096,-0.349,0.783,1003.740,705.151,0.932,938.848,702.362,0.928,1101.073,523.730,1.080,862.824,538.067,1.150,1105.793,279.732,1.023,803.768,338.543,0.989,940.844,158.754,0.841,842.911,115.937,0.783,-0.026,-0.965,1.402,0.000,-13.375,0.000,0.034,0.003,0.018,-0.104,-1.087,1.260
0723_094046_0211.png,-0.005,0.184,0.922,-0.072,0.188,0.929,0.105,0.017,1.152,-0.191,0.001,1.084,0.106,-0.166,0.935,-0.237,-0.240,1.221,0.107,-0.344,0.723,-0.225,-0.298,0.957,954.518,729.717,0.922,886.191,732.916,0.929,1046.469,553.709,1.152,792.738,540.876,1.084,1067.854,370.923,0.935,775.257,353.263,1.221,1100.991,86.667,0.723,736.574,244.118,0.957,-0.027,-0.973,1.404,0.000,-345.554,0.000,-0.023,-0.038,-0.023,0.002,-1.052,1.285
0723_094046_0212.png,0.022,0.148,0.934,-0.045,0.149,0.937,0.147,-0.015,1.116,-0.156,-0.012,1.127,0.186,-0.223,1.276,-0.268,-0.247,1.067,0.202,-0.265,1.021,-0.105,-0.310,0.871,982.710,690.537,0.934,914.499,690.919,0.937,1084.970,527.458,1.116,828.102,529.666,1.127,1098.577,373.993,1.276,721.571,319.692,1.067,1147.913,293.040,1.021,845.191,201.050,0.871,-0.028,-0.964,1.402,0.000,-0.917,0.000,-0.021,0.022,0.018,-0.123,-1.055,1.665
0723_094046_0213.png,0.044,0.170,0.942,-0.021,0.168,0.935,0.156,-0.010,1.107,-0.140,-0.003,1.136,0.250,-0.261,1.114,-0.170,-0.254,1.045,0.085,-0.307,0.915,-0.116,-0.333,0.800,1004.672,712.010,0.942,938.336,710.365,0.935,1094.062,531.697,1.107,842.668,537.505,1.136,1173.719,317.064,1.114,804.946,308.559,1.045,1048.859,220.643,0.915,821.972,143.982,0.800,-0.032,-0.967,1.402,0.000,-4.581,0.000,-0.002,0.009,0.004,0.204,-0.874,1.389
0723_094046_0214.png,0.047,0.190,0.931,-0.017,0.187,0.924,0.160,-0.006,1.076,-0.119,0.010,1.145,0.273,-0.213,1.218,-0.154,-0.215,1.005,0.261,-0.306,0.977,-0.077,-0.351,0.800,1007.847,734.371,0.931,942.892,732.635,0.924,1101.717,534.744,1.076,861.491,548.347,1.145,1173.505,373.595,1.218,813.911,336.829,1.005,1213.613,242.262,0.977,868.356,122.951,0.800,-0.026,-0.973,1.404,0.000,-13.191,0.000,0.031,-0.026,0.021,0.026,-0.720,1.573
0723_094046_0215.png,0.030,0.176,0.935,-0.037,0.174,0.932,0.147,0.001,1.112,-0.150,0.007,1.139,0.180,-0.237,0.971,-0.228,-0.213,0.985,0.099,-0.358,0.740,-0.260,-0.355,0.753,990.221,718.722,0.935,922.730,717.365,0.932,1086.031,540.504,1.112,834.536,545.704,1.139,1136.670,307.646,0.971,740.049,334.406,0.985,1087.095,79.798,0.740,631.487,91.777,0.753,-0.023,-0.970,1.403,0.000,-4.176,0.000,-0.007,-0.014,-0.036,0.040,-0.924,1.721
0723_094046_0216.png,-0.002,0.158,0.939,-0.069,0.161,0.944,0.109,-0.004,1.154,-0.188,-0.018,1.095,0.211,-0.210,1.007,-0.290,-0.265,1.067,0.248,-0.337,0.775,-0.127,-0.316,0.863,957.547,699.795,0.939,890.323,702.376,0.944,1049.765,536.822,1.154,797.115,524.774,1.095,1159.236,341.835,1.007,701.524,303.960,1.067,1264.589,127.166,0.775,820.427,191.785,0.863,-0.027,-0.963,1.401,0.000,-347.197,0.000,-0.020,0.019,-0.012,0.035,-0.934,1.428
0723_094046_0217.png,0.029,0.153,0.937,-0.038,0.154,0.941,0.155,-0.019,1.113,-0.149,-0.016,1.127,0.249,-0.254,1.033,-0.217,-0.256,1.041,0.248,-0.325,0.787,-0.051,-0.314,0.848,989.152,694.830,0.937,921.137,695.237,0.941,1092.143,523.430,1.113,834.533,526.320,1.127,1189.089,306.445,1.033,761.466,306.158,1.041,1259.872,146.989,0.787,903.078,187.733,0.848,-0.035,-0.961,1.401,0.000,-1.512,0.000,-0.023,0.022,0.031,-0.185,-1.004,1.221
0723_094046_0218.png,0.012,0.140,0.937,-0.054,0.143,0.944,0.137,-0.013,1.132,-0.164,-0.016,1.119,0.242,-0.227,1.241,-0.330,-0.218,1.166,0.288,-0.273,0.989,-0.202,-0.288,0.948,972.426,681.656,0.937,905.369,683.970,0.944,1075.467,529.233,1.132,820.491,526.460,1.119,1145.199,366.112,1.241,690.739,362.591,1.166,1236.843,277.807,0.989,757.310,251.149,0.948,-0.031,-0.965,1.402,0.000,-356.194,0.000,-0.017,0.041,0.006,-0.205,-1.167,1.520
0723_094046_0219.png,-0.002,0.165,0.930,-0.063,0.171,0.943,0.115,0.002,1.143,-0.166,-0.008,1.103,0.102,-0.229,0.999,-0.244,-0.243,1.207,-0.010,-0.354,0.798,-0.245,-0.311,0.950,958.402,708.904,0.930,896.027,712.445,0.943,1055.871,541.325,1.143,816.651,533.319,1.103,1057.563,321.872,0.999,767.555,348.587,1.207,947.857,118.292,0.798,714.456,228.629,0.950,-0.033,-0.968,1.403,0.000,-350.401,0.000,0.042,0.002,-0.012,-0.307,-0.988,1.431
0723_094046_0220.png,0.034,0.169,0.930,-0.033,0.168,0.931,0.157,-0.006,1.109,-0.141,0.001,1.138,0.168,-0.276,1.163,-0.320,-0.200,1.194,0.149,-0.315,0.897,-0.238,-0.301,0.959,994.414,712.323,0.930,926.555,711.478,0.931,1094.212,535.150,1.109,841.850,540.926,1.138,1097.573,314.233,1.163,705.131,380.626,1.194,1118.175,205.790,0.897,723.753,241.152,0.959,-0.031,-0.964,1.402,0.000,-4.615,0.000,-0.009,-0.020,-0.022,-0.105,-1.169,1.222
0723_094046_0221.png,0.005,0.158,0.932,-0.061,0.164,0.944,0.131,-0.004,1.147,-0.170,-0.013,1.110,0.249,-0.246,1.084,-0.246,-0.259,1.199,0.132,-0.324,0.852,-0.233,-0.301,0.931,965.511,701.390,0.932,898.810,704.886,0.944,1068.409,536.287,1.147,814.216,529.022,1.110,1178.433,324.058,1.084,764.572,334.482,1.199,1107.938,177.984,0.852,722.261,232.892,0.931,-0.036,-0.959,1.401,0.000,-351.774,0.000,-0.021,-0.007,-0.034,-0.284,-1.104,1.292
0723_094046_0222.png,0.047,0.167,0.921,-0.018,0.165,0.919,0.170,-0.012,1.079,-0.117,0.003,1.146,0.259,-0.249,1.193,-0.251,-0.234,1.160,0.315,-0.304,0.945,-0.276,-0.311,0.913,1008.938,712.962,0.921,941.426,710.213,0.919,1110.056,529.298,1.079,862.945,542.785,1.146,1166.322,341.612,1.193,754.146,347.989,1.160,1276.600,234.535,0.945,672.518,215.662,0.913,-0.034,-0.966,1.402,0.000,-12.374,0.000,0.005,-0.029,0.018,-0.147,-1.233,1.283
0723_094046_0223.png,0.032,0.158,0.932,-0.033,0.159,0.937,0.157,-0.008,1.110,-0.133,-0.001,1.138,0.208,-0.253,1.006,-0.295,-0.205,1.197,0.116,-0.350,0.776,-0.377,-0.297,0.961,992.206,701.199,0.932,926.679,701.278,0.937,1094.587,533.469,1.110,849.021,539.043,1.138,1156.143,300.917,1.006,725.759,376.862,1.197,1101.929,110.846,0.776,586.609,245.812,0.961,-0.036,-0.968,1.403,0.000,-4.525,0.000,0.019,0.010,-0.012,-0.261,-1.117,1.499
0723_094046_0224.png,0.006,0.177,0.937,-0.058,0.180,0.943,0.115,-0.002,1.143,-0.170,-0.011,1.102,0.202,-0.211,0.988,-0.325,-0.191,1.233,0.247,-0.356,0.769,-0.300,-0.300,0.992,965.616,719.900,0.937,901.277,721.198,0.943,1055.800,538.153,1.143,812.932,530.105,1.102,1154.016,337.260,0.988,709.270,392.607,1.233,1265.400,100.030,0.769,672.820,252.104,0.992,-0.030,-0.962,1.401,0.000,-350.599,0.000,0.028,-0.013,-0.009,-0.026,-0.804,1.119
0723_094046_0225.png,0.014,0.168,0.930,-0.049,0.170,0.936,0.133,0.001,1.121,-0.152,0.002,1.127,0.133,-0.251,1.014,-0.219,-0.242,1.024,-0.013,-0.351,0.819,-0.101,-0.349,0.814,973.964,711.626,0.930,909.924,712.461,0.936,1072.626,540.556,1.121,831.673,541.767,1.127,1084.904,304.421,1.014,756.511,315.710,1.024,944.593,132.843,0.819,842.108,131.973,0.814,-0.025,-0.971,1.403,0.000,-0.118,0.000,0.041,-0.003,-0.016,-0.210,-1.137,1.290
0723_094046_0226.png,0.048,0.163,0.927,-0.017,0.159,0.923,0.165,-0.016,1.080,-0.119,0.000,1.148,0.229,-0.223,1.245,-0.088,-0.176,0.942,0.352,-0.284,1.026,-0.058,-0.347,0.741,1008.998,706.986,0.927,942.770,703.732,0.923,1105.554,526.069,1.080,861.672,539.824,1.148,1134.833,369.579,1.245,870.988,362.373,0.942,1286.243,276.377,1.026,885.703,94.420,0.741,-0.030,-0.965,1.402,0.000,-12.617,0.000,0.015,-0.009,0.020,-0.027,-1.165,1.323
0723_094046_0227.png,0.053,0.163,0.951,-0.012,0.159,0.941,0.162,-0.012,1.109,-0.133,-0.003,1.147,0.093,-0.189,0.900,-0.194,-0.218,0.986,0.029,-0.361,0.696,-0.121,-0.347,0.761,1012.990,703.117,0.951,947.822,700.241,0.941,1098.645,529.969,1.109,849.637,537.531,1.147,1058.717,340.675,0.900,772.924,330.099,0.986,999.200,46.594,0.696,808.316,106.088,0.761,-0.033,-0.967,1.402,0.000,-6.352,0.000,-0.002,0.031,-0.026,0.305,-0.908,1.447
0723_094046_0228.png,-0.002,0.151,0.925,-0.066,0.156,0.930,0.102,-0.002,1.146,-0.181,-0.016,1.086,0.044,-0.176,0.946,-0.237,-0.267,1.168,-0.013,-0.345,0.750,-0.224,-0.312,0.914,957.651,695.825,0.925,892.326,699.481,0.930,1044.807,538.224,1.146,801.557,526.059,1.086,1004.240,363.196,0.946,766.834,322.814,1.168,943.788,102.240,0.750,727.075,215.443,0.914,-0.027,-0.966,1.402,0.000,-346.569,0.000,0.024,0.002,0.022,0.027,-1.191,1.511
