rolosa10/RGSpipe/dataset/synthetic_dataset/Coods3D_unique0723_091151.csv
filename,left_eye,left_eye,left_eye,right_eye,right_eye,right_eye,left_shoulder,left_shoulder,left_shoulder,right_shoulder,right_shoulder,right_shoulder,left_elbow,left_elbow,left_elbow,right_elbow,right_elbow,right_elbow,left_wrist,left_wrist,left_wrist,right_wrist,right_wrist,right_wrist,left_eye_2D,left_eye_2D,left_eye_2D,right_eye_2D,right_eye_2D,right_eye_2D,left_shoulder_2D,left_shoulder_2D,left_shoulder_2D,right_shoulder_2D,right_shoulder_2D,right_shoulder_2D,left_elbow_2D,left_elbow_2D,left_elbow_2D,right_elbow_2D,right_elbow_2D,right_elbow_2D,left_wrist_2D,left_wrist_2D,left_wrist_2D,right_wrist_2D,right_wrist_2D,right_wrist_2D,root_position,root_position,root_position,root_pitch,root_yaw,root_roll,root_scale,root_scale,root_scale,look_at,look_at,look_at
0723_091151_0001.png,0.013,0.161,0.935,-0.050,0.163,0.938,0.115,0.001,1.146,-0.167,-0.008,1.105,0.208,-0.252,1.141,-0.256,-0.247,1.015,0.238,-0.330,0.886,-0.269,-0.357,0.771,973.013,703.202,0.935,908.885,705.023,0.938,1055.610,540.643,1.146,816.644,532.729,1.105,1133.709,329.907,1.141,719.789,308.553,1.015,1215.457,185.946,0.886,628.063,99.299,0.771,-0.033,-0.967,1.402,0.000,-350.512,0.000,0.041,0.009,-0.022,0.124,-1.000,1.636
0723_091151_0002.png,0.070,0.170,0.940,0.005,0.163,0.928,0.180,-0.007,1.083,-0.102,0.011,1.162,0.246,-0.243,0.959,-0.210,-0.221,1.056,0.259,-0.366,0.716,-0.086,-0.334,0.848,1030.395,712.273,0.940,965.584,706.850,0.928,1118.365,533.841,1.083,876.903,549.082,1.162,1204.348,298.753,0.959,770.851,341.038,1.056,1304.628,53.774,0.716,864.136,165.210,0.848,-0.038,-0.972,1.404,0.000,-14.834,0.000,0.012,0.009,-0.040,0.210,-1.132,1.327
0723_091151_0003.png,0.019,0.173,0.941,-0.046,0.173,0.942,0.132,0.000,1.128,-0.161,-0.002,1.119,0.226,-0.218,1.249,-0.173,-0.229,0.971,0.333,-0.281,1.016,-0.066,-0.350,0.763,979.018,714.766,0.941,913.416,715.069,0.942,1071.092,539.818,1.128,823.105,538.088,1.119,1132.189,374.179,1.249,790.170,315.787,0.971,1271.523,276.609,1.016,877.931,103.003,0.763,-0.027,-0.972,1.404,0.000,-357.051,0.000,0.013,0.016,-0.006,0.047,-0.867,1.322
0723_091151_0004.png,0.037,0.159,0.939,-0.029,0.156,0.936,0.153,-0.011,1.117,-0.143,-0.005,1.142,0.268,-0.228,1.232,-0.195,-0.186,0.931,0.394,-0.287,1.001,-0.244,-0.361,0.723,997.607,700.568,0.939,930.841,699.030,0.936,1090.423,530.731,1.117,840.951,535.582,1.142,1167.173,364.331,1.232,760.302,349.744,0.931,1334.461,267.533,1.001,638.776,65.240,0.723,-0.031,-0.960,1.401,0.000,-3.643,0.000,-0.001,-0.001,-0.037,0.072,-1.032,1.638
0723_091151_0005.png,0.018,0.166,0.948,-0.048,0.168,0.951,0.135,-0.006,1.134,-0.163,-0.011,1.113,0.154,-0.221,0.977,-0.219,-0.266,1.081,0.141,-0.343,0.746,-0.180,-0.319,0.830,978.024,706.911,0.948,911.918,707.700,0.951,1073.471,534.743,1.134,820.991,530.575,1.113,1110.098,324.798,0.977,767.777,306.345,1.081,1140.359,103.025,0.746,753.616,174.815,0.830,-0.034,-0.971,1.403,0.000,-354.746,0.000,-0.006,0.042,0.010,-0.031,-0.730,1.279
0723_091151_0006.png,0.000,0.160,0.928,-0.067,0.164,0.934,0.113,0.005,1.152,-0.186,-0.007,1.100,0.181,-0.243,1.047,-0.265,-0.265,1.041,0.035,-0.329,0.835,-0.108,-0.333,0.829,959.676,703.991,0.928,891.557,707.461,0.934,1052.991,543.982,1.152,799.315,533.905,1.100,1124.088,318.811,1.047,718.402,297.606,1.041,999.420,165.051,0.835,835.537,158.259,0.829,-0.026,-0.965,1.402,0.000,-348.758,0.000,-0.021,-0.012,-0.037,-0.013,-1.263,1.297
0723_091151_0007.png,0.014,0.188,0.924,-0.051,0.189,0.926,0.121,0.006,1.135,-0.170,-0.004,1.092,0.218,-0.220,1.270,-0.228,-0.252,0.996,0.380,-0.277,1.074,-0.104,-0.349,0.790,974.348,733.255,0.924,907.414,734.307,0.926,1061.387,544.904,1.135,812.108,536.476,1.092,1123.367,375.184,1.270,742.102,299.299,0.996,1296.121,294.524,1.074,834.499,119.678,0.790,-0.033,-0.967,1.402,0.000,-350.187,0.000,0.009,-0.046,0.016,0.111,-0.799,1.533
0723_091151_0008.png,0.014,0.162,0.933,-0.051,0.163,0.934,0.123,0.001,1.137,-0.167,-0.004,1.114,0.103,-0.183,0.928,-0.273,-0.201,0.955,0.085,-0.364,0.725,-0.326,-0.359,0.743,974.257,705.383,0.933,908.465,706.442,0.934,1062.969,541.091,1.137,817.141,536.759,1.114,1065.135,352.138,0.928,687.961,339.834,0.955,1071.672,62.512,0.725,542.964,80.730,0.743,-0.027,-0.968,1.403,0.000,-354.343,0.000,0.019,0.000,-0.021,0.088,-1.198,1.304
0723_091151_0009.png,0.000,0.167,0.925,-0.063,0.170,0.927,0.098,0.009,1.147,-0.181,-0.003,1.095,0.190,-0.243,1.087,-0.209,-0.243,0.963,0.045,-0.335,0.890,-0.113,-0.370,0.748,959.907,711.526,0.925,895.055,714.153,0.927,1041.681,547.206,1.147,802.435,537.251,1.095,1126.120,327.123,1.087,753.884,300.436,0.963,1008.594,182.574,0.890,816.115,69.518,0.748,-0.022,-0.970,1.403,0.000,-348.121,0.000,0.040,-0.021,-0.018,0.139,-1.111,1.669
0723_091151_0010.png,0.037,0.157,0.947,-0.031,0.156,0.945,0.156,-0.014,1.113,-0.146,-0.007,1.140,0.172,-0.266,1.026,-0.196,-0.179,0.930,-0.016,-0.317,0.844,-0.244,-0.346,0.724,996.729,697.723,0.947,929.070,696.690,0.945,1093.565,528.276,1.113,837.970,533.828,1.140,1119.436,293.645,1.026,759.484,356.679,0.930,941.503,183.371,0.844,639.687,85.806,0.724,-0.030,-0.967,1.402,0.000,-4.154,0.000,-0.024,0.040,-0.008,0.016,-0.911,1.417
0723_091151_0011.png,0.037,0.179,0.944,-0.028,0.177,0.941,0.158,-0.008,1.103,-0.134,0.003,1.152,0.093,-0.231,0.944,-0.160,-0.225,0.990,-0.018,-0.364,0.732,-0.091,-0.358,0.763,997.486,720.024,0.944,931.322,718.747,0.941,1095.916,532.820,1.103,849.651,542.443,1.152,1054.128,307.132,0.944,805.850,324.296,0.990,936.636,66.450,0.732,847.127,93.750,0.763,-0.025,-0.964,1.402,0.000,-8.642,0.000,0.005,-0.006,-0.043,-0.092,-0.825,1.260
0723_091151_0012.png,0.003,0.176,0.923,-0.060,0.180,0.928,0.104,0.012,1.147,-0.176,-0.001,1.088,0.071,-0.166,0.935,-0.291,-0.205,1.233,0.040,-0.341,0.729,-0.237,-0.304,0.992,963.585,721.762,0.923,898.402,724.602,0.928,1046.658,550.313,1.147,806.009,539.069,1.088,1031.897,371.364,0.935,735.227,382.018,1.233,1012.134,94.967,0.729,732.377,248.952,0.992,-0.031,-0.973,1.404,0.000,-346.707,0.000,0.033,-0.026,-0.008,0.080,-0.986,1.665
0723_091151_0013.png,0.049,0.167,0.939,-0.015,0.165,0.935,0.166,-0.025,1.076,-0.112,-0.007,1.154,0.240,-0.276,1.025,-0.262,-0.225,1.187,0.128,-0.340,0.802,-0.316,-0.302,0.947,1009.398,709.451,0.939,944.391,707.841,0.935,1107.087,518.343,1.076,867.518,534.435,1.154,1182.654,283.916,1.025,749.970,359.900,1.187,1111.545,136.390,0.802,642.344,236.441,0.947,-0.029,-0.960,1.401,0.000,-14.716,0.000,0.024,0.005,0.020,-0.127,-0.713,1.557
0723_091151_0014.png,0.014,0.170,0.922,-0.051,0.173,0.931,0.141,-0.003,1.116,-0.154,-0.004,1.113,0.184,-0.201,1.302,-0.239,-0.248,1.040,0.263,-0.269,1.067,-0.096,-0.330,0.842,974.233,715.467,0.922,908.003,717.151,0.931,1080.478,537.519,1.116,828.395,536.898,1.113,1094.102,393.038,1.302,741.886,313.661,1.040,1194.038,299.917,1.067,851.088,167.240,0.842,-0.033,-0.969,1.403,0.000,-358.205,0.000,0.005,-0.019,0.031,-0.326,-0.986,1.537
0723_091151_0015.png,0.046,0.166,0.928,-0.018,0.163,0.923,0.161,-0.013,1.089,-0.123,0.000,1.142,0.219,-0.270,1.161,-0.225,-0.251,1.161,0.243,-0.320,0.908,-0.198,-0.315,0.912,1007.452,710.196,0.928,941.902,707.533,0.923,1100.808,529.078,1.089,857.678,539.701,1.142,1139.001,318.666,1.161,775.439,334.761,1.161,1214.437,205.184,0.908,753.626,211.380,0.912,-0.032,-0.965,1.402,0.000,-9.636,0.000,0.026,-0.016,0.018,0.040,-1.030,1.619
0723_091151_0016.png,0.025,0.172,0.928,-0.038,0.173,0.932,0.145,-0.002,1.107,-0.139,0.003,1.131,0.159,-0.260,1.026,-0.238,-0.188,1.294,-0.005,-0.344,0.843,-0.298,-0.283,1.057,985.352,716.198,0.928,920.974,716.107,0.932,1084.303,538.197,1.107,843.246,542.747,1.131,1107.366,298.995,1.026,784.749,401.886,1.294,954.673,152.516,0.843,691.414,285.377,1.057,-0.030,-0.971,1.403,0.000,-3.656,0.000,0.042,-0.008,0.004,-0.194,-1.013,1.458
0723_091151_0017.png,0.035,0.166,0.925,-0.032,0.164,0.922,0.154,-0.008,1.106,-0.148,-0.002,1.133,0.160,-0.265,1.011,-0.222,-0.269,1.148,-0.017,-0.333,0.825,-0.177,-0.312,0.891,995.909,710.691,0.925,926.861,709.201,0.922,1092.398,533.007,1.106,835.934,538.366,1.133,1110.081,290.566,1.011,776.449,317.223,1.148,940.238,156.339,0.825,771.504,207.119,0.891,-0.029,-0.961,1.401,0.000,-4.058,0.000,-0.020,-0.035,0.001,0.049,-1.083,1.685
0723_091151_0018.png,0.016,0.155,0.935,-0.049,0.158,0.943,0.142,-0.016,1.115,-0.151,-0.013,1.126,0.182,-0.264,1.032,-0.163,-0.228,0.973,0.019,-0.327,0.843,-0.138,-0.350,0.747,975.940,698.039,0.935,910.874,699.049,0.943,1080.714,526.498,1.115,832.758,528.868,1.126,1127.766,296.958,1.032,801.039,316.889,0.973,981.487,170.605,0.843,784.153,94.187,0.747,-0.028,-0.963,1.401,0.000,-1.141,0.000,0.015,0.020,0.024,-0.308,-0.938,1.433
0723_091151_0019.png,0.044,0.162,0.934,-0.023,0.162,0.938,0.173,-0.013,1.097,-0.124,-0.001,1.147,0.155,-0.224,0.926,-0.243,-0.234,1.211,0.111,-0.359,0.701,-0.219,-0.290,0.953,1004.274,705.250,0.934,936.550,704.505,0.938,1110.043,528.941,1.097,857.505,539.039,1.147,1119.663,309.406,0.926,769.215,356.152,1.211,1110.900,52.143,0.701,741.282,250.378,0.953,-0.039,-0.966,1.402,0.000,-8.727,0.000,-0.014,0.011,-0.007,-0.289,-0.994,1.427
0723_091151_0020.png,0.051,0.170,0.934,-0.016,0.165,0.927,0.170,-0.006,1.087,-0.127,0.010,1.157,0.192,-0.276,1.040,-0.111,-0.178,0.949,0.005,-0.323,0.850,-0.075,-0.349,0.737,1011.965,713.318,0.934,943.322,709.261,0.927,1109.115,534.674,1.087,855.824,548.369,1.157,1135.510,287.737,1.040,849.230,361.450,0.949,965.282,178.098,0.850,863.611,89.554,0.737,-0.026,-0.971,1.403,0.000,-12.566,0.000,-0.030,-0.004,-0.033,0.058,-1.166,1.326
0723_091151_0021.png,0.028,0.155,0.930,-0.037,0.155,0.928,0.137,-0.012,1.128,-0.156,-0.016,1.110,0.275,-0.231,1.060,-0.282,-0.200,1.266,0.343,-0.327,0.832,-0.425,-0.272,1.064,989.106,698.169,0.930,922.398,698.475,0.928,1075.490,529.706,1.128,825.868,526.009,1.110,1207.061,332.790,1.060,748.324,390.154,1.266,1351.987,165.645,0.832,580.049,296.382,1.064,-0.036,-0.959,1.400,0.000,-355.242,0.000,0.010,-0.010,0.025,0.171,-1.131,1.423
0723_091151_0022.png,0.001,0.170,0.945,-0.065,0.173,0.951,0.121,-0.002,1.141,-0.178,-0.008,1.113,0.165,-0.263,1.097,-0.260,-0.229,0.975,0.129,-0.321,0.839,-0.231,-0.349,0.737,960.836,711.474,0.945,894.621,712.883,0.951,1060.790,538.632,1.141,807.681,533.233,1.113,1103.319,311.873,1.097,706.065,317.033,0.975,1106.685,175.729,0.839,661.691,89.620,0.737,-0.022,-0.969,1.403,0.000,-353.473,0.000,-0.012,0.024,-0.019,-0.129,-0.780,1.302
0723_091151_0023.png,0.016,0.163,0.933,-0.049,0.164,0.931,0.118,-0.004,1.137,-0.173,-0.014,1.091,0.050,-0.174,0.943,-0.322,-0.224,1.168,-0.020,-0.339,0.754,-0.396,-0.296,0.935,976.427,706.655,0.933,909.720,707.470,0.931,1058.997,536.683,1.137,809.277,527.463,1.091,1010.090,364.200,0.943,698.100,357.457,1.168,935.392,112.248,0.754,557.562,238.743,0.935,-0.031,-0.969,1.403,0.000,-349.752,0.000,0.006,0.009,0.043,0.273,-0.916,1.542
0723_091151_0024.png,0.045,0.157,0.934,-0.023,0.155,0.934,0.169,-0.009,1.108,-0.136,-0.001,1.143,0.131,-0.271,1.045,-0.277,-0.211,1.243,0.087,-0.333,0.787,-0.365,-0.276,0.998,1005.669,699.734,0.934,936.464,698.306,0.934,1104.797,532.070,1.108,846.763,538.855,1.143,1079.453,293.067,1.045,748.283,378.732,1.243,1064.851,137.545,0.787,612.326,276.656,0.998,-0.038,-0.966,1.402,0.000,-5.401,0.000,-0.033,0.008,-0.021,-0.044,-1.169,1.456
0723_091151_0025.png,0.032,0.185,0.927,-0.032,0.183,0.925,0.148,-0.006,1.093,-0.138,0.003,1.134,0.104,-0.188,0.894,-0.187,-0.228,1.005,0.061,-0.365,0.701,-0.080,-0.348,0.804,992.618,729.671,0.927,926.792,728.568,0.925,1088.898,534.441,1.093,844.131,542.611,1.134,1070.587,340.405,0.894,783.550,324.740,1.005,1042.835,44.344,0.701,865.552,128.017,0.804,-0.024,-0.966,1.402,0.000,-7.257,0.000,0.025,-0.038,0.020,-0.026,-0.904,1.226
0723_091151_0026.png,0.008,0.171,0.922,-0.057,0.174,0.928,0.120,0.005,1.138,-0.171,-0.004,1.098,0.181,-0.171,0.931,-0.115,-0.187,0.902,0.241,-0.342,0.731,-0.061,-0.365,0.711,968.210,715.921,0.922,901.767,718.453,0.928,1060.445,544.178,1.138,812.348,536.456,1.098,1145.008,365.866,0.931,838.891,343.162,0.902,1273.849,94.537,0.731,878.131,51.253,0.711,-0.031,-0.968,1.403,0.000,-350.879,0.000,0.011,-0.030,0.000,-0.052,-1.154,1.341
0723_091151_0027.png,0.008,0.150,0.939,-0.056,0.153,0.945,0.118,-0.012,1.147,-0.169,-0.024,1.096,0.238,-0.247,1.154,-0.259,-0.257,1.009,0.245,-0.307,0.903,-0.267,-0.345,0.766,968.573,692.038,0.939,903.958,694.339,0.945,1057.441,529.793,1.147,813.634,519.132,1.096,1155.866,336.645,1.154,715.845,298.032,1.009,1217.597,216.470,0.903,628.594,111.714,0.766,-0.037,-0.961,1.401,0.000,-348.454,0.000,0.020,0.031,0.017,0.003,-0.853,1.612
0723_091151_0028.png,0.024,0.192,0.936,-0.043,0.192,0.936,0.138,0.009,1.133,-0.164,0.004,1.112,0.262,-0.230,1.067,-0.186,-0.200,0.924,0.240,-0.333,0.819,-0.153,-0.362,0.708,984.249,734.830,0.936,916.071,735.247,0.936,1075.691,547.612,1.133,819.652,543.716,1.112,1193.650,335.544,1.067,768.563,334.334,0.924,1238.307,153.920,0.819,754.502,54.548,0.708,-0.034,-0.972,1.404,0.000,-354.833,0.000,-0.020,-0.025,-0.024,0.108,-0.775,1.343
0723_091151_0029.png,0.047,0.172,0.930,-0.021,0.170,0.929,0.171,-0.008,1.094,-0.127,0.005,1.150,0.281,-0.261,1.078,-0.204,-0.173,0.944,0.314,-0.330,0.819,-0.279,-0.347,0.744,1007.595,715.627,0.930,938.854,713.628,0.929,1108.896,533.391,1.094,855.148,544.244,1.150,1207.467,309.925,1.078,754.461,365.292,0.944,1324.932,157.308,0.819,602.585,95.781,0.744,-0.034,-0.965,1.402,0.000,-9.628,0.000,-0.022,-0.020,-0.024,-0.107,-1.045,1.450
0723_091151_0030.png,0.001,0.152,0.942,-0.064,0.155,0.948,0.117,-0.008,1.144,-0.177,-0.017,1.103,0.246,-0.188,0.991,-0.257,-0.262,1.141,0.320,-0.332,0.785,-0.243,-0.305,0.885,960.999,693.287,0.942,895.374,695.614,0.948,1057.422,533.614,1.144,807.339,525.301,1.103,1195.832,359.761,0.991,746.056,321.617,1.141,1348.007,137.407,0.785,698.510,212.547,0.885,-0.027,-0.968,1.402,0.000,-350.738,0.000,-0.001,0.045,0.008,-0.084,-0.898,1.526
0723_091151_0031.png,0.036,0.163,0.925,-0.032,0.161,0.924,0.162,-0.009,1.091,-0.144,0.003,1.144,0.235,-0.212,1.260,-0.185,-0.248,1.050,0.183,-0.270,1.009,-0.136,-0.324,0.802,997.155,707.849,0.925,926.691,705.491,0.924,1100.914,531.834,1.091,840.724,542.509,1.144,1137.109,379.579,1.260,792.520,315.736,1.050,1132.572,285.019,1.009,798.486,155.606,0.802,-0.023,-0.968,1.402,0.000,-9.099,0.000,-0.044,-0.013,0.005,-0.071,-1.149,1.575
0723_091151_0032.png,0.029,0.173,0.931,-0.037,0.173,0.931,0.145,-0.005,1.122,-0.153,-0.005,1.122,0.190,-0.184,0.915,-0.245,-0.201,1.296,0.234,-0.359,0.714,-0.290,-0.277,1.046,989.469,716.824,0.931,921.909,716.850,0.931,1082.709,535.560,1.122,829.897,535.495,1.122,1157.187,348.564,0.915,780.212,392.819,1.296,1271.269,61.610,0.714,696.116,287.979,1.046,-0.034,-0.961,1.401,0.000,-358.763,0.000,-0.004,-0.030,-0.007,0.044,-0.910,1.582
0723_091151_0033.png,0.016,0.168,0.926,-0.050,0.170,0.935,0.146,-0.012,1.111,-0.153,-0.010,1.118,0.267,-0.247,1.183,-0.182,-0.253,1.016,0.320,-0.296,0.939,-0.052,-0.332,0.809,976.059,712.224,0.926,909.284,713.370,0.935,1084.608,529.702,1.111,829.913,531.110,1.118,1174.198,341.847,1.183,789.208,303.245,1.016,1284.033,240.358,0.939,898.432,150.157,0.809,-0.031,-0.962,1.401,0.000,-0.184,0.000,-0.006,-0.016,0.040,-0.359,-0.905,1.401
0723_091151_0034.png,0.016,0.138,0.929,-0.050,0.141,0.934,0.136,-0.013,1.128,-0.162,-0.017,1.108,0.264,-0.222,1.229,-0.208,-0.262,1.028,0.391,-0.269,1.012,-0.053,-0.319,0.831,976.807,681.076,0.929,909.383,683.192,0.934,1074.975,529.320,1.128,820.599,525.277,1.108,1164.427,368.460,1.229,767.823,297.758,1.028,1327.382,286.870,1.012,898.919,174.611,0.831,-0.033,-0.966,1.402,0.000,-354.989,0.000,-0.009,0.030,0.039,-0.095,-1.257,1.580
0723_091151_0035.png,0.020,0.163,0.930,-0.046,0.165,0.936,0.143,-0.005,1.129,-0.159,-0.007,1.117,0.270,-0.245,1.105,-0.277,-0.243,1.047,0.309,-0.319,0.854,-0.296,-0.332,0.799,980.821,706.340,0.930,912.941,707.790,0.936,1080.522,536.074,1.129,824.871,533.697,1.117,1192.497,329.401,1.105,708.234,319.580,1.047,1304.649,184.818,0.854,608.083,144.638,0.799,-0.035,-0.964,1.402,0.000,-356.504,0.000,-0.017,-0.007,-0.003,-0.136,-1.078,1.377
0723_091151_0036.png,0.032,0.158,0.937,-0.036,0.157,0.935,0.151,-0.013,1.116,-0.157,-0.011,1.129,0.280,-0.249,1.153,-0.171,-0.231,0.976,0.325,-0.298,0.900,-0.081,-0.339,0.754,992.253,700.619,0.937,922.985,699.959,0.935,1088.657,528.507,1.116,828.121,531.011,1.129,1190.512,334.401,1.153,793.581,314.643,0.976,1303.152,224.911,0.900,857.471,112.342,0.754,-0.029,-0.962,1.401,0.000,-1.176,0.000,-0.037,0.007,0.008,0.069,-1.042,1.333
0723_091151_0037.png,0.000,0.159,0.943,-0.065,0.162,0.948,0.113,-0.004,1.144,-0.179,-0.013,1.104,0.263,-0.221,1.161,-0.207,-0.273,1.117,0.337,-0.299,0.922,-0.160,-0.313,0.863,960.084,700.288,0.943,894.602,702.122,0.948,1054.310,536.707,1.144,805.411,528.757,1.104,1174.989,358.765,1.161,783.660,307.705,1.117,1307.652,232.036,0.922,783.959,195.217,0.863,-0.024,-0.970,1.403,0.000,-350.937,0.000,0.004,0.041,0.003,-0.028,-0.942,1.178
0723_091151_0038.png,0.038,0.157,0.936,-0.027,0.155,0.932,0.154,-0.015,1.106,-0.143,-0.009,1.136,0.288,-0.249,1.099,-0.245,-0.245,1.213,0.252,-0.319,0.851,-0.222,-0.291,0.957,999.120,699.667,0.936,931.988,697.967,0.932,1092.539,526.786,1.106,840.593,532.870,1.136,1209.457,324.871,1.099,767.574,348.092,1.213,1241.459,183.107,0.851,739.539,251.422,0.957,-0.030,-0.962,1.401,0.000,-4.715,0.000,-0.005,0.007,0.012,0.093,-1.095,1.345
0723_091151_0039.png,0.027,0.164,0.948,-0.041,0.164,0.950,0.150,-0.013,1.119,-0.154,-0.010,1.133,0.126,-0.204,0.926,-0.245,-0.250,1.057,0.051,-0.351,0.716,-0.067,-0.312,0.868,986.711,704.292,0.948,919.135,704.362,0.950,1087.469,529.192,1.119,830.754,532.017,1.133,1089.294,330.739,0.926,739.212,314.862,1.057,1027.281,73.409,0.716,887.039,198.702,0.868,-0.029,-0.965,1.402,0.000,-1.526,0.000,-0.025,0.032,-0.006,-0.098,-0.745,1.450
0723_091151_0040.png,0.036,0.162,0.931,-0.028,0.158,0.927,0.149,-0.002,1.104,-0.136,0.006,1.141,0.228,-0.211,1.255,-0.217,-0.170,0.936,0.372,-0.283,1.048,-0.299,-0.342,0.739,996.858,705.106,0.931,931.748,702.406,0.927,1088.678,538.139,1.104,846.896,545.157,1.141,1133.021,379.912,1.255,739.636,367.475,0.936,1297.806,283.374,1.048,575.100,100.004,0.739,-0.027,-0.973,1.404,0.000,-6.275,0.000,0.032,0.002,-0.016,0.074,-1.279,1.451
0723_091151_0041.png,-0.002,0.146,0.934,-0.067,0.154,0.946,0.115,0.002,1.159,-0.176,-0.013,1.094,0.181,-0.243,1.066,-0.274,-0.221,0.948,0.008,-0.315,0.876,-0.303,-0.355,0.716,958.112,688.640,0.934,893.094,694.339,0.946,1054.019,541.802,1.159,807.203,529.001,1.094,1121.286,322.854,1.066,684.963,318.141,0.948,968.890,197.901,0.876,557.221,68.461,0.716,-0.039,-0.971,1.403,0.000,-345.967,0.000,-0.003,0.040,-0.026,-0.212,-1.210,1.405
0723_091151_0042.png,0.036,0.162,0.935,-0.030,0.162,0.941,0.167,-0.011,1.104,-0.129,0.000,1.149,0.277,-0.206,1.253,-0.236,-0.230,1.040,0.286,-0.285,0.995,-0.131,-0.336,0.815,996.666,704.300,0.935,929.653,703.940,0.941,1103.817,530.765,1.104,853.600,539.653,1.149,1170.096,383.764,1.253,744.460,330.111,1.040,1233.182,267.661,0.995,806.800,148.138,0.815,-0.035,-0.965,1.402,0.000,-7.676,0.000,-0.007,0.007,-0.029,-0.334,-1.017,1.478
0723_091151_0043.png,0.028,0.174,0.932,-0.035,0.173,0.931,0.143,-0.011,1.103,-0.142,-0.005,1.131,0.089,-0.188,0.903,-0.301,-0.194,1.031,0.038,-0.362,0.708,-0.413,-0.335,0.846,988.825,717.794,0.932,924.170,717.025,0.931,1082.926,530.105,1.103,840.895,535.685,1.131,1054.029,341.505,0.903,682.690,361.269,1.031,1011.486,53.665,0.708,495.012,163.255,0.846,-0.025,-0.962,1.401,0.000,-4.523,0.000,0.038,-0.021,0.019,-0.018,-0.938,1.161
0723_091151_0044.png,0.020,0.168,0.928,-0.045,0.169,0.929,0.135,0.008,1.128,-0.158,0.007,1.125,0.274,-0.218,1.051,-0.170,-0.226,0.971,0.359,-0.340,0.822,-0.062,-0.360,0.760,980.046,712.292,0.928,913.472,712.777,0.929,1074.051,546.424,1.128,826.357,546.014,1.125,1208.417,343.106,1.051,793.669,318.351,0.971,1374.967,146.323,0.822,881.814,88.899,0.760,-0.027,-0.972,1.404,0.000,-358.389,0.000,0.012,-0.017,-0.040,-0.016,-1.239,1.498
0723_091151_0045.png,0.012,0.178,0.935,-0.054,0.179,0.938,0.129,-0.004,1.130,-0.168,-0.007,1.118,0.253,-0.229,1.232,-0.335,-0.225,1.128,0.371,-0.291,1.001,-0.423,-0.317,0.893,971.877,721.205,0.935,905.104,721.856,0.938,1068.669,536.300,1.130,817.050,533.925,1.118,1155.220,363.229,1.232,677.730,349.937,1.128,1312.333,263.630,1.001,509.543,202.631,0.893,-0.024,-0.960,1.401,0.000,-356.466,0.000,-0.002,-0.027,-0.015,-0.054,-0.847,1.264
0723_091151_0046.png,0.001,0.167,0.925,-0.064,0.172,0.932,0.109,0.006,1.150,-0.179,-0.007,1.094,0.201,-0.203,1.304,-0.244,-0.190,0.895,0.226,-0.282,1.047,-0.311,-0.369,0.703,961.110,711.686,0.925,895.092,715.064,0.932,1050.204,544.716,1.150,804.805,533.898,1.094,1106.790,391.907,1.304,700.376,338.096,0.895,1165.347,284.299,1.047,539.501,40.803,0.703,-0.030,-0.965,1.402,0.000,-347.656,0.000,0.012,-0.024,-0.022,-0.017,-1.068,1.568
0723_091151_0047.png,0.016,0.176,0.934,-0.051,0.176,0.934,0.129,-0.002,1.135,-0.175,-0.008,1.106,0.257,-0.233,1.067,-0.298,-0.242,1.184,0.213,-0.325,0.824,-0.312,-0.298,0.926,976.636,718.851,0.934,907.817,719.427,0.934,1067.698,538.718,1.135,809.600,532.868,1.106,1189.081,332.433,1.067,720.528,345.230,1.184,1205.820,164.910,0.824,639.473,233.695,0.926,-0.028,-0.964,1.402,0.000,-353.145,0.000,-0.027,-0.018,0.001,0.149,-0.806,1.582
0723_091151_0048.png,0.051,0.161,0.937,-0.015,0.159,0.937,0.177,-0.015,1.086,-0.109,0.003,1.161,0.228,-0.200,1.273,-0.170,-0.204,0.984,0.193,-0.278,1.016,-0.180,-0.353,0.756,1011.364,703.545,0.937,944.473,701.158,0.937,1115.192,527.049,1.086,870.401,542.053,1.161,1130.031,390.857,1.273,795.971,342.747,0.984,1140.821,279.491,1.016,733.475,95.984,0.756,-0.035,-0.966,1.402,0.000,-13.908,0.000,0.000,0.015,-0.032,-0.278,-1.068,1.343
0723_091151_0049.png,0.041,0.151,0.932,-0.025,0.149,0.932,0.165,-0.021,1.085,-0.125,-0.005,1.151,0.126,-0.210,0.899,-0.275,-0.199,1.258,0.037,-0.359,0.705,-0.441,-0.261,1.068,1001.376,694.487,0.932,934.183,692.264,0.932,1104.672,521.930,1.085,856.811,535.475,1.151,1093.538,318.199,0.899,751.835,389.964,1.258,1009.813,56.057,0.705,567.168,307.116,1.068,-0.028,-0.964,1.402,0.000,-11.954,0.000,-0.002,0.019,0.017,-0.199,-1.103,1.485
0723_091151_0050.png,0.019,0.181,0.926,-0.044,0.184,0.932,0.136,0.003,1.126,-0.151,0.000,1.113,0.159,-0.185,0.926,-0.241,-0.239,1.225,0.183,-0.369,0.732,-0.238,-0.310,0.969,979.683,726.186,0.926,914.714,727.371,0.932,1075.025,542.144,1.126,830.641,539.710,1.113,1123.431,350.118,0.926,772.781,354.299,1.225,1198.262,60.951,0.732,726.761,235.821,0.969,-0.036,-0.966,1.402,0.000,-356.269,0.000,0.030,-0.037,-0.007,-0.139,-0.857,1.614
0723_091151_0051.png,0.010,0.193,0.930,-0.055,0.196,0.939,0.125,0.012,1.139,-0.165,0.003,1.100,0.270,-0.200,1.043,-0.248,-0.181,0.908,0.369,-0.335,0.835,-0.330,-0.361,0.723,970.261,737.546,0.930,904.736,738.936,0.939,1064.721,549.618,1.139,816.935,542.205,1.100,1206.437,357.699,1.043,700.123,350.107,0.908,1379.622,158.475,0.835,525.581,65.020,0.723,-0.037,-0.973,1.404,0.000,-350.988,0.000,0.011,-0.029,-0.013,-0.127,-0.771,1.247
0723_091151_0052.png,0.048,0.173,0.934,-0.020,0.171,0.929,0.166,-0.006,1.110,-0.143,-0.001,1.132,0.180,-0.215,1.288,-0.324,-0.203,1.079,0.217,-0.266,1.031,-0.410,-0.313,0.854,1009.378,716.065,0.934,939.653,714.711,0.929,1102.099,534.636,1.110,839.950,539.036,1.132,1093.051,381.285,1.288,674.378,361.006,1.079,1160.273,294.280,1.031,503.711,191.417,0.854,-0.039,-0.965,1.402,0.000,-3.055,0.000,-0.042,-0.017,-0.003,0.158,-0.898,1.648
0723_091151_0053.png,0.021,0.166,0.934,-0.045,0.168,0.936,0.139,-0.002,1.132,-0.160,-0.004,1.124,0.220,-0.215,1.284,-0.155,-0.188,0.910,0.382,-0.269,1.075,-0.152,-0.369,0.701,981.580,709.474,0.934,914.218,710.213,0.936,1076.475,538.443,1.132,824.468,536.859,1.124,1122.998,380.586,1.284,798.063,342.988,0.910,1298.334,302.115,1.075,754.158,39.520,0.701,-0.031,-0.963,1.401,0.000,-357.236,0.000,-0.007,-0.015,-0.038,-0.020,-1.131,1.260
0723_091151_0054.png,0.004,0.179,0.931,-0.061,0.182,0.939,0.128,0.004,1.126,-0.167,0.000,1.111,0.162,-0.262,1.163,-0.233,-0.216,0.965,0.124,-0.308,0.908,-0.207,-0.353,0.744,963.986,722.910,0.931,898.318,724.394,0.939,1067.750,543.256,1.126,816.607,540.258,1.111,1092.396,325.315,1.163,730.540,327.047,0.965,1090.064,216.884,0.908,695.925,89.288,0.744,-0.025,-0.974,1.404,0.000,-355.748,0.000,0.005,-0.004,0.009,-0.251,-0.798,1.572
0723_091151_0055.png,0.039,0.176,0.931,-0.028,0.174,0.928,0.160,-0.016,1.081,-0.135,-0.002,1.142,0.126,-0.260,0.984,-0.200,-0.172,0.946,0.068,-0.341,0.749,-0.259,-0.337,0.753,999.499,719.696,0.931,931.490,718.382,0.928,1100.379,526.165,1.081,847.641,538.710,1.142,1081.647,288.288,0.984,759.186,367.478,0.946,1046.440,107.789,0.749,632.246,114.402,0.753,-0.023,-0.965,1.402,0.000,-10.956,0.000,-0.014,-0.015,0.037,-0.080,-0.824,1.354
0723_091151_0056.png,0.032,0.166,0.932,-0.037,0.167,0.936,0.160,-0.009,1.117,-0.150,-0.006,1.130,0.081,-0.182,0.915,-0.326,-0.194,1.234,0.001,-0.349,0.719,-0.317,-0.281,0.983,992.632,709.827,0.932,922.657,710.138,0.936,1096.543,532.121,1.117,833.890,534.846,1.130,1043.895,350.941,0.915,708.744,390.478,1.234,961.266,78.415,0.719,653.086,267.974,0.983,-0.037,-0.961,1.401,0.000,-1.404,0.000,-0.046,-0.015,-0.009,-0.141,-0.914,1.631
0723_091151_0057.png,0.030,0.174,0.938,-0.037,0.174,0.935,0.138,0.000,1.132,-0.160,-0.004,1.117,0.287,-0.228,1.106,-0.207,-0.240,0.984,0.365,-0.319,0.866,-0.088,-0.348,0.770,989.948,716.633,0.938,922.761,716.508,0.935,1076.048,539.935,1.132,823.545,536.948,1.117,1206.534,343.705,1.106,759.824,308.254,0.984,1360.557,189.158,0.866,851.136,110.001,0.770,-0.034,-0.966,1.402,0.000,-355.824,0.000,-0.007,-0.009,-0.020,0.230,-0.884,1.513
0723_091151_0058.png,0.039,0.158,0.937,-0.027,0.156,0.937,0.161,-0.006,1.107,-0.131,0.004,1.148,0.177,-0.195,0.900,-0.294,-0.207,1.091,0.161,-0.369,0.688,-0.283,-0.328,0.847,999.512,700.399,0.937,933.061,698.693,0.937,1098.465,535.259,1.107,851.637,543.396,1.148,1147.361,333.634,0.900,704.085,359.975,1.091,1182.892,29.290,0.688,642.027,172.377,0.847,-0.032,-0.971,1.403,0.000,-7.194,0.000,0.006,0.021,-0.035,-0.113,-1.168,1.486
0723_091151_0059.png,0.014,0.157,0.929,-0.050,0.158,0.929,0.116,-0.001,1.136,-0.169,-0.010,1.096,0.103,-0.241,1.025,-0.326,-0.223,1.085,0.046,-0.340,0.797,-0.352,-0.326,0.853,974.268,700.684,0.929,909.038,702.066,0.929,1057.170,538.787,1.136,813.693,530.918,1.096,1055.336,316.852,1.025,674.141,344.833,1.085,1015.428,134.033,0.797,567.102,176.284,0.853,-0.030,-0.971,1.403,0.000,-350.775,0.000,0.031,0.012,0.031,0.182,-1.067,1.652
0723_091151_0060.png,0.030,0.195,0.938,-0.036,0.194,0.938,0.150,0.000,1.106,-0.149,0.006,1.131,0.067,-0.178,0.913,-0.166,-0.193,0.946,-0.016,-0.352,0.725,-0.133,-0.355,0.738,990.816,737.330,0.938,923.361,737.070,0.938,1089.337,540.181,1.106,835.066,545.133,1.131,1029.365,354.064,0.913,792.647,345.701,0.946,939.263,77.547,0.725,788.099,82.513,0.738,-0.027,-0.972,1.403,0.000,-3.858,0.000,-0.011,-0.020,-0.001,-0.039,-0.622,1.347
0723_091151_0061.png,0.006,0.193,0.938,-0.060,0.195,0.942,0.114,0.013,1.149,-0.179,0.000,1.094,0.052,-0.166,0.937,-0.146,-0.187,0.890,-0.007,-0.341,0.731,-0.116,-0.371,0.690,965.795,735.507,0.938,899.050,736.614,0.942,1054.520,550.545,1.149,804.283,540.284,1.094,1013.170,371.484,0.937,803.449,339.689,0.890,951.396,96.703,0.731,800.471,29.399,0.690,-0.031,-0.974,1.404,0.000,-348.134,0.000,-0.006,-0.014,-0.025,0.098,-0.701,1.240
0723_091151_0062.png,0.012,0.193,0.925,-0.053,0.195,0.931,0.134,0.006,1.119,-0.162,0.005,1.114,0.228,-0.230,1.241,-0.153,-0.244,0.999,0.339,-0.294,1.011,-0.098,-0.353,0.766,972.590,738.277,0.925,905.849,738.995,0.931,1073.955,545.118,1.119,822.138,544.119,1.114,1134.568,363.829,1.241,814.531,308.052,0.999,1279.385,263.424,1.011,838.385,101.541,0.766,-0.027,-0.970,1.403,0.000,-357.790,0.000,0.004,-0.046,0.002,-0.191,-0.836,1.305
0723_091151_0063.png,0.021,0.194,0.940,-0.043,0.193,0.938,0.130,0.006,1.124,-0.159,0.007,1.124,0.161,-0.269,1.122,-0.280,-0.224,1.037,0.138,-0.339,0.861,-0.252,-0.353,0.799,981.388,736.269,0.940,916.572,736.015,0.938,1070.034,545.485,1.124,825.705,545.513,1.124,1096.358,312.125,1.122,703.498,334.182,1.037,1112.121,165.837,0.861,660.538,120.641,0.799,-0.023,-0.971,1.403,0.000,-358.856,0.000,0.027,-0.024,-0.030,0.143,-0.698,1.416
0723_091151_0064.png,0.040,0.164,0.945,-0.026,0.163,0.944,0.163,-0.021,1.090,-0.132,-0.007,1.150,0.182,-0.280,1.042,-0.247,-0.180,1.316,-0.013,-0.311,0.870,-0.300,-0.253,1.073,1000.577,705.413,0.945,933.495,704.361,0.944,1101.829,521.875,1.090,850.447,534.127,1.150,1126.381,284.527,1.042,781.693,410.117,1.316,946.221,199.579,0.870,693.926,315.740,1.073,-0.026,-0.965,1.402,0.000,-10.524,0.000,-0.015,0.030,0.014,-0.150,-0.781,1.180
0723_091151_0065.png,0.053,0.162,0.945,-0.011,0.158,0.937,0.165,-0.026,1.081,-0.118,-0.011,1.149,0.093,-0.195,0.891,-0.286,-0.200,1.080,0.023,-0.359,0.705,-0.327,-0.318,0.859,1013.592,702.573,0.945,949.247,700.544,0.937,1104.908,516.911,1.081,862.432,531.304,1.149,1059.717,331.983,0.891,708.084,364.115,1.080,990.778,56.353,0.705,597.425,187.550,0.859,-0.030,-0.962,1.401,0.000,-12.788,0.000,0.019,0.027,0.035,0.091,-0.782,1.263
0723_091151_0066.png,0.053,0.164,0.934,-0.014,0.161,0.930,0.174,-0.014,1.083,-0.123,0.001,1.149,0.135,-0.276,1.117,-0.226,-0.203,1.012,0.089,-0.307,0.863,-0.209,-0.331,0.787,1014.333,707.455,0.934,946.031,704.794,0.930,1112.602,528.027,1.083,858.367,541.233,1.149,1074.814,305.299,1.117,747.201,349.368,1.012,1057.512,201.774,0.863,707.442,139.201,0.787,-0.034,-0.970,1.403,0.000,-11.657,0.000,-0.024,0.013,0.015,-0.022,-1.093,1.192
0723_091151_0067.png,0.032,0.159,0.949,-0.034,0.158,0.947,0.149,-0.023,1.112,-0.148,-0.018,1.132,0.185,-0.240,1.255,-0.305,-0.209,1.230,0.188,-0.273,1.000,-0.436,-0.272,1.016,992.229,699.174,0.949,926.035,698.743,0.947,1087.242,520.560,1.112,835.325,524.698,1.132,1100.414,358.304,1.255,724.191,378.727,1.230,1138.413,280.329,1.000,552.311,285.886,1.016,-0.029,-0.959,1.401,0.000,-2.716,0.000,-0.003,0.032,0.026,0.030,-0.685,1.432
0723_091151_0068.png,0.019,0.181,0.922,-0.046,0.182,0.926,0.135,0.002,1.119,-0.157,-0.001,1.108,0.117,-0.231,0.988,-0.169,-0.212,0.946,0.079,-0.354,0.765,-0.134,-0.359,0.736,979.374,726.230,0.922,912.956,727.018,0.926,1074.630,541.347,1.119,825.459,539.222,1.108,1073.107,317.663,0.988,789.861,326.612,0.946,1057.627,99.913,0.765,786.769,76.227,0.736,-0.032,-0.969,1.403,0.000,-356.643,0.000,0.017,-0.036,0.025,-0.066,-0.935,1.462
0723_091151_0069.png,0.009,0.159,0.934,-0.056,0.162,0.938,0.112,0.007,1.155,-0.175,-0.007,1.093,0.118,-0.221,1.003,-0.252,-0.262,1.104,-0.013,-0.340,0.805,-0.252,-0.328,0.844,969.343,701.473,0.934,903.333,704.534,0.938,1051.895,545.577,1.155,807.522,533.661,1.093,1072.145,330.086,1.003,742.585,314.236,1.104,945.114,138.197,0.805,676.331,170.142,0.844,-0.036,-0.973,1.404,0.000,-346.487,0.000,0.011,0.022,-0.022,0.142,-1.091,1.523
0723_091151_0070.png,0.053,0.176,0.938,-0.015,0.173,0.935,0.176,-0.009,1.085,-0.121,0.006,1.153,0.298,-0.250,1.052,-0.141,-0.206,0.983,0.338,-0.326,0.800,-0.090,-0.343,0.759,1013.702,718.083,0.938,945.198,716.239,0.935,1114.352,531.735,1.085,859.967,545.123,1.153,1228.947,313.672,1.052,823.159,340.575,0.983,1361.628,151.994,0.800,847.446,110.729,0.759,-0.034,-0.971,1.403,0.000,-12.044,0.000,-0.029,0.007,-0.009,-0.094,-0.808,1.524
0723_091151_0071.png,-0.002,0.169,0.936,-0.067,0.171,0.942,0.105,-0.008,1.147,-0.183,-0.022,1.083,0.242,-0.218,1.244,-0.251,-0.190,1.281,0.380,-0.272,1.037,-0.318,-0.269,1.047,957.591,711.730,0.936,891.873,712.991,0.942,1047.072,533.776,1.147,799.197,520.364,1.083,1144.573,373.528,1.244,773.973,398.871,1.281,1308.935,290.424,1.037,670.789,295.408,1.047,-0.028,-0.962,1.401,0.000,-345.874,0.000,0.004,0.005,0.035,0.062,-0.695,1.353
0723_091151_0072.png,0.012,0.166,0.937,-0.052,0.167,0.936,0.108,0.000,1.148,-0.173,-0.011,1.102,0.212,-0.176,0.952,-0.257,-0.265,1.144,0.316,-0.348,0.765,-0.256,-0.330,0.884,971.942,708.690,0.937,907.602,709.800,0.936,1049.640,539.964,1.148,810.399,530.877,1.102,1171.554,364.250,0.952,746.321,320.061,1.144,1353.427,107.118,0.765,684.923,184.532,0.884,-0.028,-0.964,1.402,0.000,-349.350,0.000,0.039,-0.003,-0.022,0.296,-1.001,1.374
0723_091151_0073.png,-0.007,0.179,0.939,-0.071,0.183,0.949,0.110,0.001,1.142,-0.179,-0.008,1.105,0.086,-0.210,0.968,-0.243,-0.181,1.304,-0.013,-0.354,0.768,-0.311,-0.273,1.064,952.946,721.560,0.939,888.936,723.095,0.949,1051.382,540.433,1.142,805.854,533.099,1.105,1044.827,333.446,0.968,783.005,407.832,1.304,943.892,101.523,0.768,682.434,295.759,1.064,-0.021,-0.966,1.402,0.000,-351.309,0.000,0.018,-0.003,-0.014,-0.200,-0.727,1.240
0723_091151_0074.png,-0.010,0.155,0.931,-0.076,0.160,0.940,0.105,0.000,1.152,-0.189,-0.013,1.096,0.091,-0.210,0.975,-0.283,-0.265,1.064,-0.007,-0.346,0.766,-0.121,-0.322,0.859,949.394,698.207,0.931,883.098,702.207,0.940,1047.076,539.712,1.152,796.285,528.652,1.096,1048.454,335.597,0.975,707.127,303.212,1.064,951.088,110.841,0.766,825.855,183.397,0.859,-0.023,-0.965,1.402,0.000,-347.891,0.000,-0.009,0.008,-0.015,-0.132,-1.052,1.621
0723_091151_0075.png,0.003,0.165,0.924,-0.062,0.169,0.930,0.116,0.006,1.138,-0.175,-0.002,1.102,0.127,-0.243,1.028,-0.313,-0.189,1.243,0.095,-0.348,0.787,-0.354,-0.292,1.003,962.935,709.984,0.924,896.809,712.686,0.930,1056.764,545.429,1.138,809.212,538.533,1.102,1077.443,315.436,1.028,720.716,395.169,1.243,1074.613,119.214,0.787,624.176,263.115,1.003,-0.025,-0.972,1.403,0.000,-351.648,0.000,0.013,-0.012,-0.006,-0.068,-1.189,1.464
0723_091151_0076.png,0.012,0.195,0.934,-0.051,0.196,0.938,0.117,0.010,1.140,-0.166,0.000,1.096,0.207,-0.199,1.293,-0.191,-0.239,0.968,0.217,-0.289,1.044,-0.081,-0.363,0.762,972.495,738.352,0.934,907.944,739.105,0.938,1057.698,548.512,1.140,815.626,540.094,1.096,1112.197,393.374,1.293,772.159,304.937,0.968,1157.689,277.160,1.044,858.604,87.322,0.762,-0.035,-0.973,1.404,0.000,-349.794,0.000,0.033,-0.024,-0.004,0.095,-0.656,1.355
0723_091151_0077.png,0.010,0.150,0.938,-0.055,0.153,0.941,0.115,-0.008,1.151,-0.174,-0.018,1.107,0.133,-0.260,1.042,-0.205,-0.275,1.017,0.101,-0.349,0.789,-0.055,-0.345,0.805,969.666,692.392,0.938,904.158,694.472,0.941,1054.687,533.345,1.151,810.555,524.362,1.107,1081.741,303.122,1.042,768.468,283.122,1.017,1081.311,119.395,0.789,894.517,132.011,0.805,-0.030,-0.957,1.400,0.000,-349.907,0.000,0.016,0.010,-0.031,0.122,-1.081,1.464
0723_091151_0078.png,0.051,0.170,0.926,-0.016,0.167,0.922,0.170,-0.011,1.079,-0.127,0.004,1.146,0.242,-0.237,0.952,-0.092,-0.171,0.940,0.256,-0.348,0.719,-0.055,-0.339,0.738,1012.039,715.013,0.926,943.170,712.145,0.922,1110.226,529.967,1.079,854.924,543.335,1.146,1202.121,303.044,0.952,867.134,367.322,0.940,1298.696,79.808,0.719,889.616,102.622,0.738,-0.030,-0.969,1.403,0.000,-11.863,0.000,-0.027,-0.014,0.023,0.021,-0.955,1.712
0723_091151_0079.png,-0.008,0.179,0.924,-0.073,0.183,0.932,0.104,0.005,1.145,-0.186,-0.010,1.078,0.177,-0.248,1.091,-0.268,-0.244,0.975,0.174,-0.324,0.846,-0.223,-0.349,0.746,952.156,724.657,0.924,885.778,726.862,0.932,1046.299,544.497,1.145,795.773,531.375,1.078,1114.619,324.138,1.091,698.998,302.338,0.975,1155.503,175.739,0.846,675.352,94.633,0.746,-0.026,-0.970,1.403,0.000,-345.667,0.000,-0.004,-0.020,0.030,-0.064,-0.852,1.332
0723_091151_0080.png,0.045,0.151,0.947,-0.020,0.149,0.944,0.164,-0.021,1.101,-0.123,-0.008,1.155,0.191,-0.275,1.020,-0.230,-0.220,1.019,0.164,-0.346,0.763,-0.183,-0.343,0.785,1005.496,691.658,0.947,940.171,689.549,0.944,1102.013,522.295,1.101,858.282,533.247,1.155,1137.910,283.729,1.020,745.696,334.721,1.019,1163.792,108.256,0.763,738.431,124.020,0.785,-0.032,-0.962,1.401,0.000,-9.629,0.000,0.013,0.039,-0.022,-0.081,-1.035,1.261
0723_091151_0081.png,0.006,0.162,0.928,-0.058,0.167,0.939,0.128,-0.004,1.141,-0.166,-0.012,1.104,0.238,-0.253,1.154,-0.183,-0.266,1.005,0.246,-0.315,0.896,-0.055,-0.346,0.786,966.220,706.040,0.928,900.777,709.251,0.939,1066.567,537.025,1.141,817.274,529.672,1.104,1156.171,331.567,1.154,787.027,288.469,1.005,1221.107,206.135,0.896,892.915,121.393,0.786,-0.036,-0.961,1.401,0.000,-351.528,0.000,0.003,-0.013,-0.008,-0.257,-0.992,1.542
0723_091151_0082.png,0.028,0.159,0.919,-0.040,0.158,0.920,0.153,-0.012,1.096,-0.149,-0.004,1.132,0.211,-0.269,1.032,-0.197,-0.230,1.001,0.068,-0.327,0.824,-0.177,-0.337,0.768,988.653,704.680,0.919,918.954,703.490,0.920,1092.753,529.750,1.096,834.837,536.992,1.132,1154.243,291.949,1.032,773.032,321.083,1.001,1038.422,161.833,0.824,741.072,123.003,0.768,-0.024,-0.962,1.401,0.000,-5.769,0.000,-0.025,-0.032,0.029,-0.121,-1.275,1.479
0723_091151_0083.png,0.033,0.178,0.936,-0.033,0.179,0.940,0.160,0.000,1.112,-0.140,0.005,1.136,0.136,-0.250,1.001,-0.288,-0.224,1.141,0.009,-0.343,0.783,-0.169,-0.305,0.914,993.995,720.946,0.936,926.356,720.998,0.940,1096.975,539.926,1.112,842.467,544.465,1.136,1088.976,302.394,1.001,720.073,353.024,1.141,971.413,122.669,0.783,784.203,222.486,0.914,-0.036,-0.972,1.404,0.000,-3.429,0.000,-0.016,-0.002,-0.023,-0.203,-0.867,1.432
0723_091151_0084.png,0.046,0.157,0.936,-0.022,0.154,0.933,0.164,-0.012,1.108,-0.141,-0.005,1.136,0.123,-0.205,0.923,-0.152,-0.247,1.018,0.030,-0.348,0.721,-0.090,-0.330,0.777,1006.479,699.120,0.936,937.484,697.434,0.933,1101.031,530.033,1.108,841.796,535.607,1.136,1086.821,328.964,0.923,817.821,309.820,1.018,999.102,80.690,0.721,849.851,136.093,0.777,-0.037,-0.966,1.402,0.000,-4.144,0.000,-0.033,0.014,0.004,0.101,-1.186,1.234
0723_091151_0085.png,0.013,0.160,0.943,-0.053,0.163,0.948,0.129,-0.010,1.138,-0.167,-0.017,1.108,0.228,-0.202,1.289,-0.328,-0.225,1.064,0.199,-0.266,1.038,-0.402,-0.320,0.833,972.754,701.829,0.943,906.703,703.136,0.948,1068.131,531.795,1.138,816.715,525.798,1.108,1128.572,390.703,1.289,666.675,338.988,1.064,1142.586,296.593,1.038,500.704,174.525,0.833,-0.033,-0.965,1.402,0.000,-353.034,0.000,-0.003,0.029,0.011,-0.058,-0.880,1.107
0723_091151_0086.png,-0.007,0.164,0.943,-0.071,0.169,0.955,0.110,0.003,1.153,-0.180,-0.009,1.101,0.182,-0.175,0.948,-0.166,-0.259,0.999,0.253,-0.347,0.748,-0.108,-0.349,0.751,952.868,705.032,0.943,888.852,708.133,0.955,1051.124,542.220,1.153,804.914,532.031,1.101,1142.349,364.861,0.948,801.919,293.370,0.999,1282.016,99.062,0.748,823.412,98.631,0.751,-0.029,-0.973,1.404,0.000,-348.432,0.000,0.007,0.041,-0.025,-0.205,-0.811,1.498
0723_091151_0087.png,0.045,0.161,0.936,-0.023,0.158,0.931,0.161,-0.012,1.113,-0.145,-0.008,1.133,0.235,-0.243,1.237,-0.138,-0.233,0.982,0.312,-0.281,0.986,-0.054,-0.342,0.755,1005.318,703.175,0.936,936.423,701.669,0.931,1097.479,529.621,1.113,838.616,533.670,1.133,1140.373,353.125,1.237,826.065,314.046,0.982,1260.712,268.909,0.986,892.497,109.566,0.755,-0.037,-0.961,1.401,0.000,-2.679,0.000,-0.032,-0.005,-0.005,0.160,-1.094,1.357
0723_091151_0088.png,0.040,0.175,0.929,-0.024,0.173,0.928,0.161,-0.008,1.094,-0.125,0.003,1.144,0.252,-0.244,1.204,-0.299,-0.203,1.167,0.308,-0.308,0.954,-0.267,-0.315,0.930,1001.423,718.909,0.929,935.474,717.288,0.928,1099.704,532.979,1.094,855.995,542.908,1.144,1159.386,347.660,1.204,716.077,374.652,1.167,1267.394,233.400,0.954,686.702,217.608,0.930,-0.032,-0.965,1.402,0.000,-9.076,0.000,0.022,-0.024,-0.006,-0.108,-0.970,1.484
0723_091151_0089.png,0.038,0.158,0.928,-0.026,0.157,0.929,0.157,-0.009,1.097,-0.126,0.000,1.136,0.286,-0.231,1.032,-0.288,-0.183,1.236,0.353,-0.339,0.809,-0.377,-0.287,1.018,998.440,701.785,0.928,933.542,700.564,0.929,1096.493,531.903,1.097,854.963,539.763,1.136,1223.273,326.781,1.032,738.129,399.116,1.236,1375.454,140.705,0.809,607.788,271.475,1.018,-0.035,-0.971,1.403,0.000,-6.961,0.000,0.037,0.010,0.021,-0.158,-1.199,1.406
0723_091151_0090.png,0.003,0.172,0.924,-0.063,0.176,0.931,0.119,0.005,1.142,-0.179,-0.009,1.081,0.096,-0.220,1.007,-0.273,-0.256,1.030,-0.025,-0.326,0.802,-0.281,-0.329,0.785,963.333,716.869,0.924,895.176,719.477,0.931,1059.386,544.334,1.142,802.376,532.368,1.081,1050.713,332.071,1.007,707.594,303.999,1.030,930.358,153.717,0.802,619.283,142.184,0.785,-0.034,-0.974,1.404,0.000,-347.101,0.000,-0.027,-0.005,0.038,-0.056,-0.970,1.374
0723_091151_0091.png,0.029,0.162,0.947,-0.036,0.162,0.946,0.146,-0.014,1.114,-0.149,-0.010,1.131,0.190,-0.198,1.294,-0.282,-0.193,1.265,0.238,-0.262,1.048,-0.442,-0.259,1.070,989.447,702.882,0.947,923.650,702.436,0.946,1084.507,527.697,1.114,834.692,531.350,1.131,1099.302,394.768,1.294,747.716,394.743,1.265,1175.826,301.911,1.048,567.541,309.713,1.070,-0.028,-0.967,1.402,0.000,-2.393,0.000,0.005,0.036,0.015,0.008,-0.799,1.303
0723_091151_0092.png,0.039,0.146,0.937,-0.029,0.144,0.936,0.162,-0.018,1.101,-0.140,-0.007,1.149,0.221,-0.277,1.093,-0.301,-0.184,1.270,0.032,-0.300,0.906,-0.384,-0.265,1.032,999.367,688.553,0.937,930.720,686.274,0.936,1099.737,524.882,1.101,844.226,534.579,1.149,1152.031,298.867,1.093,734.659,402.126,1.270,993.779,225.184,0.906,606.032,295.894,1.032,-0.027,-0.964,1.402,0.000,-8.040,0.000,-0.029,0.027,-0.008,-0.044,-1.106,1.691
0723_091151_0093.png,0.022,0.156,0.941,-0.041,0.157,0.945,0.142,-0.018,1.119,-0.146,-0.016,1.129,0.233,-0.218,1.268,-0.319,-0.192,1.029,0.395,-0.270,1.073,-0.451,-0.326,0.850,982.553,697.913,0.941,918.479,698.409,0.945,1080.397,524.316,1.119,837.300,526.376,1.129,1134.812,376.232,1.268,665.227,362.960,1.029,1309.817,300.493,1.073,455.003,174.810,0.850,-0.031,-0.958,1.400,0.000,-0.860,0.000,0.032,0.018,0.009,-0.195,-0.962,1.096
0723_091151_0094.png,0.005,0.151,0.935,-0.062,0.154,0.939,0.113,-0.008,1.154,-0.183,-0.025,1.083,0.195,-0.224,1.023,-0.198,-0.280,1.016,0.209,-0.326,0.787,-0.057,-0.324,0.803,964.751,693.874,0.935,896.706,696.485,0.939,1053.471,533.054,1.154,799.242,518.415,1.083,1141.146,331.809,1.023,774.628,277.605,1.016,1212.646,145.476,0.787,892.215,156.775,0.803,-0.034,-0.962,1.401,0.000,-345.153,0.000,-0.028,0.022,0.022,0.121,-0.989,1.370
0723_091151_0095.png,0.010,0.166,0.935,-0.055,0.169,0.940,0.122,0.001,1.139,-0.167,-0.004,1.116,0.188,-0.246,1.034,-0.179,-0.252,0.992,0.062,-0.344,0.819,-0.148,-0.365,0.746,969.785,709.093,0.935,904.635,710.658,0.940,1062.197,540.720,1.139,817.526,536.210,1.116,1132.747,313.730,1.034,788.782,298.665,0.992,1032.106,140.550,0.819,771.401,74.974,0.746,-0.027,-0.966,1.402,0.000,-354.148,0.000,0.021,-0.002,-0.034,-0.034,-0.979,1.555
0723_091151_0096.png,0.027,0.169,0.938,-0.039,0.170,0.939,0.141,-0.006,1.135,-0.157,-0.009,1.119,0.215,-0.246,1.020,-0.304,-0.233,1.176,0.230,-0.348,0.770,-0.194,-0.303,0.941,987.539,711.305,0.938,920.487,711.805,0.939,1078.266,534.971,1.135,826.490,531.998,1.119,1160.731,310.808,1.020,714.180,351.794,1.176,1244.157,110.222,0.770,764.017,233.929,0.941,-0.037,-0.960,1.401,0.000,-355.896,0.000,-0.006,-0.012,-0.025,0.076,-0.941,1.282
0723_091151_0097.png,0.042,0.180,0.929,-0.023,0.178,0.929,0.166,-0.008,1.086,-0.116,0.007,1.152,0.109,-0.272,1.027,-0.157,-0.176,0.939,0.040,-0.358,0.781,-0.200,-0.356,0.734,1002.721,723.836,0.929,936.935,722.100,0.929,1105.008,533.326,1.086,864.456,546.176,1.152,1060.934,287.813,1.027,801.216,362.002,0.939,1009.014,104.062,0.781,701.357,78.892,0.734,-0.031,-0.966,1.402,0.000,-12.306,0.000,0.026,-0.029,-0.022,-0.258,-1.003,1.232
0723_091151_0098.png,0.030,0.146,0.939,-0.038,0.145,0.939,0.153,-0.017,1.114,-0.151,-0.010,1.143,0.217,-0.229,1.258,-0.187,-0.260,1.044,0.240,-0.273,0.996,-0.137,-0.331,0.790,990.290,687.565,0.939,921.811,686.448,0.939,1090.538,525.687,1.114,834.437,531.491,1.143,1123.914,366.586,1.258,789.421,302.950,1.044,1189.460,279.506,0.996,795.530,142.334,0.790,-0.025,-0.960,1.401,0.000,-4.323,0.000,-0.028,0.024,-0.019,-0.056,-1.192,1.398
0723_091151_0099.png,-0.002,0.162,0.918,-0.068,0.168,0.926,0.120,0.003,1.141,-0.182,-0.009,1.087,0.275,-0.202,1.060,-0.272,-0.205,1.258,0.368,-0.313,0.848,-0.440,-0.264,1.061,958.083,708.245,0.918,889.718,712.283,0.926,1059.693,542.915,1.141,801.123,532.247,1.087,1206.477,358.857,1.060,754.067,384.995,1.258,1373.085,188.492,0.848,565.403,303.010,1.061,-0.030,-0.969,1.403,0.000,-348.447,0.000,-0.031,-0.021,0.025,-0.182,-1.180,1.496
0723_091151_0100.png,0.033,0.174,0.936,-0.035,0.175,0.939,0.156,-0.002,1.124,-0.151,-0.002,1.128,0.139,-0.270,1.060,-0.291,-0.228,1.053,0.085,-0.331,0.803,-0.321,-0.330,0.805,993.053,716.439,0.936,924.064,716.798,0.939,1092.314,537.894,1.124,832.969,538.624,1.128,1084.854,297.951,1.060,697.187,333.951,1.053,1060.816,148.101,0.803,581.030,149.675,0.805,-0.039,-0.965,1.402,0.000,-359.542,0.000,-0.034,-0.011,-0.026,-0.075,-0.918,1.394
0723_091151_0101.png,0.024,0.186,0.932,-0.042,0.185,0.929,0.134,0.007,1.125,-0.163,0.006,1.122,0.284,-0.217,1.061,-0.245,-0.177,0.918,0.375,-0.336,0.835,-0.326,-0.356,0.722,984.617,730.052,0.932,917.387,729.635,0.929,1073.477,545.551,1.125,822.060,544.891,1.122,1214.718,345.296,1.061,706.732,356.467,0.918,1387.049,157.720,0.835,530.065,70.615,0.722,-0.025,-0.969,1.403,0.000,-358.138,0.000,0.000,-0.037,-0.031,0.179,-0.866,1.636
0723_091151_0102.png,0.046,0.165,0.950,-0.021,0.162,0.945,0.166,-0.019,1.096,-0.131,-0.004,1.159,0.109,-0.273,1.013,-0.306,-0.196,1.067,0.041,-0.343,0.760,-0.396,-0.320,0.842,1006.161,705.298,0.950,938.983,703.249,0.945,1103.684,523.727,1.096,852.917,536.483,1.159,1062.249,283.997,1.013,686.773,365.223,1.067,1010.695,111.053,0.760,512.369,177.974,0.842,-0.025,-0.961,1.401,0.000,-11.137,0.000,-0.021,0.021,-0.033,-0.014,-0.786,1.434
0723_091151_0103.png,0.032,0.162,0.924,-0.033,0.161,0.923,0.148,-0.004,1.115,-0.143,0.000,1.131,0.146,-0.258,1.005,-0.292,-0.216,1.215,-0.015,-0.350,0.814,-0.369,-0.304,0.973,992.668,706.315,0.924,926.101,705.448,0.923,1086.355,536.653,1.115,839.777,539.903,1.131,1098.376,295.475,1.005,731.270,371.057,1.215,942.660,131.095,0.814,598.998,243.129,0.973,-0.032,-0.962,1.401,0.000,-2.169,0.000,0.018,-0.034,-0.021,0.003,-1.274,1.545
0723_091151_0104.png,0.023,0.161,0.923,-0.041,0.161,0.922,0.131,-0.005,1.120,-0.156,-0.007,1.112,0.115,-0.232,0.982,-0.274,-0.224,1.228,-0.016,-0.349,0.796,-0.309,-0.299,0.985,983.622,706.100,0.923,917.985,706.169,0.922,1071.523,535.890,1.120,826.624,534.299,1.112,1070.977,315.786,0.982,747.638,366.313,1.228,940.843,122.945,0.796,661.143,250.868,0.985,-0.029,-0.965,1.402,0.000,-357.202,0.000,0.032,-0.021,0.028,0.116,-1.215,1.454
0723_091151_0105.png,0.037,0.158,0.931,-0.027,0.157,0.933,0.164,-0.013,1.092,-0.120,0.001,1.152,0.270,-0.258,1.061,-0.187,-0.239,1.041,0.296,-0.341,0.810,-0.175,-0.346,0.798,998.249,701.318,0.931,932.563,699.676,0.933,1103.001,529.051,1.092,861.318,540.982,1.152,1201.939,308.637,1.061,789.336,321.843,1.041,1308.114,139.250,0.810,751.016,126.943,0.798,-0.031,-0.966,1.402,0.000,-11.049,0.000,0.022,0.006,-0.014,-0.298,-1.118,1.554
0723_091151_0106.png,0.058,0.151,0.929,-0.007,0.145,0.922,0.172,-0.027,1.073,-0.116,-0.009,1.152,0.222,-0.215,1.261,-0.113,-0.176,0.941,0.395,-0.264,1.069,-0.106,-0.337,0.734,1019.195,694.228,0.929,952.369,689.550,0.922,1112.554,515.920,1.073,863.984,532.588,1.152,1127.705,377.779,1.261,846.222,362.540,0.941,1311.399,305.532,1.069,822.519,103.246,0.734,-0.031,-0.958,1.400,0.000,-14.555,0.000,-0.009,-0.001,0.033,0.116,-1.119,1.593
0723_091151_0107.png,0.026,0.158,0.938,-0.041,0.157,0.934,0.136,-0.007,1.134,-0.170,-0.012,1.113,0.163,-0.258,1.037,-0.343,-0.222,1.092,-0.009,-0.319,0.842,-0.382,-0.313,0.847,986.784,700.071,0.938,917.787,699.919,0.934,1074.424,533.807,1.134,815.026,529.711,1.113,1109.485,303.897,1.037,661.686,346.312,1.092,949.321,180.321,0.842,530.823,189.229,0.847,-0.030,-0.964,1.402,0.000,-354.938,0.000,-0.033,0.009,0.001,0.273,-1.074,1.379
0723_091151_0108.png,0.039,0.154,0.942,-0.029,0.154,0.940,0.156,-0.007,1.130,-0.151,-0.007,1.129,0.083,-0.217,0.964,-0.328,-0.211,1.088,-0.018,-0.343,0.745,-0.369,-0.315,0.842,998.938,695.926,0.942,930.257,695.614,0.940,1091.188,534.285,1.130,832.921,534.275,1.129,1042.078,326.269,0.964,673.222,355.280,1.088,936.764,102.596,0.745,542.813,183.783,0.842,-0.040,-0.966,1.402,0.000,-358.818,0.000,-0.033,0.025,-0.028,0.109,-1.091,1.463
0723_091151_0109.png,0.037,0.189,0.932,-0.030,0.188,0.931,0.159,-0.009,1.089,-0.139,0.003,1.140,0.250,-0.237,0.971,-0.251,-0.232,1.060,0.277,-0.350,0.738,-0.128,-0.325,0.846,997.538,733.192,0.932,929.059,732.514,0.931,1099.085,531.916,1.089,843.903,542.111,1.140,1204.899,307.946,0.971,734.925,331.736,1.060,1317.302,89.223,0.738,815.970,174.806,0.846,-0.025,-0.964,1.402,0.000,-8.829,0.000,-0.021,-0.036,0.013,-0.095,-0.732,1.206
0723_091151_0110.png,0.026,0.165,0.938,-0.038,0.165,0.937,0.132,0.002,1.141,-0.158,-0.003,1.118,0.067,-0.176,0.925,-0.262,-0.190,1.283,0.008,-0.352,0.714,-0.330,-0.282,1.035,986.519,707.347,0.938,921.100,707.989,0.937,1069.807,541.887,1.141,825.564,537.294,1.118,1029.131,358.822,0.925,766.019,399.029,1.283,971.235,71.256,0.714,656.729,280.571,1.035,-0.037,-0.967,1.402,0.000,-354.032,0.000,0.021,0.000,-0.044,0.191,-1.129,1.313
0723_091151_0111.png,0.029,0.163,0.932,-0.037,0.163,0.931,0.138,0.002,1.130,-0.156,-0.002,1.114,0.225,-0.239,1.213,-0.209,-0.224,0.969,0.243,-0.296,0.956,-0.216,-0.355,0.739,989.103,706.504,0.932,922.451,706.877,0.931,1076.393,541.356,1.130,826.903,538.298,1.114,1136.718,352.719,1.213,754.774,319.805,0.969,1201.610,245.392,0.956,681.536,83.065,0.739,-0.037,-0.972,1.404,0.000,-355.696,0.000,0.008,0.006,-0.002,0.145,-1.135,1.460
0723_091151_0112.png,0.050,0.164,0.946,-0.015,0.161,0.941,0.167,-0.018,1.091,-0.119,-0.003,1.154,0.240,-0.232,0.945,-0.247,-0.191,1.288,0.264,-0.360,0.713,-0.282,-0.272,1.039,1010.071,705.243,0.946,944.873,703.132,0.941,1105.399,524.727,1.091,862.324,537.573,1.154,1201.422,306.151,0.945,777.785,399.192,1.288,1312.257,60.266,0.713,701.843,290.731,1.039,-0.031,-0.966,1.402,0.000,-11.676,0.000,0.015,0.027,-0.008,-0.048,-0.935,1.066
0723_091151_0113.png,0.010,0.170,0.933,-0.057,0.174,0.940,0.126,0.005,1.150,-0.175,-0.007,1.096,0.227,-0.210,1.282,-0.156,-0.229,0.933,0.386,-0.259,1.071,-0.113,-0.359,0.702,970.392,713.157,0.933,902.183,715.765,0.940,1064.425,544.456,1.150,808.516,533.970,1.096,1128.418,384.068,1.282,801.393,307.126,0.933,1303.101,309.770,1.071,807.149,53.677,0.702,-0.039,-0.969,1.403,0.000,-348.453,0.000,-0.030,0.000,-0.020,-0.024,-0.869,1.669
0723_091151_0114.png,0.003,0.183,0.933,-0.064,0.187,0.938,0.111,0.012,1.153,-0.183,-0.003,1.089,0.261,-0.189,1.264,-0.203,-0.275,1.062,0.279,-0.283,1.012,-0.168,-0.339,0.802,962.922,727.049,0.933,895.499,729.157,0.938,1051.531,549.986,1.153,800.357,537.776,1.089,1156.341,398.053,1.264,777.753,293.357,1.062,1222.440,273.751,1.012,760.400,138.566,0.802,-0.032,-0.973,1.404,0.000,-346.273,0.000,-0.014,-0.013,-0.024,0.081,-0.893,1.195
0723_091151_0115.png,0.048,0.160,0.941,-0.017,0.157,0.935,0.163,-0.016,1.091,-0.128,-0.004,1.145,0.130,-0.248,0.971,-0.309,-0.190,1.089,-0.017,-0.337,0.777,-0.427,-0.305,0.890,1008.974,701.964,0.941,942.974,699.574,0.935,1102.180,526.109,1.091,853.969,537.047,1.145,1087.391,296.585,0.971,690.271,374.195,1.089,939.624,127.471,0.777,504.124,214.129,0.890,-0.031,-0.970,1.403,0.000,-9.593,0.000,0.003,0.031,0.022,0.076,-0.891,1.590
0723_091151_0116.png,0.057,0.160,0.942,-0.008,0.154,0.930,0.166,-0.023,1.079,-0.121,-0.006,1.154,0.088,-0.249,0.963,-0.208,-0.168,0.953,0.010,-0.347,0.737,-0.293,-0.326,0.757,1017.270,701.331,0.942,952.311,697.373,0.930,1106.114,519.586,1.079,860.349,535.077,1.154,1047.225,294.096,0.963,752.042,372.225,0.953,972.383,92.439,0.737,592.189,130.445,0.757,-0.026,-0.963,1.401,0.000,-13.817,0.000,0.000,0.019,0.019,0.241,-0.954,1.378
0723_091151_0117.png,0.042,0.152,0.947,-0.024,0.149,0.942,0.159,-0.020,1.094,-0.131,-0.006,1.153,0.158,-0.275,1.026,-0.297,-0.196,1.229,-0.016,-0.323,0.836,-0.439,-0.271,1.021,1001.941,693.019,0.947,936.111,690.505,0.942,1098.064,522.525,1.094,851.944,534.735,1.153,1106.878,285.241,1.026,730.388,388.553,1.229,942.095,172.050,0.836,551.528,287.654,1.021,-0.023,-0.967,1.402,0.000,-10.757,0.000,0.003,0.049,0.001,-0.008,-0.892,1.607
0723_091151_0118.png,0.025,0.157,0.936,-0.040,0.156,0.934,0.140,-0.007,1.123,-0.156,-0.005,1.134,0.259,-0.222,0.998,-0.297,-0.236,1.151,0.319,-0.350,0.766,-0.180,-0.310,0.919,985.660,699.252,0.936,918.938,698.363,0.934,1078.591,533.887,1.123,829.484,536.102,1.134,1206.413,328.206,0.998,714.988,344.598,1.151,1356.018,105.937,0.766,773.995,219.155,0.919,-0.025,-0.962,1.401,0.000,-1.050,0.000,0.003,-0.001,-0.033,0.070,-1.147,1.547
0723_091151_0119.png,0.055,0.173,0.940,-0.013,0.169,0.932,0.173,-0.015,1.089,-0.126,0.001,1.157,0.170,-0.289,1.075,-0.262,-0.231,1.092,0.146,-0.331,0.809,-0.127,-0.314,0.871,1015.669,715.219,0.940,947.190,712.462,0.932,1111.468,527.308,1.089,856.365,540.857,1.157,1110.589,283.984,1.075,731.867,338.461,1.092,1132.012,150.591,0.809,820.913,196.753,0.871,-0.030,-0.961,1.401,0.000,-11.902,0.000,-0.036,-0.013,-0.028,0.083,-0.844,1.562
0723_091151_0120.png,-0.002,0.171,0.932,-0.066,0.175,0.942,0.120,-0.001,1.135,-0.170,-0.005,1.118,0.241,-0.241,1.178,-0.240,-0.270,1.114,0.137,-0.312,0.942,-0.224,-0.336,0.852,957.800,714.689,0.932,893.683,716.845,0.942,1060.621,539.415,1.135,815.607,536.119,1.118,1154.844,345.308,1.178,754.675,309.786,1.114,1098.508,224.945,0.942,709.772,164.994,0.852,-0.021,-0.964,1.402,0.000,-355.421,0.000,0.022,-0.014,-0.027,-0.321,-1.001,1.236
0723_091151_0121.png,0.018,0.196,0.932,-0.047,0.198,0.937,0.137,0.008,1.126,-0.159,0.005,1.112,0.145,-0.244,1.017,-0.272,-0.229,1.208,-0.015,-0.340,0.830,-0.329,-0.304,0.959,978.726,740.089,0.932,912.164,740.675,0.937,1075.868,547.047,1.126,824.264,544.427,1.112,1095.912,311.823,1.017,745.529,359.358,1.208,942.550,150.595,0.830,633.591,238.531,0.959,-0.034,-0.972,1.404,0.000,-356.091,0.000,0.002,-0.033,-0.009,-0.099,-0.671,1.468
0723_091151_0122.png,0.055,0.165,0.936,-0.008,0.161,0.929,0.167,-0.013,1.086,-0.111,0.001,1.147,0.287,-0.249,1.088,-0.241,-0.220,1.212,0.273,-0.333,0.842,-0.255,-0.301,0.966,1015.728,707.466,0.936,951.803,704.374,0.929,1106.271,528.601,1.086,868.131,541.002,1.147,1211.015,322.062,1.088,771.001,367.236,1.212,1268.877,163.437,0.842,708.871,243.697,0.966,-0.036,-0.970,1.403,0.000,-11.702,0.000,0.040,0.014,0.013,0.067,-1.011,1.427
0723_091151_0123.png,0.010,0.165,0.929,-0.056,0.168,0.938,0.141,-0.003,1.115,-0.159,-0.002,1.120,0.231,-0.227,1.002,-0.151,-0.188,0.929,0.249,-0.336,0.769,-0.102,-0.350,0.732,970.377,709.178,0.929,903.434,710.674,0.938,1080.267,537.259,1.115,824.621,538.355,1.120,1179.239,324.585,1.002,805.659,347.865,0.929,1268.079,125.233,0.769,827.438,85.528,0.732,-0.026,-0.973,1.404,0.000,0.088,0.000,-0.012,0.010,0.023,-0.359,-1.007,1.452
0723_091151_0124.png,0.043,0.180,0.941,-0.021,0.179,0.941,0.165,-0.006,1.096,-0.116,0.007,1.152,0.120,-0.241,0.956,-0.236,-0.178,1.304,-0.018,-0.364,0.760,-0.305,-0.279,1.062,1003.598,722.158,0.941,939.265,721.102,0.941,1103.011,534.567,1.096,864.343,545.502,1.152,1079.750,300.203,0.956,788.068,410.470,1.304,937.541,84.350,0.760,687.148,289.881,1.062,-0.034,-0.970,1.403,0.000,-10.447,0.000,0.035,0.001,-0.031,-0.225,-0.773,1.419
0723_091151_0125.png,0.030,0.162,0.924,-0.037,0.163,0.930,0.160,-0.008,1.112,-0.141,-0.003,1.134,0.073,-0.184,0.911,-0.233,-0.178,0.932,-0.012,-0.356,0.714,-0.322,-0.348,0.736,990.515,706.516,0.924,922.302,707.055,0.930,1096.561,533.019,1.112,841.829,537.395,1.134,1035.809,347.833,0.911,722.804,358.649,0.932,943.614,66.751,0.714,544.119,89.944,0.736,-0.037,-0.960,1.401,0.000,-3.123,0.000,-0.015,-0.029,-0.016,-0.281,-1.193,1.436
0723_091151_0126.png,0.005,0.173,0.943,-0.058,0.176,0.950,0.117,0.002,1.143,-0.166,-0.006,1.109,0.075,-0.178,0.930,-0.299,-0.235,1.125,0.037,-0.354,0.722,-0.167,-0.321,0.911,965.378,714.727,0.943,902.398,716.401,0.950,1057.173,541.320,1.143,817.577,534.540,1.109,1036.328,358.287,0.930,706.890,341.674,1.125,1009.232,73.735,0.722,786.105,204.757,0.911,-0.031,-0.970,1.403,0.000,-351.673,0.000,0.040,0.019,-0.021,-0.109,-0.820,1.179
0723_091151_0127.png,0.005,0.166,0.933,-0.061,0.168,0.936,0.116,0.002,1.143,-0.181,-0.008,1.100,0.272,-0.220,1.131,-0.287,-0.256,1.066,0.348,-0.307,0.894,-0.146,-0.322,0.851,965.150,709.200,0.933,897.634,711.032,0.936,1056.215,541.482,1.143,803.397,532.889,1.100,1188.348,355.101,1.131,704.347,311.997,1.066,1330.567,212.969,0.894,796.948,180.776,0.851,-0.025,-0.969,1.403,0.000,-350.268,0.000,-0.011,0.002,-0.004,0.082,-1.084,1.202
0723_091151_0128.png,0.042,0.173,0.938,-0.022,0.173,0.941,0.167,-0.007,1.101,-0.118,0.003,1.148,0.189,-0.275,1.059,-0.137,-0.182,0.933,0.011,-0.334,0.870,-0.158,-0.363,0.726,1002.674,715.503,0.938,937.913,714.861,0.941,1104.028,533.723,1.101,862.378,542.849,1.148,1130.084,292.618,1.059,820.820,354.852,0.933,972.482,175.570,0.870,752.513,64.020,0.726,-0.039,-0.968,1.403,0.000,-8.363,0.000,0.028,0.003,-0.026,-0.289,-0.910,1.311
0723_091151_0129.png,0.047,0.190,0.933,-0.020,0.187,0.926,0.163,-0.003,1.091,-0.136,0.009,1.144,0.113,-0.221,0.931,-0.189,-0.170,0.935,0.022,-0.360,0.722,-0.241,-0.345,0.731,1007.755,733.878,0.933,939.731,732.020,0.926,1101.750,537.375,1.091,847.231,547.535,1.144,1075.147,314.437,0.931,767.435,367.008,0.935,989.519,66.143,0.722,646.801,91.501,0.731,-0.027,-0.969,1.403,0.000,-9.072,0.000,-0.021,-0.036,-0.009,0.142,-0.823,1.392
0723_091151_0130.png,0.031,0.165,0.928,-0.037,0.165,0.927,0.144,0.003,1.133,-0.163,-0.003,1.108,0.179,-0.175,0.925,-0.165,-0.264,1.031,0.211,-0.347,0.721,-0.099,-0.331,0.783,992.213,709.168,0.928,922.076,709.770,0.927,1081.012,542.504,1.133,819.776,537.658,1.108,1144.203,360.280,0.925,808.259,296.189,1.031,1238.425,81.672,0.721,839.276,138.007,0.783,-0.039,-0.969,1.403,0.000,-354.086,0.000,-0.040,-0.012,-0.005,0.192,-1.155,1.516
0723_091151_0131.png,0.000,0.153,0.930,-0.064,0.159,0.942,0.117,-0.003,1.150,-0.172,-0.013,1.108,0.052,-0.183,0.941,-0.311,-0.245,1.086,-0.009,-0.361,0.738,-0.218,-0.336,0.846,959.919,696.156,0.930,895.365,700.460,0.942,1057.082,537.572,1.150,812.729,529.246,1.108,1012.426,354.926,0.941,688.101,325.302,1.086,949.034,75.237,0.738,714.642,161.772,0.846,-0.032,-0.959,1.401,0.000,-350.396,0.000,0.016,-0.006,-0.041,-0.238,-1.177,1.452
0723_091151_0132.png,0.004,0.154,0.940,-0.064,0.156,0.941,0.112,-0.009,1.156,-0.190,-0.025,1.090,0.077,-0.210,0.975,-0.338,-0.239,1.162,-0.025,-0.334,0.761,-0.397,-0.294,0.909,964.031,695.769,0.940,894.948,697.537,0.941,1051.810,532.207,1.156,793.988,518.594,1.090,1035.304,335.677,0.975,683.006,344.674,1.162,929.325,122.505,0.761,544.532,232.941,0.909,-0.028,-0.958,1.400,0.000,-346.268,0.000,-0.042,0.017,0.000,0.210,-0.855,1.605
0723_091151_0133.png,0.034,0.187,0.931,-0.033,0.186,0.933,0.162,0.000,1.092,-0.133,0.014,1.152,0.253,-0.245,1.185,-0.269,-0.207,1.049,0.110,-0.301,0.960,-0.255,-0.338,0.810,994.272,730.912,0.931,926.044,729.629,0.933,1101.184,539.627,1.092,850.242,551.150,1.152,1162.997,343.224,1.185,715.746,352.162,1.049,1069.056,241.971,0.960,660.420,142.802,0.810,-0.023,-0.971,1.403,0.000,-10.737,0.000,-0.015,-0.027,-0.037,-0.272,-0.923,1.306
0723_091151_0134.png,0.034,0.172,0.935,-0.030,0.171,0.932,0.140,-0.003,1.125,-0.150,-0.006,1.114,0.191,-0.211,1.293,-0.217,-0.255,1.037,0.239,-0.279,1.046,-0.058,-0.335,0.847,994.789,714.356,0.935,929.350,714.042,0.932,1078.321,537.085,1.125,831.858,534.980,1.114,1100.178,384.931,1.293,760.966,305.956,1.037,1177.637,286.673,1.046,894.425,164.071,0.847,-0.038,-0.967,1.402,0.000,-356.682,0.000,0.022,-0.006,0.009,0.253,-0.995,1.223
0723_091151_0135.png,0.057,0.158,0.940,-0.009,0.156,0.939,0.181,-0.024,1.080,-0.107,-0.006,1.161,0.126,-0.268,0.980,-0.185,-0.250,1.080,0.022,-0.347,0.751,-0.135,-0.323,0.830,1017.953,699.898,0.940,950.815,697.640,0.939,1119.407,518.660,1.080,872.234,535.391,1.161,1082.187,279.846,0.980,797.423,319.704,1.080,988.067,100.184,0.751,805.904,170.380,0.830,-0.037,-0.961,1.401,0.000,-14.914,0.000,-0.010,0.022,-0.004,-0.217,-0.967,1.208
0723_091151_0136.png,0.012,0.161,0.940,-0.052,0.164,0.944,0.118,0.000,1.144,-0.166,-0.009,1.103,0.253,-0.226,1.145,-0.209,-0.268,1.072,0.131,-0.309,0.929,-0.180,-0.337,0.819,972.237,703.047,0.940,908.017,704.802,0.944,1058.516,540.372,1.144,816.946,532.449,1.103,1170.594,351.928,1.145,774.857,302.157,1.072,1094.444,223.721,0.929,751.538,148.154,0.819,-0.034,-0.973,1.404,0.000,-350.603,0.000,0.032,0.034,-0.004,0.067,-0.878,1.638
0723_091151_0137.png,0.053,0.161,0.946,-0.013,0.157,0.938,0.169,-0.026,1.077,-0.121,-0.008,1.159,0.152,-0.272,0.978,-0.298,-0.177,1.048,-0.015,-0.332,0.787,-0.423,-0.311,0.861,1013.645,701.886,0.946,947.259,699.377,0.938,1108.842,516.619,1.077,860.961,533.667,1.159,1108.019,275.261,0.978,689.325,379.306,1.048,941.620,138.954,0.787,492.436,196.696,0.861,-0.024,-0.962,1.401,0.000,-14.985,0.000,-0.014,0.028,0.013,0.035,-0.776,1.410
0723_091151_0138.png,0.047,0.175,0.929,-0.020,0.173,0.930,0.176,-0.003,1.088,-0.119,0.013,1.156,0.161,-0.259,1.186,-0.226,-0.212,1.029,0.133,-0.305,0.918,-0.169,-0.342,0.796,1007.978,719.282,0.929,939.190,717.059,0.930,1113.601,537.509,1.088,861.886,550.508,1.156,1089.252,331.988,1.186,751.160,343.881,1.029,1097.546,223.648,0.918,758.527,131.801,0.796,-0.033,-0.971,1.403,0.000,-12.131,0.000,-0.021,-0.015,-0.039,-0.244,-1.111,1.349
0723_091151_0139.png,-0.006,0.146,0.937,-0.071,0.150,0.942,0.101,-0.006,1.152,-0.187,-0.019,1.098,0.042,-0.179,0.947,-0.278,-0.258,1.159,-0.015,-0.348,0.747,-0.300,-0.309,0.901,953.985,688.364,0.937,888.404,691.460,0.942,1043.740,534.925,1.152,797.700,523.809,1.098,1002.138,359.869,0.947,731.752,328.569,1.159,941.116,96.568,0.747,643.570,214.162,0.901,-0.021,-0.964,1.402,0.000,-347.858,0.000,0.009,0.031,-0.007,0.039,-1.196,1.216
0723_091151_0140.png,0.011,0.172,0.922,-0.055,0.175,0.926,0.121,0.007,1.139,-0.174,-0.004,1.091,0.149,-0.254,1.071,-0.331,-0.228,1.098,0.109,-0.330,0.825,-0.329,-0.323,0.857,971.004,717.451,0.922,903.243,719.727,0.926,1060.852,545.785,1.139,808.714,536.505,1.091,1092.069,314.180,1.071,673.404,342.473,1.098,1085.876,159.792,0.825,595.070,180.891,0.857,-0.033,-0.971,1.403,0.000,-349.408,0.000,-0.005,-0.023,0.015,0.052,-1.060,1.522
0723_091151_0141.png,0.041,0.144,0.937,-0.024,0.141,0.936,0.162,-0.021,1.103,-0.128,-0.010,1.150,0.271,-0.238,1.211,-0.113,-0.186,0.932,0.356,-0.294,0.966,-0.100,-0.358,0.720,1001.425,685.837,0.937,935.123,683.699,0.936,1099.921,522.221,1.103,854.048,531.898,1.150,1172.636,352.935,1.211,844.549,350.350,0.932,1310.949,250.884,0.966,827.390,67.349,0.720,-0.032,-0.958,1.400,0.000,-8.277,0.000,0.008,0.018,-0.018,-0.102,-1.233,1.444
0723_091151_0142.png,0.057,0.166,0.950,-0.010,0.162,0.942,0.172,-0.013,1.104,-0.131,-0.002,1.150,0.225,-0.251,0.982,-0.246,-0.234,1.214,0.161,-0.344,0.738,-0.217,-0.284,0.952,1016.857,705.794,0.950,949.399,703.391,0.942,1108.173,528.751,1.104,851.935,538.079,1.150,1177.956,296.500,0.982,767.577,356.362,1.214,1168.090,96.641,0.738,743.506,256.248,0.952,-0.036,-0.967,1.402,0.000,-7.824,0.000,-0.032,0.028,-0.023,0.199,-0.937,1.145
0723_091151_0143.png,-0.009,0.184,0.923,-0.073,0.189,0.937,0.110,0.005,1.147,-0.180,-0.011,1.078,0.228,-0.232,1.231,-0.264,-0.202,1.262,0.320,-0.289,0.995,-0.334,-0.282,1.024,951.123,729.790,0.923,886.140,732.108,0.937,1051.471,544.197,1.147,801.192,530.464,1.078,1135.822,361.058,1.231,761.235,387.507,1.262,1265.717,264.009,0.995,649.921,278.109,1.024,-0.034,-0.966,1.402,0.000,-345.113,0.000,-0.007,-0.034,0.020,-0.273,-0.744,1.427
0723_091151_0144.png,0.051,0.198,0.932,-0.015,0.196,0.926,0.167,0.001,1.093,-0.131,0.011,1.137,0.094,-0.237,0.979,-0.163,-0.184,0.948,0.014,-0.350,0.754,-0.156,-0.356,0.745,1011.999,742.145,0.932,944.140,740.998,0.926,1105.398,540.915,1.093,850.841,549.412,1.137,1050.898,309.928,0.979,796.394,355.730,0.948,977.655,98.454,0.754,760.897,85.955,0.745,-0.036,-0.971,1.403,0.000,-7.529,0.000,-0.014,-0.043,-0.001,0.121,-0.791,1.196
0723_091151_0145.png,0.015,0.174,0.924,-0.052,0.177,0.929,0.140,0.006,1.124,-0.163,0.005,1.123,0.181,-0.256,1.039,-0.245,-0.203,1.289,0.013,-0.333,0.842,-0.283,-0.278,1.032,975.504,719.541,0.924,906.911,720.644,0.929,1078.505,544.713,1.124,821.991,544.579,1.123,1125.940,305.282,1.039,778.954,390.067,1.289,975.145,164.260,0.842,699.127,283.258,1.032,-0.027,-0.969,1.403,0.000,-358.689,0.000,-0.020,-0.033,-0.027,-0.181,-1.222,1.239
0723_091151_0146.png,0.051,0.152,0.941,-0.014,0.148,0.936,0.167,-0.019,1.085,-0.116,-0.003,1.155,0.126,-0.238,0.935,-0.271,-0.195,1.244,0.080,-0.361,0.708,-0.415,-0.271,1.040,1011.150,694.106,0.941,945.978,690.668,0.936,1106.173,523.234,1.085,864.631,537.546,1.155,1088.175,298.430,0.935,752.812,391.262,1.244,1067.107,54.811,0.708,580.493,291.793,1.040,-0.029,-0.969,1.403,0.000,-13.141,0.000,0.018,0.040,0.004,-0.023,-1.087,1.360
0723_091151_0147.png,0.013,0.176,0.936,-0.052,0.177,0.939,0.128,-0.004,1.128,-0.167,-0.008,1.108,0.177,-0.179,0.927,-0.287,-0.196,1.262,0.223,-0.350,0.731,-0.423,-0.272,1.055,973.696,719.074,0.936,907.445,719.671,0.939,1067.782,536.802,1.128,817.030,532.907,1.108,1141.246,356.393,0.927,744.158,392.409,1.262,1250.454,85.165,0.731,579.006,294.582,1.055,-0.027,-0.967,1.402,0.000,-354.947,0.000,0.006,-0.003,0.020,0.005,-0.727,1.492
0723_091151_0148.png,0.065,0.165,0.943,-0.002,0.160,0.935,0.182,-0.013,1.081,-0.112,0.005,1.162,0.182,-0.278,1.040,-0.087,-0.171,0.946,-0.015,-0.314,0.862,-0.064,-0.343,0.734,1025.889,706.503,0.943,958.445,702.576,0.935,1120.264,528.390,1.081,868.711,544.464,1.162,1126.810,286.140,1.040,872.250,367.705,0.946,943.671,193.779,0.862,877.588,95.805,0.734,-0.034,-0.972,1.404,0.000,-14.658,0.000,-0.028,0.030,-0.022,0.076,-1.024,1.241
0723_091151_0149.png,0.023,0.166,0.948,-0.043,0.167,0.949,0.143,-0.016,1.116,-0.156,-0.012,1.131,0.257,-0.220,1.241,-0.215,-0.253,1.033,0.394,-0.270,1.024,-0.066,-0.325,0.830,983.031,707.034,0.948,916.545,706.992,0.949,1082.156,526.565,1.116,829.233,529.762,1.131,1156.803,371.795,1.241,761.961,307.564,1.033,1325.938,289.639,1.024,884.238,167.703,0.830,-0.024,-0.963,1.401,0.000,-1.892,0.000,-0.008,0.026,0.011,-0.072,-0.648,1.469
0723_091151_0150.png,0.049,0.175,0.947,-0.016,0.170,0.937,0.162,-0.005,1.098,-0.131,0.008,1.154,0.124,-0.245,0.966,-0.117,-0.176,0.938,-0.017,-0.350,0.758,-0.105,-0.356,0.727,1009.672,715.585,0.947,943.666,712.432,0.937,1100.259,535.997,1.098,851.959,546.919,1.154,1082.275,298.565,0.966,841.404,361.461,0.938,938.400,101.055,0.758,822.151,74.295,0.727,-0.025,-0.973,1.404,0.000,-10.047,0.000,-0.006,0.017,-0.038,0.189,-0.882,1.502
0723_091151_0151.png,0.023,0.167,0.926,-0.041,0.168,0.926,0.132,-0.001,1.123,-0.156,-0.005,1.105,0.187,-0.232,1.256,-0.289,-0.192,1.247,0.208,-0.289,1.009,-0.401,-0.284,1.039,983.934,711.605,0.926,918.403,712.273,0.926,1071.564,539.038,1.123,826.092,535.389,1.105,1101.723,364.511,1.256,739.962,393.743,1.247,1155.643,267.470,1.009,592.711,280.057,1.039,-0.034,-0.971,1.403,0.000,-355.076,0.000,0.030,-0.008,0.037,0.096,-1.111,1.331
0723_091151_0152.png,0.012,0.173,0.938,-0.052,0.174,0.940,0.128,-0.006,1.124,-0.162,-0.007,1.120,0.270,-0.199,1.247,-0.320,-0.222,1.156,0.261,-0.293,1.001,-0.403,-0.310,0.923,972.601,715.769,0.938,907.534,716.167,0.940,1068.068,534.886,1.124,822.078,534.175,1.120,1165.866,388.114,1.247,696.363,357.740,1.156,1207.775,261.573,1.001,544.841,220.524,0.923,-0.022,-0.965,1.402,0.000,-358.107,0.000,0.022,-0.004,0.001,-0.049,-0.763,1.549
0723_091151_0153.png,0.019,0.164,0.931,-0.047,0.166,0.936,0.134,0.000,1.141,-0.161,-0.005,1.116,0.206,-0.212,1.300,-0.171,-0.239,0.961,0.342,-0.273,1.071,-0.078,-0.364,0.736,979.489,706.979,0.931,912.704,708.801,0.936,1071.729,540.327,1.141,822.507,535.541,1.116,1110.797,384.721,1.300,790.620,303.740,0.961,1263.286,297.805,1.071,859.064,69.224,0.736,-0.036,-0.962,1.401,0.000,-353.967,0.000,0.001,-0.017,-0.043,-0.022,-1.038,1.679
0723_091151_0154.png,0.026,0.144,0.937,-0.041,0.145,0.940,0.149,-0.020,1.119,-0.154,-0.019,1.126,0.177,-0.264,1.217,-0.173,-0.244,0.989,0.156,-0.280,0.961,-0.092,-0.337,0.762,985.976,686.601,0.937,918.024,687.077,0.940,1086.985,522.626,1.119,830.360,524.253,1.126,1098.163,333.903,1.217,793.943,305.502,0.989,1114.743,262.506,0.961,844.938,118.700,0.762,-0.032,-0.959,1.400,0.000,-0.337,0.000,-0.021,0.026,0.022,-0.118,-1.055,1.475
0723_091151_0155.png,0.015,0.166,0.926,-0.050,0.167,0.925,0.119,0.002,1.136,-0.172,-0.008,1.095,0.156,-0.177,0.938,-0.194,-0.271,1.040,0.191,-0.351,0.746,-0.149,-0.340,0.795,975.765,710.450,0.926,908.852,711.640,0.925,1059.213,541.432,1.136,810.385,533.369,1.095,1117.632,360.787,0.938,782.698,292.289,1.040,1203.339,92.248,0.746,782.364,133.345,0.795,-0.030,-0.969,1.403,0.000,-350.662,0.000,0.010,-0.014,0.020,0.225,-1.101,1.480
0723_091151_0156.png,0.002,0.165,0.943,-0.063,0.169,0.953,0.121,-0.005,1.147,-0.174,-0.015,1.103,0.263,-0.224,1.201,-0.208,-0.277,1.071,0.353,-0.290,0.960,-0.173,-0.329,0.814,962.342,706.774,0.943,897.091,708.775,0.953,1060.404,536.074,1.147,810.232,527.154,1.103,1168.155,362.517,1.201,775.080,293.750,1.071,1309.051,253.252,0.960,757.710,155.356,0.814,-0.033,-0.966,1.402,0.000,-350.079,0.000,-0.005,0.026,-0.007,-0.155,-0.726,1.456
0723_091151_0157.png,0.040,0.174,0.939,-0.025,0.171,0.934,0.154,-0.002,1.100,-0.131,0.009,1.147,0.129,-0.271,1.083,-0.300,-0.199,1.158,0.074,-0.339,0.827,-0.419,-0.308,0.942,1000.079,716.430,0.939,935.040,714.110,0.934,1093.429,538.349,1.100,851.373,547.513,1.147,1073.424,301.682,1.083,713.571,376.440,1.158,1044.566,150.217,0.827,537.560,228.923,0.942,-0.026,-0.974,1.404,0.000,-8.570,0.000,0.025,0.009,-0.027,0.038,-0.902,1.652
0723_091151_0158.png,0.056,0.162,0.940,-0.010,0.159,0.933,0.172,-0.027,1.074,-0.122,-0.009,1.153,0.273,-0.275,1.073,-0.188,-0.173,0.954,0.288,-0.315,0.821,-0.250,-0.332,0.757,1017.038,704.193,0.940,949.841,701.882,0.933,1112.193,515.905,1.074,859.740,532.553,1.153,1201.798,296.683,1.073,772.263,367.347,0.954,1294.137,174.539,0.821,646.705,123.115,0.757,-0.028,-0.961,1.401,0.000,-14.295,0.000,-0.025,0.016,0.036,0.073,-0.817,1.308
0723_091151_0159.png,0.028,0.173,0.940,-0.036,0.170,0.935,0.137,-0.005,1.117,-0.149,0.000,1.135,0.080,-0.200,0.927,-0.234,-0.234,1.018,-0.015,-0.367,0.735,-0.155,-0.355,0.792,988.274,714.551,0.940,923.809,713.203,0.935,1076.988,536.121,1.117,834.886,539.810,1.135,1042.347,334.265,0.927,741.725,321.351,1.018,941.234,65.339,0.735,774.258,113.641,0.792,-0.022,-0.966,1.402,0.000,-2.683,0.000,0.032,-0.006,-0.026,0.148,-0.881,1.601
0723_091151_0160.png,0.056,0.163,0.950,-0.008,0.160,0.942,0.169,-0.024,1.084,-0.112,-0.006,1.160,0.092,-0.198,0.885,-0.254,-0.225,1.095,0.019,-0.368,0.691,-0.143,-0.318,0.876,1015.903,703.412,0.950,951.470,700.982,0.942,1108.300,519.148,1.084,868.117,535.007,1.160,1059.317,327.422,0.885,739.744,344.892,1.095,986.835,34.033,0.691,805.294,195.023,0.876,-0.029,-0.962,1.401,0.000,-14.504,0.000,0.017,0.031,-0.008,0.033,-0.693,1.597
0723_091151_0161.png,0.037,0.166,0.935,-0.030,0.164,0.933,0.158,-0.016,1.090,-0.139,-0.004,1.142,0.270,-0.258,1.062,-0.167,-0.249,1.045,0.301,-0.323,0.815,-0.110,-0.326,0.805,997.598,708.654,0.935,929.819,707.153,0.933,1097.455,526.241,1.090,844.407,536.753,1.142,1201.682,308.935,1.062,808.033,313.116,1.045,1311.462,162.501,0.815,830.496,155.206,0.805,-0.024,-0.966,1.402,0.000,-8.971,0.000,-0.014,0.007,0.025,-0.051,-0.847,1.604
0723_091151_0162.png,0.055,0.173,0.934,-0.009,0.169,0.925,0.165,-0.015,1.082,-0.120,-0.002,1.140,0.117,-0.246,0.967,-0.227,-0.167,0.960,0.065,-0.352,0.744,-0.330,-0.328,0.784,1015.928,715.987,0.934,950.863,713.649,0.925,1105.454,526.493,1.082,859.985,538.483,1.140,1074.893,297.657,0.967,735.141,374.966,0.960,1042.796,89.510,0.744,559.979,142.624,0.784,-0.034,-0.967,1.403,0.000,-10.792,0.000,0.018,-0.005,0.042,0.179,-0.911,1.275
0723_091151_0163.png,0.023,0.170,0.941,-0.042,0.170,0.941,0.137,-0.003,1.128,-0.158,-0.003,1.128,0.194,-0.183,0.916,-0.195,-0.238,0.989,0.253,-0.359,0.710,-0.068,-0.349,0.779,983.458,711.701,0.941,917.451,711.549,0.941,1075.356,537.572,1.128,826.948,537.692,1.128,1161.845,349.654,0.916,772.766,310.814,0.989,1298.667,59.086,0.710,876.905,113.672,0.779,-0.027,-0.967,1.402,0.000,-358.950,0.000,0.008,0.005,-0.030,0.070,-0.910,1.441
0723_091151_0164.png,0.046,0.156,0.941,-0.018,0.153,0.936,0.161,-0.019,1.099,-0.122,-0.007,1.152,0.189,-0.278,1.023,-0.259,-0.175,0.979,0.032,-0.345,0.820,-0.395,-0.338,0.812,1006.324,698.021,0.941,941.867,695.315,0.936,1098.908,523.367,1.099,859.143,534.103,1.152,1136.088,281.795,1.023,708.063,370.243,0.979,996.926,140.527,0.820,497.020,144.417,0.812,-0.031,-0.959,1.401,0.000,-9.633,0.000,0.031,0.011,-0.018,0.025,-1.131,1.127
0723_091151_0165.png,0.038,0.173,0.924,-0.026,0.170,0.923,0.161,0.000,1.091,-0.123,0.013,1.146,0.235,-0.256,1.027,-0.143,-0.217,0.996,0.145,-0.352,0.795,-0.062,-0.356,0.785,999.533,717.785,0.924,933.422,715.505,0.923,1100.190,540.317,1.091,857.932,550.699,1.146,1177.378,303.325,1.027,823.119,332.525,0.996,1133.339,118.230,0.795,885.302,108.702,0.785,-0.030,-0.974,1.404,0.000,-9.974,0.000,0.026,-0.021,-0.017,-0.166,-1.212,1.462
0723_091151_0166.png,0.061,0.179,0.946,-0.005,0.175,0.937,0.175,-0.006,1.099,-0.123,0.007,1.152,0.155,-0.272,1.039,-0.233,-0.225,1.047,0.121,-0.342,0.779,-0.118,-0.331,0.825,1021.431,719.787,0.946,954.563,717.225,0.937,1111.346,535.166,1.099,858.212,545.533,1.152,1101.449,290.728,1.039,748.594,335.799,1.047,1108.119,122.254,0.779,823.672,158.453,0.825,-0.038,-0.970,1.403,0.000,-9.254,0.000,-0.021,0.005,-0.035,0.208,-0.830,1.426
0723_091151_0167.png,0.014,0.157,0.933,-0.052,0.157,0.932,0.126,-0.009,1.127,-0.173,-0.014,1.104,0.184,-0.176,0.929,-0.146,-0.207,0.932,0.237,-0.339,0.736,-0.067,-0.342,0.732,974.748,700.050,0.933,906.960,700.528,0.932,1066.386,532.684,1.127,811.015,528.208,1.104,1148.107,359.788,0.929,811.545,329.058,0.932,1265.808,102.264,0.736,872.872,95.738,0.732,-0.024,-0.968,1.403,0.000,-354.533,0.000,-0.010,0.017,0.045,0.131,-0.948,1.647
0723_091151_0168.png,0.038,0.157,0.943,-0.025,0.155,0.938,0.147,-0.012,1.118,-0.141,-0.009,1.131,0.231,-0.212,1.266,-0.228,-0.176,0.929,0.399,-0.267,1.076,-0.316,-0.340,0.734,998.797,698.290,0.943,934.428,696.963,0.938,1085.247,529.853,1.118,841.808,532.657,1.131,1133.508,380.491,1.266,726.291,359.533,0.929,1312.236,303.712,1.076,550.635,99.650,0.734,-0.034,-0.966,1.402,0.000,-1.660,0.000,0.030,0.026,0.001,0.184,-1.027,1.356
0723_091151_0169.png,0.018,0.171,0.938,-0.049,0.172,0.937,0.129,-0.003,1.137,-0.173,-0.009,1.111,0.163,-0.180,0.924,-0.191,-0.269,1.029,0.196,-0.352,0.716,-0.152,-0.341,0.774,978.661,713.804,0.938,910.300,714.185,0.937,1068.152,537.374,1.137,811.566,532.239,1.111,1128.163,354.859,0.924,783.597,290.940,1.029,1220.207,72.833,0.716,773.298,121.121,0.774,-0.028,-0.963,1.401,0.000,-353.831,0.000,-0.024,-0.010,-0.013,0.182,-0.825,1.606
0723_091151_0170.png,0.002,0.174,0.925,-0.064,0.178,0.933,0.117,0.001,1.146,-0.179,-0.011,1.095,0.088,-0.230,0.999,-0.229,-0.259,0.984,0.026,-0.348,0.768,-0.102,-0.350,0.768,961.728,718.969,0.925,894.483,721.615,0.933,1057.217,541.039,1.146,804.800,530.774,1.095,1043.775,321.398,0.999,738.544,289.967,0.984,992.738,108.586,0.768,834.287,106.327,0.768,-0.031,-0.960,1.401,0.000,-348.671,0.000,-0.012,-0.040,-0.012,-0.100,-0.961,1.397
0723_091151_0171.png,0.017,0.151,0.921,-0.049,0.154,0.928,0.140,-0.012,1.118,-0.156,-0.013,1.112,0.080,-0.183,0.926,-0.210,-0.246,1.001,0.018,-0.349,0.739,-0.190,-0.340,0.767,977.083,695.639,0.921,910.126,697.381,0.928,1079.249,529.941,1.118,826.870,528.851,1.112,1041.860,351.995,0.926,760.371,306.671,1.001,983.357,90.702,0.739,723.907,118.342,0.767,-0.032,-0.962,1.401,0.000,-357.775,0.000,0.003,-0.010,0.042,-0.212,-1.220,1.515
0723_091151_0172.png,-0.003,0.164,0.936,-0.067,0.167,0.942,0.110,-0.004,1.140,-0.180,-0.013,1.100,0.058,-0.179,0.941,-0.241,-0.258,1.015,0.007,-0.349,0.748,-0.225,-0.342,0.771,957.173,706.723,0.936,892.018,708.561,0.942,1051.727,537.030,1.140,804.383,528.903,1.100,1018.704,359.376,0.941,734.560,298.621,1.015,969.526,95.527,0.748,682.261,117.610,0.771,-0.022,-0.968,1.403,0.000,-350.703,0.000,0.013,0.018,0.015,-0.059,-0.919,1.252
0723_091151_0173.png,0.023,0.151,0.946,-0.043,0.151,0.946,0.137,-0.017,1.131,-0.162,-0.020,1.116,0.254,-0.236,1.215,-0.228,-0.215,0.947,0.153,-0.276,0.980,-0.239,-0.345,0.724,983.155,691.442,0.946,916.341,691.788,0.946,1075.240,525.745,1.131,821.537,522.579,1.116,1158.545,355.408,1.215,730.922,324.387,0.947,1108.536,272.155,0.980,646.458,86.773,0.724,-0.032,-0.962,1.401,0.000,-355.855,0.000,-0.010,0.043,0.022,0.094,-0.853,1.455
0723_091151_0174.png,0.043,0.173,0.934,-0.023,0.172,0.936,0.169,-0.011,1.100,-0.128,-0.001,1.145,0.308,-0.247,1.120,-0.264,-0.200,1.276,0.383,-0.317,0.873,-0.307,-0.278,1.023,1003.991,715.849,0.934,936.214,714.993,0.936,1106.159,530.265,1.100,853.775,539.373,1.145,1221.100,330.057,1.120,763.469,390.706,1.276,1377.461,194.986,0.873,675.102,281.692,1.023,-0.037,-0.962,1.401,0.000,-7.801,0.000,-0.012,-0.016,-0.016,-0.176,-0.869,1.486
0723_091151_0175.png,0.027,0.163,0.937,-0.038,0.164,0.937,0.141,0.002,1.128,-0.153,0.001,1.124,0.288,-0.221,1.145,-0.197,-0.181,0.914,0.388,-0.308,0.912,-0.242,-0.358,0.709,987.354,705.876,0.937,921.240,706.129,0.937,1078.905,541.446,1.128,830.681,540.697,1.124,1199.174,356.075,1.145,754.840,351.725,0.914,1364.180,218.960,0.912,635.063,60.076,0.709,-0.034,-0.974,1.404,0.000,-358.051,0.000,0.010,0.018,-0.021,0.040,-1.116,1.389
0723_091151_0176.png,0.044,0.173,0.945,-0.020,0.173,0.944,0.161,-0.015,1.102,-0.124,-0.006,1.142,0.235,-0.234,1.237,-0.129,-0.184,0.933,0.330,-0.292,1.001,-0.136,-0.358,0.730,1004.116,714.358,0.945,939.874,713.754,0.944,1098.825,527.087,1.102,856.655,535.075,1.142,1140.588,360.399,1.237,828.141,352.673,0.933,1273.696,262.834,1.001,782.392,73.923,0.730,-0.037,-0.963,1.402,0.000,-6.903,0.000,0.031,0.010,0.001,-0.080,-0.674,1.373
0723_091151_0177.png,0.002,0.154,0.941,-0.061,0.158,0.949,0.114,-0.013,1.145,-0.169,-0.021,1.109,0.080,-0.183,0.926,-0.113,-0.196,0.902,0.051,-0.351,0.714,-0.063,-0.369,0.701,961.972,695.807,0.941,899.062,698.034,0.949,1054.421,529.521,1.145,815.226,522.056,1.109,1042.400,351.989,0.926,840.470,332.978,0.902,1027.875,72.651,0.714,874.963,39.820,0.701,-0.028,-0.957,1.400,0.000,-351.351,0.000,0.040,0.019,-0.010,-0.122,-0.888,1.399
0723_091151_0178.png,0.024,0.185,0.940,-0.045,0.186,0.941,0.146,0.003,1.123,-0.165,0.003,1.123,0.077,-0.212,0.966,-0.166,-0.222,0.967,-0.003,-0.339,0.744,-0.135,-0.345,0.732,984.154,727.478,0.940,914.545,727.581,0.941,1083.601,542.672,1.123,820.451,542.726,1.123,1036.261,331.580,0.966,796.499,321.922,0.967,956.400,106.403,0.744,785.053,91.772,0.732,-0.028,-0.973,1.404,0.000,-358.879,0.000,-0.046,-0.002,-0.012,0.000,-0.814,1.091
0723_091151_0179.png,0.009,0.152,0.933,-0.057,0.156,0.938,0.119,0.006,1.150,-0.174,-0.005,1.101,0.202,-0.248,1.135,-0.309,-0.233,1.056,0.215,-0.317,0.875,-0.248,-0.331,0.812,968.853,694.555,0.933,902.285,697.912,0.938,1058.051,544.779,1.150,809.680,535.329,1.101,1129.307,332.043,1.135,681.860,330.287,1.056,1193.383,195.971,0.875,669.394,152.693,0.812,-0.034,-0.975,1.404,0.000,-349.140,0.000,0.000,0.030,-0.024,0.028,-1.205,1.566
0723_091151_0180.png,0.020,0.160,0.937,-0.045,0.163,0.944,0.145,-0.002,1.131,-0.152,-0.003,1.130,0.270,-0.241,1.151,-0.288,-0.222,1.204,0.130,-0.308,0.929,-0.313,-0.300,0.943,980.756,702.785,0.937,914.800,704.283,0.944,1081.614,537.917,1.131,832.358,537.715,1.130,1182.832,340.950,1.151,732.824,364.575,1.204,1093.448,224.287,0.929,644.047,237.097,0.943,-0.035,-0.967,1.402,0.000,-358.622,0.000,0.002,0.012,-0.041,-0.234,-1.131,1.278
0723_091151_0181.png,0.044,0.171,0.934,-0.020,0.170,0.932,0.161,-0.011,1.097,-0.124,-0.001,1.139,0.275,-0.252,1.138,-0.207,-0.177,0.952,0.328,-0.321,0.893,-0.289,-0.350,0.770,1004.975,714.515,0.934,939.872,713.186,0.932,1099.543,530.799,1.097,856.518,539.362,1.139,1189.428,329.460,1.138,752.817,362.664,0.952,1309.657,197.663,0.893,602.339,107.344,0.770,-0.036,-0.967,1.402,0.000,-7.599,0.000,0.029,-0.005,0.011,-0.034,-0.824,1.698
0723_091151_0182.png,0.034,0.165,0.929,-0.032,0.164,0.927,0.149,-0.014,1.110,-0.148,-0.011,1.124,0.274,-0.257,1.115,-0.312,-0.223,1.184,0.315,-0.320,0.867,-0.387,-0.298,0.948,994.584,709.051,0.929,927.024,708.292,0.927,1087.594,528.026,1.110,834.597,530.911,1.124,1194.134,320.568,1.115,709.662,360.741,1.184,1305.329,188.957,0.867,572.175,240.868,0.948,-0.032,-0.958,1.400,0.000,-1.610,0.000,-0.002,-0.026,0.023,0.086,-1.035,1.362
0723_091151_0183.png,-0.011,0.162,0.933,-0.076,0.167,0.946,0.112,-0.001,1.146,-0.182,-0.015,1.088,0.173,-0.240,1.054,-0.275,-0.217,0.942,0.002,-0.312,0.869,-0.313,-0.347,0.722,948.551,704.701,0.933,884.018,708.153,0.946,1052.690,539.014,1.146,801.113,527.176,1.088,1116.132,323.366,1.054,682.770,320.917,0.942,962.060,198.080,0.869,547.691,83.593,0.722,-0.029,-0.971,1.403,0.000,-347.240,0.000,-0.009,0.028,0.026,-0.321,-0.907,1.317
0723_091151_0184.png,0.032,0.147,0.940,-0.034,0.148,0.945,0.159,-0.019,1.112,-0.139,-0.014,1.134,0.163,-0.277,1.147,-0.253,-0.228,1.028,0.141,-0.301,0.892,-0.184,-0.329,0.799,992.158,688.804,0.940,925.445,689.281,0.945,1096.109,523.909,1.112,843.154,528.473,1.134,1095.413,310.678,1.147,725.516,328.869,1.028,1110.453,219.048,0.892,741.333,148.642,0.799,-0.038,-0.964,1.402,0.000,-3.166,0.000,-0.008,0.041,0.018,-0.253,-0.994,1.456
0723_091151_0185.png,0.038,0.182,0.935,-0.026,0.180,0.931,0.151,0.007,1.113,-0.137,0.012,1.137,0.152,-0.255,1.018,-0.269,-0.169,0.969,-0.014,-0.349,0.830,-0.401,-0.345,0.809,998.244,725.051,0.935,933.045,723.714,0.931,1089.079,545.770,1.113,845.637,550.308,1.137,1101.630,302.224,1.018,696.094,374.491,0.969,943.800,140.231,0.830,488.265,134.132,0.809,-0.033,-0.975,1.404,0.000,-3.768,0.000,0.027,-0.012,-0.039,0.070,-1.092,1.184
0723_091151_0186.png,0.001,0.169,0.944,-0.065,0.173,0.955,0.119,0.002,1.155,-0.176,-0.011,1.099,0.169,-0.176,0.940,-0.178,-0.261,0.991,0.220,-0.349,0.730,-0.137,-0.351,0.739,960.673,709.842,0.944,895.348,712.481,0.955,1057.885,541.397,1.155,807.953,530.325,1.099,1131.276,361.912,0.940,789.261,289.107,0.991,1246.304,85.518,0.730,783.769,87.800,0.739,-0.037,-0.969,1.403,0.000,-347.785,0.000,-0.011,0.027,-0.028,-0.172,-0.794,1.270
0723_091151_0187.png,0.042,0.151,0.942,-0.023,0.150,0.941,0.160,-0.014,1.109,-0.132,-0.007,1.140,0.274,-0.234,1.012,-0.136,-0.198,0.948,0.318,-0.338,0.775,-0.085,-0.351,0.739,1002.773,692.718,0.942,936.875,691.438,0.941,1097.417,528.213,1.109,849.479,534.504,1.140,1217.680,320.073,1.012,823.099,341.694,0.948,1349.999,125.549,0.775,851.172,88.119,0.739,-0.037,-0.969,1.403,0.000,-5.058,0.000,0.008,0.042,0.002,-0.012,-0.978,1.653
0723_091151_0188.png,0.042,0.150,0.946,-0.022,0.147,0.942,0.157,-0.022,1.107,-0.133,-0.014,1.143,0.271,-0.236,1.207,-0.277,-0.229,1.079,0.356,-0.289,0.966,-0.173,-0.322,0.858,1002.697,690.382,0.946,937.441,688.719,0.942,1095.195,520.724,1.107,849.107,528.173,1.143,1173.315,353.827,1.207,716.286,338.135,1.079,1310.202,254.987,0.966,768.390,183.489,0.858,-0.033,-0.960,1.401,0.000,-6.032,0.000,0.013,0.036,0.005,0.052,-0.967,1.389
0723_091151_0189.png,0.023,0.165,0.930,-0.045,0.167,0.933,0.145,-0.002,1.120,-0.161,-0.004,1.112,0.259,-0.215,1.010,-0.276,-0.240,1.172,0.305,-0.324,0.784,-0.307,-0.291,0.923,983.380,709.117,0.930,914.210,709.895,0.933,1083.201,537.924,1.120,822.173,536.336,1.112,1204.041,337.194,1.010,736.290,345.195,1.172,1330.131,146.911,0.784,643.758,240.687,0.923,-0.033,-0.974,1.404,0.000,-357.292,0.000,-0.032,0.012,0.034,-0.061,-1.053,1.304
0723_091151_0190.png,0.057,0.157,0.939,-0.009,0.152,0.933,0.174,-0.016,1.090,-0.114,0.000,1.160,0.294,-0.256,1.102,-0.175,-0.177,0.945,0.245,-0.326,0.845,-0.236,-0.351,0.737,1017.693,699.103,0.939,951.258,695.012,0.933,1112.232,526.079,1.090,866.747,540.215,1.160,1214.032,319.042,1.102,784.301,361.445,0.945,1235.770,173.481,0.845,655.249,87.259,0.737,-0.033,-0.964,1.402,0.000,-12.930,0.000,-0.001,0.015,-0.031,0.031,-1.185,1.274
0723_091151_0191.png,0.039,0.169,0.945,-0.027,0.167,0.943,0.158,-0.011,1.100,-0.138,-0.001,1.140,0.097,-0.252,1.011,-0.209,-0.173,0.943,0.025,-0.332,0.775,-0.278,-0.339,0.751,999.731,709.614,0.945,933.113,708.566,0.943,1096.574,530.831,1.100,844.805,538.796,1.140,1051.498,303.138,1.011,748.875,365.601,0.943,990.338,132.553,0.775,608.230,110.078,0.751,-0.029,-0.974,1.404,0.000,-6.696,0.000,-0.006,0.037,0.016,-0.020,-0.860,1.098
0723_091151_0192.png,0.019,0.169,0.942,-0.045,0.172,0.951,0.145,-0.007,1.130,-0.149,-0.008,1.128,0.273,-0.241,1.170,-0.198,-0.253,1.013,0.332,-0.310,0.915,-0.078,-0.349,0.792,979.532,710.969,0.942,914.856,712.316,0.951,1081.989,533.939,1.130,834.397,533.442,1.128,1181.782,343.936,1.170,774.588,302.242,1.013,1305.283,218.184,0.915,866.689,121.294,0.792,-0.037,-0.962,1.401,0.000,-358.329,0.000,0.010,0.006,-0.031,-0.306,-0.795,1.383
0723_091151_0193.png,0.023,0.149,0.935,-0.045,0.150,0.937,0.139,-0.003,1.139,-0.164,-0.009,1.115,0.185,-0.212,0.966,-0.181,-0.250,0.990,0.161,-0.348,0.735,-0.094,-0.345,0.755,982.918,691.186,0.935,914.650,692.745,0.937,1075.883,537.083,1.139,820.365,532.434,1.115,1142.112,331.117,0.966,786.045,299.886,0.990,1167.716,90.387,0.735,842.067,105.647,0.755,-0.036,-0.967,1.402,0.000,-354.288,0.000,-0.022,0.021,-0.018,0.036,-1.177,1.625
0723_091151_0194.png,0.022,0.179,0.925,-0.044,0.179,0.924,0.138,0.004,1.118,-0.159,0.005,1.124,0.175,-0.211,0.947,-0.146,-0.230,0.979,0.150,-0.364,0.727,-0.057,-0.357,0.761,982.419,724.119,0.925,914.631,723.803,0.924,1077.472,543.376,1.118,825.378,544.639,1.124,1136.126,328.131,0.947,817.756,316.953,0.979,1155.644,64.088,0.727,888.659,93.858,0.761,-0.024,-0.968,1.402,0.000,-0.131,0.000,-0.001,-0.042,-0.018,0.032,-1.196,1.170
0723_091151_0195.png,-0.004,0.168,0.931,-0.068,0.171,0.938,0.104,-0.001,1.148,-0.182,-0.017,1.082,0.206,-0.209,1.285,-0.330,-0.240,1.070,0.340,-0.264,1.073,-0.309,-0.327,0.829,956.044,711.191,0.931,890.578,713.461,0.938,1046.014,538.861,1.148,799.654,525.430,1.082,1112.649,385.728,1.285,666.322,326.793,1.070,1261.325,305.708,1.073,605.276,164.586,0.829,-0.029,-0.967,1.402,0.000,-345.492,0.000,0.009,0.005,0.027,0.004,-0.874,1.286
0723_091151_0196.png,0.037,0.171,0.934,-0.029,0.169,0.934,0.162,-0.010,1.090,-0.125,0.006,1.156,0.303,-0.242,1.072,-0.202,-0.236,1.043,0.373,-0.335,0.828,-0.060,-0.338,0.841,997.296,713.934,0.934,930.686,711.986,0.934,1101.349,531.684,1.090,857.531,544.657,1.156,1228.597,325.305,1.072,776.055,325.094,1.043,1387.945,155.503,0.828,891.773,158.279,0.841,-0.024,-0.966,1.402,0.000,-12.146,0.000,0.008,-0.008,-0.035,-0.224,-0.912,1.675
0723_091151_0197.png,0.013,0.188,0.942,-0.051,0.190,0.946,0.119,0.008,1.140,-0.163,-0.001,1.104,0.222,-0.226,1.222,-0.296,-0.219,1.022,0.301,-0.303,0.980,-0.370,-0.348,0.803,972.632,730.004,0.942,909.038,730.794,0.946,1059.531,546.377,1.140,819.210,539.467,1.104,1132.553,363.843,1.222,684.299,336.584,1.022,1252.345,245.817,0.980,521.881,127.853,0.803,-0.034,-0.975,1.404,0.000,-351.394,0.000,0.040,0.003,-0.013,0.050,-0.650,1.328
0723_091151_0198.png,0.026,0.160,0.938,-0.042,0.160,0.933,0.134,-0.010,1.136,-0.171,-0.017,1.109,0.227,-0.253,1.217,-0.292,-0.216,1.250,0.258,-0.286,0.959,-0.351,-0.274,1.001,986.641,702.504,0.938,917.709,702.514,0.933,1072.530,531.323,1.136,813.659,525.717,1.109,1137.002,342.060,1.217,738.171,375.913,1.250,1215.469,256.134,0.959,626.642,279.318,1.001,-0.032,-0.958,1.400,0.000,-353.572,0.000,-0.032,-0.004,0.006,0.303,-0.991,1.396
0723_091151_0199.png,0.065,0.175,0.932,0.000,0.171,0.922,0.177,-0.015,1.075,-0.116,0.001,1.143,0.240,-0.271,1.144,-0.159,-0.219,1.008,0.107,-0.297,0.928,-0.076,-0.333,0.795,1026.396,718.911,0.932,959.808,716.242,0.922,1116.343,526.807,1.075,863.731,540.713,1.143,1159.575,314.942,1.144,810.454,333.605,1.008,1069.967,235.812,0.928,869.612,140.879,0.795,-0.039,-0.969,1.403,0.000,-12.365,0.000,-0.013,-0.010,0.043,0.219,-0.876,1.403
0723_091151_0200.png,0.000,0.152,0.937,-0.066,0.157,0.945,0.116,-0.005,1.154,-0.181,-0.020,1.087,0.188,-0.212,1.004,-0.245,-0.265,1.011,0.154,-0.331,0.774,-0.231,-0.332,0.760,960.256,694.431,0.937,893.268,697.739,0.945,1055.820,536.196,1.154,801.757,522.566,1.087,1138.449,338.918,1.004,729.385,290.292,1.011,1149.189,133.444,0.774,671.657,124.197,0.760,-0.036,-0.968,1.403,0.000,-345.872,0.000,-0.027,0.038,0.013,-0.063,-0.914,1.526
0723_091151_0201.png,0.039,0.185,0.930,-0.027,0.184,0.929,0.160,-0.008,1.098,-0.138,0.000,1.133,0.301,-0.246,1.089,-0.132,-0.179,0.929,0.354,-0.324,0.846,-0.123,-0.354,0.731,1000.191,729.034,0.930,932.063,728.417,0.929,1098.895,532.671,1.098,844.118,539.796,1.133,1222.917,325.321,1.089,825.308,356.597,0.929,1358.368,175.604,0.846,799.461,79.953,0.731,-0.033,-0.963,1.402,0.000,-5.835,0.000,-0.013,-0.037,0.015,-0.045,-0.747,1.479
0723_091151_0202.png,0.016,0.160,0.935,-0.047,0.163,0.940,0.125,-0.010,1.137,-0.157,-0.018,1.105,0.161,-0.181,0.926,-0.297,-0.193,1.249,0.199,-0.349,0.721,-0.385,-0.289,1.026,976.225,703.037,0.935,912.655,704.576,0.940,1064.157,531.437,1.137,824.592,524.826,1.105,1125.621,353.821,0.926,733.602,392.997,1.249,1222.338,80.058,0.721,603.267,271.627,1.026,-0.037,-0.960,1.401,0.000,-352.152,0.000,0.044,0.004,0.012,-0.014,-0.923,1.340
0723_091151_0203.png,0.023,0.168,0.925,-0.043,0.168,0.923,0.131,-0.003,1.126,-0.162,-0.006,1.111,0.180,-0.268,1.193,-0.312,-0.229,1.063,0.169,-0.310,0.934,-0.314,-0.337,0.825,983.260,712.577,0.925,916.207,712.772,0.923,1070.967,537.528,1.126,821.118,534.586,1.111,1103.726,326.126,1.193,680.994,335.390,1.063,1132.072,224.425,0.934,598.488,151.672,0.825,-0.029,-0.963,1.401,0.000,-355.869,0.000,0.010,-0.034,0.010,0.159,-1.116,1.477
0723_091151_0204.png,0.024,0.167,0.935,-0.040,0.167,0.937,0.143,-0.010,1.112,-0.146,-0.006,1.130,0.271,-0.239,1.056,-0.178,-0.210,0.957,0.327,-0.336,0.819,-0.164,-0.360,0.741,984.377,709.899,0.935,919.173,709.840,0.937,1082.737,531.337,1.112,837.493,535.129,1.130,1204.055,324.230,1.056,782.554,331.253,0.957,1339.391,149.607,0.819,750.179,77.859,0.741,-0.028,-0.964,1.402,0.000,-2.660,0.000,0.024,-0.001,0.006,-0.150,-1.002,1.163
0723_091151_0205.png,0.017,0.183,0.933,-0.047,0.185,0.938,0.130,0.001,1.126,-0.156,-0.004,1.103,0.206,-0.209,1.278,-0.152,-0.219,0.950,0.342,-0.274,1.072,-0.076,-0.357,0.749,977.161,726.592,0.933,912.809,727.290,0.938,1069.844,540.708,1.126,825.418,536.194,1.103,1113.438,384.308,1.278,808.148,320.976,0.950,1263.570,297.061,1.072,863.382,86.261,0.749,-0.035,-0.973,1.404,0.000,-354.142,0.000,0.033,-0.003,0.034,-0.064,-0.665,1.477
0723_091151_0206.png,0.007,0.169,0.929,-0.060,0.171,0.930,0.118,0.004,1.138,-0.183,-0.006,1.095,0.144,-0.243,1.037,-0.343,-0.224,1.129,-0.021,-0.320,0.845,-0.425,-0.303,0.894,966.951,713.007,0.929,898.153,714.501,0.930,1058.332,543.216,1.138,801.068,534.872,1.095,1092.259,317.491,1.037,670.763,350.993,1.129,936.884,180.028,0.845,507.209,217.753,0.894,-0.024,-0.972,1.403,0.000,-350.587,0.000,-0.023,-0.003,0.018,0.132,-1.078,1.307
0723_091151_0207.png,0.034,0.170,0.936,-0.034,0.171,0.941,0.167,-0.011,1.101,-0.139,-0.001,1.146,0.133,-0.254,0.980,-0.291,-0.210,1.052,-0.017,-0.335,0.773,-0.362,-0.322,0.820,994.406,713.042,0.936,925.215,712.784,0.941,1104.124,530.383,1.101,844.872,539.383,1.146,1089.393,293.734,0.980,696.811,350.569,1.052,939.143,127.537,0.773,540.173,167.308,0.820,-0.031,-0.965,1.402,0.000,-7.459,0.000,-0.041,0.000,-0.013,-0.319,-0.875,1.388
0723_091151_0208.png,0.012,0.168,0.937,-0.054,0.170,0.939,0.122,0.000,1.143,-0.173,-0.011,1.093,0.235,-0.222,1.237,-0.186,-0.233,0.947,0.286,-0.278,0.990,-0.154,-0.350,0.719,972.280,710.681,0.937,905.323,712.112,0.939,1061.144,540.011,1.143,809.406,530.229,1.093,1141.007,369.404,1.237,773.721,306.434,0.947,1234.906,273.138,0.990,756.847,77.383,0.719,-0.034,-0.971,1.403,0.000,-349.157,0.000,-0.007,0.018,0.020,0.110,-0.835,1.451
0723_091151_0209.png,0.057,0.152,0.934,-0.010,0.148,0.930,0.176,-0.016,1.080,-0.118,0.001,1.152,0.303,-0.243,1.122,-0.102,-0.171,0.941,0.363,-0.299,0.876,-0.083,-0.336,0.735,1018.049,695.085,0.934,950.181,691.239,0.930,1115.143,526.184,1.080,862.598,540.741,1.152,1216.605,333.855,1.122,857.446,367.636,0.941,1353.965,214.813,0.876,852.474,104.982,0.735,-0.034,-0.974,1.404,0.000,-12.960,0.000,-0.022,0.038,0.020,0.002,-1.260,1.229
0723_091151_0210.png,0.015,0.161,0.945,-0.050,0.163,0.949,0.130,-0.012,1.139,-0.165,-0.018,1.111,0.157,-0.185,0.930,-0.218,-0.265,1.025,0.184,-0.354,0.726,-0.070,-0.333,0.819,975.470,701.945,0.945,909.842,703.004,0.949,1068.392,530.354,1.139,819.210,524.812,1.111,1120.722,350.919,0.930,758.041,293.887,1.025,1201.042,77.149,0.726,878.956,153.621,0.819,-0.033,-0.961,1.401,0.000,-353.454,0.000,0.004,0.024,0.002,-0.009,-0.849,1.141
0723_091151_0211.png,0.037,0.168,0.943,-0.026,0.167,0.942,0.152,-0.011,1.110,-0.130,-0.003,1.142,0.250,-0.238,1.207,-0.202,-0.201,0.963,0.136,-0.304,0.976,-0.225,-0.362,0.747,997.617,709.163,0.943,934.062,708.163,0.942,1090.128,530.831,1.110,851.442,537.135,1.142,1157.053,352.217,1.207,760.271,341.897,0.963,1092.427,243.506,0.976,674.132,79.919,0.747,-0.033,-0.965,1.402,0.000,-5.382,0.000,0.043,0.013,-0.018,-0.031,-0.885,1.323
0723_091151_0212.png,0.043,0.154,0.939,-0.024,0.152,0.939,0.168,-0.017,1.098,-0.129,-0.005,1.149,0.304,-0.239,1.151,-0.197,-0.215,0.992,0.386,-0.299,0.907,-0.127,-0.340,0.769,1003.708,695.661,0.939,936.170,694.030,0.939,1105.114,525.159,1.098,853.413,535.658,1.149,1210.855,342.436,1.151,771.419,334.180,0.992,1364.445,226.929,0.907,803.249,119.868,0.769,-0.033,-0.965,1.402,0.000,-8.980,0.000,-0.014,0.028,-0.005,-0.157,-1.114,1.236
0723_091151_0213.png,0.057,0.160,0.940,-0.006,0.155,0.930,0.165,-0.010,1.103,-0.121,-0.001,1.143,0.214,-0.250,0.988,-0.190,-0.199,0.967,0.154,-0.357,0.753,-0.207,-0.355,0.751,1018.187,701.802,0.940,953.973,698.334,0.930,1102.296,531.251,1.103,859.165,539.102,1.143,1166.067,299.833,0.988,772.988,344.338,0.967,1154.246,89.120,0.753,698.143,90.695,0.751,-0.040,-0.968,1.403,0.000,-6.881,0.000,0.026,0.014,-0.008,0.272,-1.096,1.514
0723_091151_0214.png,0.015,0.158,0.927,-0.051,0.159,0.928,0.121,-0.004,1.137,-0.171,-0.013,1.098,0.081,-0.175,0.929,-0.342,-0.221,1.075,0.040,-0.342,0.726,-0.429,-0.323,0.853,974.878,701.968,0.927,907.846,703.459,0.928,1061.248,536.461,1.137,811.614,528.677,1.098,1042.444,360.411,0.929,657.380,344.577,1.075,1012.401,91.866,0.726,482.055,180.270,0.853,-0.030,-0.964,1.402,0.000,-351.136,0.000,0.006,-0.010,0.020,0.150,-1.115,1.540
0723_091151_0215.png,0.043,0.164,0.931,-0.022,0.162,0.927,0.162,-0.021,1.087,-0.130,-0.009,1.142,0.098,-0.193,0.896,-0.109,-0.180,0.937,0.034,-0.360,0.709,-0.087,-0.346,0.736,1004.346,707.537,0.931,937.274,705.711,0.927,1101.490,521.213,1.087,851.905,532.706,1.142,1064.219,334.680,0.896,849.336,357.217,0.937,1005.675,56.863,0.709,848.204,92.570,0.736,-0.029,-0.958,1.400,0.000,-9.846,0.000,0.000,-0.014,0.031,-0.010,-0.861,1.669
0723_091151_0216.png,-0.006,0.172,0.922,-0.070,0.177,0.931,0.104,0.003,1.144,-0.180,-0.010,1.084,0.175,-0.170,0.946,-0.144,-0.193,0.889,0.245,-0.340,0.753,-0.109,-0.371,0.699,953.516,717.280,0.922,888.653,720.441,0.931,1046.123,542.759,1.144,801.916,530.877,1.084,1136.233,368.969,0.946,805.979,334.025,0.889,1269.517,110.793,0.753,812.065,35.744,0.699,-0.027,-0.966,1.402,0.000,-346.650,0.000,0.022,-0.026,0.017,-0.124,-1.049,1.238
0723_091151_0217.png,0.041,0.160,0.938,-0.027,0.159,0.940,0.170,-0.008,1.098,-0.129,0.005,1.152,0.137,-0.248,0.972,-0.127,-0.211,0.982,0.000,-0.341,0.760,-0.054,-0.341,0.756,1001.201,701.831,0.938,932.978,700.484,0.940,1107.289,533.184,1.098,853.650,543.889,1.152,1094.164,297.760,0.972,837.240,335.208,0.982,959.605,113.144,0.760,891.476,110.819,0.756,-0.032,-0.973,1.404,0.000,-9.472,0.000,-0.024,0.032,-0.024,-0.271,-1.134,1.284
0723_091151_0218.png,0.012,0.151,0.936,-0.053,0.154,0.940,0.119,0.003,1.147,-0.169,-0.007,1.104,0.063,-0.176,0.939,-0.224,-0.259,1.034,0.011,-0.351,0.737,-0.060,-0.332,0.839,971.843,693.354,0.936,906.609,696.093,0.940,1058.739,542.393,1.147,814.877,534.085,1.104,1023.704,362.104,0.939,753.797,302.078,1.034,973.803,87.567,0.737,891.571,163.204,0.839,-0.034,-0.974,1.404,0.000,-350.217,0.000,0.020,0.036,-0.017,0.053,-1.275,1.292
0723_091151_0219.png,0.040,0.197,0.936,-0.024,0.197,0.933,0.152,0.003,1.115,-0.138,0.006,1.125,0.177,-0.197,1.310,-0.209,-0.248,1.039,0.244,-0.283,1.066,-0.058,-0.344,0.846,1001.036,740.637,0.936,935.486,740.323,0.933,1089.846,542.791,1.115,842.978,544.768,1.125,1088.561,396.702,1.310,768.949,313.340,1.039,1177.196,287.274,1.066,895.306,152.762,0.846,-0.040,-0.968,1.403,0.000,-0.910,0.000,0.020,-0.041,-0.015,0.115,-0.678,1.359
0723_091151_0220.png,-0.001,0.162,0.922,-0.066,0.166,0.929,0.112,0.000,1.143,-0.179,-0.010,1.099,0.154,-0.177,0.929,-0.187,-0.251,0.968,0.196,-0.350,0.722,-0.067,-0.359,0.757,958.949,707.199,0.922,892.588,710.409,0.929,1053.143,539.948,1.143,805.079,531.330,1.099,1117.632,359.133,0.929,776.342,293.406,0.968,1218.221,79.291,0.722,875.452,89.183,0.757,-0.025,-0.961,1.401,0.000,-350.140,0.000,0.009,-0.033,-0.009,-0.090,-1.191,1.440
0723_091151_0221.png,0.041,0.188,0.934,-0.023,0.187,0.932,0.160,-0.012,1.091,-0.125,0.000,1.142,0.133,-0.195,0.891,-0.107,-0.182,0.935,0.108,-0.374,0.697,-0.091,-0.361,0.735,1001.918,731.779,0.934,936.441,731.176,0.932,1099.510,529.382,1.091,855.946,539.685,1.142,1102.231,332.274,0.891,850.734,354.492,0.935,1107.543,30.593,0.697,842.052,72.640,0.735,-0.031,-0.960,1.401,0.000,-9.303,0.000,0.024,-0.040,0.007,-0.107,-0.655,1.400
0723_091151_0222.png,0.044,0.180,0.939,-0.022,0.177,0.933,0.162,-0.005,1.096,-0.132,0.008,1.152,0.285,-0.237,1.173,-0.163,-0.222,0.997,0.193,-0.307,0.927,-0.087,-0.351,0.771,1005.009,722.715,0.939,937.770,720.446,0.933,1100.825,535.537,1.096,850.864,546.406,1.152,1191.027,347.669,1.173,804.863,328.402,0.997,1157.790,224.912,0.927,852.243,106.815,0.771,-0.026,-0.968,1.403,0.000,-9.896,0.000,-0.010,-0.012,-0.034,0.046,-0.942,1.228
0723_091151_0223.png,0.032,0.170,0.929,-0.033,0.169,0.929,0.152,-0.016,1.094,-0.136,-0.006,1.136,0.203,-0.211,1.280,-0.115,-0.189,0.944,0.339,-0.275,1.071,-0.076,-0.356,0.750,992.689,714.123,0.929,926.662,713.256,0.929,1092.069,526.041,1.094,846.045,534.625,1.136,1110.939,383.168,1.280,843.750,349.730,0.944,1260.679,296.135,1.071,863.070,89.191,0.750,-0.027,-0.961,1.401,0.000,-7.326,0.000,0.019,-0.020,0.030,-0.120,-0.870,1.482
0723_091151_0224.png,0.037,0.174,0.931,-0.029,0.172,0.927,0.149,0.000,1.107,-0.146,0.004,1.126,0.200,-0.206,1.277,-0.101,-0.176,0.930,0.259,-0.275,1.033,-0.056,-0.351,0.738,997.468,717.878,0.931,930.515,716.532,0.927,1088.127,539.940,1.107,836.624,543.687,1.126,1108.966,386.339,1.277,856.893,360.303,0.930,1198.309,286.504,1.033,888.061,87.694,0.738,-0.030,-0.975,1.404,0.000,-2.666,0.000,0.003,-0.005,0.014,0.147,-0.942,1.677
0723_091151_0225.png,0.024,0.177,0.939,-0.041,0.178,0.944,0.151,-0.005,1.109,-0.139,0.003,1.144,0.194,-0.223,0.940,-0.172,-0.182,0.931,0.183,-0.370,0.710,-0.208,-0.363,0.724,984.243,719.327,0.939,918.993,719.312,0.944,1089.528,535.683,1.109,844.281,542.565,1.144,1156.350,314.812,0.940,783.853,353.989,0.931,1204.383,44.240,0.710,686.865,62.778,0.724,-0.026,-0.967,1.402,0.000,-5.947,0.000,0.015,-0.005,-0.036,-0.324,-0.824,1.410
0723_091151_0226.png,0.038,0.185,0.951,-0.028,0.184,0.948,0.156,-0.003,1.115,-0.142,0.004,1.143,0.167,-0.269,1.161,-0.173,-0.179,0.923,0.147,-0.314,0.892,-0.207,-0.358,0.709,998.352,725.157,0.951,931.943,724.507,0.948,1093.210,537.704,1.115,842.017,543.302,1.143,1097.176,319.912,1.161,781.310,355.368,0.923,1117.247,205.113,0.892,682.708,59.919,0.709,-0.031,-0.969,1.403,0.000,-4.527,0.000,-0.009,0.007,-0.044,0.030,-0.624,1.409
0723_091151_0227.png,0.025,0.172,0.930,-0.040,0.174,0.938,0.151,0.003,1.119,-0.142,0.005,1.130,0.281,-0.229,1.057,-0.220,-0.175,0.926,0.351,-0.337,0.821,-0.300,-0.352,0.729,985.133,715.723,0.930,919.470,716.799,0.938,1088.761,542.267,1.119,840.793,544.506,1.130,1212.683,333.787,1.057,733.600,359.810,0.926,1366.585,149.391,0.821,568.922,80.574,0.729,-0.037,-0.972,1.404,0.000,-1.172,0.000,0.012,-0.005,-0.025,-0.308,-1.048,1.414
0723_091151_0228.png,0.009,0.180,0.925,-0.058,0.182,0.931,0.132,-0.004,1.122,-0.168,-0.005,1.114,0.229,-0.224,1.266,-0.191,-0.243,0.984,0.396,-0.273,1.068,-0.056,-0.345,0.784,968.916,724.775,0.925,901.206,725.687,0.931,1071.985,536.857,1.122,816.573,535.463,1.114,1131.730,371.441,1.266,775.299,305.638,0.984,1312.478,296.859,1.068,892.601,121.703,0.784,-0.023,-0.961,1.401,0.000,-357.455,0.000,-0.011,-0.043,0.009,-0.185,-0.910,1.309
