rolosa10/RGSpipe/dataset/synthetic_dataset/Coods3D_unique0722_175549.csv
filename,left_eye,left_eye,left_eye,right_eye,right_eye,right_eye,left_shoulder,left_shoulder,left_shoulder,right_shoulder,right_shoulder,right_shoulder,left_elbow,left_elbow,left_elbow,right_elbow,right_elbow,right_elbow,left_wrist,left_wrist,left_wrist,right_wrist,right_wrist,right_wrist,left_eye_2D,left_eye_2D,left_eye_2D,right_eye_2D,right_eye_2D,right_eye_2D,left_shoulder_2D,left_shoulder_2D,left_shoulder_2D,right_shoulder_2D,right_shoulder_2D,right_shoulder_2D,left_elbow_2D,left_elbow_2D,left_elbow_2D,right_elbow_2D,right_elbow_2D,right_elbow_2D,left_wrist_2D,left_wrist_2D,left_wrist_2D,right_wrist_2D,right_wrist_2D,right_wrist_2D,root_position,root_position,root_position,root_pitch,root_yaw,root_roll,root_scale,root_scale,root_scale,look_at,look_at,look_at
0722_175549_0001.png,0.037,0.180,0.946,-0.028,0.178,0.941,0.149,-0.010,1.114,-0.141,-0.004,1.139,0.147,-0.251,0.977,-0.110,-0.184,0.921,0.012,-0.358,0.771,-0.084,-0.361,0.708,996.711,720.690,0.946,931.819,719.778,0.941,1087.000,531.137,1.114,842.180,536.316,1.139,1103.591,295.458,0.977,845.884,349.840,0.921,975.388,98.661,0.771,847.817,55.760,0.708,-0.029,-0.959,1.401,0.000,-4.077,0.000,0.020,-0.015,-0.027,0.121,-0.743,1.249
0722_175549_0002.png,0.027,0.158,0.934,-0.036,0.157,0.934,0.145,-0.020,1.101,-0.141,-0.012,1.133,0.294,-0.237,1.081,-0.209,-0.248,1.039,0.372,-0.324,0.855,-0.058,-0.330,0.851,987.964,700.382,0.934,923.038,699.620,0.934,1085.261,523.071,1.101,841.752,529.711,1.133,1218.939,331.445,1.081,768.630,312.638,1.039,1373.777,180.190,0.855,895.386,170.741,0.851,-0.025,-0.961,1.401,0.000,-5.371,0.000,0.031,0.008,0.037,-0.103,-1.031,1.197
0722_175549_0003.png,-0.001,0.166,0.924,-0.067,0.170,0.931,0.118,0.002,1.135,-0.180,-0.008,1.095,0.273,-0.212,1.198,-0.277,-0.244,1.014,0.222,-0.291,0.959,-0.213,-0.336,0.784,959.252,710.797,0.924,891.966,713.294,0.931,1058.663,541.259,1.135,803.984,533.386,1.095,1176.998,371.797,1.198,700.351,311.395,1.014,1180.013,251.292,0.959,702.014,132.603,0.784,-0.024,-0.971,1.403,0.000,-351.032,0.000,-0.011,-0.005,0.030,-0.126,-1.065,1.395
0722_175549_0004.png,0.014,0.160,0.944,-0.053,0.161,0.944,0.121,-0.007,1.148,-0.177,-0.018,1.102,0.154,-0.180,0.937,-0.276,-0.199,1.269,0.187,-0.348,0.731,-0.338,-0.269,1.021,974.117,700.994,0.944,906.845,701.987,0.944,1060.064,533.931,1.148,807.402,524.605,1.102,1116.726,356.993,0.937,753.212,390.599,1.269,1202.873,87.078,0.731,645.309,289.826,1.021,-0.031,-0.963,1.401,0.000,-349.865,0.000,-0.015,0.022,-0.004,0.234,-0.906,1.266
0722_175549_0005.png,0.029,0.151,0.928,-0.039,0.151,0.930,0.151,-0.017,1.110,-0.151,-0.014,1.126,0.141,-0.250,0.984,-0.333,-0.203,1.065,-0.019,-0.330,0.796,-0.449,-0.311,0.861,989.238,694.815,0.928,920.614,694.668,0.930,1089.769,525.181,1.110,832.744,528.566,1.126,1096.189,298.588,0.984,662.477,358.949,1.065,937.292,145.322,0.796,464.816,196.774,0.861,-0.031,-0.959,1.401,0.000,-2.004,0.000,-0.019,-0.003,0.030,-0.085,-1.126,1.514
0722_175549_0006.png,0.053,0.172,0.942,-0.013,0.167,0.934,0.170,-0.009,1.096,-0.124,0.006,1.158,0.102,-0.192,0.887,-0.217,-0.168,0.945,0.038,-0.371,0.684,-0.310,-0.338,0.738,1013.367,713.483,0.942,946.294,710.253,0.934,1107.489,532.510,1.096,858.188,544.719,1.158,1069.102,334.215,0.887,741.670,370.551,0.945,1012.436,23.954,0.684,560.953,104.771,0.738,-0.030,-0.966,1.402,0.000,-11.148,0.000,-0.013,0.000,-0.047,0.086,-1.045,1.209
0722_175549_0007.png,0.022,0.177,0.923,-0.043,0.179,0.928,0.147,-0.006,1.107,-0.148,-0.002,1.124,0.151,-0.238,0.972,-0.165,-0.182,0.925,0.037,-0.350,0.768,-0.181,-0.358,0.731,982.911,722.751,0.923,915.762,723.085,0.928,1086.741,534.774,1.107,834.864,538.218,1.124,1107.848,306.741,0.972,789.977,352.624,0.925,1005.995,106.410,0.768,724.598,74.239,0.731,-0.030,-0.963,1.402,0.000,-2.266,0.000,0.003,-0.040,0.021,-0.216,-0.868,1.645
0722_175549_0008.png,0.010,0.180,0.933,-0.054,0.183,0.943,0.135,-0.004,1.130,-0.161,-0.008,1.110,0.247,-0.239,1.052,-0.264,-0.261,1.133,0.194,-0.335,0.814,-0.278,-0.321,0.878,970.683,723.060,0.933,905.053,724.331,0.943,1073.871,536.663,1.130,822.142,532.855,1.110,1183.628,324.144,1.052,738.865,320.657,1.133,1186.686,148.285,0.814,658.885,192.491,0.878,-0.034,-0.963,1.401,0.000,-355.052,0.000,0.000,-0.020,0.005,-0.285,-0.730,1.372
0722_175549_0009.png,0.055,0.154,0.941,-0.011,0.149,0.936,0.175,-0.021,1.087,-0.115,-0.004,1.162,0.281,-0.259,1.139,-0.208,-0.184,0.971,0.158,-0.306,0.905,-0.257,-0.346,0.759,1015.382,695.213,0.941,948.344,691.642,0.936,1113.075,521.643,1.087,866.056,537.084,1.162,1194.804,323.442,1.139,756.490,360.111,0.971,1126.189,218.765,0.905,637.904,106.440,0.759,-0.031,-0.962,1.401,0.000,-13.849,0.000,-0.010,0.023,-0.024,-0.048,-1.012,1.579
0722_175549_0010.png,0.039,0.150,0.934,-0.028,0.148,0.934,0.164,-0.019,1.094,-0.134,-0.006,1.148,0.179,-0.280,1.040,-0.185,-0.226,1.004,-0.016,-0.314,0.865,-0.056,-0.330,0.797,999.730,692.761,0.934,931.489,690.733,0.934,1102.336,523.597,1.094,849.098,534.794,1.148,1123.691,284.167,1.040,784.684,325.634,1.004,942.896,195.008,0.865,892.860,145.776,0.797,-0.027,-0.964,1.402,0.000,-9.515,0.000,-0.020,0.020,0.006,-0.142,-1.188,1.334
0722_175549_0011.png,0.050,0.178,0.920,-0.014,0.175,0.918,0.172,-0.006,1.074,-0.110,0.011,1.148,0.185,-0.279,1.123,-0.159,-0.170,0.947,0.164,-0.331,0.867,-0.207,-0.348,0.752,1012.029,724.385,0.920,945.208,721.452,0.918,1112.171,534.949,1.074,868.826,549.358,1.148,1116.618,303.483,1.123,799.984,368.912,0.947,1139.920,177.336,0.867,697.552,99.470,0.752,-0.034,-0.971,1.403,0.000,-13.898,0.000,0.017,-0.034,0.010,-0.151,-1.181,1.211
0722_175549_0012.png,0.048,0.177,0.929,-0.016,0.175,0.926,0.167,-0.010,1.079,-0.119,0.004,1.141,0.110,-0.194,0.901,-0.289,-0.175,1.250,0.024,-0.358,0.724,-0.356,-0.279,1.030,1009.562,721.503,0.929,943.131,719.910,0.926,1107.243,531.282,1.079,860.361,543.621,1.141,1076.545,335.034,0.901,740.495,406.809,1.250,992.165,70.238,0.724,631.287,281.854,1.030,-0.034,-0.973,1.404,0.000,-11.333,0.000,0.012,-0.005,0.040,-0.070,-0.830,1.537
0722_175549_0013.png,0.015,0.159,0.926,-0.050,0.162,0.934,0.141,-0.011,1.122,-0.155,-0.011,1.119,0.234,-0.247,1.031,-0.276,-0.241,1.202,0.259,-0.341,0.789,-0.319,-0.301,0.952,975.777,702.978,0.926,909.527,704.628,0.934,1079.153,531.028,1.122,828.469,530.469,1.119,1175.448,312.146,1.031,741.627,349.062,1.202,1272.447,129.202,0.789,641.341,239.657,0.952,-0.032,-0.960,1.401,0.000,-358.281,0.000,0.005,-0.015,0.012,-0.274,-1.113,1.370
0722_175549_0014.png,0.001,0.172,0.932,-0.064,0.177,0.941,0.114,0.005,1.151,-0.177,-0.008,1.092,0.243,-0.232,1.181,-0.287,-0.250,1.033,0.135,-0.301,0.947,-0.313,-0.343,0.784,961.319,715.692,0.932,895.469,718.536,0.941,1054.061,544.244,1.151,806.156,532.818,1.092,1155.693,352.858,1.181,695.511,310.021,1.033,1095.621,238.256,0.947,579.992,123.499,0.784,-0.034,-0.968,1.403,0.000,-347.206,0.000,0.001,-0.004,-0.015,-0.083,-0.902,1.420
0722_175549_0015.png,0.013,0.163,0.926,-0.051,0.166,0.932,0.128,-0.003,1.138,-0.163,-0.010,1.106,0.142,-0.253,1.026,-0.247,-0.213,1.274,-0.014,-0.340,0.833,-0.278,-0.288,1.021,973.620,707.120,0.926,907.496,709.481,0.932,1067.023,537.554,1.138,819.452,531.265,1.106,1091.710,305.542,1.026,775.381,380.622,1.274,944.104,151.490,0.833,700.768,271.560,1.021,-0.035,-0.960,1.401,0.000,-352.506,0.000,0.012,-0.025,-0.008,-0.084,-1.081,1.525
0722_175549_0016.png,0.038,0.165,0.938,-0.030,0.163,0.933,0.155,-0.010,1.105,-0.152,-0.003,1.135,0.180,-0.251,0.990,-0.212,-0.247,1.043,0.040,-0.329,0.782,-0.050,-0.315,0.843,998.274,707.466,0.938,929.220,705.761,0.933,1093.258,531.246,1.105,832.979,537.425,1.135,1132.443,299.065,0.990,766.655,314.800,1.043,1008.818,139.634,0.782,903.457,184.263,0.843,-0.026,-0.968,1.403,0.000,-4.729,0.000,-0.037,0.011,0.012,0.138,-0.930,1.556
0722_175549_0017.png,0.021,0.149,0.932,-0.044,0.150,0.934,0.141,-0.010,1.118,-0.152,-0.007,1.132,0.154,-0.276,1.074,-0.308,-0.216,1.064,0.112,-0.335,0.818,-0.330,-0.332,0.826,981.228,692.484,0.932,914.896,692.417,0.934,1079.928,531.548,1.118,831.979,534.482,1.132,1096.491,295.547,1.074,684.756,346.681,1.064,1090.071,150.851,0.818,579.866,157.874,0.826,-0.025,-0.964,1.402,0.000,-1.758,0.000,0.011,0.009,-0.009,-0.106,-1.259,1.466
0722_175549_0018.png,0.037,0.164,0.936,-0.027,0.162,0.931,0.145,-0.008,1.121,-0.145,-0.007,1.125,0.107,-0.189,0.917,-0.235,-0.182,0.930,0.072,-0.365,0.718,-0.324,-0.353,0.741,998.086,706.236,0.936,932.677,705.198,0.931,1083.230,532.924,1.121,837.185,533.789,1.125,1071.348,344.365,0.917,719.772,353.565,0.930,1055.229,56.503,0.718,544.482,86.642,0.741,-0.036,-0.962,1.401,0.000,0.299,0.000,0.021,-0.007,-0.004,0.226,-1.090,1.312
0722_175549_0019.png,0.020,0.153,0.938,-0.047,0.153,0.938,0.135,-0.001,1.136,-0.169,-0.005,1.116,0.086,-0.201,0.956,-0.322,-0.226,1.101,-0.020,-0.339,0.752,-0.237,-0.309,0.863,980.498,694.680,0.938,911.962,695.472,0.938,1073.076,539.300,1.136,815.585,535.364,1.116,1045.539,339.926,0.956,681.478,345.194,1.101,934.958,111.793,0.752,698.624,200.054,0.863,-0.030,-0.974,1.404,0.000,-354.967,0.000,-0.028,0.037,-0.009,0.105,-1.158,1.482
0722_175549_0020.png,-0.001,0.165,0.929,-0.067,0.168,0.933,0.111,0.003,1.141,-0.185,-0.009,1.092,0.209,-0.205,1.007,-0.203,-0.245,0.970,0.246,-0.332,0.785,-0.180,-0.347,0.735,959.071,709.169,0.929,891.442,711.343,0.933,1052.567,542.101,1.141,798.523,532.367,1.092,1157.814,346.321,1.007,761.289,300.089,0.970,1257.771,137.919,0.785,727.440,91.163,0.735,-0.023,-0.972,1.403,0.000,-349.183,0.000,-0.013,0.006,0.022,0.033,-0.971,1.571
0722_175549_0021.png,0.031,0.172,0.950,-0.033,0.171,0.947,0.144,-0.011,1.111,-0.147,-0.006,1.132,0.064,-0.183,0.914,-0.285,-0.196,1.250,-0.014,-0.350,0.721,-0.457,-0.264,1.068,991.305,712.423,0.950,926.476,711.817,0.947,1083.377,530.853,1.111,836.455,535.222,1.132,1026.498,349.976,0.914,743.083,390.825,1.250,941.448,78.639,0.721,552.981,305.039,1.068,-0.026,-0.970,1.403,0.000,-3.206,0.000,0.016,0.033,0.014,0.085,-0.665,1.322
0722_175549_0022.png,0.039,0.165,0.920,-0.026,0.165,0.922,0.163,-0.006,1.103,-0.129,0.002,1.136,0.219,-0.213,0.932,-0.142,-0.211,0.962,0.222,-0.369,0.715,-0.107,-0.361,0.744,1000.057,710.724,0.920,932.799,709.810,0.922,1100.179,535.134,1.103,851.774,541.682,1.136,1183.792,322.256,0.932,819.217,331.362,0.962,1254.992,48.751,0.715,822.838,78.227,0.744,-0.039,-0.962,1.401,0.000,-5.504,0.000,0.010,-0.041,-0.011,-0.161,-1.288,1.422
0722_175549_0023.png,0.055,0.149,0.945,-0.011,0.145,0.940,0.173,-0.026,1.086,-0.116,-0.008,1.162,0.139,-0.287,1.077,-0.302,-0.199,1.188,0.105,-0.326,0.817,-0.418,-0.287,0.965,1014.908,689.968,0.945,948.375,686.599,0.940,1111.874,517.367,1.086,865.412,533.187,1.162,1082.949,286.030,1.077,718.526,380.285,1.188,1081.895,160.692,0.817,548.200,257.239,0.965,-0.030,-0.961,1.401,0.000,-13.975,0.000,-0.008,0.039,-0.011,-0.049,-1.073,1.214
0722_175549_0024.png,0.007,0.167,0.929,-0.055,0.172,0.942,0.127,-0.004,1.137,-0.158,-0.012,1.101,0.055,-0.181,0.947,-0.275,-0.244,1.171,-0.014,-0.354,0.763,-0.324,-0.315,0.926,967.186,710.734,0.929,904.172,713.452,0.942,1065.860,537.036,1.137,823.543,529.887,1.101,1015.190,358.599,0.947,736.267,342.055,1.171,942.791,98.609,0.763,627.532,216.920,0.926,-0.039,-0.965,1.402,0.000,-351.525,0.000,0.034,-0.002,0.015,-0.320,-0.919,1.352
0722_175549_0025.png,0.016,0.191,0.940,-0.051,0.192,0.941,0.131,0.004,1.130,-0.168,0.002,1.121,0.249,-0.245,1.108,-0.201,-0.183,0.910,0.130,-0.324,0.878,-0.234,-0.364,0.705,975.934,733.428,0.940,908.932,733.617,0.941,1069.984,543.537,1.130,817.339,541.759,1.121,1173.714,329.627,1.108,750.370,348.303,0.910,1100.789,189.669,0.878,644.574,48.152,0.705,-0.024,-0.968,1.402,0.000,-357.005,0.000,-0.007,-0.024,-0.033,0.054,-0.741,1.177
0722_175549_0026.png,0.045,0.187,0.929,-0.019,0.185,0.926,0.163,-0.005,1.085,-0.117,0.010,1.147,0.132,-0.266,1.002,-0.240,-0.229,1.209,-0.018,-0.356,0.804,-0.255,-0.313,0.958,1006.228,731.712,0.929,940.914,729.883,0.926,1103.354,535.792,1.085,863.420,548.012,1.147,1085.119,287.465,1.002,771.588,360.209,1.209,938.605,118.513,0.804,706.743,229.176,0.958,-0.031,-0.969,1.403,0.000,-11.817,0.000,0.032,-0.035,-0.009,-0.108,-0.967,1.082
0722_175549_0027.png,0.019,0.171,0.927,-0.045,0.173,0.931,0.140,-0.001,1.117,-0.152,0.000,1.121,0.233,-0.207,1.272,-0.201,-0.232,0.991,0.360,-0.280,1.055,-0.094,-0.350,0.783,979.531,715.906,0.927,913.604,716.620,0.931,1079.095,538.865,1.117,831.318,539.775,1.121,1134.410,385.068,1.272,767.519,317.354,0.991,1284.807,287.681,1.055,845.921,115.484,0.783,-0.030,-0.969,1.403,0.000,0.237,0.000,0.018,-0.017,0.005,-0.162,-0.976,1.592
0722_175549_0028.png,0.017,0.151,0.946,-0.050,0.152,0.946,0.124,-0.008,1.147,-0.171,-0.017,1.107,0.058,-0.177,0.934,-0.298,-0.198,1.247,-0.006,-0.341,0.727,-0.446,-0.264,1.037,976.713,691.694,0.946,910.234,692.873,0.946,1062.992,533.396,1.147,812.765,525.353,1.107,1019.304,359.879,0.934,732.881,388.819,1.247,952.747,93.672,0.727,551.191,298.044,1.037,-0.033,-0.966,1.402,0.000,-351.012,0.000,-0.005,0.044,-0.007,0.197,-1.046,1.180
0722_175549_0029.png,0.017,0.177,0.945,-0.049,0.178,0.948,0.134,0.004,1.136,-0.164,0.001,1.123,0.127,-0.231,0.987,-0.317,-0.214,1.053,-0.014,-0.344,0.785,-0.399,-0.331,0.821,976.779,718.088,0.945,910.563,718.763,0.948,1071.960,543.561,1.136,821.221,541.245,1.123,1082.229,317.793,0.987,674.033,347.015,1.053,942.872,123.006,0.785,498.166,156.494,0.821,-0.029,-0.973,1.404,0.000,-356.437,0.000,-0.003,0.018,-0.041,-0.022,-0.745,1.573
0722_175549_0030.png,0.055,0.160,0.931,-0.013,0.158,0.931,0.182,-0.018,1.073,-0.115,0.001,1.155,0.171,-0.284,1.078,-0.247,-0.223,1.225,0.152,-0.315,0.822,-0.220,-0.275,0.971,1016.080,703.778,0.931,946.698,701.320,0.931,1121.124,523.885,1.073,865.723,540.548,1.155,1111.245,289.855,1.078,768.533,366.770,1.225,1136.171,175.033,0.822,744.555,270.546,0.971,-0.035,-0.969,1.403,0.000,-14.686,0.000,-0.038,0.017,0.019,-0.219,-1.049,1.353
0722_175549_0031.png,0.034,0.185,0.940,-0.031,0.184,0.939,0.152,-0.008,1.115,-0.145,-0.005,1.129,0.229,-0.227,1.267,-0.127,-0.186,0.917,0.365,-0.279,1.045,-0.110,-0.362,0.711,994.774,726.752,0.940,928.122,726.600,0.939,1089.719,532.986,1.115,838.227,535.757,1.129,1131.701,369.361,1.267,828.219,347.641,0.917,1292.096,285.786,1.045,812.273,56.069,0.711,-0.035,-0.960,1.401,0.000,-1.574,0.000,-0.001,-0.026,-0.008,-0.003,-0.657,1.370
0722_175549_0032.png,0.031,0.160,0.946,-0.035,0.160,0.948,0.153,-0.009,1.119,-0.142,-0.004,1.143,0.293,-0.229,1.169,-0.153,-0.217,0.965,0.388,-0.300,0.926,-0.080,-0.355,0.741,991.346,700.677,0.946,925.283,700.349,0.948,1090.373,532.167,1.119,841.458,536.965,1.143,1198.778,354.010,1.169,808.872,325.641,0.965,1358.869,232.022,0.926,857.583,84.882,0.741,-0.031,-0.967,1.402,0.000,-3.630,0.000,0.000,0.032,-0.037,-0.117,-0.864,1.638
0722_175549_0033.png,0.012,0.180,0.939,-0.055,0.182,0.945,0.136,0.001,1.130,-0.168,-0.003,1.113,0.228,-0.208,1.274,-0.341,-0.211,1.076,0.385,-0.259,1.067,-0.439,-0.313,0.852,972.656,722.442,0.939,904.998,723.317,0.945,1074.166,540.501,1.130,816.310,537.276,1.113,1129.862,384.619,1.274,658.534,353.582,1.076,1303.051,309.208,1.067,470.473,190.383,0.852,-0.029,-0.971,1.403,0.000,-355.644,0.000,-0.025,0.004,0.001,-0.141,-0.757,1.228
0722_175549_0034.png,0.008,0.158,0.941,-0.056,0.161,0.947,0.122,-0.002,1.141,-0.166,-0.009,1.111,0.174,-0.203,0.963,-0.323,-0.177,1.236,0.179,-0.355,0.743,-0.301,-0.287,0.994,968.300,699.199,0.941,904.031,701.275,0.947,1061.520,538.250,1.141,817.678,532.274,1.111,1131.586,339.538,0.963,711.166,403.922,1.236,1189.188,85.677,0.743,671.698,265.628,0.994,-0.031,-0.971,1.403,0.000,-352.702,0.000,0.024,0.039,-0.011,-0.091,-1.059,1.151
0722_175549_0035.png,0.047,0.146,0.943,-0.017,0.140,0.935,0.159,-0.021,1.094,-0.121,-0.006,1.159,0.240,-0.259,1.170,-0.260,-0.233,1.170,0.245,-0.313,0.907,-0.295,-0.313,0.915,1007.333,686.977,0.943,943.144,682.232,0.935,1098.252,521.583,1.094,860.445,534.824,1.159,1155.379,329.208,1.170,748.525,350.698,1.170,1216.359,212.193,0.907,653.079,214.789,0.915,-0.024,-0.961,1.401,0.000,-12.162,0.000,0.030,0.031,-0.026,0.106,-1.141,1.593
0722_175549_0036.png,-0.007,0.174,0.919,-0.070,0.178,0.927,0.104,0.004,1.140,-0.181,-0.009,1.086,0.223,-0.241,1.133,-0.262,-0.266,1.156,0.107,-0.317,0.916,-0.268,-0.322,0.903,953.147,719.970,0.919,887.865,722.907,0.927,1046.560,543.214,1.140,801.167,532.497,1.086,1147.563,337.649,1.133,744.551,321.445,1.156,1070.574,210.437,0.916,677.962,200.965,0.903,-0.024,-0.966,1.402,0.000,-347.823,0.000,0.021,-0.036,0.022,-0.116,-1.090,1.220
0722_175549_0037.png,0.042,0.193,0.928,-0.025,0.192,0.927,0.163,0.003,1.098,-0.135,0.011,1.135,0.209,-0.208,1.278,-0.204,-0.172,0.938,0.366,-0.272,1.074,-0.270,-0.351,0.747,1002.588,738.018,0.928,934.464,737.191,0.927,1101.083,542.447,1.098,847.173,549.434,1.135,1115.647,385.271,1.278,753.626,365.920,0.938,1284.497,298.729,1.074,615.857,93.879,0.747,-0.035,-0.972,1.404,0.000,-6.037,0.000,-0.010,-0.039,-0.005,-0.060,-0.895,1.180
0722_175549_0038.png,-0.009,0.128,0.937,-0.073,0.136,0.949,0.106,-0.013,1.159,-0.180,-0.027,1.099,0.073,-0.181,0.936,-0.236,-0.272,1.007,0.043,-0.345,0.718,-0.078,-0.336,0.803,950.925,670.370,0.937,887.157,676.276,0.949,1047.134,529.096,1.159,803.978,516.446,1.099,1034.080,355.713,0.936,736.808,283.062,1.007,1016.515,82.573,0.718,867.315,141.514,0.803,-0.031,-0.957,1.400,0.000,-346.591,0.000,0.013,0.045,-0.018,-0.221,-1.205,1.561
0722_175549_0039.png,0.013,0.160,0.947,-0.054,0.163,0.953,0.135,-0.012,1.138,-0.166,-0.017,1.116,0.259,-0.241,1.069,-0.288,-0.217,1.241,0.292,-0.322,0.819,-0.387,-0.274,1.002,973.142,700.881,0.947,906.520,702.185,0.953,1073.111,529.744,1.138,818.203,525.278,1.116,1190.734,325.514,1.069,739.351,373.839,1.241,1299.115,166.534,0.819,592.987,279.956,1.002,-0.033,-0.961,1.401,0.000,-354.592,0.000,-0.019,0.030,-0.006,-0.145,-0.802,1.205
0722_175549_0040.png,-0.009,0.172,0.922,-0.073,0.178,0.933,0.099,0.009,1.150,-0.182,-0.005,1.087,0.130,-0.169,0.936,-0.322,-0.198,1.223,0.163,-0.344,0.728,-0.325,-0.306,0.980,950.248,717.226,0.922,886.069,721.384,0.933,1041.717,547.760,1.150,800.819,535.530,1.087,1092.165,368.082,0.936,709.709,386.365,1.223,1172.576,90.139,0.728,644.435,242.885,0.980,-0.027,-0.970,1.403,0.000,-345.848,0.000,0.030,-0.024,-0.011,-0.154,-1.131,1.267
0722_175549_0041.png,0.014,0.157,0.939,-0.053,0.158,0.939,0.126,-0.016,1.133,-0.175,-0.023,1.103,0.272,-0.239,1.157,-0.305,-0.254,1.139,0.327,-0.294,0.916,-0.168,-0.292,0.926,974.571,699.395,0.939,906.689,699.915,0.939,1066.024,526.708,1.133,809.425,520.425,1.103,1183.886,343.628,1.157,705.246,328.072,1.139,1299.464,234.333,0.916,787.854,240.156,0.926,-0.027,-0.959,1.401,0.000,-353.010,0.000,-0.019,0.015,0.040,0.148,-0.837,1.407
0722_175549_0042.png,0.009,0.187,0.931,-0.057,0.189,0.939,0.133,0.003,1.128,-0.166,0.000,1.116,0.071,-0.177,0.919,-0.316,-0.232,1.135,0.011,-0.352,0.716,-0.219,-0.317,0.901,968.745,730.702,0.931,901.884,731.825,0.939,1072.391,542.730,1.128,818.336,540.385,1.116,1033.682,357.367,0.919,695.280,345.930,1.135,974.733,72.148,0.716,729.284,205.506,0.901,-0.027,-0.966,1.402,0.000,-356.448,0.000,-0.010,-0.033,-0.018,-0.238,-0.795,1.370
0722_175549_0043.png,0.025,0.160,0.947,-0.041,0.160,0.947,0.142,-0.013,1.121,-0.155,-0.011,1.129,0.233,-0.211,1.268,-0.252,-0.177,1.310,0.398,-0.258,1.068,-0.294,-0.258,1.064,984.662,701.065,0.947,918.384,700.994,0.947,1080.791,528.722,1.121,829.265,530.369,1.129,1134.741,381.583,1.268,777.413,411.791,1.310,1313.999,310.201,1.068,697.003,309.600,1.064,-0.028,-0.965,1.402,0.000,-0.426,0.000,-0.003,0.034,0.002,-0.014,-0.808,1.417
0722_175549_0044.png,0.032,0.188,0.940,-0.035,0.187,0.938,0.152,-0.004,1.105,-0.147,0.004,1.138,0.279,-0.246,1.074,-0.172,-0.218,0.978,0.328,-0.328,0.825,-0.160,-0.352,0.747,991.949,729.816,0.940,924.273,729.247,0.938,1091.182,536.339,1.105,837.074,542.961,1.138,1207.316,322.189,1.074,792.397,327.884,0.978,1337.805,161.337,0.825,756.035,91.764,0.747,-0.025,-0.968,1.402,0.000,-5.457,0.000,-0.015,-0.017,-0.012,-0.049,-0.739,1.190
0722_175549_0045.png,0.028,0.170,0.939,-0.035,0.170,0.941,0.145,-0.013,1.116,-0.139,-0.009,1.134,0.090,-0.189,0.905,-0.290,-0.195,1.254,0.039,-0.363,0.699,-0.400,-0.292,1.032,988.624,712.162,0.939,924.853,712.101,0.941,1083.658,528.856,1.116,843.516,532.428,1.134,1054.436,341.022,0.905,739.683,391.995,1.254,1013.600,46.172,0.699,591.702,271.453,1.032,-0.032,-0.958,1.400,0.000,-2.473,0.000,0.041,-0.010,-0.013,-0.118,-0.828,1.335
0722_175549_0046.png,0.051,0.167,0.928,-0.015,0.164,0.923,0.167,-0.014,1.085,-0.129,-0.002,1.137,0.223,-0.244,0.969,-0.310,-0.201,1.131,0.184,-0.342,0.741,-0.408,-0.296,0.919,1012.358,711.081,0.928,944.393,708.672,0.923,1106.771,528.149,1.085,852.010,538.637,1.137,1178.367,300.507,0.969,699.079,371.176,1.131,1196.750,100.225,0.741,537.513,233.345,0.919,-0.035,-0.968,1.403,0.000,-8.980,0.000,-0.015,-0.007,0.044,0.101,-1.136,1.141
0722_175549_0047.png,0.042,0.158,0.944,-0.023,0.155,0.938,0.153,-0.019,1.104,-0.141,-0.012,1.133,0.216,-0.258,1.019,-0.249,-0.232,1.228,0.089,-0.327,0.808,-0.234,-0.280,0.979,1002.124,698.707,0.944,936.304,697.158,0.938,1092.126,523.911,1.104,841.708,530.019,1.133,1161.955,299.175,1.019,767.100,360.706,1.228,1065.321,155.586,0.808,732.836,268.324,0.979,-0.031,-0.966,1.402,0.000,-4.702,0.000,0.004,0.034,0.037,0.175,-0.845,1.496
0722_175549_0048.png,0.013,0.178,0.926,-0.051,0.180,0.932,0.132,-0.006,1.116,-0.156,-0.006,1.115,0.068,-0.185,0.928,-0.289,-0.240,1.085,0.006,-0.360,0.745,-0.319,-0.334,0.848,973.465,722.827,0.926,908.331,723.474,0.932,1072.663,534.993,1.116,826.658,534.906,1.115,1029.985,350.402,0.928,706.570,330.051,1.085,967.432,80.120,0.745,602.528,165.183,0.848,-0.026,-0.963,1.401,0.000,-358.739,0.000,0.028,-0.032,0.025,-0.167,-0.794,1.576
0722_175549_0049.png,-0.009,0.175,0.923,-0.075,0.180,0.935,0.120,-0.001,1.136,-0.183,-0.010,1.093,0.135,-0.241,1.019,-0.224,-0.273,1.036,0.104,-0.335,0.780,-0.054,-0.322,0.844,950.582,720.442,0.923,883.689,723.038,0.935,1060.031,539.507,1.136,800.917,530.929,1.093,1086.300,315.141,1.019,754.148,289.362,1.036,1086.692,131.644,0.780,899.012,177.439,0.844,-0.025,-0.964,1.402,0.000,-350.562,0.000,-0.029,-0.029,0.025,-0.352,-0.889,1.399
0722_175549_0050.png,0.019,0.164,0.939,-0.048,0.166,0.945,0.141,-0.001,1.136,-0.160,-0.005,1.118,0.171,-0.255,1.045,-0.137,-0.185,0.906,-0.014,-0.319,0.862,-0.116,-0.360,0.698,978.908,705.709,0.939,911.912,707.441,0.945,1078.342,539.302,1.136,824.206,535.838,1.118,1115.880,308.026,1.045,815.656,345.631,0.906,944.058,188.318,0.862,801.480,49.361,0.698,-0.037,-0.970,1.403,0.000,-355.382,0.000,-0.016,0.021,-0.022,-0.158,-1.002,1.299
0722_175549_0051.png,0.011,0.166,0.933,-0.055,0.169,0.935,0.111,0.010,1.155,-0.178,-0.005,1.093,0.172,-0.225,1.023,-0.284,-0.247,1.031,0.076,-0.343,0.801,-0.185,-0.342,0.797,970.856,709.082,0.933,904.121,711.688,0.935,1051.393,548.002,1.155,805.375,535.948,1.093,1119.918,330.705,1.023,697.667,312.202,1.031,1050.356,133.031,0.801,739.756,132.751,0.797,-0.035,-0.973,1.404,0.000,-346.293,0.000,0.004,0.007,-0.031,0.214,-1.059,1.511
0722_175549_0052.png,0.032,0.180,0.930,-0.036,0.180,0.933,0.161,-0.003,1.097,-0.140,0.008,1.145,0.230,-0.269,1.064,-0.194,-0.233,1.021,0.065,-0.323,0.858,-0.184,-0.343,0.776,992.381,724.289,0.930,923.431,723.457,0.933,1099.824,537.174,1.097,844.132,546.620,1.145,1165.394,299.451,1.064,779.017,323.345,1.021,1031.927,182.137,0.858,733.905,119.203,0.776,-0.026,-0.969,1.403,0.000,-8.293,0.000,-0.027,-0.022,-0.021,-0.250,-0.928,1.424
0722_175549_0053.png,0.039,0.169,0.930,-0.026,0.166,0.928,0.161,-0.004,1.098,-0.127,0.008,1.152,0.094,-0.191,0.892,-0.278,-0.187,1.267,0.032,-0.373,0.691,-0.264,-0.291,1.014,1000.349,712.435,0.930,933.767,709.771,0.928,1099.045,536.222,1.098,854.799,546.576,1.152,1059.728,336.857,0.892,751.022,399.350,1.267,1003.784,26.005,0.691,712.841,266.922,1.014,-0.028,-0.967,1.402,0.000,-9.648,0.000,0.013,-0.020,-0.043,-0.084,-1.179,1.455
0722_175549_0054.png,0.030,0.181,0.934,-0.037,0.179,0.930,0.141,0.002,1.126,-0.160,0.001,1.122,0.293,-0.229,1.125,-0.272,-0.214,1.256,0.385,-0.316,0.887,-0.308,-0.287,1.000,990.150,723.869,0.934,922.200,723.409,0.930,1079.042,541.560,1.126,824.287,540.816,1.122,1207.516,345.926,1.125,754.142,377.870,1.256,1372.804,201.047,0.887,666.648,266.745,1.000,-0.030,-0.966,1.402,0.000,-358.075,0.000,-0.014,-0.028,-0.023,0.195,-0.860,1.635
0722_175549_0055.png,0.041,0.158,0.937,-0.024,0.157,0.940,0.171,-0.014,1.095,-0.119,0.000,1.155,0.226,-0.276,1.097,-0.178,-0.178,0.947,0.074,-0.317,0.880,-0.238,-0.352,0.745,1001.818,700.152,0.937,935.320,698.945,0.940,1108.306,527.923,1.095,862.122,539.943,1.155,1156.035,300.625,1.097,780.949,360.822,0.947,1040.539,197.440,0.880,655.984,90.401,0.745,-0.034,-0.966,1.402,0.000,-10.869,0.000,0.003,0.019,-0.026,-0.349,-1.071,1.397
0722_175549_0056.png,0.060,0.163,0.952,-0.006,0.160,0.947,0.177,-0.024,1.081,-0.110,-0.006,1.160,0.246,-0.266,1.143,-0.159,-0.220,1.008,0.246,-0.303,0.885,-0.081,-0.336,0.785,1019.467,702.809,0.952,953.694,701.116,0.947,1115.608,519.012,1.081,869.657,535.258,1.160,1164.843,318.775,1.143,809.821,331.929,1.008,1224.506,214.381,0.885,862.090,132.680,0.785,-0.034,-0.966,1.402,0.000,-14.534,0.000,-0.004,0.046,0.004,-0.068,-0.649,1.482
0722_175549_0057.png,0.013,0.182,0.936,-0.052,0.184,0.937,0.119,0.004,1.144,-0.172,-0.005,1.103,0.260,-0.229,1.187,-0.277,-0.260,1.091,0.353,-0.308,0.947,-0.139,-0.329,0.871,973.187,725.481,0.936,906.872,726.478,0.937,1059.033,543.295,1.144,811.349,535.331,1.103,1167.990,356.822,1.187,718.329,313.294,1.091,1314.772,230.346,0.947,808.758,181.318,0.871,-0.031,-0.965,1.402,0.000,-350.654,0.000,0.008,-0.025,-0.025,0.162,-0.876,1.150
0722_175549_0058.png,0.005,0.147,0.930,-0.063,0.151,0.937,0.125,-0.006,1.146,-0.179,-0.015,1.107,0.057,-0.179,0.936,-0.252,-0.272,1.049,-0.011,-0.346,0.731,-0.063,-0.317,0.862,964.617,690.450,0.930,896.005,693.763,0.937,1064.045,534.847,1.146,806.104,526.984,1.107,1017.536,358.643,0.936,731.885,293.411,1.049,945.483,90.631,0.731,890.697,190.399,0.862,-0.029,-0.960,1.401,0.000,-351.360,0.000,-0.034,0.002,-0.018,-0.103,-1.163,1.648
0722_175549_0059.png,0.037,0.154,0.943,-0.027,0.151,0.937,0.149,-0.023,1.102,-0.142,-0.015,1.138,0.089,-0.223,0.940,-0.215,-0.264,1.093,-0.018,-0.349,0.742,-0.186,-0.322,0.845,997.499,695.474,0.943,932.279,693.647,0.937,1088.305,519.798,1.102,841.531,527.420,1.138,1050.087,314.171,0.940,772.598,310.109,1.093,937.451,92.694,0.742,750.678,177.264,0.845,-0.025,-0.960,1.401,0.000,-6.144,0.000,0.014,0.024,0.027,0.142,-0.839,1.611
0722_175549_0060.png,0.015,0.162,0.932,-0.053,0.165,0.941,0.149,-0.007,1.113,-0.159,-0.004,1.125,0.203,-0.200,1.288,-0.265,-0.237,1.046,0.342,-0.249,1.071,-0.141,-0.315,0.829,975.310,705.368,0.932,906.566,706.548,0.941,1087.500,533.820,1.113,825.335,536.327,1.125,1109.583,392.655,1.288,719.306,324.836,1.046,1263.900,319.377,1.071,798.062,178.426,0.829,-0.027,-0.971,1.403,0.000,-1.218,0.000,-0.040,0.019,0.021,-0.356,-0.989,1.399
0722_175549_0061.png,0.015,0.163,0.931,-0.053,0.165,0.934,0.132,0.002,1.137,-0.173,-0.006,1.103,0.189,-0.181,0.946,-0.325,-0.229,1.070,0.193,-0.342,0.738,-0.382,-0.315,0.829,975.311,706.314,0.931,906.047,707.974,0.934,1070.438,541.390,1.137,810.381,534.783,1.103,1149.512,357.773,0.946,671.408,336.169,1.070,1208.365,99.760,0.738,521.434,178.708,0.829,-0.032,-0.972,1.404,0.000,-352.397,0.000,-0.035,0.011,0.010,0.037,-1.179,1.145
0722_175549_0062.png,0.021,0.190,0.924,-0.045,0.190,0.923,0.126,0.010,1.133,-0.169,0.001,1.093,0.188,-0.170,0.936,-0.152,-0.185,0.898,0.246,-0.345,0.743,-0.133,-0.366,0.708,981.407,735.565,0.924,913.335,736.274,0.923,1065.597,548.191,1.133,812.531,540.450,1.093,1150.670,367.610,0.936,799.461,344.257,0.898,1275.043,98.755,0.743,781.987,49.026,0.708,-0.034,-0.972,1.403,0.000,-350.872,0.000,-0.004,-0.045,0.016,0.233,-0.836,1.567
0722_175549_0063.png,0.045,0.159,0.931,-0.020,0.155,0.924,0.156,-0.017,1.093,-0.138,-0.008,1.133,0.069,-0.185,0.912,-0.253,-0.217,1.260,-0.018,-0.347,0.736,-0.269,-0.276,1.015,1005.753,702.290,0.931,939.096,699.619,0.924,1095.739,525.069,1.093,844.210,533.378,1.133,1032.109,347.135,0.912,769.423,375.983,1.260,936.165,91.020,0.736,707.571,281.805,1.015,-0.029,-0.964,1.402,0.000,-6.841,0.000,0.000,0.000,0.045,0.214,-1.088,1.425
0722_175549_0064.png,0.051,0.163,0.946,-0.016,0.161,0.941,0.172,-0.019,1.093,-0.130,-0.005,1.154,0.211,-0.278,1.039,-0.235,-0.223,1.031,0.037,-0.316,0.840,-0.128,-0.324,0.807,1011.681,704.154,0.946,943.348,702.159,0.941,1109.390,523.774,1.093,852.968,536.115,1.154,1152.925,285.114,1.039,743.238,334.234,1.031,1002.099,181.740,0.840,809.610,157.542,0.807,-0.031,-0.964,1.402,0.000,-10.489,0.000,-0.037,0.025,-0.010,0.014,-0.784,1.563
0722_175549_0065.png,0.030,0.160,0.932,-0.033,0.161,0.937,0.154,-0.017,1.104,-0.132,-0.011,1.133,0.274,-0.249,1.050,-0.206,-0.182,0.936,0.324,-0.338,0.814,-0.278,-0.349,0.744,991.039,703.196,0.932,926.362,703.275,0.937,1092.643,524.962,1.104,849.222,531.074,1.133,1207.752,314.485,1.050,750.802,355.460,0.936,1338.079,145.441,0.814,604.407,94.406,0.744,-0.035,-0.961,1.401,0.000,-4.903,0.000,0.031,0.002,0.023,-0.288,-1.009,1.220
0722_175549_0066.png,0.037,0.184,0.939,-0.031,0.184,0.941,0.164,-0.008,1.109,-0.145,-0.002,1.133,0.161,-0.270,1.034,-0.237,-0.188,0.955,-0.017,-0.319,0.840,-0.265,-0.343,0.742,997.845,725.871,0.939,928.352,725.803,0.941,1101.000,533.328,1.109,838.573,538.286,1.133,1107.602,291.733,1.034,724.018,352.745,0.955,940.305,178.787,0.840,619.566,99.921,0.742,-0.036,-0.964,1.402,0.000,-3.563,0.000,-0.044,-0.014,-0.002,-0.130,-0.655,1.386
0722_175549_0067.png,0.025,0.184,0.931,-0.040,0.184,0.929,0.134,0.005,1.126,-0.157,0.004,1.119,0.178,-0.180,0.915,-0.145,-0.186,0.915,0.225,-0.361,0.712,-0.136,-0.373,0.717,985.207,728.285,0.931,919.371,728.180,0.929,1073.024,544.330,1.126,826.778,543.122,1.119,1145.426,353.026,0.915,809.099,346.226,0.915,1259.996,57.321,0.712,779.079,45.393,0.717,-0.029,-0.968,1.403,0.000,-357.549,0.000,0.021,-0.034,-0.022,0.144,-0.955,1.341
0722_175549_0068.png,-0.005,0.161,0.934,-0.073,0.165,0.940,0.114,-0.004,1.148,-0.190,-0.016,1.094,0.131,-0.240,1.019,-0.167,-0.278,1.036,0.098,-0.332,0.775,-0.102,-0.326,0.786,954.814,704.055,0.934,886.413,706.585,0.940,1054.152,536.848,1.148,795.059,526.033,1.094,1082.526,316.458,1.019,806.693,285.083,1.036,1080.193,132.028,0.775,836.927,145.311,0.786,-0.024,-0.964,1.402,0.000,-348.597,0.000,-0.039,0.007,0.004,-0.062,-0.851,1.688
0722_175549_0069.png,0.044,0.168,0.924,-0.020,0.166,0.923,0.166,-0.018,1.073,-0.110,0.000,1.151,0.119,-0.271,0.990,-0.254,-0.228,1.143,-0.018,-0.354,0.787,-0.313,-0.321,0.908,1004.972,713.375,0.924,939.243,710.882,0.923,1107.313,524.368,1.073,868.974,540.226,1.151,1074.421,279.792,0.990,748.327,350.058,1.143,937.699,111.974,0.787,631.809,203.227,0.908,-0.030,-0.962,1.401,0.000,-14.968,0.000,0.031,-0.027,0.016,-0.256,-1.114,1.233
0722_175549_0070.png,0.054,0.170,0.931,-0.011,0.165,0.923,0.167,-0.006,1.094,-0.126,0.005,1.141,0.177,-0.192,1.294,-0.209,-0.236,1.048,0.225,-0.273,1.048,-0.057,-0.329,0.853,1015.415,713.536,0.931,948.607,710.249,0.923,1105.237,534.874,1.094,854.876,544.188,1.141,1089.802,398.961,1.294,770.642,325.833,1.048,1163.995,292.485,1.048,895.968,173.314,0.853,-0.036,-0.970,1.403,0.000,-8.270,0.000,-0.001,-0.013,0.001,0.195,-1.145,1.408
0722_175549_0071.png,0.017,0.171,0.934,-0.046,0.173,0.940,0.133,-0.007,1.120,-0.152,-0.008,1.114,0.175,-0.249,1.021,-0.262,-0.242,1.058,0.046,-0.342,0.821,-0.149,-0.333,0.847,976.972,714.180,0.934,913.147,714.968,0.940,1073.101,534.138,1.120,830.446,533.003,1.114,1122.706,308.201,1.021,724.796,321.991,1.058,1013.616,143.904,0.821,792.453,165.720,0.847,-0.031,-0.968,1.403,0.000,-357.665,0.000,0.040,0.005,0.029,-0.166,-0.877,1.152
0722_175549_0072.png,0.014,0.159,0.946,-0.051,0.161,0.949,0.123,-0.006,1.146,-0.168,-0.015,1.105,0.073,-0.180,0.941,-0.168,-0.226,0.936,0.025,-0.351,0.742,-0.135,-0.358,0.709,974.266,700.121,0.946,908.983,701.478,0.949,1062.140,535.396,1.146,815.430,527.112,1.105,1033.430,357.707,0.941,789.519,310.190,0.936,991.515,90.403,0.742,778.909,59.865,0.709,-0.035,-0.968,1.403,0.000,-350.601,0.000,0.010,0.042,-0.002,0.097,-0.866,1.267
0722_175549_0073.png,0.049,0.143,0.939,-0.018,0.140,0.935,0.169,-0.019,1.101,-0.134,-0.008,1.147,0.277,-0.249,1.013,-0.317,-0.206,1.168,0.297,-0.331,0.763,-0.191,-0.286,0.947,1009.998,685.093,0.939,941.323,682.273,0.935,1106.152,523.676,1.101,848.863,533.066,1.147,1219.835,306.161,1.013,701.980,371.991,1.168,1330.299,127.861,0.763,768.309,252.387,0.947,-0.034,-0.964,1.402,0.000,-7.648,0.000,-0.034,0.035,0.000,0.059,-1.212,1.474
0722_175549_0074.png,0.011,0.150,0.933,-0.053,0.153,0.938,0.118,-0.010,1.145,-0.167,-0.023,1.092,0.265,-0.219,1.078,-0.283,-0.217,1.229,0.301,-0.324,0.846,-0.394,-0.284,1.007,970.900,692.701,0.933,905.990,695.295,0.938,1057.814,531.400,1.145,814.450,520.378,1.092,1193.687,346.670,1.078,740.766,371.980,1.229,1298.537,175.963,0.846,588.300,271.716,1.007,-0.038,-0.961,1.401,0.000,-348.027,0.000,0.023,0.019,0.026,0.029,-0.999,1.498
0722_175549_0075.png,0.050,0.167,0.937,-0.015,0.163,0.931,0.165,-0.011,1.099,-0.124,0.001,1.149,0.213,-0.278,1.071,-0.184,-0.175,0.934,0.058,-0.329,0.858,-0.245,-0.347,0.725,1011.174,709.231,0.937,945.151,706.410,0.931,1103.154,530.833,1.099,857.080,540.719,1.149,1148.860,292.924,1.071,772.218,361.666,0.934,1024.505,175.503,0.858,638.706,84.966,0.725,-0.034,-0.964,1.402,0.000,-8.844,0.000,0.009,-0.005,-0.024,0.096,-1.078,1.336
0722_175549_0076.png,0.008,0.157,0.926,-0.056,0.161,0.936,0.127,-0.010,1.136,-0.164,-0.020,1.093,0.264,-0.218,1.048,-0.247,-0.266,1.039,0.336,-0.324,0.831,-0.087,-0.325,0.850,968.667,700.775,0.926,903.348,703.553,0.936,1066.695,531.542,1.136,817.673,522.768,1.093,1199.025,342.472,1.048,733.662,296.315,1.039,1344.884,169.804,0.831,862.779,176.586,0.850,-0.039,-0.961,1.401,0.000,-350.356,0.000,0.009,-0.001,0.043,-0.193,-0.917,1.642
0722_175549_0077.png,0.005,0.140,0.936,-0.060,0.146,0.946,0.125,-0.011,1.150,-0.169,-0.022,1.102,0.083,-0.181,0.934,-0.299,-0.174,1.274,0.042,-0.346,0.722,-0.375,-0.267,1.038,965.018,682.463,0.936,899.556,686.763,0.946,1063.384,531.302,1.150,813.820,521.331,1.102,1044.326,355.741,0.934,736.561,409.808,1.274,1015.020,83.836,0.722,615.896,295.470,1.038,-0.039,-0.961,1.401,0.000,-349.265,0.000,-0.006,0.034,-0.005,-0.204,-1.085,1.592
0722_175549_0078.png,0.046,0.181,0.923,-0.020,0.177,0.918,0.167,-0.004,1.078,-0.122,0.013,1.152,0.246,-0.271,1.103,-0.269,-0.210,1.085,0.247,-0.332,0.843,-0.209,-0.330,0.855,1007.339,726.241,0.923,939.201,722.900,0.918,1107.498,536.273,1.078,859.317,550.591,1.152,1172.022,306.114,1.103,724.531,355.505,1.085,1238.443,165.835,0.843,727.379,172.550,0.855,-0.026,-0.970,1.403,0.000,-13.582,0.000,-0.007,-0.040,-0.010,-0.062,-1.124,1.365
0722_175549_0079.png,0.045,0.176,0.927,-0.020,0.175,0.926,0.169,-0.011,1.082,-0.121,0.003,1.146,0.287,-0.259,1.096,-0.268,-0.225,1.181,0.233,-0.327,0.850,-0.333,-0.304,0.941,1006.526,720.986,0.927,938.978,719.320,0.926,1108.201,530.005,1.082,859.323,542.817,1.146,1208.737,315.267,1.096,744.389,358.723,1.181,1220.323,174.280,0.850,623.659,233.085,0.941,-0.032,-0.966,1.402,0.000,-11.639,0.000,-0.002,-0.024,0.011,-0.152,-0.891,1.530
0722_175549_0080.png,0.000,0.143,0.931,-0.068,0.148,0.939,0.120,-0.004,1.153,-0.184,-0.016,1.100,0.057,-0.176,0.939,-0.298,-0.233,0.975,-0.005,-0.342,0.730,-0.327,-0.344,0.732,959.796,685.822,0.931,891.456,690.236,0.939,1058.620,536.615,1.153,801.241,526.016,1.100,1017.467,361.791,0.939,669.822,313.194,0.975,953.022,94.121,0.730,535.434,93.564,0.732,-0.030,-0.963,1.401,0.000,-348.747,0.000,-0.037,0.017,-0.018,-0.116,-1.257,1.514
0722_175549_0081.png,-0.001,0.164,0.934,-0.068,0.166,0.940,0.115,-0.004,1.143,-0.185,-0.015,1.096,0.197,-0.245,1.062,-0.248,-0.266,1.027,0.030,-0.313,0.868,-0.086,-0.320,0.829,958.911,706.551,0.934,891.331,708.477,0.940,1055.487,536.498,1.143,799.690,527.047,1.096,1135.966,320.415,1.062,730.143,294.040,1.027,992.393,197.630,0.868,860.960,172.589,0.829,-0.024,-0.966,1.402,0.000,-349.749,0.000,-0.021,0.010,0.018,-0.028,-0.959,1.199
0722_175549_0082.png,0.002,0.159,0.916,-0.063,0.164,0.922,0.110,0.003,1.143,-0.178,-0.011,1.080,0.087,-0.197,0.971,-0.323,-0.234,1.149,0.011,-0.347,0.775,-0.401,-0.311,0.916,961.641,705.032,0.916,894.858,709.192,0.922,1051.672,542.848,1.143,803.300,530.216,1.080,1045.412,347.196,0.971,692.618,346.421,1.149,973.411,113.836,0.775,543.769,217.488,0.916,-0.032,-0.968,1.403,0.000,-346.138,0.000,0.005,-0.023,0.032,-0.026,-1.173,1.677
0722_175549_0083.png,-0.008,0.186,0.928,-0.075,0.189,0.935,0.104,0.003,1.145,-0.192,-0.012,1.079,0.214,-0.245,1.197,-0.293,-0.268,1.110,0.238,-0.294,0.945,-0.148,-0.307,0.899,951.601,730.982,0.928,883.802,732.023,0.935,1045.991,542.373,1.145,790.403,529.132,1.079,1130.174,345.740,1.197,708.840,310.085,1.110,1199.289,243.916,0.945,803.358,214.648,0.899,-0.022,-0.966,1.402,0.000,-345.925,0.000,-0.023,-0.030,0.027,0.021,-0.646,1.457
0722_175549_0084.png,0.038,0.157,0.935,-0.028,0.154,0.933,0.159,-0.024,1.081,-0.131,-0.008,1.148,0.138,-0.277,1.014,-0.246,-0.244,1.191,-0.015,-0.325,0.816,-0.228,-0.291,0.941,998.791,699.437,0.935,931.783,697.409,0.933,1099.746,519.216,1.081,851.206,533.189,1.148,1089.666,280.429,1.014,763.506,345.352,1.191,942.072,160.791,0.816,729.062,245.845,0.941,-0.022,-0.964,1.402,0.000,-12.164,0.000,-0.004,0.019,0.038,-0.130,-1.040,1.143
0722_175549_0085.png,0.047,0.194,0.936,-0.019,0.190,0.929,0.163,-0.006,1.081,-0.124,0.011,1.155,0.135,-0.246,0.943,-0.135,-0.209,0.984,0.094,-0.373,0.708,-0.102,-0.356,0.760,1007.377,736.567,0.936,940.802,734.753,0.929,1103.277,534.581,1.081,858.055,548.802,1.155,1095.894,292.331,0.943,829.223,338.152,0.984,1085.562,39.768,0.708,832.341,94.344,0.760,-0.022,-0.967,1.402,0.000,-13.532,0.000,0.002,-0.037,-0.024,0.026,-0.679,1.575
0722_175549_0086.png,0.027,0.175,0.922,-0.039,0.174,0.923,0.146,0.001,1.106,-0.148,0.006,1.124,0.109,-0.227,0.969,-0.267,-0.220,1.037,0.016,-0.354,0.763,-0.221,-0.339,0.811,987.355,720.170,0.922,920.146,719.714,0.923,1085.130,541.163,1.106,834.741,544.672,1.124,1066.922,317.209,0.969,715.060,338.002,1.037,979.965,98.529,0.763,701.105,142.549,0.811,-0.028,-0.973,1.404,0.000,-2.455,0.000,0.009,-0.026,0.016,-0.068,-1.219,1.189
0722_175549_0087.png,-0.006,0.155,0.929,-0.072,0.161,0.941,0.120,-0.004,1.142,-0.180,-0.013,1.099,0.249,-0.237,1.176,-0.251,-0.269,1.134,0.125,-0.288,0.950,-0.232,-0.307,0.877,953.913,699.001,0.929,887.658,702.766,0.941,1059.842,537.039,1.142,804.507,528.436,1.099,1161.077,348.364,1.176,749.487,314.602,1.134,1084.958,251.397,0.950,708.740,207.563,0.877,-0.027,-0.967,1.402,0.000,-350.510,0.000,-0.020,0.013,0.012,-0.317,-1.114,1.305
0722_175549_0088.png,0.032,0.187,0.933,-0.035,0.187,0.934,0.156,-0.008,1.103,-0.143,-0.001,1.136,0.180,-0.265,1.218,-0.312,-0.215,1.095,0.178,-0.301,0.954,-0.332,-0.326,0.854,992.801,731.147,0.933,924.799,730.823,0.934,1094.431,532.984,1.103,840.099,539.520,1.136,1100.646,333.241,1.218,689.148,352.912,1.095,1137.405,239.351,0.954,590.390,176.830,0.854,-0.029,-0.960,1.401,0.000,-5.269,0.000,-0.014,-0.043,-0.007,-0.130,-0.723,1.367
0722_175549_0089.png,0.052,0.171,0.942,-0.013,0.166,0.935,0.169,-0.010,1.082,-0.115,0.008,1.161,0.250,-0.176,1.275,-0.279,-0.178,1.260,0.317,-0.275,1.034,-0.256,-0.281,1.011,1012.431,712.876,0.942,946.426,709.410,0.935,1108.219,531.379,1.082,865.534,546.927,1.161,1146.652,408.944,1.275,749.137,405.304,1.260,1251.620,287.466,1.034,718.920,276.006,1.011,-0.025,-0.972,1.404,0.000,-14.853,0.000,0.005,0.019,-0.029,-0.013,-0.941,1.412
0722_175549_0090.png,0.001,0.155,0.931,-0.063,0.159,0.939,0.119,-0.003,1.140,-0.173,-0.013,1.096,0.254,-0.223,1.081,-0.309,-0.241,1.083,0.305,-0.318,0.848,-0.201,-0.317,0.862,961.295,698.195,0.931,895.742,701.229,0.939,1059.018,537.271,1.140,809.517,528.547,1.096,1183.180,343.500,1.081,689.047,328.171,1.083,1301.672,183.018,0.848,738.548,190.710,0.862,-0.030,-0.970,1.403,0.000,-350.197,0.000,0.005,0.024,0.026,-0.147,-0.982,1.635
0722_175549_0091.png,-0.006,0.193,0.925,-0.071,0.197,0.935,0.114,0.012,1.138,-0.180,0.003,1.100,0.052,-0.170,0.932,-0.155,-0.193,0.904,-0.008,-0.349,0.732,-0.106,-0.372,0.707,954.226,738.708,0.925,888.231,740.461,0.935,1055.426,549.622,1.138,804.285,542.299,1.100,1012.870,366.229,0.932,797.151,337.309,0.904,949.264,87.146,0.732,817.103,40.231,0.707,-0.023,-0.970,1.403,0.000,-351.173,0.000,0.000,-0.045,-0.016,-0.210,-0.742,1.587
0722_175549_0092.png,0.017,0.170,0.920,-0.049,0.172,0.925,0.139,-0.001,1.114,-0.157,0.000,1.120,0.180,-0.198,1.307,-0.325,-0.196,1.040,0.235,-0.275,1.064,-0.448,-0.327,0.850,977.148,715.759,0.920,909.730,716.447,0.925,1079.122,538.925,1.114,827.122,540.244,1.120,1091.082,396.216,1.307,662.511,360.526,1.040,1170.250,294.443,1.064,458.346,173.822,0.850,-0.026,-0.967,1.402,0.000,-0.164,0.000,0.003,-0.035,0.011,-0.173,-1.142,1.482
0722_175549_0093.png,0.057,0.165,0.927,-0.010,0.162,0.926,0.180,-0.019,1.073,-0.110,-0.002,1.150,0.209,-0.277,1.007,-0.250,-0.211,1.252,0.061,-0.329,0.804,-0.262,-0.277,1.004,1018.145,708.931,0.927,950.149,706.586,0.926,1119.357,522.765,1.073,868.933,538.652,1.150,1157.631,278.431,1.007,769.945,379.365,1.252,1032.669,150.380,0.804,712.183,277.669,1.004,-0.038,-0.965,1.402,0.000,-14.170,0.000,-0.012,-0.005,0.033,-0.146,-0.969,1.498
0722_175549_0094.png,0.048,0.180,0.937,-0.016,0.178,0.934,0.163,-0.005,1.099,-0.120,0.005,1.143,0.107,-0.213,0.927,-0.248,-0.191,1.002,-0.001,-0.369,0.738,-0.327,-0.349,0.800,1008.458,722.341,0.937,943.985,720.844,0.934,1101.082,535.748,1.099,860.515,544.361,1.143,1069.982,321.377,0.927,724.353,358.877,1.002,959.108,64.346,0.738,571.580,125.000,0.800,-0.038,-0.969,1.403,0.000,-7.942,0.000,0.036,-0.010,-0.016,-0.012,-0.925,1.203
0722_175549_0095.png,-0.013,0.155,0.936,-0.076,0.161,0.948,0.097,0.001,1.161,-0.185,-0.015,1.093,0.082,-0.203,0.971,-0.162,-0.235,0.925,0.001,-0.354,0.764,-0.124,-0.376,0.694,947.108,697.114,0.936,883.560,701.794,0.948,1039.516,540.450,1.161,799.099,527.017,1.093,1040.430,341.530,0.971,793.314,298.709,0.925,961.420,98.904,0.764,790.504,25.406,0.694,-0.028,-0.966,1.402,0.000,-345.064,0.000,0.022,0.023,-0.033,-0.154,-0.992,1.531
0722_175549_0096.png,-0.002,0.153,0.942,-0.069,0.155,0.946,0.106,-0.009,1.154,-0.189,-0.022,1.096,0.274,-0.203,1.066,-0.280,-0.199,1.269,0.377,-0.315,0.850,-0.459,-0.253,1.079,957.792,693.969,0.942,890.915,696.023,0.946,1047.641,532.440,1.154,796.316,520.497,1.096,1204.029,358.945,1.066,749.946,390.631,1.269,1381.651,187.565,0.850,555.771,316.711,1.079,-0.024,-0.961,1.401,0.000,-347.445,0.000,-0.014,0.029,-0.004,0.103,-0.833,1.652
0722_175549_0097.png,0.038,0.172,0.947,-0.028,0.171,0.942,0.150,-0.011,1.122,-0.150,-0.010,1.127,0.111,-0.186,0.914,-0.211,-0.269,1.081,0.073,-0.356,0.712,-0.177,-0.327,0.825,998.544,712.779,0.947,931.639,712.164,0.942,1087.507,530.552,1.122,833.174,531.661,1.127,1075.967,346.666,0.914,774.652,303.269,1.081,1057.558,64.912,0.712,756.020,163.480,0.825,-0.035,-0.962,1.401,0.000,0.099,0.000,-0.013,0.006,-0.003,0.209,-0.717,1.413
0722_175549_0098.png,0.048,0.175,0.934,-0.016,0.172,0.930,0.166,-0.010,1.082,-0.111,0.007,1.153,0.258,-0.260,1.128,-0.107,-0.174,0.940,0.109,-0.323,0.918,-0.106,-0.351,0.733,1008.855,718.265,0.934,944.127,715.673,0.930,1105.700,531.593,1.082,868.780,545.675,1.153,1177.074,320.854,1.128,851.811,364.343,0.940,1073.376,205.314,0.918,822.408,84.471,0.733,-0.030,-0.970,1.403,0.000,-13.708,0.000,0.037,-0.006,-0.010,-0.118,-1.003,1.238
0722_175549_0099.png,0.000,0.155,0.934,-0.067,0.159,0.938,0.111,-0.003,1.155,-0.189,-0.017,1.096,0.252,-0.217,1.247,-0.246,-0.227,1.256,0.393,-0.271,1.025,-0.247,-0.278,0.992,960.389,697.997,0.934,891.979,700.905,0.938,1051.180,537.594,1.155,796.331,525.660,1.096,1152.432,374.639,1.247,773.491,368.403,1.256,1325.141,288.061,1.025,722.739,273.450,0.992,-0.027,-0.961,1.401,0.000,-347.361,0.000,-0.029,0.002,-0.022,0.080,-1.114,1.364
0722_175549_0100.png,0.024,0.174,0.924,-0.042,0.175,0.929,0.152,-0.008,1.105,-0.145,-0.002,1.133,0.075,-0.185,0.906,-0.279,-0.225,1.230,0.000,-0.358,0.712,-0.310,-0.296,0.977,984.487,718.687,0.924,916.898,718.771,0.929,1090.431,533.205,1.105,837.982,538.664,1.133,1038.763,345.568,0.906,743.995,365.868,1.230,959.956,61.259,0.712,658.665,252.420,0.977,-0.028,-0.961,1.401,0.000,-4.245,0.000,-0.005,-0.039,0.000,-0.260,-0.973,1.497
0722_175549_0101.png,0.036,0.173,0.926,-0.031,0.170,0.926,0.166,-0.007,1.084,-0.130,0.009,1.156,0.255,-0.219,1.240,-0.194,-0.172,0.951,0.394,-0.280,1.016,-0.257,-0.349,0.752,997.392,717.263,0.926,927.997,714.839,0.926,1105.472,533.614,1.084,852.894,547.552,1.156,1155.572,371.697,1.240,765.581,367.662,0.951,1329.042,277.811,1.016,634.740,98.173,0.752,-0.022,-0.967,1.402,0.000,-12.770,0.000,-0.027,-0.027,-0.027,-0.254,-1.150,1.351
0722_175549_0102.png,0.054,0.186,0.934,-0.012,0.183,0.925,0.166,-0.004,1.100,-0.131,0.005,1.140,0.083,-0.185,0.901,-0.257,-0.236,1.086,0.003,-0.361,0.707,-0.132,-0.326,0.868,1014.836,729.794,0.934,947.796,727.743,0.925,1103.461,536.539,1.100,850.922,544.300,1.140,1047.740,345.153,0.901,735.260,333.699,1.086,963.652,54.416,0.707,814.940,182.809,0.868,-0.037,-0.965,1.402,0.000,-6.674,0.000,-0.008,-0.041,-0.015,0.251,-0.940,1.227
0722_175549_0103.png,0.000,0.178,0.918,-0.065,0.182,0.924,0.108,0.008,1.145,-0.183,-0.007,1.082,0.266,-0.175,1.023,-0.229,-0.176,1.300,0.379,-0.328,0.842,-0.300,-0.275,1.068,960.328,724.257,0.918,892.827,726.979,0.924,1049.533,546.416,1.145,799.146,534.076,1.082,1207.770,377.686,1.023,792.160,410.931,1.300,1387.753,169.813,0.842,693.031,295.119,1.068,-0.029,-0.967,1.402,0.000,-346.307,0.000,-0.003,-0.044,0.012,0.036,-1.044,1.358
0722_175549_0104.png,0.015,0.174,0.932,-0.049,0.176,0.939,0.135,-0.002,1.129,-0.157,-0.004,1.120,0.062,-0.180,0.922,-0.251,-0.256,1.067,-0.007,-0.354,0.720,-0.091,-0.334,0.870,975.283,717.325,0.932,909.995,718.579,0.939,1073.600,538.542,1.129,826.959,536.787,1.120,1023.982,354.828,0.922,736.086,311.740,1.067,951.231,72.159,0.720,860.757,175.318,0.870,-0.031,-0.964,1.402,0.000,-357.025,0.000,0.017,-0.019,-0.022,-0.188,-0.955,1.298
0722_175549_0105.png,-0.003,0.150,0.928,-0.068,0.157,0.940,0.113,0.000,1.154,-0.177,-0.015,1.086,0.081,-0.211,0.991,-0.328,-0.231,1.128,-0.019,-0.338,0.782,-0.390,-0.308,0.884,956.952,693.414,0.928,891.677,698.759,0.940,1053.365,540.405,1.154,805.320,526.609,1.086,1037.263,337.123,0.991,683.285,345.574,1.128,937.151,128.830,0.782,540.711,208.454,0.884,-0.039,-0.969,1.403,0.000,-345.171,0.000,-0.005,0.023,0.003,-0.197,-1.094,1.607
0722_175549_0106.png,0.024,0.157,0.938,-0.040,0.157,0.937,0.130,-0.004,1.137,-0.159,-0.010,1.108,0.176,-0.253,1.056,-0.232,-0.185,0.911,0.005,-0.323,0.873,-0.304,-0.355,0.719,984.479,698.864,0.938,919.272,699.773,0.937,1068.666,536.974,1.137,823.922,531.209,1.108,1118.443,311.901,1.056,718.157,346.958,0.911,965.961,188.514,0.873,558.079,70.644,0.719,-0.037,-0.970,1.403,0.000,-352.973,0.000,0.024,0.026,0.007,0.173,-1.110,1.285
0722_175549_0107.png,0.048,0.169,0.940,-0.020,0.166,0.935,0.168,-0.013,1.094,-0.136,-0.001,1.147,0.151,-0.240,0.948,-0.195,-0.259,1.096,0.113,-0.348,0.711,-0.135,-0.312,0.843,1008.317,710.588,0.940,939.389,708.639,0.935,1105.651,528.422,1.094,846.974,539.057,1.147,1111.051,299.387,0.948,791.078,315.159,1.096,1111.067,74.420,0.711,808.082,188.495,0.843,-0.029,-0.967,1.402,0.000,-8.976,0.000,-0.040,0.009,0.000,0.054,-0.828,1.588
0722_175549_0108.png,0.051,0.153,0.937,-0.014,0.148,0.930,0.167,-0.012,1.088,-0.118,0.004,1.157,0.142,-0.201,0.887,-0.201,-0.211,1.010,0.079,-0.370,0.686,-0.134,-0.342,0.788,1011.309,695.766,0.937,945.558,691.175,0.930,1105.674,529.568,1.088,863.161,543.207,1.157,1112.165,324.692,0.887,770.910,341.451,1.010,1069.937,27.723,0.686,797.960,126.588,0.788,-0.028,-0.972,1.403,0.000,-12.788,0.000,0.013,0.028,-0.017,0.034,-1.237,1.486
0722_175549_0109.png,0.030,0.175,0.943,-0.038,0.176,0.946,0.153,-0.006,1.126,-0.152,-0.005,1.127,0.117,-0.202,0.933,-0.333,-0.213,1.128,0.029,-0.354,0.726,-0.425,-0.305,0.892,990.218,716.620,0.943,922.084,717.014,0.946,1089.388,535.184,1.126,831.385,535.378,1.127,1078.782,334.183,0.933,679.463,360.577,1.128,998.104,76.184,0.726,506.377,214.798,0.892,-0.038,-0.964,1.402,0.000,-359.016,0.000,-0.030,0.001,-0.023,-0.090,-0.807,1.174
0722_175549_0110.png,0.037,0.161,0.932,-0.031,0.160,0.932,0.161,-0.007,1.115,-0.145,-0.003,1.136,0.179,-0.203,1.305,-0.139,-0.182,0.921,0.222,-0.264,1.046,-0.132,-0.356,0.711,997.936,704.015,0.932,928.538,703.392,0.932,1097.103,533.801,1.115,838.271,537.838,1.136,1090.756,392.022,1.305,816.533,352.060,0.921,1162.188,299.697,1.046,783.473,63.626,0.711,-0.036,-0.963,1.402,0.000,-2.738,0.000,-0.034,-0.009,-0.022,-0.047,-1.186,1.362
0722_175549_0111.png,0.012,0.164,0.923,-0.053,0.168,0.929,0.128,0.007,1.139,-0.167,-0.001,1.105,0.265,-0.201,1.023,-0.183,-0.258,1.007,0.359,-0.337,0.812,-0.149,-0.354,0.760,972.495,709.111,0.923,905.414,711.960,0.929,1066.740,545.682,1.139,816.281,539.191,1.105,1206.644,353.503,1.023,787.035,296.855,1.007,1380.143,145.310,0.812,773.408,96.776,0.760,-0.034,-0.970,1.403,0.000,-352.138,0.000,0.000,-0.018,-0.016,-0.080,-1.217,1.518
0722_175549_0112.png,0.017,0.162,0.948,-0.050,0.163,0.951,0.136,-0.012,1.138,-0.170,-0.018,1.112,0.232,-0.192,0.959,-0.181,-0.271,1.032,0.269,-0.339,0.743,-0.122,-0.326,0.783,977.517,702.526,0.948,909.586,703.223,0.951,1073.491,529.914,1.138,814.872,524.739,1.112,1190.476,349.978,0.959,793.375,290.167,1.032,1304.694,106.509,0.743,811.939,144.152,0.783,-0.032,-0.962,1.401,0.000,-353.996,0.000,-0.033,0.032,0.005,0.031,-0.670,1.542
0722_175549_0113.png,-0.009,0.163,0.920,-0.073,0.169,0.930,0.111,0.004,1.138,-0.182,-0.008,1.089,0.227,-0.225,1.229,-0.170,-0.270,1.035,0.320,-0.284,0.997,-0.110,-0.333,0.794,951.118,708.594,0.920,885.011,712.453,0.930,1053.043,543.089,1.138,800.868,533.356,1.089,1135.470,365.570,1.229,803.608,292.210,1.035,1264.975,269.424,0.997,828.506,141.223,0.794,-0.024,-0.972,1.403,0.000,-349.072,0.000,-0.003,-0.009,0.031,-0.229,-1.090,1.585
0722_175549_0114.png,0.029,0.176,0.936,-0.033,0.176,0.938,0.147,-0.004,1.111,-0.135,0.001,1.133,0.148,-0.261,1.021,-0.250,-0.181,1.294,-0.014,-0.348,0.836,-0.293,-0.285,1.054,989.749,718.907,0.936,926.219,718.756,0.938,1085.954,536.210,1.111,847.109,540.701,1.133,1097.710,296.591,1.021,776.556,407.354,1.294,943.617,144.183,0.836,695.505,282.819,1.054,-0.033,-0.969,1.403,0.000,-3.596,0.000,0.048,-0.004,-0.007,-0.174,-0.940,1.123
0722_175549_0115.png,0.038,0.164,0.939,-0.030,0.161,0.933,0.153,-0.011,1.109,-0.155,-0.006,1.132,0.151,-0.251,0.990,-0.237,-0.250,1.057,-0.017,-0.325,0.799,-0.050,-0.308,0.873,998.913,706.193,0.939,929.834,704.492,0.933,1091.360,530.527,1.109,830.191,535.185,1.132,1104.819,298.803,0.990,746.624,314.713,1.057,939.458,153.048,0.799,905.135,204.210,0.873,-0.027,-0.966,1.402,0.000,-3.237,0.000,-0.040,0.007,0.010,0.204,-0.904,1.642
0722_175549_0116.png,0.044,0.166,0.928,-0.024,0.164,0.929,0.172,-0.013,1.090,-0.128,0.000,1.147,0.174,-0.277,1.021,-0.300,-0.209,1.202,0.135,-0.338,0.767,-0.206,-0.288,0.966,1005.059,709.881,0.928,935.811,708.281,0.929,1109.729,528.352,1.090,853.858,539.832,1.147,1121.738,281.853,1.021,722.832,374.751,1.202,1127.788,120.579,0.767,757.647,256.329,0.966,-0.034,-0.963,1.401,0.000,-9.913,0.000,-0.028,-0.016,-0.001,-0.182,-1.032,1.504
0722_175549_0117.png,0.018,0.169,0.936,-0.047,0.169,0.937,0.134,-0.007,1.120,-0.160,-0.005,1.126,0.251,-0.240,1.050,-0.281,-0.223,1.020,0.292,-0.338,0.808,-0.323,-0.344,0.788,978.447,712.070,0.936,912.379,712.005,0.937,1073.611,534.417,1.120,825.187,535.495,1.126,1187.584,322.373,1.050,698.107,331.846,1.020,1304.138,142.434,0.808,570.289,125.252,0.788,-0.022,-0.965,1.402,0.000,0.087,0.000,0.012,-0.005,-0.005,-0.004,-0.933,1.381
0722_175549_0118.png,0.014,0.170,0.925,-0.053,0.171,0.923,0.119,0.001,1.138,-0.181,-0.011,1.089,0.252,-0.220,1.061,-0.283,-0.196,1.266,0.307,-0.319,0.831,-0.258,-0.274,1.023,974.306,714.575,0.925,904.981,715.686,0.923,1059.486,540.546,1.138,802.052,530.760,1.089,1185.604,342.558,1.061,747.576,392.533,1.266,1311.116,174.571,0.831,719.934,285.064,1.023,-0.028,-0.966,1.402,0.000,-349.334,0.000,-0.024,-0.026,0.029,0.262,-0.994,1.584
0722_175549_0119.png,0.014,0.160,0.929,-0.053,0.163,0.936,0.135,-0.005,1.134,-0.166,-0.012,1.103,0.252,-0.236,1.213,-0.284,-0.233,1.205,0.150,-0.281,0.978,-0.346,-0.288,0.959,974.026,703.605,0.929,906.312,705.858,0.936,1073.568,535.719,1.134,817.129,529.480,1.103,1157.686,355.159,1.213,736.040,355.799,1.205,1106.102,266.471,0.978,616.498,254.456,0.959,-0.036,-0.966,1.402,0.000,-352.821,0.000,-0.020,0.004,0.022,-0.155,-1.131,1.152
0722_175549_0120.png,-0.004,0.180,0.944,-0.069,0.183,0.953,0.113,0.004,1.148,-0.180,-0.004,1.110,0.246,-0.233,1.115,-0.230,-0.204,0.918,0.142,-0.323,0.881,-0.228,-0.370,0.697,956.327,721.507,0.944,891.505,723.141,0.953,1053.727,543.721,1.148,806.229,536.382,1.110,1169.409,341.435,1.115,721.647,328.350,0.918,1113.476,191.799,0.881,649.307,35.396,0.697,-0.024,-0.968,1.403,0.000,-351.253,0.000,0.006,0.005,-0.044,-0.138,-0.668,1.514
0722_175549_0121.png,0.015,0.190,0.924,-0.051,0.191,0.925,0.124,0.009,1.132,-0.171,0.001,1.096,0.172,-0.184,0.950,-0.212,-0.235,0.969,0.177,-0.355,0.750,-0.208,-0.358,0.739,975.716,735.626,0.924,907.993,736.481,0.925,1064.026,547.819,1.132,811.560,540.882,1.096,1132.115,355.693,0.950,751.936,309.283,0.969,1184.407,90.119,0.750,692.270,79.293,0.739,-0.031,-0.971,1.403,0.000,-351.672,0.000,-0.001,-0.043,0.012,0.134,-0.836,1.506
0722_175549_0122.png,-0.011,0.162,0.935,-0.073,0.168,0.949,0.105,0.002,1.149,-0.176,-0.011,1.095,0.242,-0.206,1.233,-0.162,-0.215,0.917,0.162,-0.289,0.999,-0.095,-0.367,0.711,948.371,704.454,0.935,886.382,708.322,0.949,1046.835,541.468,1.149,806.658,530.710,1.095,1146.703,381.492,1.233,791.990,317.071,0.917,1114.142,265.036,0.999,832.360,48.666,0.711,-0.029,-0.973,1.404,0.000,-347.641,0.000,0.034,0.031,0.000,-0.324,-0.961,1.276
0722_175549_0123.png,0.011,0.160,0.930,-0.054,0.162,0.935,0.128,-0.010,1.130,-0.167,-0.016,1.103,0.177,-0.180,0.931,-0.237,-0.256,1.016,0.223,-0.345,0.737,-0.092,-0.329,0.818,971.447,703.350,0.930,904.878,704.819,0.935,1067.533,531.833,1.130,815.839,526.358,1.103,1141.118,356.433,0.931,738.200,300.239,1.016,1248.362,94.398,0.737,853.398,157.492,0.818,-0.030,-0.963,1.401,0.000,-353.534,0.000,0.002,0.003,0.036,-0.059,-0.875,1.681
0722_175549_0124.png,0.016,0.151,0.925,-0.049,0.153,0.930,0.138,-0.010,1.119,-0.155,-0.009,1.123,0.264,-0.237,1.201,-0.258,-0.238,1.024,0.356,-0.300,0.965,-0.173,-0.342,0.799,976.299,695.659,0.925,910.044,696.713,0.930,1077.087,531.150,1.119,828.813,532.097,1.123,1168.964,352.575,1.201,720.612,319.035,1.024,1311.012,244.748,0.965,753.865,132.952,0.799,-0.027,-0.961,1.401,0.000,0.232,0.000,0.014,-0.012,0.008,-0.184,-1.254,1.507
0722_175549_0125.png,0.052,0.163,0.943,-0.015,0.159,0.937,0.167,-0.009,1.114,-0.132,-0.002,1.146,0.123,-0.212,0.921,-0.275,-0.203,1.259,0.032,-0.365,0.709,-0.405,-0.275,1.030,1012.064,703.970,0.943,944.812,701.745,0.937,1102.824,531.896,1.114,850.293,538.287,1.146,1087.419,321.235,0.921,752.451,386.624,1.259,1002.884,50.801,0.709,585.632,285.550,1.030,-0.039,-0.962,1.401,0.000,-5.145,0.000,-0.015,0.005,-0.046,0.152,-1.142,1.169
0722_175549_0126.png,0.033,0.165,0.940,-0.031,0.164,0.935,0.138,-0.002,1.128,-0.153,-0.004,1.121,0.229,-0.243,1.198,-0.278,-0.227,1.194,0.244,-0.304,0.939,-0.345,-0.303,0.949,993.229,707.128,0.940,927.996,706.398,0.935,1076.275,538.277,1.128,830.107,536.869,1.121,1142.036,346.813,1.198,738.312,358.995,1.194,1207.361,232.661,0.939,613.900,236.435,0.949,-0.034,-0.970,1.403,0.000,-357.380,0.000,0.020,0.013,-0.010,0.270,-0.983,1.528
0722_175549_0127.png,0.029,0.171,0.932,-0.034,0.170,0.931,0.138,0.000,1.118,-0.147,0.001,1.119,0.100,-0.182,0.920,-0.227,-0.238,1.030,0.063,-0.360,0.729,-0.110,-0.343,0.824,989.668,713.940,0.932,924.997,713.609,0.931,1077.811,540.121,1.118,834.767,540.445,1.119,1062.804,352.399,0.920,750.297,319.815,1.030,1042.154,70.744,0.729,833.265,144.493,0.824,-0.033,-0.974,1.404,0.000,-359.168,0.000,0.037,0.003,0.013,0.105,-1.057,1.320
0722_175549_0128.png,0.017,0.160,0.926,-0.049,0.161,0.931,0.143,-0.010,1.106,-0.154,-0.005,1.126,0.259,-0.230,1.214,-0.251,-0.235,1.232,0.361,-0.286,0.984,-0.254,-0.285,0.981,976.988,704.218,0.926,909.723,704.644,0.931,1083.219,531.517,1.106,830.297,535.618,1.126,1162.956,360.095,1.214,766.583,358.961,1.232,1309.066,263.863,0.984,714.011,263.456,0.981,-0.024,-0.967,1.402,0.000,-2.850,0.000,-0.002,-0.002,0.031,-0.244,-1.040,1.624
0722_175549_0129.png,0.045,0.176,0.935,-0.021,0.175,0.933,0.165,-0.007,1.105,-0.132,0.002,1.140,0.136,-0.275,1.051,-0.293,-0.204,1.059,0.095,-0.343,0.795,-0.341,-0.332,0.828,1005.912,719.455,0.935,938.642,718.265,0.933,1101.668,534.360,1.105,850.314,541.443,1.140,1083.421,291.211,1.051,696.609,356.701,1.059,1073.757,129.504,0.795,568.612,159.260,0.828,-0.037,-0.965,1.402,0.000,-5.945,0.000,-0.005,-0.017,-0.017,-0.007,-0.917,1.373
0722_175549_0130.png,0.017,0.182,0.939,-0.049,0.184,0.945,0.143,0.000,1.117,-0.156,0.004,1.132,0.265,-0.238,1.064,-0.322,-0.180,1.242,0.224,-0.333,0.815,-0.303,-0.288,0.996,977.150,724.757,0.939,910.570,725.142,0.945,1081.774,540.178,1.117,829.331,543.088,1.132,1196.729,326.882,1.064,713.052,402.053,1.242,1221.857,151.397,0.815,670.525,265.430,0.996,-0.024,-0.971,1.403,0.000,-1.795,0.000,-0.007,-0.002,-0.022,-0.247,-0.770,1.335
0722_175549_0131.png,0.038,0.171,0.925,-0.027,0.171,0.928,0.164,-0.003,1.105,-0.131,0.005,1.137,0.140,-0.248,0.984,-0.281,-0.198,1.028,-0.017,-0.347,0.792,-0.378,-0.335,0.820,999.435,715.727,0.925,931.914,715.217,0.928,1101.082,537.558,1.105,850.109,543.767,1.137,1094.977,299.789,0.984,699.670,357.171,1.028,940.089,123.350,0.792,521.590,151.559,0.820,-0.039,-0.967,1.403,0.000,-5.161,0.000,-0.001,-0.025,-0.014,-0.185,-1.092,1.504
0722_175549_0132.png,0.037,0.174,0.923,-0.028,0.173,0.924,0.162,-0.006,1.089,-0.128,0.006,1.142,0.089,-0.187,0.893,-0.266,-0.228,1.112,0.019,-0.363,0.703,-0.154,-0.320,0.894,997.949,719.374,0.923,930.749,717.888,0.924,1101.036,534.551,1.089,853.534,544.907,1.142,1055.084,341.170,0.893,733.021,345.291,1.112,985.770,48.695,0.703,796.118,199.763,0.894,-0.030,-0.968,1.403,0.000,-9.431,0.000,0.009,-0.030,0.006,-0.194,-1.039,1.552
0722_175549_0133.png,0.049,0.170,0.934,-0.016,0.166,0.928,0.168,-0.008,1.086,-0.118,0.009,1.157,0.277,-0.251,1.135,-0.132,-0.212,0.990,0.323,-0.322,0.879,-0.061,-0.352,0.772,1010.204,713.433,0.934,943.782,709.860,0.928,1106.909,533.194,1.086,863.337,547.039,1.157,1191.986,329.432,1.135,833.424,335.964,0.990,1309.219,191.937,0.879,884.788,105.630,0.772,-0.028,-0.970,1.403,0.000,-13.166,0.000,0.008,-0.004,-0.028,-0.027,-1.117,1.331
0722_175549_0134.png,0.048,0.172,0.938,-0.015,0.167,0.928,0.156,-0.007,1.093,-0.125,0.004,1.143,0.251,-0.198,1.255,-0.259,-0.167,0.978,0.326,-0.289,1.024,-0.391,-0.334,0.819,1008.535,714.438,0.938,944.919,711.365,0.928,1095.364,533.606,1.093,855.791,543.439,1.143,1149.825,389.721,1.255,707.920,377.456,0.978,1262.564,271.499,1.024,505.605,151.759,0.819,-0.029,-0.972,1.404,0.000,-9.174,0.000,0.039,0.006,0.007,0.229,-1.035,1.260
0722_175549_0135.png,0.048,0.176,0.950,-0.019,0.174,0.944,0.164,-0.014,1.108,-0.134,-0.005,1.148,0.295,-0.253,1.104,-0.281,-0.222,1.062,0.261,-0.326,0.844,-0.322,-0.333,0.817,1007.575,716.646,0.950,940.996,715.425,0.944,1100.440,528.084,1.108,848.971,536.202,1.148,1213.760,321.738,1.104,708.603,340.975,1.062,1254.351,173.135,0.844,585.202,152.106,0.817,-0.033,-0.959,1.401,0.000,-6.766,0.000,-0.012,-0.003,-0.034,0.103,-0.718,1.254
0722_175549_0136.png,0.054,0.147,0.933,-0.013,0.142,0.928,0.173,-0.021,1.087,-0.124,-0.006,1.154,0.207,-0.222,1.259,-0.208,-0.238,1.046,0.240,-0.271,1.002,-0.061,-0.321,0.840,1015.015,689.938,0.933,946.707,685.720,0.928,1111.410,521.435,1.087,857.840,535.272,1.154,1116.552,372.043,1.259,770.698,324.051,1.046,1187.877,282.510,1.002,891.271,177.068,0.840,-0.031,-0.962,1.401,0.000,-11.928,0.000,-0.027,0.014,0.002,0.055,-1.253,1.458
0722_175549_0137.png,0.047,0.166,0.938,-0.021,0.165,0.941,0.179,-0.013,1.088,-0.119,0.003,1.158,0.270,-0.220,1.230,-0.236,-0.218,1.045,0.393,-0.273,0.996,-0.146,-0.327,0.815,1007.450,708.108,0.938,938.790,706.794,0.941,1116.034,528.267,1.088,862.138,542.293,1.158,1168.399,369.811,1.230,744.944,341.391,1.045,1335.032,278.991,0.996,789.681,157.945,0.815,-0.034,-0.968,1.403,0.000,-12.497,0.000,-0.032,0.018,-0.024,-0.355,-0.962,1.279
0722_175549_0138.png,0.007,0.150,0.936,-0.059,0.154,0.943,0.122,-0.014,1.143,-0.172,-0.025,1.094,0.166,-0.272,1.166,-0.267,-0.269,1.128,0.120,-0.295,0.915,-0.270,-0.308,0.876,967.160,692.859,0.936,900.948,695.138,0.943,1061.804,528.621,1.143,810.419,518.491,1.094,1095.146,318.041,1.166,735.245,312.927,1.128,1084.856,233.415,0.915,667.271,205.461,0.876,-0.035,-0.961,1.401,0.000,-349.292,0.000,-0.006,0.027,0.035,-0.065,-0.991,1.178
0722_175549_0139.png,0.010,0.154,0.936,-0.053,0.158,0.947,0.135,-0.010,1.130,-0.154,-0.013,1.116,0.152,-0.184,0.919,-0.288,-0.225,1.028,0.169,-0.354,0.713,-0.347,-0.337,0.800,970.469,696.362,0.936,906.845,698.893,0.947,1073.639,531.618,1.130,828.384,528.642,1.116,1117.033,349.259,0.919,693.641,331.531,1.028,1185.268,67.369,0.713,548.041,138.928,0.800,-0.035,-0.965,1.402,0.000,-355.860,0.000,0.024,0.026,0.011,-0.361,-1.004,1.367
0722_175549_0140.png,0.028,0.172,0.934,-0.038,0.171,0.934,0.149,-0.004,1.110,-0.147,0.002,1.139,0.240,-0.261,1.081,-0.281,-0.220,1.224,0.102,-0.327,0.861,-0.312,-0.296,0.967,988.574,715.305,0.934,921.453,714.501,0.934,1087.786,536.452,1.110,837.496,542.041,1.139,1171.178,310.235,1.081,741.838,369.113,1.224,1073.160,178.781,0.861,653.609,248.651,0.967,-0.025,-0.967,1.402,0.000,-4.503,0.000,-0.001,-0.012,-0.024,-0.076,-0.945,1.578
0722_175549_0141.png,0.011,0.177,0.929,-0.057,0.180,0.935,0.128,0.009,1.145,-0.176,-0.002,1.098,0.099,-0.224,1.001,-0.259,-0.260,1.047,0.038,-0.339,0.766,-0.093,-0.323,0.845,971.037,721.034,0.929,901.983,723.265,0.935,1066.020,547.300,1.145,807.443,538.220,1.098,1054.269,327.004,1.001,724.500,303.981,1.047,1007.680,118.856,0.766,855.789,176.926,0.845,-0.035,-0.971,1.403,0.000,-349.770,0.000,-0.036,-0.016,-0.017,-0.014,-1.022,1.246
0722_175549_0142.png,0.043,0.179,0.945,-0.022,0.177,0.940,0.158,-0.002,1.110,-0.139,0.005,1.139,0.075,-0.180,0.908,-0.314,-0.183,1.047,-0.005,-0.354,0.712,-0.447,-0.319,0.857,1003.761,720.603,0.945,937.284,719.373,0.940,1095.424,538.490,1.110,844.088,544.169,1.139,1038.327,351.416,0.908,674.354,373.513,1.047,953.023,67.200,0.712,463.587,186.220,0.857,-0.033,-0.974,1.404,0.000,-4.629,0.000,-0.005,0.012,-0.019,0.121,-0.746,1.561
0722_175549_0143.png,0.019,0.171,0.921,-0.045,0.173,0.928,0.142,0.003,1.118,-0.147,0.004,1.122,0.228,-0.241,1.028,-0.242,-0.243,1.203,0.255,-0.352,0.789,-0.245,-0.314,0.946,979.189,716.348,0.921,913.775,717.750,0.928,1080.776,542.403,1.118,835.146,543.125,1.122,1171.240,317.188,1.028,768.589,347.653,1.203,1267.450,115.109,0.789,714.197,224.564,0.946,-0.033,-0.969,1.403,0.000,0.412,0.000,0.026,-0.030,-0.008,-0.264,-1.148,1.513
0722_175549_0144.png,0.030,0.153,0.935,-0.038,0.153,0.935,0.147,-0.015,1.125,-0.159,-0.017,1.115,0.303,-0.232,1.091,-0.278,-0.204,1.269,0.374,-0.307,0.855,-0.459,-0.251,1.081,990.068,695.639,0.935,920.970,695.908,0.935,1084.267,527.732,1.125,824.116,525.733,1.115,1224.534,337.915,1.091,751.455,387.273,1.269,1376.399,198.357,0.855,556.594,319.053,1.081,-0.036,-0.961,1.401,0.000,-356.977,0.000,-0.032,0.012,0.025,0.082,-1.051,1.373
0722_175549_0145.png,0.009,0.176,0.927,-0.057,0.180,0.935,0.132,-0.004,1.134,-0.169,-0.010,1.106,0.261,-0.237,1.064,-0.195,-0.252,0.981,0.310,-0.329,0.822,-0.065,-0.346,0.771,969.562,720.938,0.927,901.932,722.531,0.935,1070.947,536.524,1.134,814.794,531.038,1.106,1193.078,328.354,1.064,771.037,295.867,0.981,1318.386,158.725,0.822,879.726,112.678,0.771,-0.032,-0.958,1.400,0.000,-353.508,0.000,-0.019,-0.039,0.001,-0.182,-0.848,1.437
0722_175549_0146.png,0.002,0.172,0.931,-0.063,0.176,0.940,0.119,-0.004,1.142,-0.175,-0.015,1.097,0.259,-0.232,1.092,-0.250,-0.248,0.982,0.212,-0.325,0.851,-0.170,-0.350,0.754,962.506,715.789,0.931,896.287,717.662,0.940,1059.319,536.482,1.142,808.223,527.410,1.097,1185.219,337.851,1.092,718.362,299.385,0.982,1197.428,176.718,0.851,745.395,98.059,0.754,-0.031,-0.960,1.401,0.000,-349.949,0.000,-0.004,-0.018,0.006,-0.116,-0.766,1.575
0722_175549_0147.png,0.032,0.177,0.942,-0.035,0.178,0.947,0.161,-0.002,1.114,-0.142,0.004,1.140,0.263,-0.196,1.270,-0.190,-0.195,0.949,0.312,-0.274,1.015,-0.185,-0.354,0.727,992.301,718.542,0.942,924.691,718.714,0.947,1097.460,538.263,1.114,841.901,543.272,1.140,1156.678,392.876,1.270,769.433,344.455,0.949,1252.654,282.875,1.015,718.281,76.268,0.727,-0.035,-0.971,1.403,0.000,-3.850,0.000,-0.023,0.010,-0.033,-0.252,-0.789,1.441
0722_175549_0148.png,0.016,0.149,0.936,-0.048,0.150,0.934,0.120,-0.012,1.137,-0.169,-0.020,1.103,0.216,-0.209,1.288,-0.332,-0.224,1.056,0.213,-0.274,1.039,-0.419,-0.326,0.837,976.574,691.835,0.936,910.989,692.686,0.934,1060.506,529.613,1.137,814.651,522.622,1.103,1119.698,385.339,1.288,661.420,338.394,1.056,1154.701,289.468,1.039,484.174,169.558,0.837,-0.029,-0.961,1.401,0.000,-352.003,0.000,0.020,0.016,0.025,0.212,-1.080,1.434
0722_175549_0149.png,0.000,0.169,0.930,-0.068,0.173,0.938,0.125,-0.004,1.138,-0.183,-0.013,1.101,0.286,-0.221,1.094,-0.279,-0.211,1.266,0.348,-0.309,0.856,-0.437,-0.261,1.055,959.578,713.344,0.930,890.606,715.334,0.938,1064.070,536.725,1.138,801.606,529.119,1.101,1208.915,347.942,1.094,750.239,381.712,1.266,1346.356,196.330,0.856,565.840,304.726,1.055,-0.025,-0.962,1.401,0.000,-351.661,0.000,-0.045,-0.015,0.009,-0.155,-0.815,1.650
0722_175549_0150.png,0.043,0.148,0.943,-0.021,0.143,0.937,0.158,-0.018,1.104,-0.130,-0.006,1.155,0.278,-0.244,1.174,-0.183,-0.209,0.970,0.332,-0.307,0.917,-0.157,-0.358,0.743,1003.557,689.207,0.943,938.227,685.613,0.937,1096.153,524.227,1.104,853.343,534.701,1.155,1185.205,342.249,1.174,780.507,335.405,0.970,1304.112,221.276,0.917,759.007,81.492,0.743,-0.026,-0.960,1.401,0.000,-9.269,0.000,0.015,0.023,-0.036,0.077,-1.166,1.497
0722_175549_0151.png,0.051,0.188,0.928,-0.017,0.184,0.922,0.171,0.003,1.085,-0.129,0.017,1.147,0.227,-0.226,1.234,-0.196,-0.166,0.943,0.316,-0.286,0.988,-0.259,-0.343,0.743,1012.107,732.855,0.928,942.781,730.229,0.922,1109.726,542.238,1.085,852.978,554.000,1.147,1134.876,365.988,1.234,762.803,373.082,0.943,1263.994,264.490,0.988,628.461,101.036,0.743,-0.030,-0.976,1.404,0.000,-10.874,0.000,-0.033,-0.029,-0.015,0.050,-0.892,1.681
0722_175549_0152.png,0.008,0.163,0.932,-0.058,0.165,0.934,0.121,0.006,1.142,-0.179,-0.004,1.102,0.140,-0.233,1.015,-0.325,-0.222,1.160,-0.018,-0.328,0.821,-0.402,-0.299,0.918,968.546,706.318,0.932,900.471,708.344,0.934,1060.553,544.658,1.142,805.881,536.930,1.102,1090.778,321.637,1.015,693.273,358.004,1.160,939.178,160.379,0.821,543.805,230.090,0.918,-0.028,-0.974,1.404,0.000,-351.056,0.000,-0.018,0.011,-0.007,0.068,-1.157,1.352
0722_175549_0153.png,0.007,0.169,0.933,-0.059,0.171,0.934,0.111,-0.003,1.148,-0.182,-0.017,1.086,0.070,-0.176,0.939,-0.244,-0.224,1.253,0.028,-0.343,0.735,-0.252,-0.282,0.999,967.372,712.559,0.933,899.955,714.027,0.934,1051.831,537.729,1.148,801.089,525.138,1.086,1030.439,362.183,0.939,774.537,370.088,1.253,996.005,95.490,0.735,719.932,271.381,0.999,-0.031,-0.962,1.401,0.000,-346.567,0.000,-0.008,-0.010,0.014,0.203,-0.814,1.552
0722_175549_0154.png,0.038,0.168,0.938,-0.027,0.166,0.932,0.144,-0.003,1.120,-0.150,-0.003,1.119,0.168,-0.268,1.152,-0.233,-0.234,1.012,0.147,-0.311,0.896,-0.237,-0.341,0.776,998.045,710.465,0.938,932.046,709.520,0.932,1082.579,537.173,1.120,832.756,537.037,1.119,1098.583,318.864,1.152,741.451,320.471,1.012,1115.615,210.191,0.896,669.332,121.898,0.776,-0.035,-0.972,1.403,0.000,-358.689,0.000,0.009,0.011,0.014,0.288,-1.023,1.275
0722_175549_0155.png,0.033,0.169,0.931,-0.034,0.171,0.937,0.161,-0.003,1.115,-0.142,0.000,1.130,0.117,-0.193,0.921,-0.273,-0.195,0.988,0.030,-0.354,0.725,-0.347,-0.338,0.775,993.450,712.922,0.931,925.026,713.464,0.937,1097.614,537.291,1.115,840.096,540.291,1.130,1080.846,340.668,0.921,697.547,352.059,0.988,999.027,75.334,0.725,533.928,125.388,0.775,-0.040,-0.969,1.403,0.000,-1.790,0.000,-0.025,-0.004,-0.009,-0.204,-0.909,1.688
0722_175549_0156.png,0.012,0.154,0.932,-0.051,0.157,0.939,0.134,-0.013,1.115,-0.152,-0.011,1.125,0.170,-0.188,0.914,-0.204,-0.251,1.026,0.205,-0.359,0.718,-0.066,-0.338,0.827,972.125,697.590,0.932,907.984,698.598,0.939,1074.471,529.106,1.115,831.208,531.118,1.125,1136.784,344.655,0.914,770.757,307.481,1.026,1231.949,65.286,0.718,884.176,151.475,0.827,-0.024,-0.965,1.402,0.000,-0.851,0.000,0.034,0.015,0.022,-0.286,-1.094,1.309
0722_175549_0157.png,0.039,0.160,0.951,-0.026,0.159,0.951,0.158,-0.015,1.114,-0.136,-0.009,1.142,0.148,-0.276,1.067,-0.201,-0.202,0.958,0.102,-0.331,0.812,-0.212,-0.353,0.736,999.350,700.052,0.951,933.950,699.379,0.951,1094.582,526.966,1.114,846.742,532.609,1.142,1092.037,293.922,1.067,760.513,339.685,0.958,1079.174,152.626,0.812,685.883,84.338,0.736,-0.035,-0.965,1.402,0.000,-4.381,0.000,0.006,0.042,-0.014,-0.045,-0.871,1.093
0722_175549_0158.png,0.050,0.146,0.935,-0.014,0.142,0.929,0.164,-0.022,1.090,-0.119,-0.009,1.146,0.222,-0.269,1.164,-0.229,-0.248,1.165,0.246,-0.310,0.912,-0.198,-0.307,0.917,1010.807,688.877,0.935,946.049,685.423,0.929,1102.679,520.541,1.090,861.223,532.224,1.146,1141.068,320.335,1.164,772.881,337.262,1.165,1216.127,216.446,0.912,754.117,221.958,0.917,-0.034,-0.963,1.401,0.000,-10.376,0.000,0.029,0.023,0.025,0.062,-1.228,1.357
0722_175549_0159.png,0.014,0.174,0.937,-0.053,0.177,0.945,0.146,0.001,1.123,-0.160,0.002,1.127,0.181,-0.194,1.303,-0.230,-0.249,1.049,0.226,-0.261,1.047,-0.054,-0.318,0.857,974.550,716.388,0.937,906.890,717.598,0.945,1083.241,541.117,1.123,825.056,541.955,1.127,1092.021,398.044,1.303,751.497,314.184,1.049,1165.414,302.922,1.047,900.204,187.198,0.857,-0.029,-0.973,1.404,0.000,0.338,0.000,-0.029,0.011,-0.020,-0.313,-0.875,1.427
0722_175549_0160.png,0.025,0.160,0.947,-0.041,0.160,0.949,0.144,-0.012,1.131,-0.155,-0.011,1.135,0.247,-0.259,1.150,-0.229,-0.231,0.982,0.086,-0.301,0.938,-0.166,-0.353,0.746,984.983,700.563,0.947,918.611,700.696,0.949,1080.840,530.122,1.131,830.175,531.035,1.135,1164.433,325.917,1.150,738.210,316.276,0.982,1047.294,234.485,0.938,748.692,89.755,0.746,-0.030,-0.959,1.401,0.000,0.278,0.000,-0.006,0.019,-0.040,-0.036,-0.964,1.162
0722_175549_0161.png,0.020,0.177,0.928,-0.047,0.179,0.930,0.137,0.000,1.127,-0.166,-0.004,1.110,0.269,-0.211,1.252,-0.304,-0.237,1.061,0.290,-0.284,1.001,-0.348,-0.328,0.820,980.287,721.892,0.928,911.544,722.600,0.930,1075.765,539.602,1.127,818.125,536.332,1.110,1164.444,379.936,1.252,687.490,327.996,1.061,1235.031,269.817,1.001,555.798,159.254,0.820,-0.031,-0.965,1.402,0.000,-355.611,0.000,-0.021,-0.030,0.006,0.017,-1.028,1.114
0722_175549_0162.png,0.017,0.172,0.940,-0.050,0.172,0.940,0.133,-0.004,1.133,-0.170,-0.007,1.118,0.172,-0.229,0.981,-0.169,-0.254,0.999,0.090,-0.346,0.754,-0.055,-0.342,0.772,977.414,713.714,0.940,909.286,714.099,0.940,1071.625,536.595,1.133,815.066,533.748,1.118,1127.060,317.591,0.981,799.078,298.158,0.999,1073.766,103.577,0.754,891.815,119.437,0.772,-0.026,-0.964,1.402,0.000,-356.051,0.000,-0.023,-0.004,-0.017,0.079,-0.941,1.142
0722_175549_0163.png,0.056,0.161,0.930,-0.007,0.156,0.924,0.169,-0.020,1.078,-0.105,-0.003,1.151,0.154,-0.278,1.005,-0.187,-0.237,1.050,-0.018,-0.346,0.825,-0.184,-0.345,0.815,1017.194,704.510,0.930,953.010,700.812,0.924,1109.419,522.636,1.078,873.179,537.567,1.151,1106.013,276.975,1.005,790.441,325.484,1.050,939.507,141.691,0.825,745.770,137.713,0.815,-0.035,-0.962,1.401,0.000,-14.063,0.000,0.042,-0.007,0.017,0.026,-1.000,1.674
0722_175549_0164.png,0.023,0.158,0.951,-0.043,0.158,0.949,0.130,-0.007,1.146,-0.166,-0.014,1.114,0.287,-0.216,1.073,-0.262,-0.190,0.922,0.368,-0.321,0.838,-0.319,-0.355,0.715,983.352,698.327,0.951,917.203,698.770,0.949,1068.099,534.189,1.146,818.175,527.944,1.114,1214.098,348.678,1.073,689.477,344.272,0.922,1377.285,175.586,0.838,535.666,67.676,0.715,-0.035,-0.965,1.402,0.000,-352.700,0.000,-0.004,0.039,-0.025,0.251,-0.906,1.242
0722_175549_0165.png,-0.005,0.175,0.946,-0.069,0.179,0.959,0.108,0.005,1.161,-0.177,-0.011,1.093,0.094,-0.174,0.937,-0.283,-0.255,1.095,0.084,-0.349,0.718,-0.140,-0.321,0.874,954.988,715.467,0.946,891.462,717.939,0.959,1048.255,543.904,1.161,805.669,530.648,1.093,1055.503,363.607,0.937,714.593,318.259,1.095,1071.415,78.622,0.718,807.135,190.945,0.874,-0.037,-0.970,1.403,0.000,-345.174,0.000,0.011,0.026,-0.039,-0.153,-0.642,1.436
0722_175549_0166.png,-0.002,0.167,0.933,-0.066,0.172,0.943,0.119,0.003,1.140,-0.172,-0.003,1.115,0.186,-0.233,1.253,-0.230,-0.189,0.914,0.188,-0.295,0.989,-0.274,-0.368,0.710,958.000,710.591,0.933,893.564,713.383,0.943,1059.548,542.631,1.140,813.705,537.865,1.115,1101.247,362.912,1.253,720.745,342.854,0.914,1141.298,256.057,0.989,593.378,47.566,0.710,-0.024,-0.968,1.403,0.000,-353.864,0.000,0.017,-0.001,-0.035,-0.293,-1.084,1.258
0722_175549_0167.png,-0.005,0.153,0.933,-0.069,0.156,0.938,0.098,-0.010,1.151,-0.184,-0.025,1.085,0.099,-0.215,0.983,-0.280,-0.201,1.261,-0.002,-0.344,0.784,-0.448,-0.267,1.077,954.860,695.694,0.933,889.884,698.379,0.938,1041.227,532.106,1.151,798.338,518.395,1.085,1055.828,332.192,0.983,748.548,388.642,1.261,957.895,122.870,0.784,564.314,303.950,1.077,-0.026,-0.959,1.401,0.000,-345.421,0.000,0.021,0.012,0.022,0.068,-0.889,1.661
0722_175549_0168.png,-0.003,0.169,0.929,-0.069,0.176,0.942,0.117,0.007,1.155,-0.179,-0.006,1.096,0.081,-0.172,0.932,-0.211,-0.259,0.983,0.047,-0.347,0.716,-0.056,-0.347,0.776,956.624,713.333,0.929,890.421,717.568,0.942,1056.065,545.822,1.155,804.571,534.381,1.096,1042.390,364.466,0.932,756.286,289.338,0.983,1022.903,78.636,0.716,891.373,114.449,0.776,-0.035,-0.966,1.402,0.000,-347.272,0.000,-0.017,-0.014,-0.040,-0.241,-1.017,1.424
0722_175549_0169.png,0.014,0.180,0.935,-0.050,0.181,0.938,0.122,0.001,1.134,-0.164,-0.005,1.108,0.079,-0.178,0.925,-0.220,-0.187,0.905,0.040,-0.354,0.721,-0.277,-0.364,0.708,973.786,723.330,0.935,909.128,724.057,0.938,1062.159,540.545,1.134,818.924,535.557,1.108,1041.388,356.925,0.925,728.463,343.888,0.905,1012.334,73.759,0.721,587.815,50.733,0.708,-0.029,-0.966,1.402,0.000,-353.633,0.000,0.032,-0.016,-0.005,0.066,-0.841,1.219
0722_175549_0170.png,0.009,0.166,0.935,-0.059,0.168,0.937,0.122,0.000,1.147,-0.181,-0.011,1.101,0.072,-0.175,0.931,-0.335,-0.226,1.168,0.023,-0.345,0.720,-0.407,-0.297,0.920,969.202,708.878,0.935,900.463,710.661,0.937,1060.797,540.072,1.147,803.799,530.908,1.101,1033.757,361.058,0.931,687.592,355.678,1.168,990.807,83.857,0.720,539.282,232.869,0.920,-0.030,-0.965,1.402,0.000,-349.924,0.000,-0.031,-0.003,-0.017,0.092,-0.933,1.543
0722_175549_0171.png,0.059,0.178,0.935,-0.005,0.174,0.928,0.175,-0.012,1.080,-0.105,0.005,1.153,0.168,-0.233,0.920,-0.257,-0.206,1.077,0.138,-0.373,0.697,-0.226,-0.335,0.849,1020.106,720.774,0.935,954.908,718.235,0.928,1113.890,529.261,1.080,873.128,543.719,1.153,1133.538,299.642,0.920,733.204,357.641,1.077,1147.578,31.593,0.697,706.825,164.906,0.849,-0.038,-0.967,1.402,0.000,-13.741,0.000,0.024,-0.013,-0.003,-0.013,-0.970,1.089
0722_175549_0172.png,0.044,0.183,0.926,-0.021,0.181,0.924,0.162,-0.004,1.097,-0.126,0.006,1.138,0.276,-0.207,1.252,-0.236,-0.174,0.961,0.265,-0.302,1.004,-0.345,-0.350,0.791,1004.935,727.609,0.926,938.563,726.204,0.924,1100.480,536.880,1.097,854.611,544.911,1.138,1169.984,382.536,1.252,726.059,368.073,0.961,1211.035,253.638,1.004,544.870,119.249,0.791,-0.036,-0.965,1.402,0.000,-7.180,0.000,0.019,-0.045,-0.007,-0.031,-0.912,1.601
0722_175549_0173.png,0.050,0.173,0.944,-0.018,0.171,0.941,0.169,-0.010,1.106,-0.131,-0.001,1.145,0.277,-0.244,1.185,-0.217,-0.256,1.104,0.341,-0.298,0.929,-0.188,-0.322,0.845,1009.891,713.763,0.944,942.315,712.476,0.941,1105.388,531.585,1.106,851.110,539.358,1.145,1182.090,344.107,1.185,773.375,319.496,1.104,1309.018,235.560,0.929,747.907,177.840,0.845,-0.038,-0.966,1.402,0.000,-6.462,0.000,-0.020,0.008,-0.024,0.023,-0.908,1.080
0722_175549_0174.png,0.007,0.163,0.925,-0.060,0.167,0.930,0.126,0.003,1.141,-0.178,-0.006,1.101,0.092,-0.175,0.929,-0.279,-0.261,1.082,0.057,-0.347,0.723,-0.125,-0.314,0.870,967.694,707.742,0.925,898.565,710.390,0.930,1064.826,542.562,1.141,806.239,534.897,1.101,1053.864,361.117,0.929,714.308,310.756,1.082,1035.047,83.078,0.723,822.970,197.353,0.870,-0.029,-0.967,1.402,0.000,-351.307,0.000,-0.032,-0.016,-0.008,-0.048,-1.193,1.405
0722_175549_0175.png,0.002,0.190,0.924,-0.062,0.194,0.937,0.122,0.006,1.143,-0.171,-0.006,1.092,0.157,-0.172,0.931,-0.271,-0.254,1.024,0.190,-0.347,0.724,-0.166,-0.346,0.798,962.355,735.497,0.924,896.755,737.363,0.937,1061.736,544.990,1.143,811.394,535.065,1.092,1120.159,363.847,0.931,707.960,303.674,1.024,1209.719,84.559,0.724,762.222,127.554,0.798,-0.037,-0.964,1.402,0.000,-348.747,0.000,-0.002,-0.050,-0.005,-0.252,-0.739,1.416
0722_175549_0176.png,0.020,0.167,0.932,-0.044,0.168,0.936,0.139,-0.002,1.123,-0.152,-0.001,1.127,0.128,-0.246,0.997,-0.266,-0.226,1.023,0.007,-0.355,0.786,-0.309,-0.349,0.787,980.750,710.610,0.932,915.330,711.172,0.936,1077.640,538.367,1.123,832.158,539.192,1.127,1081.759,304.987,0.997,712.881,329.686,1.023,968.047,110.422,0.786,587.135,118.501,0.787,-0.029,-0.967,1.402,0.000,0.318,0.000,0.022,-0.007,-0.022,-0.120,-1.062,1.416
0722_175549_0177.png,0.041,0.184,0.932,-0.024,0.184,0.932,0.162,-0.015,1.092,-0.129,-0.005,1.136,0.120,-0.263,0.997,-0.265,-0.241,1.157,-0.017,-0.344,0.796,-0.309,-0.314,0.914,1002.116,727.928,0.932,935.658,727.537,0.932,1100.844,527.139,1.092,852.191,536.161,1.136,1074.726,289.094,0.997,742.171,342.061,1.157,939.564,128.491,0.796,638.447,213.633,0.914,-0.034,-0.960,1.401,0.000,-7.720,0.000,0.010,-0.035,0.028,-0.115,-0.671,1.344
0722_175549_0178.png,0.060,0.192,0.926,-0.006,0.187,0.916,0.173,-0.004,1.073,-0.119,0.012,1.146,0.105,-0.187,0.886,-0.275,-0.155,0.998,0.037,-0.365,0.704,-0.427,-0.320,0.853,1021.209,736.946,0.926,953.943,734.094,0.916,1113.007,536.202,1.073,861.448,550.338,1.146,1072.407,339.477,0.886,697.578,391.954,0.998,1009.451,47.653,0.704,484.690,183.787,0.853,-0.032,-0.971,1.403,0.000,-13.215,0.000,-0.013,-0.046,0.014,0.199,-0.931,1.292
0722_175549_0179.png,0.035,0.181,0.925,-0.030,0.178,0.919,0.145,0.000,1.107,-0.148,0.004,1.124,0.163,-0.264,1.035,-0.320,-0.174,1.014,-0.013,-0.336,0.856,-0.448,-0.331,0.847,995.605,725.705,0.925,928.735,724.226,0.919,1084.415,540.266,1.107,834.440,543.590,1.124,1110.041,297.657,1.035,659.519,377.123,1.014,945.724,166.576,0.856,456.782,167.911,0.847,-0.028,-0.968,1.403,0.000,-2.255,0.000,0.011,-0.043,0.010,0.213,-1.136,1.228
0722_175549_0180.png,0.008,0.170,0.941,-0.055,0.173,0.950,0.126,0.001,1.137,-0.159,-0.004,1.116,0.252,-0.229,1.079,-0.184,-0.187,0.904,0.214,-0.337,0.837,-0.212,-0.366,0.699,968.180,711.606,0.941,905.255,713.513,0.950,1065.441,540.811,1.137,824.349,536.568,1.116,1182.281,338.473,1.079,766.673,343.008,0.904,1203.512,156.988,0.837,672.145,41.660,0.699,-0.032,-0.972,1.404,0.000,-354.356,0.000,0.036,0.023,-0.020,-0.234,-0.828,1.416
0722_175549_0181.png,0.039,0.157,0.946,-0.025,0.154,0.942,0.156,-0.015,1.107,-0.131,-0.005,1.151,0.085,-0.193,0.896,-0.281,-0.222,1.092,0.020,-0.368,0.689,-0.323,-0.330,0.846,999.389,697.805,0.946,934.617,695.756,0.942,1093.752,527.198,1.107,851.900,536.109,1.151,1050.302,334.808,0.896,715.383,346.868,1.092,987.421,32.269,0.689,597.369,169.151,0.846,-0.028,-0.963,1.402,0.000,-7.851,0.000,0.023,0.027,-0.032,-0.018,-1.066,1.215
0722_175549_0182.png,0.030,0.156,0.939,-0.034,0.155,0.940,0.151,-0.010,1.106,-0.134,0.000,1.149,0.088,-0.191,0.894,-0.297,-0.201,1.069,0.029,-0.369,0.687,-0.358,-0.334,0.840,990.557,698.251,0.939,925.807,696.800,0.940,1090.096,531.437,1.106,849.503,539.980,1.149,1053.071,336.930,0.894,696.293,361.104,1.069,1000.693,30.194,0.687,554.443,162.444,0.840,-0.025,-0.968,1.402,0.000,-7.680,0.000,0.029,0.025,-0.032,-0.175,-1.146,1.341
0722_175549_0183.png,0.037,0.181,0.927,-0.029,0.181,0.931,0.165,-0.002,1.105,-0.132,0.005,1.138,0.250,-0.209,1.273,-0.246,-0.210,1.273,0.336,-0.286,1.031,-0.267,-0.287,1.015,998.082,725.209,0.927,930.482,724.905,0.931,1101.642,538.006,1.105,849.928,544.579,1.138,1146.533,383.993,1.273,775.972,382.963,1.273,1270.278,276.286,1.031,709.800,270.781,1.015,-0.038,-0.965,1.402,0.000,-5.529,0.000,-0.005,-0.037,-0.022,-0.256,-1.041,1.190
0722_175549_0184.png,0.011,0.168,0.946,-0.054,0.172,0.955,0.135,-0.001,1.135,-0.160,-0.003,1.124,0.255,-0.238,1.131,-0.148,-0.185,0.910,0.107,-0.306,0.919,-0.137,-0.362,0.701,970.798,709.182,0.946,906.083,710.740,0.955,1072.979,539.423,1.135,824.218,537.277,1.124,1174.220,339.508,1.131,805.864,346.894,0.910,1070.334,222.915,0.919,773.821,49.612,0.701,-0.031,-0.972,1.404,0.000,-356.637,0.000,0.005,0.036,-0.030,-0.265,-0.805,1.351
0722_175549_0185.png,0.038,0.174,0.930,-0.030,0.172,0.926,0.154,-0.007,1.103,-0.150,-0.002,1.127,0.181,-0.238,1.251,-0.282,-0.218,1.236,0.184,-0.278,0.996,-0.389,-0.277,1.008,998.359,717.998,0.930,929.423,716.784,0.926,1092.392,533.979,1.103,833.441,538.672,1.127,1097.672,358.951,1.251,743.250,372.581,1.236,1135.606,274.730,0.996,593.231,278.546,1.008,-0.029,-0.967,1.402,0.000,-3.379,0.000,-0.025,-0.018,0.027,0.131,-0.887,1.636
0722_175549_0186.png,0.021,0.151,0.932,-0.048,0.152,0.932,0.139,-0.005,1.129,-0.170,-0.007,1.118,0.238,-0.243,1.046,-0.279,-0.235,1.021,0.128,-0.320,0.817,-0.224,-0.330,0.781,981.215,694.132,0.932,911.388,694.609,0.932,1077.226,536.111,1.129,815.832,534.015,1.118,1175.883,319.383,1.046,699.647,320.821,1.021,1108.983,167.790,0.817,687.571,137.711,0.781,-0.027,-0.968,1.403,0.000,-356.822,0.000,-0.040,0.014,-0.002,0.066,-1.247,1.483
0722_175549_0187.png,0.048,0.167,0.933,-0.020,0.166,0.933,0.172,-0.015,1.089,-0.129,-0.004,1.139,0.235,-0.233,1.234,-0.298,-0.213,1.132,0.289,-0.274,0.986,-0.199,-0.297,0.909,1008.688,710.488,0.933,939.795,709.462,0.933,1110.594,526.698,1.089,852.687,537.006,1.139,1141.331,360.588,1.234,709.299,361.268,1.132,1238.964,275.992,0.986,751.406,228.872,0.909,-0.038,-0.968,1.403,0.000,-8.627,0.000,-0.029,0.007,0.036,-0.118,-0.840,1.551
0722_175549_0188.png,0.012,0.162,0.930,-0.053,0.163,0.932,0.123,-0.011,1.128,-0.169,-0.016,1.102,0.222,-0.257,1.105,-0.278,-0.250,1.038,0.081,-0.311,0.899,-0.295,-0.334,0.801,972.132,705.701,0.930,905.891,706.612,0.932,1063.770,531.076,1.128,814.436,525.867,1.102,1150.977,318.615,1.105,705.079,311.294,1.038,1045.973,210.628,0.899,609.266,143.410,0.801,-0.026,-0.962,1.401,0.000,-353.757,0.000,0.013,-0.005,0.044,0.051,-0.988,1.309
0722_175549_0189.png,-0.007,0.165,0.941,-0.074,0.169,0.949,0.111,-0.002,1.149,-0.187,-0.013,1.097,0.049,-0.173,0.938,-0.234,-0.167,1.307,-0.013,-0.338,0.732,-0.299,-0.253,1.065,952.893,706.993,0.941,886.300,709.213,0.949,1052.184,538.743,1.149,797.567,528.346,1.097,1009.632,364.963,0.938,789.473,418.708,1.307,943.261,100.291,0.732,693.298,314.215,1.065,-0.024,-0.969,1.403,0.000,-348.724,0.000,-0.022,0.028,-0.002,-0.108,-0.783,1.449
0722_175549_0190.png,0.043,0.153,0.943,-0.023,0.151,0.940,0.158,-0.021,1.107,-0.138,-0.015,1.133,0.114,-0.232,0.959,-0.231,-0.259,1.161,0.008,-0.342,0.752,-0.187,-0.297,0.912,1003.551,694.328,0.943,937.217,693.209,0.940,1095.866,521.849,1.107,844.349,527.221,1.133,1073.393,309.403,0.959,771.169,327.732,1.161,970.466,108.228,0.752,765.428,230.635,0.912,-0.036,-0.962,1.401,0.000,-3.924,0.000,-0.001,0.034,0.032,0.089,-0.909,1.369
0722_175549_0191.png,0.051,0.160,0.944,-0.017,0.158,0.940,0.168,-0.016,1.108,-0.138,-0.010,1.136,0.133,-0.248,0.982,-0.304,-0.202,1.226,-0.018,-0.328,0.782,-0.430,-0.268,1.006,1010.923,701.582,0.944,942.556,700.263,0.940,1104.019,526.303,1.108,844.630,531.996,1.136,1088.350,300.054,0.982,724.527,383.214,1.226,938.053,140.809,0.782,553.996,286.276,1.006,-0.040,-0.965,1.402,0.000,-4.169,0.000,-0.034,0.026,0.012,0.137,-0.936,1.206
0722_175549_0192.png,0.024,0.186,0.932,-0.040,0.186,0.934,0.146,-0.003,1.104,-0.144,0.003,1.134,0.278,-0.222,1.207,-0.283,-0.228,1.178,0.240,-0.308,0.960,-0.315,-0.313,0.929,984.683,729.614,0.932,918.846,729.353,0.934,1085.721,537.057,1.104,839.213,542.902,1.134,1178.901,365.007,1.207,731.456,355.607,1.178,1197.827,234.862,0.960,638.015,219.765,0.929,-0.025,-0.967,1.402,0.000,-4.871,0.000,0.018,-0.028,-0.004,-0.184,-0.807,1.311
0722_175549_0193.png,-0.008,0.177,0.938,-0.073,0.182,0.952,0.112,0.006,1.152,-0.179,-0.006,1.101,0.051,-0.172,0.937,-0.255,-0.263,1.051,-0.006,-0.346,0.727,-0.086,-0.331,0.853,951.568,719.386,0.938,887.519,722.162,0.952,1052.690,544.831,1.152,805.234,534.943,1.101,1012.117,365.578,0.937,728.980,302.020,1.051,952.646,87.749,0.727,864.050,171.010,0.853,-0.030,-0.969,1.403,0.000,-348.660,0.000,0.003,0.004,-0.034,-0.299,-0.787,1.329
0722_175549_0194.png,0.012,0.164,0.941,-0.053,0.166,0.947,0.130,-0.009,1.132,-0.164,-0.013,1.114,0.206,-0.180,0.935,-0.158,-0.230,0.957,0.280,-0.346,0.742,-0.100,-0.354,0.734,972.050,705.870,0.941,906.486,706.993,0.947,1069.402,532.695,1.132,819.548,528.971,1.114,1169.781,357.113,0.935,802.739,311.244,0.957,1318.872,96.387,0.742,830.090,81.668,0.734,-0.029,-0.965,1.402,0.000,-355.170,0.000,0.005,0.022,0.009,-0.117,-0.867,1.153
0722_175549_0195.png,-0.002,0.168,0.929,-0.066,0.171,0.934,0.100,0.004,1.149,-0.181,-0.008,1.094,0.126,-0.179,0.936,-0.279,-0.253,1.031,0.155,-0.358,0.731,-0.298,-0.354,0.785,957.637,711.934,0.929,893.035,714.613,0.934,1042.791,543.601,1.149,802.672,532.937,1.094,1088.181,358.526,0.936,702.501,306.460,1.031,1161.193,73.758,0.731,599.582,110.982,0.785,-0.024,-0.967,1.402,0.000,-347.616,0.000,0.035,-0.013,-0.014,0.065,-1.097,1.271
0722_175549_0196.png,-0.005,0.163,0.931,-0.071,0.166,0.937,0.105,-0.008,1.149,-0.188,-0.023,1.080,0.228,-0.223,1.260,-0.167,-0.248,0.945,0.348,-0.267,1.038,-0.110,-0.350,0.719,954.470,706.250,0.931,887.427,708.378,0.937,1047.352,533.716,1.149,794.709,519.529,1.080,1131.771,371.820,1.260,792.378,290.608,0.945,1278.256,295.413,1.038,814.884,77.837,0.719,-0.027,-0.961,1.401,0.000,-345.416,0.000,-0.015,-0.001,0.036,0.013,-0.783,1.607
0722_175549_0197.png,0.015,0.147,0.933,-0.050,0.149,0.937,0.135,-0.006,1.127,-0.158,-0.006,1.127,0.062,-0.181,0.918,-0.210,-0.241,1.001,-0.006,-0.352,0.715,-0.081,-0.344,0.792,975.067,690.375,0.933,909.244,691.529,0.937,1073.633,535.266,1.127,826.490,535.276,1.127,1024.523,353.051,0.918,760.596,310.760,1.001,951.856,72.274,0.715,862.520,127.131,0.792,-0.026,-0.967,1.402,0.000,-358.837,0.000,0.014,0.019,-0.017,-0.138,-1.284,1.497
0722_175549_0198.png,-0.002,0.147,0.933,-0.068,0.151,0.940,0.117,-0.003,1.143,-0.181,-0.011,1.107,0.156,-0.245,1.031,-0.322,-0.235,1.057,-0.017,-0.321,0.844,-0.362,-0.326,0.811,957.983,689.383,0.933,891.098,692.577,0.940,1057.577,537.385,1.143,804.361,530.382,1.107,1103.384,314.032,1.031,670.553,328.921,1.057,940.391,178.285,0.844,535.228,157.975,0.811,-0.022,-0.969,1.403,0.000,-351.955,0.000,-0.013,0.030,-0.006,-0.140,-1.283,1.304
0722_175549_0199.png,0.032,0.176,0.922,-0.035,0.177,0.927,0.161,-0.003,1.104,-0.141,0.003,1.128,0.300,-0.240,1.090,-0.209,-0.233,1.014,0.354,-0.321,0.848,-0.079,-0.334,0.809,993.327,721.051,0.922,924.584,721.192,0.927,1098.452,537.809,1.104,841.421,542.479,1.128,1221.653,330.672,1.090,764.298,321.590,1.014,1357.773,179.535,0.848,866.944,147.205,0.809,-0.037,-0.968,1.403,0.000,-3.472,0.000,-0.018,-0.031,0.013,-0.249,-1.106,1.239
0722_175549_0200.png,0.002,0.182,0.934,-0.062,0.184,0.942,0.116,-0.004,1.143,-0.174,-0.014,1.099,0.241,-0.238,1.079,-0.302,-0.249,1.167,0.168,-0.336,0.845,-0.190,-0.312,0.936,962.531,725.121,0.934,897.455,726.243,0.942,1056.221,536.759,1.143,809.722,527.889,1.099,1172.688,330.204,1.079,713.737,337.404,1.167,1149.304,162.557,0.845,766.906,222.866,0.936,-0.030,-0.958,1.400,0.000,-349.969,0.000,0.014,-0.032,-0.003,-0.086,-0.655,1.422
0722_175549_0201.png,0.004,0.143,0.932,-0.060,0.149,0.941,0.117,-0.006,1.146,-0.168,-0.015,1.105,0.084,-0.179,0.929,-0.246,-0.190,0.906,0.054,-0.348,0.718,-0.325,-0.359,0.712,963.741,686.247,0.932,899.689,690.243,0.941,1057.303,535.122,1.146,815.309,526.774,1.105,1045.982,357.114,0.929,701.230,340.768,0.906,1031.646,79.089,0.718,525.945,60.134,0.712,-0.033,-0.964,1.402,0.000,-350.386,0.000,0.028,0.024,-0.009,-0.165,-1.273,1.359
0722_175549_0202.png,0.034,0.166,0.934,-0.033,0.166,0.936,0.155,-0.008,1.110,-0.143,-0.004,1.130,0.291,-0.216,1.213,-0.216,-0.262,1.135,0.205,-0.287,0.978,-0.170,-0.309,0.882,994.191,708.808,0.934,926.781,708.573,0.936,1093.133,533.010,1.110,839.590,536.974,1.130,1188.417,370.300,1.213,778.861,320.666,1.135,1159.230,260.368,0.978,777.044,207.059,0.882,-0.035,-0.968,1.403,0.000,-2.733,0.000,-0.008,0.008,0.012,-0.092,-0.958,1.416
0722_175549_0203.png,0.032,0.179,0.939,-0.033,0.179,0.939,0.152,-0.004,1.109,-0.142,0.001,1.133,0.291,-0.235,1.087,-0.125,-0.179,0.922,0.331,-0.326,0.843,-0.108,-0.354,0.716,992.908,721.575,0.939,926.602,721.207,0.939,1090.705,536.165,1.109,840.955,541.091,1.133,1214.913,334.490,1.087,831.440,355.739,0.922,1333.307,172.433,0.843,816.215,69.778,0.716,-0.031,-0.970,1.403,0.000,-3.832,0.000,0.005,0.000,-0.001,-0.087,-0.815,1.240
0722_175549_0204.png,-0.007,0.166,0.921,-0.073,0.171,0.927,0.102,0.005,1.146,-0.189,-0.010,1.079,0.262,-0.213,1.175,-0.180,-0.248,0.958,0.151,-0.296,0.955,-0.091,-0.349,0.740,952.259,711.583,0.921,884.930,715.034,0.927,1045.011,544.318,1.146,793.193,530.926,1.079,1172.412,367.829,1.175,781.514,293.993,0.958,1110.684,244.773,0.955,843.322,90.854,0.740,-0.024,-0.970,1.403,0.000,-345.484,0.000,-0.010,-0.015,0.026,-0.014,-0.985,1.727
0722_175549_0205.png,0.044,0.160,0.926,-0.019,0.157,0.923,0.161,-0.012,1.096,-0.120,-0.001,1.144,0.090,-0.193,0.899,-0.226,-0.172,0.950,0.025,-0.371,0.707,-0.331,-0.339,0.764,1005.575,704.574,0.926,940.584,701.903,0.923,1099.724,529.846,1.096,860.309,539.367,1.144,1055.721,335.942,0.899,734.226,368.263,0.950,993.043,40.799,0.707,547.825,117.884,0.764,-0.035,-0.961,1.401,0.000,-8.694,0.000,0.040,-0.025,-0.007,-0.027,-1.222,1.530
0722_175549_0206.png,0.011,0.144,0.933,-0.052,0.147,0.938,0.124,-0.012,1.137,-0.161,-0.017,1.112,0.278,-0.209,1.045,-0.240,-0.189,0.911,0.383,-0.331,0.838,-0.318,-0.356,0.716,971.316,686.823,0.933,907.128,689.150,0.938,1064.157,530.137,1.137,822.294,525.200,1.112,1213.226,349.566,1.045,709.806,343.209,0.911,1394.878,164.287,0.838,537.296,67.905,0.716,-0.031,-0.960,1.401,0.000,-353.891,0.000,0.035,0.017,0.003,-0.096,-1.150,1.560
0722_175549_0207.png,0.003,0.160,0.949,-0.062,0.162,0.954,0.119,-0.014,1.141,-0.175,-0.022,1.108,0.194,-0.199,1.310,-0.319,-0.241,1.066,0.273,-0.257,1.069,-0.361,-0.323,0.822,963.454,700.032,0.949,898.272,701.116,0.954,1059.035,528.446,1.141,809.520,521.502,1.108,1100.757,395.455,1.310,675.749,325.141,1.066,1203.168,311.166,1.069,542.392,166.406,0.822,-0.025,-0.961,1.401,0.000,-352.179,0.000,0.003,0.037,0.011,-0.046,-0.659,1.447
0722_175549_0208.png,0.000,0.161,0.924,-0.066,0.165,0.931,0.121,-0.008,1.133,-0.178,-0.017,1.095,0.188,-0.246,1.039,-0.340,-0.236,1.083,0.047,-0.323,0.836,-0.349,-0.318,0.844,960.104,706.116,0.924,892.545,708.423,0.931,1061.711,533.194,1.133,805.155,525.353,1.095,1131.821,314.701,1.039,661.653,332.792,1.083,1013.311,172.642,0.836,566.754,181.581,0.844,-0.026,-0.961,1.401,0.000,-351.392,0.000,-0.017,-0.015,0.043,-0.150,-0.916,1.688
0722_175549_0209.png,0.015,0.165,0.927,-0.050,0.166,0.930,0.132,-0.007,1.123,-0.161,-0.008,1.120,0.244,-0.225,1.251,-0.226,-0.254,1.020,0.397,-0.282,1.045,-0.088,-0.342,0.814,975.289,709.380,0.927,908.723,710.019,0.930,1072.158,533.815,1.123,823.024,533.303,1.120,1145.362,368.876,1.251,749.678,303.414,1.020,1321.493,283.187,1.045,857.039,140.453,0.814,-0.025,-0.959,1.401,0.000,-358.317,0.000,0.010,-0.028,-0.002,-0.074,-1.119,1.316
0722_175549_0210.png,0.012,0.185,0.934,-0.054,0.188,0.941,0.125,0.010,1.145,-0.167,0.000,1.101,0.210,-0.215,1.276,-0.212,-0.262,1.028,0.267,-0.284,1.021,-0.055,-0.340,0.824,971.820,728.339,0.934,905.736,730.118,0.941,1064.010,548.222,1.145,815.304,539.754,1.101,1116.456,379.573,1.276,763.904,297.254,1.028,1208.928,275.824,1.021,896.349,147.299,0.824,-0.038,-0.972,1.404,0.000,-349.997,0.000,0.002,-0.014,-0.027,-0.059,-0.847,1.218
0722_175549_0211.png,0.001,0.169,0.933,-0.063,0.173,0.945,0.127,0.002,1.137,-0.168,-0.003,1.116,0.221,-0.209,1.276,-0.223,-0.259,1.038,0.387,-0.267,1.075,-0.056,-0.333,0.842,961.164,711.709,0.933,896.262,714.413,0.945,1066.507,541.676,1.137,816.983,537.559,1.116,1124.473,384.026,1.276,755.807,302.366,1.038,1302.259,303.381,1.075,897.037,163.580,0.842,-0.028,-0.969,1.403,0.000,-354.616,0.000,0.003,0.002,-0.026,-0.362,-1.010,1.301
0722_175549_0212.png,0.033,0.171,0.948,-0.035,0.171,0.947,0.150,-0.007,1.133,-0.156,-0.008,1.127,0.303,-0.234,1.126,-0.133,-0.234,0.966,0.383,-0.310,0.877,-0.056,-0.351,0.732,993.073,711.720,0.948,925.054,711.754,0.947,1085.943,534.299,1.133,828.795,533.224,1.127,1215.640,342.205,1.126,829.317,309.791,0.966,1375.712,204.148,0.877,887.086,83.992,0.732,-0.038,-0.962,1.401,0.000,-357.789,0.000,-0.029,0.007,-0.036,0.092,-0.780,1.372
0722_175549_0213.png,0.027,0.178,0.923,-0.038,0.179,0.922,0.132,0.010,1.133,-0.157,0.003,1.104,0.154,-0.268,1.140,-0.177,-0.245,0.987,0.116,-0.330,0.884,-0.084,-0.363,0.769,987.444,723.921,0.923,921.075,724.903,0.922,1070.600,548.071,1.133,824.621,542.604,1.104,1088.798,316.299,1.140,789.723,303.765,0.987,1084.547,185.631,0.884,856.073,91.287,0.769,-0.039,-0.971,1.403,0.000,-353.011,0.000,0.022,-0.039,-0.007,0.178,-1.188,1.276
0722_175549_0214.png,0.014,0.161,0.927,-0.054,0.163,0.934,0.145,-0.010,1.117,-0.163,-0.009,1.124,0.270,-0.255,1.124,-0.182,-0.247,0.999,0.137,-0.303,0.901,-0.089,-0.338,0.771,974.676,704.750,0.927,905.466,705.868,0.934,1083.653,531.067,1.117,822.463,532.552,1.124,1188.198,324.275,1.124,786.494,304.695,0.999,1104.367,220.392,0.901,850.774,123.531,0.771,-0.026,-0.961,1.401,0.000,-0.229,0.000,-0.037,-0.015,0.008,-0.252,-1.000,1.635
0722_175549_0215.png,0.062,0.171,0.938,-0.005,0.165,0.928,0.177,-0.005,1.089,-0.117,0.011,1.159,0.239,-0.236,0.945,-0.091,-0.172,0.938,0.249,-0.361,0.702,-0.067,-0.350,0.722,1022.825,713.131,0.938,955.374,708.518,0.928,1115.049,535.656,1.089,863.916,549.255,1.159,1200.055,303.042,0.945,867.939,365.999,0.938,1297.977,50.843,0.702,872.237,78.923,0.722,-0.034,-0.972,1.404,0.000,-12.667,0.000,-0.022,0.003,-0.042,0.159,-1.111,1.434
0722_175549_0216.png,0.046,0.185,0.938,-0.019,0.181,0.929,0.158,-0.006,1.094,-0.131,0.007,1.150,0.294,-0.242,1.054,-0.195,-0.237,1.031,0.359,-0.343,0.812,-0.070,-0.346,0.822,1006.736,727.810,0.938,940.930,725.286,0.929,1097.583,534.863,1.094,851.967,545.894,1.150,1225.027,321.242,1.054,780.282,321.887,1.031,1380.461,138.549,0.812,879.164,139.777,0.822,-0.024,-0.965,1.402,0.000,-10.219,0.000,0.008,-0.030,-0.031,0.172,-0.806,1.564
0722_175549_0217.png,0.023,0.174,0.939,-0.042,0.175,0.942,0.136,-0.003,1.128,-0.154,-0.006,1.114,0.126,-0.265,1.073,-0.159,-0.225,0.958,0.070,-0.333,0.827,-0.076,-0.356,0.748,982.899,715.857,0.939,917.816,716.414,0.942,1074.613,537.326,1.128,828.210,534.598,1.114,1071.429,304.784,1.073,802.377,316.990,0.958,1040.545,157.622,0.827,863.317,87.293,0.748,-0.035,-0.969,1.403,0.000,-356.048,0.000,0.021,0.009,0.008,0.004,-0.734,1.555
0722_175549_0218.png,0.004,0.138,0.931,-0.060,0.144,0.940,0.120,-0.011,1.147,-0.169,-0.024,1.091,0.077,-0.178,0.939,-0.291,-0.201,1.240,0.033,-0.340,0.736,-0.449,-0.266,1.045,964.436,681.365,0.931,899.459,685.797,0.940,1059.126,531.168,1.147,812.455,519.474,1.091,1037.445,359.785,0.939,736.527,385.910,1.240,1003.041,100.635,0.736,551.541,298.167,1.045,-0.039,-0.964,1.402,0.000,-347.558,0.000,0.008,0.035,0.029,-0.159,-1.191,1.429
0722_175549_0219.png,0.034,0.184,0.940,-0.030,0.184,0.940,0.152,-0.008,1.100,-0.132,0.001,1.140,0.231,-0.227,1.241,-0.239,-0.233,1.057,0.343,-0.294,1.016,-0.121,-0.338,0.849,994.182,726.508,0.940,929.726,726.020,0.940,1091.523,533.158,1.100,849.774,541.091,1.140,1137.088,366.476,1.241,745.364,330.215,1.057,1281.561,264.999,1.016,824.832,161.247,0.849,-0.029,-0.967,1.402,0.000,-7.069,0.000,0.033,-0.009,-0.001,-0.135,-0.697,1.252
0722_175549_0220.png,0.006,0.166,0.947,-0.060,0.168,0.950,0.116,0.001,1.149,-0.179,-0.009,1.106,0.177,-0.173,0.933,-0.228,-0.254,1.002,0.237,-0.342,0.723,-0.078,-0.336,0.796,965.844,706.746,0.947,899.774,708.182,0.950,1055.834,540.702,1.149,806.305,532.271,1.106,1139.841,363.523,0.933,743.460,299.320,1.002,1271.773,90.012,0.723,866.814,138.478,0.796,-0.027,-0.971,1.403,0.000,-350.347,0.000,-0.003,0.036,-0.022,0.094,-0.864,1.252
0722_175549_0221.png,0.052,0.172,0.938,-0.014,0.169,0.931,0.164,-0.014,1.096,-0.130,-0.005,1.136,0.233,-0.269,1.047,-0.284,-0.222,1.186,0.232,-0.333,0.797,-0.310,-0.296,0.941,1012.342,714.485,0.938,945.964,712.825,0.931,1102.232,527.512,1.096,850.819,535.678,1.136,1171.356,295.421,1.047,732.115,362.003,1.186,1236.147,143.358,0.797,646.900,240.527,0.941,-0.036,-0.964,1.402,0.000,-6.798,0.000,-0.001,-0.005,0.026,0.185,-0.831,1.411
0722_175549_0222.png,0.003,0.153,0.927,-0.061,0.157,0.933,0.118,-0.001,1.132,-0.170,-0.009,1.099,0.171,-0.172,0.933,-0.280,-0.188,1.258,0.221,-0.338,0.738,-0.426,-0.268,1.064,963.304,697.067,0.927,898.279,699.855,0.933,1059.310,538.904,1.132,813.081,532.346,1.099,1134.191,364.787,0.933,748.024,397.826,1.258,1244.965,104.681,0.738,579.356,300.518,1.064,-0.027,-0.974,1.404,0.000,-352.160,0.000,0.023,0.023,0.037,-0.130,-1.182,1.466
0722_175549_0223.png,0.050,0.171,0.921,-0.014,0.168,0.919,0.170,-0.015,1.071,-0.108,0.003,1.147,0.209,-0.251,0.954,-0.186,-0.234,1.052,0.161,-0.364,0.729,-0.179,-0.341,0.820,1011.659,716.461,0.921,945.668,713.606,0.919,1110.744,526.970,1.071,870.150,542.392,1.147,1168.207,289.365,0.954,791.659,328.255,1.052,1170.390,65.513,0.729,752.486,144.850,0.820,-0.034,-0.966,1.402,0.000,-14.570,0.000,0.027,-0.029,0.030,-0.138,-1.102,1.343
0722_175549_0224.png,0.007,0.159,0.941,-0.061,0.162,0.947,0.131,-0.005,1.137,-0.176,-0.010,1.114,0.189,-0.212,1.288,-0.283,-0.254,1.086,0.206,-0.259,1.029,-0.100,-0.300,0.896,967.086,701.052,0.941,898.803,702.618,0.947,1069.285,535.796,1.137,809.406,531.326,1.114,1099.632,383.226,1.288,712.375,317.478,1.086,1150.201,301.055,1.029,853.388,221.763,0.896,-0.025,-0.969,1.403,0.000,-354.555,0.000,-0.037,0.031,-0.005,-0.105,-0.842,1.663
0722_175549_0225.png,0.047,0.172,0.943,-0.020,0.168,0.934,0.159,-0.017,1.092,-0.139,-0.004,1.147,0.138,-0.284,1.067,-0.186,-0.221,0.996,0.100,-0.326,0.812,-0.171,-0.338,0.762,1006.919,713.021,0.943,939.928,710.769,0.934,1098.602,525.432,1.092,844.624,536.677,1.147,1083.337,286.879,1.067,782.232,328.620,0.996,1076.729,158.124,0.812,746.751,118.070,0.762,-0.023,-0.963,1.401,0.000,-9.607,0.000,-0.022,0.003,0.008,0.222,-0.807,1.364
0722_175549_0226.png,0.042,0.152,0.947,-0.026,0.150,0.943,0.157,-0.014,1.116,-0.145,-0.009,1.139,0.279,-0.241,1.172,-0.313,-0.207,1.196,0.335,-0.293,0.918,-0.385,-0.283,0.952,1001.691,693.082,0.947,934.266,691.553,0.943,1094.139,527.831,1.116,838.991,532.545,1.139,1186.550,344.438,1.172,710.879,375.046,1.196,1306.745,236.431,0.918,575.279,257.082,0.952,-0.033,-0.966,1.402,0.000,-3.345,0.000,-0.021,0.042,-0.009,0.125,-0.923,1.644
0722_175549_0227.png,0.003,0.147,0.939,-0.061,0.150,0.945,0.115,-0.007,1.146,-0.172,-0.015,1.114,0.278,-0.217,1.144,-0.282,-0.256,1.099,0.391,-0.311,0.919,-0.148,-0.324,0.878,962.975,688.505,0.939,898.879,691.147,0.945,1055.000,534.036,1.146,813.458,527.500,1.114,1191.349,359.689,1.144,716.218,318.147,1.099,1364.709,217.757,0.919,799.882,189.032,0.878,-0.026,-0.962,1.401,0.000,-352.197,0.000,0.030,0.026,-0.028,-0.065,-1.047,1.689
0722_175549_0228.png,-0.010,0.149,0.929,-0.075,0.156,0.941,0.103,0.001,1.162,-0.185,-0.015,1.093,0.226,-0.229,1.067,-0.329,-0.234,1.155,0.253,-0.336,0.816,-0.191,-0.307,0.932,949.706,692.013,0.929,884.414,697.986,0.941,1044.623,540.627,1.162,798.667,526.974,1.093,1161.106,335.869,1.067,689.078,347.013,1.155,1254.420,148.348,0.816,764.655,226.192,0.932,-0.031,-0.962,1.401,0.000,-345.155,0.000,-0.001,0.005,-0.040,-0.187,-1.205,1.512
