rolosa10/RGSpipe/dataset/synthetic_dataset/Coods3D_unique0722_170103.csv
filename,left_eye,left_eye,left_eye,right_eye,right_eye,right_eye,left_shoulder,left_shoulder,left_shoulder,right_shoulder,right_shoulder,right_shoulder,left_elbow,left_elbow,left_elbow,right_elbow,right_elbow,right_elbow,left_wrist,left_wrist,left_wrist,right_wrist,right_wrist,right_wrist,left_eye_2D,left_eye_2D,left_eye_2D,right_eye_2D,right_eye_2D,right_eye_2D,left_shoulder_2D,left_shoulder_2D,left_shoulder_2D,right_shoulder_2D,right_shoulder_2D,right_shoulder_2D,left_elbow_2D,left_elbow_2D,left_elbow_2D,right_elbow_2D,right_elbow_2D,right_elbow_2D,left_wrist_2D,left_wrist_2D,left_wrist_2D,right_wrist_2D,right_wrist_2D,right_wrist_2D,root_position,root_position,root_position,root_pitch,root_yaw,root_roll,root_scale,root_scale,root_scale,look_at,look_at,look_at
0722_170103_0001.png,0.015,0.156,0.942,-0.050,0.158,0.949,0.139,-0.008,1.129,-0.154,-0.006,1.135,0.272,-0.240,1.135,-0.307,-0.225,1.092,0.327,-0.320,0.880,-0.254,-0.330,0.846,974.995,697.595,0.942,910.130,698.777,0.949,1077.192,533.285,1.129,831.152,534.637,1.135,1187.613,338.829,1.135,692.652,344.443,1.092,1312.970,194.781,0.880,674.657,168.993,0.846,-0.027,-0.964,1.402,0.000,-0.195,0.000,0.013,0.024,-0.040,-0.276,-1.101,1.194
0722_170103_0002.png,0.047,0.172,0.945,-0.018,0.168,0.935,0.158,-0.004,1.106,-0.132,0.006,1.151,0.165,-0.268,1.023,-0.205,-0.173,0.933,-0.016,-0.340,0.834,-0.279,-0.347,0.723,1007.414,713.425,0.945,942.098,710.358,0.935,1096.031,536.173,1.106,850.623,544.787,1.151,1112.881,290.722,1.023,751.126,364.033,0.933,942.185,152.294,0.834,592.333,83.695,0.723,-0.028,-0.969,1.403,0.000,-7.772,0.000,0.009,0.005,-0.048,0.216,-1.024,1.310
0722_170103_0003.png,0.005,0.152,0.934,-0.058,0.156,0.944,0.128,-0.008,1.129,-0.159,-0.012,1.114,0.145,-0.270,1.118,-0.259,-0.255,1.119,0.099,-0.319,0.869,-0.273,-0.321,0.870,965.199,694.933,0.934,901.784,697.483,0.944,1068.015,532.999,1.129,823.934,530.014,1.114,1083.756,309.905,1.118,739.665,323.764,1.119,1067.854,190.850,0.869,661.678,189.210,0.870,-0.029,-0.969,1.403,0.000,-355.818,0.000,0.030,0.032,0.018,-0.320,-0.992,1.565
0722_170103_0004.png,0.031,0.162,0.934,-0.036,0.161,0.932,0.151,-0.003,1.115,-0.155,0.001,1.132,0.287,-0.197,1.245,-0.235,-0.209,0.976,0.239,-0.278,0.996,-0.222,-0.344,0.747,991.833,705.413,0.934,922.756,704.380,0.932,1088.355,537.708,1.115,829.924,541.053,1.132,1179.514,389.389,1.245,730.763,336.775,0.976,1188.554,274.454,0.996,677.723,102.292,0.747,-0.028,-0.971,1.403,0.000,-2.126,0.000,-0.030,0.007,-0.012,0.056,-1.126,1.514
0722_170103_0005.png,0.039,0.164,0.944,-0.028,0.164,0.943,0.156,-0.012,1.121,-0.147,-0.011,1.125,0.250,-0.235,1.231,-0.306,-0.219,1.063,0.162,-0.276,0.988,-0.365,-0.319,0.829,999.215,705.130,0.944,931.569,704.904,0.943,1092.536,529.627,1.121,836.046,530.633,1.125,1153.078,358.249,1.231,686.101,343.912,1.063,1116.197,274.611,0.988,541.297,173.875,0.829,-0.040,-0.965,1.402,0.000,0.211,0.000,-0.020,0.022,0.010,0.073,-0.762,1.556
0722_170103_0006.png,0.034,0.169,0.934,-0.033,0.170,0.937,0.158,-0.004,1.117,-0.142,0.000,1.132,0.262,-0.251,1.066,-0.206,-0.225,0.988,0.291,-0.331,0.812,-0.117,-0.346,0.766,994.662,712.084,0.934,926.885,712.252,0.937,1094.750,536.795,1.117,840.310,539.692,1.132,1194.074,315.815,1.066,761.438,323.011,0.988,1300.634,152.362,0.812,814.438,110.486,0.766,-0.039,-0.967,1.403,0.000,-1.715,0.000,-0.014,-0.004,-0.018,-0.139,-1.009,1.383
0722_170103_0007.png,0.047,0.175,0.934,-0.018,0.172,0.928,0.162,-0.011,1.100,-0.131,-0.001,1.140,0.128,-0.284,1.085,-0.143,-0.210,0.963,0.071,-0.334,0.831,-0.095,-0.359,0.748,1008.183,718.477,0.934,941.473,716.641,0.928,1100.292,530.649,1.100,850.790,538.795,1.140,1071.712,290.882,1.085,818.328,332.897,0.963,1041.735,157.148,0.831,839.755,84.226,0.748,-0.034,-0.961,1.401,0.000,-6.947,0.000,0.002,-0.028,-0.006,0.111,-0.953,1.330
0722_170103_0008.png,-0.003,0.162,0.927,-0.067,0.169,0.938,0.112,0.001,1.154,-0.178,-0.013,1.095,0.057,-0.175,0.937,-0.247,-0.174,1.309,0.005,-0.347,0.725,-0.295,-0.274,1.063,957.226,706.704,0.927,891.741,710.929,0.938,1052.413,540.563,1.154,805.692,528.991,1.095,1017.845,362.477,0.937,780.909,413.607,1.309,966.818,84.971,0.725,696.221,294.594,1.063,-0.033,-0.960,1.401,0.000,-347.198,0.000,0.003,-0.022,-0.030,-0.176,-1.026,1.571
0722_170103_0009.png,0.015,0.172,0.924,-0.050,0.174,0.929,0.134,-0.003,1.125,-0.161,-0.007,1.107,0.267,-0.240,1.145,-0.308,-0.235,1.089,0.331,-0.313,0.906,-0.238,-0.326,0.859,975.841,716.605,0.924,909.048,717.897,0.929,1073.122,537.671,1.125,821.744,534.281,1.107,1181.959,340.600,1.145,691.085,335.087,1.089,1307.390,211.700,0.906,696.807,178.460,0.859,-0.032,-0.965,1.402,0.000,-355.442,0.000,0.005,-0.025,0.023,-0.110,-0.999,1.392
0722_170103_0010.png,0.035,0.186,0.931,-0.033,0.186,0.933,0.163,-0.002,1.096,-0.136,0.009,1.145,0.216,-0.269,1.046,-0.268,-0.206,1.260,0.060,-0.330,0.836,-0.308,-0.283,1.005,995.377,730.380,0.931,926.864,729.626,0.933,1101.132,538.208,1.096,846.835,547.649,1.145,1156.731,295.145,1.046,757.474,384.625,1.260,1028.538,164.497,0.836,669.062,272.113,1.005,-0.028,-0.969,1.403,0.000,-8.387,0.000,-0.021,-0.028,-0.020,-0.213,-0.778,1.614
0722_170103_0011.png,-0.005,0.172,0.926,-0.069,0.175,0.933,0.098,0.000,1.148,-0.183,-0.015,1.082,0.181,-0.179,0.965,-0.329,-0.211,1.206,0.250,-0.349,0.778,-0.304,-0.306,0.966,955.215,716.490,0.926,890.128,718.767,0.933,1041.551,539.857,1.148,799.058,526.649,1.082,1138.637,363.456,0.965,700.871,373.284,1.206,1265.108,113.010,0.778,660.594,238.618,0.966,-0.026,-0.963,1.401,0.000,-345.432,0.000,0.025,-0.023,0.016,0.047,-0.832,1.590
0722_170103_0012.png,0.021,0.176,0.932,-0.045,0.177,0.934,0.133,0.001,1.129,-0.161,-0.004,1.105,0.099,-0.176,0.924,-0.293,-0.239,1.093,0.064,-0.348,0.724,-0.178,-0.319,0.875,981.039,719.312,0.932,914.466,720.063,0.934,1071.762,540.844,1.129,821.196,536.183,1.105,1061.476,359.231,0.924,704.753,331.894,1.093,1044.676,83.527,0.724,767.076,193.338,0.875,-0.034,-0.971,1.403,0.000,-354.107,0.000,0.006,-0.004,0.019,0.063,-0.873,1.387
0722_170103_0013.png,0.010,0.166,0.931,-0.054,0.169,0.940,0.134,-0.007,1.125,-0.159,-0.009,1.113,0.181,-0.229,0.987,-0.287,-0.244,1.124,0.186,-0.348,0.758,-0.161,-0.310,0.908,970.704,709.185,0.931,905.578,710.863,0.940,1073.419,534.454,1.125,824.477,532.081,1.113,1133.969,319.143,0.987,716.795,333.220,1.124,1192.869,103.481,0.758,790.879,215.246,0.908,-0.031,-0.966,1.402,0.000,-356.463,0.000,0.013,0.002,0.022,-0.275,-0.906,1.460
0722_170103_0014.png,0.000,0.175,0.934,-0.065,0.179,0.944,0.125,0.004,1.137,-0.173,-0.001,1.114,0.212,-0.246,1.063,-0.161,-0.193,0.911,0.065,-0.327,0.853,-0.112,-0.363,0.704,960.278,717.879,0.934,894.269,719.987,0.944,1065.007,543.135,1.137,812.337,538.914,1.114,1149.811,319.794,1.063,791.845,338.982,0.911,1032.987,175.638,0.853,808.827,50.529,0.704,-0.025,-0.970,1.403,0.000,-354.534,0.000,-0.008,-0.003,-0.026,-0.288,-0.925,1.316
0722_170103_0015.png,0.027,0.150,0.940,-0.040,0.151,0.945,0.157,-0.016,1.112,-0.147,-0.011,1.135,0.119,-0.246,0.985,-0.170,-0.193,0.939,0.021,-0.336,0.760,-0.138,-0.343,0.726,987.466,691.485,0.940,919.713,691.933,0.945,1093.842,526.365,1.112,837.050,531.083,1.135,1075.279,302.722,0.985,787.902,344.438,0.939,986.461,120.044,0.760,779.814,90.283,0.726,-0.032,-0.966,1.402,0.000,-3.291,0.000,-0.024,0.041,0.011,-0.249,-0.951,1.576
0722_170103_0016.png,0.038,0.184,0.936,-0.028,0.182,0.931,0.151,0.002,1.117,-0.145,0.005,1.132,0.085,-0.184,0.914,-0.284,-0.225,1.197,0.022,-0.366,0.716,-0.314,-0.308,0.939,998.633,726.624,0.936,931.672,725.659,0.931,1088.940,541.407,1.117,837.990,544.362,1.132,1048.429,348.522,0.914,734.547,361.090,1.197,989.435,53.819,0.716,642.197,228.235,0.939,-0.033,-0.967,1.402,0.000,-1.877,0.000,-0.001,-0.029,-0.033,0.137,-0.850,1.593
0722_170103_0017.png,0.010,0.167,0.934,-0.058,0.170,0.939,0.135,-0.004,1.126,-0.173,-0.007,1.112,0.293,-0.220,1.085,-0.138,-0.208,0.940,0.371,-0.306,0.853,-0.059,-0.340,0.730,970.246,710.472,0.934,901.328,711.632,0.939,1074.310,536.447,1.126,812.447,533.698,1.112,1217.071,346.793,1.085,819.896,329.354,0.940,1374.018,198.306,0.853,883.680,97.493,0.730,-0.025,-0.970,1.403,0.000,-356.202,0.000,-0.038,0.010,0.020,-0.147,-0.927,1.315
0722_170103_0018.png,0.018,0.176,0.926,-0.049,0.178,0.932,0.144,-0.005,1.115,-0.159,-0.005,1.117,0.286,-0.229,1.053,-0.303,-0.195,1.258,0.353,-0.325,0.822,-0.378,-0.277,1.025,978.081,720.524,0.926,909.662,721.226,0.932,1082.604,535.555,1.115,824.401,536.124,1.117,1218.063,333.224,1.053,730.678,392.811,1.258,1368.262,164.593,0.822,608.926,282.678,1.025,-0.029,-0.965,1.402,0.000,-359.381,0.000,-0.021,-0.027,0.022,-0.186,-0.839,1.600
0722_170103_0019.png,0.002,0.158,0.935,-0.065,0.162,0.943,0.125,-0.004,1.148,-0.180,-0.013,1.107,0.244,-0.250,1.141,-0.272,-0.258,1.180,0.100,-0.298,0.917,-0.275,-0.299,0.914,962.155,700.541,0.935,894.078,703.565,0.943,1063.858,536.726,1.148,805.685,528.608,1.107,1163.641,331.474,1.141,740.913,332.482,1.180,1063.201,230.624,0.917,673.916,229.268,0.914,-0.030,-0.961,1.401,0.000,-351.066,0.000,-0.037,0.003,-0.028,-0.167,-1.036,1.420
0722_170103_0020.png,0.012,0.173,0.929,-0.056,0.175,0.935,0.141,-0.005,1.115,-0.166,-0.004,1.120,0.188,-0.255,1.026,-0.232,-0.256,1.047,0.025,-0.320,0.829,-0.058,-0.315,0.857,972.194,716.924,0.929,903.044,717.738,0.935,1080.627,535.527,1.115,818.734,536.527,1.120,1133.915,303.597,1.026,749.726,307.822,1.047,989.257,172.814,0.829,896.160,189.929,0.857,-0.023,-0.967,1.402,0.000,0.213,0.000,-0.037,-0.013,0.019,-0.227,-0.842,1.615
0722_170103_0021.png,0.047,0.179,0.927,-0.018,0.175,0.920,0.162,-0.003,1.088,-0.125,0.011,1.148,0.233,-0.199,1.274,-0.254,-0.197,1.276,0.354,-0.285,1.054,-0.309,-0.288,1.030,1008.269,723.913,0.927,941.652,720.472,0.920,1101.896,537.622,1.088,856.236,549.060,1.148,1134.054,391.093,1.274,770.776,392.974,1.276,1279.483,283.079,1.054,674.823,274.484,1.030,-0.028,-0.969,1.403,0.000,-10.796,0.000,0.010,-0.036,-0.017,0.094,-1.150,1.327
0722_170103_0022.png,0.054,0.161,0.938,-0.012,0.156,0.929,0.166,-0.017,1.095,-0.132,-0.007,1.140,0.149,-0.258,0.985,-0.303,-0.190,1.046,-0.017,-0.330,0.799,-0.420,-0.314,0.851,1015.125,703.011,0.938,948.216,700.142,0.929,1104.032,525.382,1.095,850.007,534.539,1.140,1104.186,291.286,0.985,684.046,367.368,1.046,939.763,146.765,0.799,490.327,189.477,0.851,-0.035,-0.964,1.402,0.000,-7.600,0.000,-0.014,0.009,0.024,0.252,-1.008,1.436
0722_170103_0023.png,0.011,0.159,0.940,-0.055,0.160,0.943,0.129,-0.010,1.132,-0.169,-0.014,1.115,0.082,-0.183,0.923,-0.338,-0.219,1.072,0.036,-0.351,0.718,-0.425,-0.318,0.845,971.123,700.627,0.940,904.455,701.687,0.943,1068.334,531.718,1.132,815.687,528.299,1.115,1044.835,351.371,0.923,660.430,345.902,1.072,1007.949,74.854,0.718,481.352,182.737,0.845,-0.026,-0.964,1.402,0.000,-355.518,0.000,-0.006,0.020,0.005,-0.052,-0.875,1.532
0722_170103_0024.png,0.018,0.158,0.934,-0.045,0.159,0.935,0.123,-0.001,1.137,-0.160,-0.008,1.110,0.272,-0.191,1.019,-0.239,-0.173,1.305,0.383,-0.338,0.829,-0.302,-0.275,1.070,978.108,700.601,0.934,913.936,701.817,0.935,1062.729,538.771,1.137,822.680,533.503,1.110,1213.949,361.311,1.019,785.750,414.042,1.305,1399.429,152.593,0.829,692.039,295.766,1.070,-0.032,-0.969,1.403,0.000,-353.319,0.000,0.042,0.012,-0.005,0.115,-1.207,1.254
0722_170103_0025.png,0.045,0.162,0.939,-0.019,0.159,0.933,0.156,-0.012,1.109,-0.132,-0.005,1.139,0.179,-0.191,0.900,-0.286,-0.184,1.004,0.203,-0.367,0.697,-0.392,-0.338,0.814,1005.459,703.689,0.939,940.451,701.595,0.933,1093.809,530.031,1.109,849.446,536.179,1.139,1149.030,337.705,0.900,689.135,365.832,1.004,1237.419,39.264,0.697,501.745,144.847,0.814,-0.035,-0.964,1.402,0.000,-5.051,0.000,0.023,0.005,-0.011,0.151,-0.957,1.663
0722_170103_0026.png,0.000,0.158,0.939,-0.064,0.164,0.951,0.116,-0.001,1.153,-0.172,-0.012,1.104,0.169,-0.242,1.032,-0.243,-0.253,1.001,0.030,-0.337,0.826,-0.117,-0.347,0.782,959.918,700.290,0.939,896.011,703.782,0.951,1055.896,539.187,1.153,812.083,529.609,1.104,1115.724,317.325,1.032,729.233,299.497,1.001,995.003,151.441,0.826,817.393,117.640,0.782,-0.034,-0.967,1.402,0.000,-349.081,0.000,0.016,0.026,-0.031,-0.191,-0.876,1.643
0722_170103_0027.png,0.025,0.181,0.929,-0.040,0.182,0.932,0.144,-0.004,1.118,-0.148,-0.002,1.126,0.084,-0.201,0.933,-0.279,-0.229,1.045,-0.015,-0.365,0.745,-0.323,-0.348,0.810,985.144,725.009,0.929,919.288,725.261,0.932,1082.179,536.665,1.118,835.413,538.247,1.126,1045.716,335.413,0.933,705.906,331.559,1.045,940.770,74.176,0.745,580.977,131.702,0.810,-0.032,-0.960,1.401,0.000,-0.448,0.000,0.019,-0.042,-0.015,-0.104,-0.793,1.677
0722_170103_0028.png,0.036,0.158,0.952,-0.030,0.157,0.950,0.152,-0.018,1.121,-0.145,-0.013,1.140,0.251,-0.265,1.105,-0.219,-0.242,1.010,0.248,-0.322,0.843,-0.210,-0.345,0.761,996.058,698.116,0.952,930.095,697.341,0.950,1088.846,525.110,1.121,838.724,528.898,1.140,1175.864,311.901,1.105,753.616,312.229,1.010,1239.372,177.099,0.843,697.931,109.461,0.761,-0.032,-0.959,1.401,0.000,-2.482,0.000,-0.003,0.031,-0.024,0.069,-0.857,1.199
0722_170103_0029.png,0.032,0.161,0.937,-0.033,0.161,0.938,0.153,-0.009,1.117,-0.140,-0.004,1.137,0.073,-0.186,0.915,-0.310,-0.185,1.023,-0.001,-0.361,0.717,-0.437,-0.331,0.836,992.772,703.265,0.937,926.921,702.998,0.938,1089.917,532.747,1.117,843.245,536.706,1.137,1036.234,346.181,0.915,671.694,367.822,1.023,958.085,61.658,0.717,462.550,163.141,0.836,-0.035,-0.964,1.402,0.000,-2.832,0.000,0.013,0.005,-0.026,-0.100,-0.986,1.617
0722_170103_0030.png,0.035,0.180,0.929,-0.029,0.180,0.933,0.161,0.001,1.106,-0.129,0.009,1.139,0.180,-0.236,1.247,-0.116,-0.180,0.928,0.182,-0.300,0.985,-0.107,-0.365,0.723,996.175,724.091,0.929,930.107,723.879,0.933,1098.853,540.829,1.106,852.323,547.205,1.139,1097.193,360.077,1.247,840.742,355.595,0.928,1135.973,250.479,0.985,819.899,60.105,0.723,-0.038,-0.971,1.403,0.000,-5.548,0.000,0.015,-0.022,-0.026,-0.255,-0.935,1.544
0722_170103_0031.png,0.021,0.176,0.924,-0.043,0.175,0.921,0.127,0.000,1.124,-0.165,-0.004,1.108,0.234,-0.249,1.083,-0.273,-0.248,1.193,0.248,-0.335,0.837,-0.312,-0.311,0.944,981.985,721.317,0.924,915.086,721.208,0.921,1067.790,539.649,1.124,818.262,536.664,1.108,1165.810,320.955,1.083,742.487,342.738,1.193,1241.674,159.115,0.837,645.478,226.205,0.944,-0.026,-0.964,1.402,0.000,-355.793,0.000,0.013,-0.044,0.014,0.220,-0.986,1.608
0722_170103_0032.png,0.035,0.156,0.941,-0.028,0.155,0.939,0.147,-0.020,1.114,-0.140,-0.017,1.127,0.248,-0.213,1.264,-0.228,-0.248,1.037,0.345,-0.279,1.037,-0.090,-0.333,0.840,995.625,697.918,0.941,931.345,697.369,0.939,1085.401,522.875,1.114,842.109,525.569,1.127,1146.533,379.676,1.264,750.683,312.234,1.037,1276.471,284.203,1.037,857.710,163.003,0.840,-0.035,-0.959,1.401,0.000,-1.469,0.000,0.034,0.019,0.030,0.069,-0.909,1.287
0722_170103_0033.png,0.030,0.167,0.928,-0.038,0.168,0.929,0.153,0.000,1.122,-0.158,-0.002,1.116,0.217,-0.200,0.952,-0.152,-0.218,0.955,0.221,-0.342,0.731,-0.105,-0.344,0.730,991.140,711.109,0.928,920.723,711.681,0.929,1089.243,539.931,1.122,825.544,538.712,1.116,1176.568,339.841,0.952,808.765,323.256,0.955,1247.348,95.295,0.731,822.632,91.570,0.730,-0.038,-0.970,1.403,0.000,-357.648,0.000,-0.045,-0.008,0.008,-0.007,-1.196,1.207
0722_170103_0034.png,0.045,0.169,0.947,-0.019,0.166,0.942,0.160,-0.013,1.089,-0.125,0.000,1.147,0.159,-0.267,1.022,-0.163,-0.203,0.981,-0.007,-0.328,0.833,-0.100,-0.343,0.771,1005.343,709.414,0.947,940.572,707.778,0.942,1099.930,528.568,1.089,856.500,540.241,1.147,1108.238,291.718,1.022,802.136,343.179,0.981,952.432,165.595,0.833,836.505,117.602,0.771,-0.028,-0.975,1.404,0.000,-10.665,0.000,0.019,0.042,0.016,-0.018,-0.820,1.151
0722_170103_0035.png,0.042,0.150,0.943,-0.023,0.147,0.938,0.153,-0.014,1.118,-0.137,-0.009,1.141,0.247,-0.217,1.257,-0.277,-0.207,1.016,0.171,-0.285,1.009,-0.364,-0.342,0.799,1001.943,690.852,0.943,937.074,688.795,0.938,1089.876,527.892,1.118,845.834,532.598,1.141,1146.901,375.531,1.257,700.662,346.537,1.016,1121.277,271.141,1.009,526.691,133.445,0.799,-0.034,-0.962,1.401,0.000,-3.543,0.000,0.021,0.025,-0.025,0.157,-1.145,1.420
0722_170103_0036.png,0.005,0.179,0.932,-0.059,0.182,0.937,0.110,0.004,1.143,-0.173,-0.006,1.101,0.178,-0.171,0.933,-0.236,-0.178,1.307,0.248,-0.343,0.730,-0.306,-0.281,1.073,964.658,722.962,0.932,900.132,724.487,0.937,1051.439,543.396,1.143,810.144,535.109,1.101,1141.848,365.494,0.933,788.545,410.608,1.307,1283.404,92.817,0.730,688.751,290.646,1.073,-0.027,-0.966,1.402,0.000,-350.099,0.000,0.034,-0.023,-0.017,0.054,-0.882,1.319
0722_170103_0037.png,0.030,0.153,0.940,-0.033,0.153,0.943,0.151,-0.021,1.107,-0.131,-0.013,1.142,0.292,-0.237,1.159,-0.178,-0.187,0.934,0.389,-0.310,0.928,-0.227,-0.358,0.731,989.990,694.871,0.940,926.423,694.514,0.943,1089.522,522.011,1.107,850.766,529.304,1.142,1199.708,345.350,1.159,778.430,348.995,0.934,1358.193,222.113,0.928,665.195,74.147,0.731,-0.030,-0.959,1.400,0.000,-6.132,0.000,0.043,0.021,0.001,-0.245,-0.984,1.298
0722_170103_0038.png,0.021,0.160,0.926,-0.043,0.161,0.929,0.142,-0.013,1.109,-0.148,-0.009,1.126,0.229,-0.264,1.063,-0.140,-0.184,0.919,0.092,-0.330,0.855,-0.131,-0.356,0.718,981.811,704.712,0.926,915.756,704.826,0.929,1081.908,528.949,1.109,834.551,532.383,1.126,1165.184,303.955,1.063,815.436,349.166,0.919,1062.564,172.295,0.855,787.034,68.845,0.718,-0.027,-0.961,1.401,0.000,-2.230,0.000,0.019,-0.017,0.025,-0.163,-1.115,1.370
0722_170103_0039.png,-0.001,0.168,0.932,-0.065,0.173,0.941,0.109,0.004,1.151,-0.177,-0.010,1.093,0.208,-0.236,1.069,-0.215,-0.268,1.020,0.094,-0.330,0.851,-0.070,-0.343,0.811,958.816,711.627,0.932,893.917,714.604,0.941,1050.257,542.926,1.151,805.882,531.520,1.093,1145.539,330.209,1.069,759.225,289.831,1.020,1064.533,170.976,0.851,878.431,137.680,0.811,-0.032,-0.968,1.403,0.000,-347.125,0.000,0.015,0.002,-0.011,-0.077,-0.892,1.529
0722_170103_0040.png,0.032,0.164,0.935,-0.034,0.163,0.932,0.142,-0.008,1.127,-0.157,-0.011,1.114,0.169,-0.272,1.187,-0.315,-0.231,1.132,0.137,-0.299,0.929,-0.214,-0.308,0.904,993.036,706.840,0.935,925.573,706.674,0.932,1079.696,533.023,1.127,826.048,530.272,1.114,1095.350,322.233,1.187,695.265,345.806,1.132,1100.023,233.859,0.929,734.491,215.587,0.904,-0.037,-0.962,1.401,0.000,-356.157,0.000,-0.007,-0.005,0.012,0.214,-0.923,1.597
0722_170103_0041.png,0.030,0.181,0.942,-0.034,0.181,0.942,0.145,-0.005,1.115,-0.144,-0.002,1.125,0.127,-0.222,0.957,-0.127,-0.183,0.922,0.089,-0.362,0.738,-0.112,-0.359,0.724,990.194,723.138,0.942,925.583,723.089,0.942,1083.718,535.809,1.115,838.723,537.903,1.125,1086.289,319.270,0.957,828.786,351.588,0.922,1074.472,74.163,0.738,812.316,68.814,0.724,-0.034,-0.969,1.403,0.000,-0.982,0.000,0.027,0.004,0.008,-0.030,-0.673,1.324
0722_170103_0042.png,0.019,0.162,0.935,-0.047,0.163,0.935,0.132,-0.004,1.133,-0.164,-0.008,1.119,0.128,-0.246,1.002,-0.328,-0.205,1.209,0.008,-0.348,0.785,-0.298,-0.300,0.959,979.239,705.118,0.935,912.376,705.717,0.935,1070.778,536.227,1.133,820.475,533.473,1.119,1081.568,306.163,1.002,701.780,379.117,1.209,969.972,118.220,0.785,664.368,242.993,0.959,-0.028,-0.962,1.401,0.000,-356.079,0.000,0.001,-0.007,-0.022,0.063,-0.994,1.637
0722_170103_0043.png,0.038,0.165,0.928,-0.026,0.164,0.930,0.164,-0.012,1.087,-0.119,0.002,1.148,0.220,-0.208,1.267,-0.204,-0.167,0.946,0.384,-0.274,1.077,-0.288,-0.332,0.750,998.514,709.101,0.928,932.941,707.663,0.930,1103.052,529.703,1.087,861.620,541.734,1.148,1125.281,383.746,1.267,754.928,372.039,0.946,1298.918,298.143,1.077,594.342,118.441,0.750,-0.031,-0.967,1.402,0.000,-11.199,0.000,0.027,-0.005,0.003,-0.319,-1.104,1.356
0722_170103_0044.png,0.025,0.169,0.931,-0.040,0.167,0.928,0.135,-0.005,1.117,-0.156,-0.003,1.125,0.234,-0.186,0.940,-0.228,-0.265,1.095,0.301,-0.357,0.747,-0.208,-0.336,0.841,985.051,712.284,0.931,919.136,711.494,0.928,1075.082,535.657,1.117,828.466,537.127,1.125,1196.560,351.264,0.940,761.799,309.707,1.095,1343.398,85.677,0.747,724.964,160.615,0.841,-0.024,-0.964,1.402,0.000,-0.327,0.000,0.020,-0.020,-0.001,0.127,-1.036,1.500
0722_170103_0045.png,0.021,0.168,0.938,-0.042,0.166,0.933,0.123,-0.006,1.128,-0.163,-0.008,1.117,0.054,-0.184,0.931,-0.202,-0.231,0.967,-0.012,-0.359,0.739,-0.126,-0.361,0.752,981.689,710.416,0.938,917.299,709.763,0.933,1063.670,535.158,1.128,820.804,532.892,1.117,1014.780,351.914,0.931,761.861,313.302,0.967,944.597,77.629,0.739,800.810,83.323,0.752,-0.023,-0.964,1.402,0.000,-356.504,0.000,0.034,-0.006,0.000,0.314,-0.958,1.410
0722_170103_0046.png,0.007,0.160,0.938,-0.057,0.164,0.945,0.112,-0.005,1.150,-0.168,-0.019,1.090,0.075,-0.174,0.938,-0.251,-0.264,1.031,0.039,-0.338,0.731,-0.108,-0.337,0.827,966.672,702.653,0.938,902.976,705.050,0.945,1052.961,535.510,1.150,813.363,523.223,1.090,1035.677,364.006,0.938,728.784,296.628,1.031,1010.807,100.249,0.731,835.796,152.300,0.827,-0.039,-0.965,1.402,0.000,-346.442,0.000,0.033,0.023,0.013,-0.004,-0.877,1.267
0722_170103_0047.png,0.040,0.165,0.940,-0.024,0.163,0.939,0.157,-0.011,1.103,-0.125,-0.001,1.145,0.231,-0.210,1.262,-0.218,-0.170,0.942,0.391,-0.275,1.070,-0.313,-0.334,0.746,1000.001,706.633,0.940,936.101,705.309,0.939,1095.119,530.783,1.103,856.530,539.182,1.145,1133.909,381.684,1.262,739.428,368.741,0.942,1307.788,295.148,1.070,560.733,113.859,0.746,-0.033,-0.968,1.403,0.000,-7.584,0.000,0.042,0.017,-0.011,-0.084,-0.848,1.711
0722_170103_0048.png,0.033,0.192,0.924,-0.033,0.190,0.919,0.141,0.011,1.119,-0.159,0.008,1.108,0.267,-0.228,1.067,-0.303,-0.229,1.134,0.269,-0.331,0.828,-0.168,-0.312,0.926,994.427,737.069,0.924,926.024,736.624,0.919,1079.411,549.101,1.119,823.287,546.984,1.108,1197.618,337.130,1.067,705.722,348.248,1.134,1268.339,159.467,0.828,787.646,219.440,0.926,-0.033,-0.975,1.404,0.000,-356.630,0.000,-0.011,-0.046,0.012,0.302,-0.958,1.457
0722_170103_0049.png,0.034,0.176,0.944,-0.033,0.177,0.949,0.163,-0.006,1.114,-0.139,0.000,1.142,0.242,-0.232,1.239,-0.247,-0.249,1.109,0.294,-0.284,0.978,-0.252,-0.323,0.847,994.703,717.259,0.944,927.258,717.379,0.949,1099.521,534.459,1.114,844.526,540.034,1.142,1145.610,362.173,1.239,748.365,326.196,1.109,1246.083,264.266,0.978,677.119,177.196,0.847,-0.036,-0.966,1.402,0.000,-4.340,0.000,-0.022,0.006,-0.036,-0.253,-0.734,1.447
0722_170103_0050.png,0.046,0.196,0.928,-0.021,0.195,0.929,0.173,-0.002,1.083,-0.121,0.013,1.149,0.296,-0.253,1.102,-0.268,-0.209,1.233,0.292,-0.330,0.845,-0.374,-0.290,1.001,1006.896,740.842,0.928,938.446,739.904,0.929,1112.181,538.055,1.083,860.220,550.801,1.149,1215.399,321.532,1.102,753.299,378.878,1.233,1288.687,169.297,0.845,605.070,264.686,1.001,-0.033,-0.970,1.403,0.000,-11.887,0.000,-0.016,-0.044,-0.014,-0.247,-0.740,1.413
0722_170103_0051.png,0.003,0.179,0.928,-0.065,0.181,0.930,0.112,0.005,1.145,-0.189,-0.008,1.087,0.180,-0.240,1.051,-0.303,-0.214,1.233,0.028,-0.319,0.847,-0.436,-0.278,1.011,963.248,723.326,0.928,893.954,724.812,0.930,1053.086,544.276,1.145,795.038,532.969,1.087,1122.582,322.602,1.051,725.954,374.724,1.233,991.372,181.261,0.847,550.099,278.544,1.011,-0.025,-0.968,1.402,0.000,-347.750,0.000,-0.032,-0.025,0.010,0.152,-0.819,1.627
0722_170103_0052.png,0.026,0.174,0.944,-0.040,0.174,0.946,0.149,-0.010,1.113,-0.146,-0.003,1.141,0.208,-0.268,1.168,-0.143,-0.201,0.945,0.207,-0.313,0.903,-0.086,-0.360,0.732,986.135,714.819,0.944,920.174,714.606,0.946,1086.924,531.551,1.113,838.379,537.116,1.141,1129.144,322.036,1.168,816.144,337.257,0.945,1178.499,209.936,0.903,848.973,72.410,0.732,-0.025,-0.963,1.401,0.000,-4.395,0.000,0.003,0.004,-0.027,-0.156,-0.714,1.532
0722_170103_0053.png,0.041,0.184,0.934,-0.025,0.182,0.927,0.153,-0.003,1.111,-0.147,0.002,1.130,0.294,-0.240,1.092,-0.138,-0.230,0.983,0.333,-0.328,0.844,-0.086,-0.351,0.752,1002.169,727.755,0.934,934.538,726.415,0.927,1090.880,537.740,1.111,836.005,541.559,1.130,1215.667,330.645,1.092,826.158,317.436,0.983,1335.794,170.838,0.844,851.285,95.708,0.752,-0.032,-0.965,1.402,0.000,-2.649,0.000,-0.013,-0.036,-0.010,0.257,-0.912,1.281
0722_170103_0054.png,0.025,0.168,0.945,-0.044,0.167,0.941,0.138,-0.007,1.132,-0.172,-0.009,1.122,0.292,-0.233,1.109,-0.302,-0.237,1.042,0.302,-0.312,0.853,-0.321,-0.328,0.790,985.016,709.429,0.945,915.861,708.984,0.941,1075.823,534.493,1.132,814.447,532.584,1.122,1210.309,340.606,1.109,683.929,323.873,1.042,1296.685,192.655,0.853,573.322,144.965,0.790,-0.025,-0.963,1.401,0.000,-357.013,0.000,-0.043,0.007,-0.019,0.245,-0.876,1.354
0722_170103_0055.png,-0.003,0.175,0.933,-0.067,0.178,0.941,0.108,0.000,1.145,-0.179,-0.014,1.085,0.138,-0.240,1.035,-0.279,-0.207,1.244,-0.018,-0.328,0.847,-0.425,-0.276,1.042,957.078,717.966,0.933,891.994,719.734,0.941,1049.929,539.677,1.145,802.987,527.467,1.085,1086.670,319.529,1.035,746.816,381.582,1.244,939.875,172.373,0.847,572.011,288.327,1.042,-0.030,-0.968,1.403,0.000,-346.639,0.000,0.010,0.001,0.026,-0.072,-0.798,1.139
0722_170103_0056.png,-0.007,0.159,0.942,-0.071,0.164,0.954,0.115,-0.007,1.148,-0.179,-0.018,1.102,0.215,-0.231,1.037,-0.326,-0.222,1.184,0.132,-0.330,0.807,-0.412,-0.291,0.945,953.151,700.369,0.942,888.713,703.064,0.954,1055.498,533.798,1.148,805.627,524.480,1.102,1157.378,328.365,1.037,698.448,362.026,1.184,1115.940,151.568,0.807,545.389,246.969,0.945,-0.028,-0.964,1.402,0.000,-349.774,0.000,-0.003,0.032,0.000,-0.269,-0.802,1.390
0722_170103_0057.png,0.025,0.170,0.935,-0.039,0.171,0.940,0.148,-0.005,1.106,-0.138,0.001,1.133,0.195,-0.251,1.013,-0.271,-0.224,1.176,0.084,-0.345,0.797,-0.336,-0.306,0.938,985.305,712.566,0.935,920.888,712.683,0.940,1087.503,535.290,1.106,844.182,540.746,1.133,1143.143,304.649,1.013,740.928,358.693,1.176,1060.407,129.063,0.797,619.632,229.145,0.938,-0.030,-0.974,1.404,0.000,-4.497,0.000,0.031,0.019,0.012,-0.286,-0.928,1.293
0722_170103_0058.png,0.039,0.161,0.936,-0.025,0.159,0.935,0.159,-0.009,1.095,-0.122,0.004,1.152,0.125,-0.245,0.960,-0.238,-0.176,1.308,-0.017,-0.359,0.764,-0.309,-0.273,1.068,999.690,703.853,0.936,934.927,701.481,0.935,1097.930,531.928,1.095,859.183,543.118,1.152,1083.924,297.168,0.960,787.004,412.272,1.308,938.794,93.609,0.764,685.166,296.703,1.068,-0.028,-0.970,1.403,0.000,-10.564,0.000,0.034,0.017,-0.023,-0.136,-1.081,1.491
0722_170103_0059.png,0.019,0.191,0.934,-0.046,0.192,0.936,0.129,0.004,1.137,-0.165,-0.005,1.096,0.107,-0.176,0.930,-0.151,-0.257,0.994,0.085,-0.351,0.727,-0.089,-0.350,0.758,979.790,734.648,0.934,912.949,735.229,0.936,1067.993,543.646,1.137,816.982,535.561,1.096,1069.711,360.345,0.930,815.895,294.617,0.994,1071.287,80.916,0.727,848.282,101.041,0.758,-0.039,-0.968,1.403,0.000,-350.638,0.000,0.000,-0.028,0.009,0.106,-0.650,1.352
0722_170103_0060.png,0.032,0.172,0.918,-0.033,0.170,0.919,0.157,-0.007,1.084,-0.130,0.005,1.139,0.193,-0.260,0.996,-0.293,-0.212,1.140,0.186,-0.355,0.757,-0.231,-0.317,0.913,992.834,717.752,0.918,925.729,716.215,0.919,1097.702,533.512,1.084,851.191,544.263,1.139,1144.671,291.362,0.996,715.162,363.284,1.140,1194.090,93.837,0.757,718.954,210.038,0.913,-0.027,-0.968,1.403,0.000,-9.823,0.000,0.014,-0.036,0.025,-0.239,-1.156,1.454
0722_170103_0061.png,0.017,0.150,0.941,-0.049,0.151,0.942,0.134,-0.011,1.128,-0.164,-0.011,1.126,0.229,-0.244,1.034,-0.266,-0.232,1.009,0.249,-0.335,0.786,-0.222,-0.341,0.771,977.312,691.684,0.941,910.561,691.968,0.942,1073.260,530.920,1.128,821.536,530.660,1.126,1170.704,315.585,1.034,709.709,321.696,1.009,1261.230,135.042,0.786,685.939,120.077,0.771,-0.024,-0.965,1.402,0.000,-358.574,0.000,-0.005,0.034,-0.007,-0.005,-1.125,1.302
0722_170103_0062.png,-0.013,0.160,0.930,-0.076,0.165,0.940,0.097,-0.004,1.148,-0.185,-0.020,1.082,0.063,-0.174,0.942,-0.189,-0.262,0.978,0.030,-0.340,0.741,-0.147,-0.352,0.742,946.371,703.470,0.930,882.707,706.625,0.940,1040.244,536.275,1.148,797.694,522.773,1.082,1023.850,363.971,0.942,775.782,285.398,0.978,998.418,103.831,0.741,772.076,89.635,0.742,-0.024,-0.966,1.402,0.000,-345.358,0.000,0.025,0.012,0.031,-0.132,-0.842,1.617
0722_170103_0063.png,0.024,0.165,0.946,-0.042,0.166,0.950,0.145,-0.013,1.127,-0.152,-0.014,1.125,0.183,-0.187,0.919,-0.282,-0.207,1.254,0.220,-0.356,0.716,-0.421,-0.271,1.039,984.117,705.690,0.946,918.283,706.247,0.950,1082.086,528.639,1.127,831.225,528.341,1.125,1149.375,346.376,0.919,745.882,382.820,1.254,1252.885,67.270,0.716,574.282,292.250,1.039,-0.035,-0.961,1.401,0.000,-358.540,0.000,0.000,0.021,-0.002,-0.114,-0.704,1.450
0722_170103_0064.png,0.037,0.183,0.942,-0.031,0.181,0.938,0.153,-0.003,1.112,-0.151,0.001,1.132,0.090,-0.239,0.991,-0.223,-0.175,0.930,0.012,-0.341,0.757,-0.292,-0.346,0.732,997.334,724.614,0.942,929.043,723.822,0.938,1090.992,537.309,1.112,832.788,541.239,1.132,1045.948,310.574,0.991,731.907,361.171,0.930,975.273,111.961,0.757,581.231,90.290,0.732,-0.029,-0.969,1.403,0.000,-2.702,0.000,-0.028,-0.006,-0.009,0.137,-0.713,1.503
0722_170103_0065.png,0.012,0.178,0.929,-0.054,0.180,0.934,0.123,0.002,1.144,-0.172,-0.012,1.085,0.100,-0.210,0.984,-0.245,-0.272,1.050,-0.022,-0.337,0.790,-0.060,-0.319,0.871,972.787,722.057,0.929,905.173,723.672,0.934,1062.415,541.392,1.144,809.413,529.579,1.085,1056.624,336.662,0.984,738.384,294.078,1.050,933.930,134.241,0.790,894.246,192.358,0.871,-0.040,-0.967,1.402,0.000,-347.228,0.000,-0.014,-0.018,0.023,0.056,-0.852,1.226
0722_170103_0066.png,0.037,0.188,0.936,-0.027,0.187,0.936,0.157,0.003,1.100,-0.127,0.013,1.146,0.069,-0.184,0.901,-0.242,-0.210,1.249,-0.013,-0.368,0.708,-0.273,-0.301,0.994,997.349,730.830,0.936,932.472,729.761,0.936,1095.446,542.417,1.100,854.475,551.031,1.146,1032.627,346.120,0.901,775.368,380.179,1.249,943.028,45.991,0.708,698.932,251.923,0.994,-0.030,-0.975,1.404,0.000,-8.201,0.000,0.031,-0.012,-0.034,-0.138,-0.794,1.529
0722_170103_0067.png,0.038,0.164,0.940,-0.026,0.162,0.939,0.161,-0.008,1.099,-0.124,0.004,1.153,0.221,-0.268,1.106,-0.269,-0.208,1.220,0.051,-0.319,0.906,-0.361,-0.296,0.980,998.763,705.507,0.940,933.550,703.729,0.939,1098.895,532.859,1.099,857.590,543.524,1.153,1149.978,309.246,1.106,750.207,377.595,1.220,1013.617,205.465,0.906,609.738,252.904,0.980,-0.028,-0.970,1.403,0.000,-9.941,0.000,0.023,0.021,-0.033,-0.169,-0.929,1.710
0722_170103_0068.png,0.035,0.164,0.937,-0.033,0.163,0.934,0.152,-0.004,1.119,-0.155,-0.003,1.127,0.295,-0.212,1.218,-0.197,-0.200,0.944,0.203,-0.280,0.979,-0.181,-0.347,0.723,995.841,706.430,0.937,926.735,705.601,0.934,1089.093,536.199,1.119,829.165,537.817,1.127,1190.066,374.470,1.218,761.394,338.417,0.944,1157.052,267.805,0.979,722.493,84.106,0.723,-0.032,-0.970,1.403,0.000,-0.398,0.000,-0.034,0.010,-0.003,0.131,-0.955,1.690
0722_170103_0069.png,0.031,0.160,0.925,-0.035,0.158,0.925,0.154,-0.012,1.088,-0.139,0.001,1.142,0.229,-0.233,1.226,-0.190,-0.237,1.033,0.315,-0.287,0.987,-0.052,-0.328,0.832,991.512,704.627,0.925,923.787,702.595,0.925,1094.620,529.574,1.088,844.631,540.425,1.142,1137.969,359.339,1.226,785.142,321.749,1.033,1263.166,263.596,0.987,900.564,164.608,0.832,-0.021,-0.969,1.403,0.000,-9.577,0.000,-0.003,-0.003,0.023,-0.145,-1.169,1.481
0722_170103_0070.png,0.034,0.174,0.937,-0.029,0.173,0.936,0.153,-0.015,1.097,-0.129,-0.005,1.142,0.267,-0.203,1.258,-0.275,-0.200,1.030,0.283,-0.297,1.014,-0.345,-0.342,0.820,994.660,716.858,0.937,930.382,716.044,0.936,1092.206,526.998,1.097,852.521,536.048,1.142,1161.959,386.842,1.258,706.325,355.027,1.030,1225.563,261.258,1.014,560.376,143.033,0.820,-0.028,-0.961,1.401,0.000,-8.065,0.000,0.039,-0.013,0.004,-0.155,-0.860,1.128
0722_170103_0071.png,0.000,0.165,0.938,-0.063,0.168,0.947,0.112,-0.006,1.147,-0.173,-0.015,1.107,0.259,-0.231,1.156,-0.285,-0.249,1.032,0.146,-0.316,0.931,-0.206,-0.350,0.794,960.034,706.948,0.938,896.333,709.188,0.947,1053.190,535.425,1.147,811.682,527.394,1.107,1173.498,349.685,1.156,697.142,310.157,1.032,1108.972,217.292,0.931,713.145,121.154,0.794,-0.028,-0.959,1.401,0.000,-350.666,0.000,0.030,0.001,-0.024,-0.123,-0.863,1.400
0722_170103_0072.png,0.053,0.173,0.933,-0.012,0.169,0.925,0.167,-0.019,1.071,-0.120,-0.001,1.150,0.141,-0.264,0.973,-0.289,-0.174,1.041,-0.016,-0.337,0.784,-0.406,-0.315,0.862,1014.392,716.249,0.933,947.932,713.643,0.925,1108.454,523.401,1.071,860.655,539.565,1.150,1098.057,282.098,0.973,695.616,381.086,1.041,940.863,131.509,0.784,511.989,192.220,0.862,-0.026,-0.966,1.402,0.000,-14.595,0.000,-0.005,-0.007,0.033,0.090,-0.836,1.446
0722_170103_0073.png,0.018,0.169,0.937,-0.045,0.170,0.936,0.119,0.001,1.137,-0.164,-0.007,1.104,0.272,-0.215,1.160,-0.292,-0.238,1.125,0.392,-0.307,0.949,-0.317,-0.325,0.880,978.092,711.688,0.937,914.114,712.332,0.936,1059.340,540.494,1.137,819.206,534.118,1.104,1182.582,364.205,1.160,712.792,338.803,1.125,1353.142,232.178,0.949,617.718,188.320,0.880,-0.031,-0.971,1.403,0.000,-352.132,0.000,0.043,0.011,0.005,0.230,-0.943,1.342
0722_170103_0074.png,0.026,0.166,0.923,-0.040,0.166,0.922,0.142,-0.006,1.116,-0.157,-0.006,1.118,0.096,-0.184,0.917,-0.193,-0.237,0.986,0.050,-0.357,0.724,-0.070,-0.344,0.783,986.966,710.902,0.923,918.722,710.741,0.922,1080.997,534.553,1.116,826.674,534.946,1.118,1059.835,349.334,0.917,773.500,311.003,0.986,1025.730,71.496,0.724,874.993,122.267,0.783,-0.030,-0.962,1.401,0.000,-359.214,0.000,-0.006,-0.035,0.018,0.055,-1.157,1.438
0722_170103_0075.png,0.009,0.148,0.944,-0.057,0.151,0.945,0.112,-0.008,1.160,-0.181,-0.021,1.101,0.260,-0.202,1.268,-0.250,-0.221,1.260,0.311,-0.278,1.011,-0.251,-0.279,0.995,969.334,689.415,0.944,902.531,691.556,0.945,1052.221,533.531,1.160,803.892,521.655,1.101,1155.411,388.440,1.268,771.516,373.012,1.260,1252.429,278.305,1.011,720.213,273.021,0.995,-0.032,-0.958,1.400,0.000,-347.333,0.000,-0.008,0.026,-0.036,0.218,-1.009,1.492
0722_170103_0076.png,0.017,0.182,0.929,-0.046,0.184,0.935,0.129,-0.001,1.132,-0.157,-0.009,1.097,0.269,-0.208,1.040,-0.232,-0.186,0.908,0.354,-0.336,0.834,-0.305,-0.360,0.725,977.668,726.263,0.929,912.910,727.339,0.935,1068.303,539.203,1.132,824.070,532.303,1.097,1205.690,349.607,1.040,717.279,344.850,0.908,1364.064,157.212,0.834,559.854,67.359,0.725,-0.040,-0.965,1.402,0.000,-351.763,0.000,0.030,-0.026,0.025,-0.056,-0.752,1.391
0722_170103_0077.png,0.011,0.189,0.937,-0.054,0.193,0.947,0.130,0.008,1.140,-0.163,0.000,1.106,0.101,-0.209,0.971,-0.198,-0.191,0.907,0.017,-0.357,0.762,-0.202,-0.368,0.701,971.408,732.162,0.937,906.227,733.465,0.947,1068.670,546.779,1.140,820.010,540.393,1.106,1058.742,335.095,0.971,752.834,339.975,0.907,980.766,94.910,0.762,685.974,41.055,0.701,-0.038,-0.972,1.404,0.000,-352.166,0.000,0.006,-0.011,-0.023,-0.188,-0.702,1.246
0722_170103_0078.png,0.012,0.161,0.934,-0.053,0.164,0.937,0.123,-0.001,1.146,-0.172,-0.009,1.111,0.156,-0.181,0.923,-0.153,-0.253,0.975,0.191,-0.357,0.707,-0.056,-0.360,0.744,972.573,704.393,0.934,905.737,706.227,0.937,1061.894,538.919,1.146,812.757,531.976,1.111,1120.504,353.345,0.923,811.135,293.760,0.975,1216.416,59.562,0.707,888.327,79.742,0.744,-0.031,-0.961,1.401,0.000,-351.859,0.000,0.000,-0.010,-0.039,0.064,-1.075,1.477
0722_170103_0079.png,0.064,0.178,0.931,-0.002,0.173,0.923,0.182,-0.007,1.079,-0.108,0.011,1.158,0.116,-0.235,0.933,-0.089,-0.172,0.941,0.054,-0.368,0.705,-0.071,-0.352,0.730,1025.238,722.289,0.931,957.555,718.340,0.923,1120.427,533.865,1.079,871.484,549.338,1.158,1078.082,300.675,0.933,870.479,365.838,0.941,1032.249,44.139,0.705,867.865,81.535,0.730,-0.037,-0.968,1.403,0.000,-14.602,0.000,-0.014,-0.024,-0.028,0.049,-1.091,1.277
0722_170103_0080.png,0.029,0.175,0.932,-0.035,0.174,0.931,0.139,-0.001,1.125,-0.152,-0.003,1.117,0.243,-0.223,1.247,-0.245,-0.204,1.279,0.384,-0.287,1.034,-0.284,-0.287,1.031,989.713,718.125,0.932,923.918,718.145,0.931,1077.196,538.832,1.125,830.549,537.214,1.117,1145.450,369.610,1.247,777.940,388.016,1.279,1313.290,276.420,1.034,698.053,275.612,1.031,-0.035,-0.966,1.402,0.000,-357.164,0.000,0.020,-0.020,-0.004,0.137,-1.040,1.157
0722_170103_0081.png,0.043,0.185,0.937,-0.021,0.183,0.931,0.160,-0.012,1.080,-0.125,0.004,1.151,0.302,-0.244,1.069,-0.093,-0.172,0.940,0.374,-0.333,0.833,-0.062,-0.345,0.735,1004.022,728.073,0.937,938.058,726.611,0.931,1100.732,529.599,1.080,856.883,543.703,1.151,1228.517,323.177,1.069,866.110,365.760,0.940,1386.924,160.398,0.833,879.835,93.640,0.735,-0.022,-0.966,1.402,0.000,-13.167,0.000,0.011,-0.019,0.003,-0.024,-0.660,1.569
0722_170103_0082.png,0.052,0.186,0.938,-0.014,0.182,0.930,0.167,-0.005,1.096,-0.133,0.005,1.142,0.188,-0.231,0.944,-0.276,-0.220,1.213,0.172,-0.357,0.710,-0.358,-0.292,0.970,1013.242,728.282,0.938,945.500,726.500,0.930,1104.847,535.669,1.096,849.260,544.544,1.142,1149.066,306.931,0.944,743.453,367.557,1.213,1190.494,61.742,0.710,609.202,253.924,0.970,-0.034,-0.968,1.403,0.000,-7.668,0.000,-0.022,-0.022,-0.008,0.195,-0.840,1.280
0722_170103_0083.png,0.033,0.166,0.938,-0.034,0.166,0.940,0.160,-0.010,1.096,-0.139,0.002,1.146,0.258,-0.256,1.057,-0.137,-0.174,0.934,0.279,-0.325,0.804,-0.133,-0.344,0.726,993.435,708.419,0.938,925.361,707.491,0.940,1098.940,531.359,1.096,844.645,541.259,1.146,1192.022,309.297,1.057,820.680,362.763,0.934,1290.317,155.821,0.804,785.259,89.366,0.726,-0.025,-0.972,1.403,0.000,-8.548,0.000,-0.022,0.023,0.000,-0.213,-0.881,1.538
0722_170103_0084.png,0.003,0.157,0.943,-0.062,0.159,0.946,0.108,-0.005,1.150,-0.180,-0.017,1.101,0.234,-0.212,1.031,-0.182,-0.279,1.059,0.296,-0.337,0.804,-0.125,-0.335,0.807,963.070,698.024,0.943,897.965,699.694,0.946,1048.977,535.617,1.150,804.453,525.654,1.101,1175.721,344.424,1.031,796.464,289.221,1.059,1310.293,142.127,0.804,812.234,145.070,0.807,-0.026,-0.966,1.402,0.000,-348.876,0.000,0.016,0.033,-0.009,0.136,-0.850,1.594
0722_170103_0085.png,0.053,0.168,0.943,-0.012,0.164,0.936,0.169,-0.017,1.075,-0.118,0.001,1.154,0.247,-0.226,1.210,-0.218,-0.205,1.024,0.303,-0.281,0.964,-0.175,-0.330,0.802,1013.712,709.402,0.943,947.699,707.036,0.936,1109.232,525.009,1.075,863.010,541.107,1.154,1154.361,362.559,1.210,757.119,349.647,1.024,1259.009,262.443,0.964,752.922,149.034,0.802,-0.027,-0.973,1.404,0.000,-14.742,0.000,-0.003,0.036,0.023,-0.002,-0.794,1.394
0722_170103_0086.png,0.062,0.180,0.945,-0.001,0.174,0.932,0.170,-0.009,1.086,-0.114,0.005,1.151,0.089,-0.189,0.890,-0.245,-0.201,1.034,0.011,-0.364,0.699,-0.247,-0.339,0.808,1022.794,720.660,0.945,958.886,717.773,0.932,1108.777,531.686,1.086,865.827,544.515,1.151,1054.946,338.307,0.890,734.918,355.215,1.034,975.555,44.390,0.699,669.054,140.546,0.808,-0.034,-0.971,1.403,0.000,-12.069,0.000,0.018,0.006,-0.007,0.275,-0.804,1.371
0722_170103_0087.png,0.015,0.167,0.937,-0.054,0.168,0.940,0.137,-0.005,1.130,-0.172,-0.008,1.116,0.195,-0.186,0.934,-0.277,-0.252,1.056,0.202,-0.347,0.722,-0.124,-0.314,0.846,974.976,709.426,0.937,905.713,710.307,0.940,1075.438,535.737,1.130,813.690,532.932,1.116,1158.534,350.852,0.934,710.995,313.296,1.056,1226.529,83.413,0.722,820.175,187.028,0.846,-0.027,-0.966,1.402,0.000,-356.156,0.000,-0.042,0.005,-0.002,-0.053,-0.947,1.266
0722_170103_0088.png,0.039,0.189,0.935,-0.028,0.189,0.936,0.162,-0.001,1.109,-0.138,0.005,1.134,0.093,-0.194,0.923,-0.286,-0.190,1.264,-0.017,-0.356,0.737,-0.254,-0.283,1.014,999.313,731.940,0.935,931.485,731.712,0.936,1098.943,539.435,1.109,844.358,544.245,1.134,1055.588,339.902,0.923,745.075,397.138,1.264,937.554,80.418,0.737,721.720,274.491,1.014,-0.038,-0.968,1.403,0.000,-3.694,0.000,-0.014,-0.027,-0.018,-0.111,-0.744,1.419
0722_170103_0089.png,0.038,0.154,0.941,-0.027,0.152,0.939,0.160,-0.016,1.095,-0.127,-0.001,1.158,0.175,-0.282,1.071,-0.295,-0.199,1.219,0.153,-0.338,0.809,-0.227,-0.290,0.976,998.419,695.984,0.941,932.400,693.445,0.939,1098.936,526.120,1.095,855.616,538.769,1.158,1114.962,289.701,1.071,730.157,384.732,1.219,1140.055,142.803,0.809,738.792,257.317,0.976,-0.023,-0.966,1.402,0.000,-11.523,0.000,0.009,0.029,-0.028,-0.144,-1.027,1.566
0722_170103_0090.png,0.037,0.154,0.926,-0.030,0.150,0.924,0.159,-0.015,1.093,-0.144,-0.003,1.143,0.087,-0.252,0.990,-0.314,-0.199,1.061,0.008,-0.336,0.756,-0.415,-0.312,0.849,998.393,697.647,0.926,928.617,694.845,0.924,1098.709,527.150,1.093,840.251,537.192,1.143,1043.834,297.546,0.990,678.591,361.645,1.061,969.545,117.777,0.756,495.094,190.194,0.849,-0.024,-0.963,1.401,0.000,-8.351,0.000,-0.036,-0.008,0.013,0.004,-1.281,1.469
0722_170103_0091.png,0.031,0.159,0.944,-0.035,0.160,0.950,0.155,-0.018,1.117,-0.143,-0.015,1.126,0.187,-0.202,1.299,-0.134,-0.185,0.920,0.237,-0.258,1.054,-0.124,-0.350,0.718,991.127,699.839,0.944,925.037,700.387,0.950,1092.074,525.098,1.117,839.536,527.082,1.126,1096.656,392.478,1.299,821.300,348.503,0.920,1173.879,307.227,1.054,795.688,76.473,0.718,-0.040,-0.964,1.402,0.000,-0.719,0.000,-0.003,0.036,0.026,-0.204,-0.778,1.279
0722_170103_0092.png,0.010,0.180,0.934,-0.058,0.183,0.942,0.130,0.005,1.147,-0.175,-0.007,1.094,0.117,-0.218,0.991,-0.236,-0.169,1.305,-0.022,-0.332,0.789,-0.308,-0.257,1.062,969.873,723.106,0.934,901.227,724.947,0.942,1067.606,544.311,1.147,807.937,533.851,1.094,1072.030,330.485,0.991,787.736,416.653,1.305,933.877,140.387,0.789,684.479,310.130,1.062,-0.039,-0.969,1.403,0.000,-348.634,0.000,-0.043,-0.009,-0.009,-0.070,-0.708,1.618
0722_170103_0093.png,0.041,0.153,0.945,-0.024,0.149,0.939,0.156,-0.010,1.108,-0.139,-0.001,1.149,0.194,-0.173,1.311,-0.276,-0.193,1.266,0.225,-0.260,1.057,-0.442,-0.261,1.066,1001.552,693.939,0.945,935.216,690.924,0.939,1093.680,530.999,1.108,844.804,539.137,1.149,1100.625,414.277,1.311,752.466,394.840,1.266,1162.333,305.865,1.057,565.242,307.149,1.066,-0.026,-0.969,1.403,0.000,-6.965,0.000,-0.004,0.038,-0.030,0.127,-1.093,1.569
0722_170103_0094.png,0.056,0.171,0.925,-0.011,0.164,0.917,0.173,-0.008,1.080,-0.123,0.010,1.155,0.122,-0.242,0.942,-0.247,-0.195,1.299,0.068,-0.362,0.707,-0.282,-0.272,1.043,1017.074,715.703,0.925,948.288,710.542,0.917,1112.212,533.266,1.080,858.831,548.070,1.155,1083.009,295.209,0.942,779.220,397.010,1.299,1051.244,53.226,0.707,702.936,292.266,1.043,-0.028,-0.966,1.402,0.000,-13.588,0.000,-0.030,-0.034,-0.021,0.133,-1.191,1.572
0722_170103_0095.png,0.030,0.183,0.945,-0.037,0.183,0.946,0.149,0.001,1.125,-0.154,0.001,1.125,0.186,-0.179,0.915,-0.328,-0.206,1.089,0.222,-0.354,0.709,-0.395,-0.317,0.854,989.982,723.829,0.945,922.523,723.954,0.946,1085.858,540.773,1.125,830.124,540.803,1.125,1153.299,353.582,0.915,674.006,359.807,1.089,1257.791,64.730,0.709,519.976,187.183,0.854,-0.035,-0.972,1.404,0.000,-358.857,0.000,-0.019,0.008,-0.019,0.002,-0.683,1.413
0722_170103_0096.png,0.002,0.174,0.925,-0.061,0.178,0.933,0.111,0.008,1.144,-0.171,-0.004,1.093,0.112,-0.178,0.939,-0.219,-0.239,0.965,0.115,-0.361,0.740,-0.141,-0.366,0.746,961.684,718.619,0.925,897.419,721.685,0.933,1051.989,546.610,1.144,811.062,536.739,1.093,1073.317,359.735,0.939,744.211,304.204,0.965,1108.227,76.488,0.740,779.866,72.751,0.746,-0.033,-0.970,1.403,0.000,-348.328,0.000,0.034,-0.020,-0.008,-0.093,-0.917,1.714
0722_170103_0097.png,0.066,0.157,0.946,0.000,0.151,0.936,0.176,-0.019,1.093,-0.116,-0.004,1.154,0.129,-0.262,0.986,-0.202,-0.254,1.107,0.018,-0.346,0.760,-0.153,-0.317,0.853,1025.903,697.949,0.946,960.431,693.975,0.936,1113.400,523.841,1.093,864.701,536.347,1.154,1084.804,287.432,0.986,786.492,321.906,1.107,982.031,106.884,0.760,789.172,186.597,0.853,-0.039,-0.965,1.402,0.000,-11.026,0.000,-0.006,0.029,-0.011,0.249,-1.007,1.408
0722_170103_0098.png,0.039,0.158,0.936,-0.025,0.157,0.936,0.156,-0.011,1.107,-0.132,-0.005,1.134,0.178,-0.264,1.029,-0.152,-0.217,0.974,0.013,-0.331,0.842,-0.063,-0.348,0.770,999.821,700.073,0.936,934.617,699.154,0.936,1094.477,530.615,1.107,849.642,536.197,1.134,1124.326,296.256,1.029,811.306,328.694,0.974,974.371,165.976,0.842,882.507,110.181,0.770,-0.037,-0.970,1.403,0.000,-4.477,0.000,0.025,0.024,0.015,-0.058,-1.133,1.209
0722_170103_0099.png,0.003,0.165,0.938,-0.065,0.167,0.942,0.120,-0.008,1.141,-0.185,-0.018,1.097,0.081,-0.176,0.935,-0.183,-0.260,0.988,0.040,-0.339,0.733,-0.100,-0.335,0.755,963.091,707.514,0.938,894.289,708.777,0.942,1059.726,533.659,1.141,799.209,524.557,1.097,1042.861,360.696,0.935,783.636,289.754,0.988,1012.503,100.597,0.733,834.123,118.063,0.755,-0.024,-0.963,1.401,0.000,-350.339,0.000,-0.039,0.011,0.022,0.039,-0.874,1.116
0722_170103_0100.png,0.014,0.177,0.930,-0.051,0.178,0.929,0.119,0.011,1.143,-0.175,0.002,1.104,0.238,-0.209,1.025,-0.262,-0.223,0.968,0.309,-0.344,0.800,-0.267,-0.362,0.736,974.537,720.714,0.930,907.336,721.949,0.929,1058.822,549.148,1.143,809.482,541.783,1.104,1181.034,345.673,1.025,702.576,321.303,0.968,1326.949,131.281,0.800,614.335,71.938,0.736,-0.029,-0.972,1.403,0.000,-351.096,0.000,0.003,-0.022,-0.029,0.205,-1.043,1.516
0722_170103_0101.png,0.010,0.168,0.913,-0.054,0.171,0.918,0.125,0.008,1.127,-0.166,0.001,1.097,0.075,-0.172,0.931,-0.188,-0.271,1.073,0.024,-0.348,0.741,-0.137,-0.336,0.829,970.926,714.512,0.913,904.089,717.096,0.918,1065.222,546.467,1.127,816.020,540.641,1.097,1036.108,363.993,0.931,793.229,299.592,1.073,991.332,93.274,0.741,802.417,155.025,0.829,-0.031,-0.973,1.404,0.000,-352.757,0.000,0.015,-0.036,0.029,-0.079,-1.282,1.539
0722_170103_0102.png,0.030,0.153,0.945,-0.034,0.153,0.944,0.147,-0.014,1.117,-0.144,-0.010,1.137,0.265,-0.244,1.050,-0.238,-0.240,1.037,0.309,-0.335,0.806,-0.115,-0.334,0.823,990.618,694.355,0.945,925.582,693.748,0.944,1085.141,527.921,1.117,839.856,531.888,1.137,1199.798,319.556,1.050,741.801,319.626,1.037,1324.333,144.534,0.806,827.389,153.740,0.823,-0.030,-0.965,1.402,0.000,-2.778,0.000,0.019,0.036,-0.009,-0.030,-1.004,1.343
0722_170103_0103.png,0.061,0.179,0.944,-0.007,0.175,0.936,0.179,-0.008,1.086,-0.120,0.008,1.156,0.292,-0.252,1.039,-0.164,-0.226,1.021,0.323,-0.329,0.784,-0.052,-0.330,0.798,1021.142,720.139,0.944,953.031,717.757,0.936,1116.542,532.564,1.086,861.003,546.356,1.156,1227.059,309.694,1.039,807.441,329.502,1.021,1351.303,140.906,0.784,898.394,147.253,0.798,-0.034,-0.973,1.404,0.000,-12.438,0.000,-0.036,0.012,-0.018,0.075,-0.848,1.195
0722_170103_0104.png,0.038,0.165,0.939,-0.026,0.162,0.931,0.143,-0.010,1.116,-0.147,-0.008,1.127,0.129,-0.257,1.009,-0.280,-0.209,1.246,-0.016,-0.343,0.810,-0.348,-0.288,1.006,998.672,706.920,0.939,933.869,705.235,0.931,1082.052,531.082,1.116,836.341,533.363,1.127,1081.513,297.714,1.009,746.073,380.561,1.246,941.417,137.573,0.810,631.007,268.056,1.006,-0.031,-0.963,1.402,0.000,-1.120,0.000,0.023,-0.001,0.008,0.315,-0.990,1.413
0722_170103_0105.png,0.013,0.148,0.936,-0.051,0.150,0.942,0.133,-0.011,1.127,-0.158,-0.012,1.121,0.134,-0.253,1.016,-0.216,-0.258,1.038,-0.016,-0.335,0.819,-0.203,-0.341,0.791,973.116,690.419,0.936,908.191,691.894,0.942,1071.940,530.915,1.127,825.858,529.796,1.121,1084.990,303.094,1.016,761.892,303.982,1.038,941.769,151.469,0.819,716.266,129.405,0.791,-0.028,-0.966,1.402,0.000,-357.714,0.000,0.020,0.031,0.007,-0.171,-1.097,1.490
0722_170103_0106.png,-0.004,0.172,0.925,-0.068,0.177,0.936,0.111,0.003,1.148,-0.179,-0.013,1.079,0.193,-0.170,0.959,-0.166,-0.248,0.953,0.271,-0.339,0.775,-0.105,-0.356,0.727,956.145,716.707,0.925,890.488,719.824,0.936,1051.560,542.169,1.148,802.451,528.435,1.079,1151.050,371.264,0.959,793.963,292.580,0.953,1292.822,124.362,0.775,822.309,74.765,0.727,-0.035,-0.967,1.403,0.000,-345.174,0.000,-0.003,-0.013,0.023,-0.169,-0.983,1.125
0722_170103_0107.png,0.045,0.144,0.937,-0.019,0.139,0.933,0.162,-0.020,1.091,-0.119,-0.006,1.154,0.168,-0.261,1.194,-0.168,-0.228,1.009,0.146,-0.303,0.935,-0.080,-0.346,0.792,1005.693,685.692,0.937,940.989,681.907,0.933,1100.748,522.421,1.091,861.976,535.290,1.154,1094.131,332.382,1.194,801.584,325.471,1.009,1108.404,231.584,0.935,863.487,124.392,0.792,-0.028,-0.965,1.402,0.000,-11.789,0.000,0.031,0.034,-0.004,-0.029,-1.199,1.580
0722_170103_0108.png,0.017,0.174,0.932,-0.050,0.176,0.939,0.145,-0.006,1.115,-0.156,-0.003,1.128,0.271,-0.249,1.100,-0.202,-0.272,1.105,0.308,-0.321,0.849,-0.149,-0.320,0.851,977.067,717.846,0.932,909.557,718.500,0.939,1084.034,534.485,1.115,828.312,537.070,1.128,1194.276,324.908,1.100,786.033,306.371,1.105,1304.860,180.572,0.849,793.039,182.771,0.851,-0.026,-0.965,1.402,0.000,-1.363,0.000,-0.017,-0.013,0.000,-0.293,-0.901,1.249
0722_170103_0109.png,0.015,0.164,0.935,-0.052,0.165,0.935,0.125,-0.004,1.134,-0.175,-0.011,1.101,0.281,-0.219,1.172,-0.192,-0.255,1.000,0.385,-0.287,0.947,-0.088,-0.334,0.778,974.970,706.733,0.935,906.935,707.525,0.935,1065.073,536.990,1.134,809.084,530.292,1.101,1188.166,362.153,1.172,777.792,297.410,1.000,1346.775,251.595,0.947,851.794,131.109,0.778,-0.028,-0.970,1.403,0.000,-352.335,0.000,-0.017,0.015,0.027,0.162,-0.934,1.435
0722_170103_0110.png,0.014,0.157,0.929,-0.049,0.160,0.933,0.125,0.002,1.134,-0.159,-0.001,1.117,0.268,-0.210,1.047,-0.284,-0.191,1.259,0.351,-0.342,0.829,-0.431,-0.282,1.061,974.102,700.935,0.929,909.762,702.680,0.933,1065.277,542.091,1.134,824.748,538.868,1.117,1203.410,348.943,1.047,745.871,395.711,1.259,1362.955,147.521,0.829,574.119,287.305,1.061,-0.030,-0.970,1.403,0.000,-355.393,0.000,0.041,0.001,-0.022,-0.049,-1.193,1.655
0722_170103_0111.png,0.016,0.153,0.937,-0.050,0.156,0.945,0.141,-0.006,1.133,-0.161,-0.011,1.111,0.191,-0.177,0.930,-0.249,-0.166,1.303,0.237,-0.342,0.730,-0.291,-0.251,1.061,976.652,695.268,0.937,909.387,697.479,0.945,1078.718,534.914,1.133,821.979,530.521,1.111,1155.339,359.410,0.930,778.004,418.880,1.303,1268.725,95.153,0.730,699.460,315.079,1.061,-0.038,-0.971,1.403,0.000,-354.597,0.000,-0.022,0.040,0.014,-0.208,-1.089,1.226
0722_170103_0112.png,0.029,0.160,0.934,-0.036,0.160,0.935,0.145,-0.008,1.124,-0.145,-0.006,1.135,0.243,-0.263,1.083,-0.264,-0.228,1.021,0.250,-0.345,0.822,-0.312,-0.354,0.782,989.204,703.139,0.934,923.789,702.957,0.935,1082.879,532.860,1.124,838.825,535.032,1.135,1172.941,309.216,1.083,714.168,327.436,1.021,1249.024,141.025,0.822,580.815,109.268,0.782,-0.033,-0.958,1.400,0.000,-1.042,0.000,0.023,-0.015,-0.041,-0.041,-1.146,1.380
0722_170103_0113.png,0.060,0.169,0.940,-0.006,0.166,0.933,0.175,-0.022,1.081,-0.116,-0.007,1.150,0.180,-0.191,1.291,-0.209,-0.237,1.053,0.238,-0.266,1.050,-0.051,-0.320,0.862,1020.732,711.166,0.940,954.373,709.233,0.933,1113.848,520.273,1.081,864.316,534.532,1.150,1092.507,399.337,1.291,771.708,326.437,1.053,1175.189,299.196,1.050,904.195,187.205,0.862,-0.036,-0.961,1.401,0.000,-12.487,0.000,-0.007,0.002,0.024,0.083,-0.779,1.347
0722_170103_0114.png,0.037,0.171,0.926,-0.027,0.172,0.930,0.162,-0.003,1.103,-0.128,0.004,1.135,0.145,-0.274,1.073,-0.122,-0.206,0.962,0.110,-0.341,0.820,-0.058,-0.357,0.756,998.452,715.865,0.926,932.348,715.525,0.930,1099.628,537.352,1.103,853.116,543.686,1.135,1088.404,297.197,1.073,839.155,336.593,0.962,1087.097,144.352,0.820,886.730,90.665,0.756,-0.040,-0.970,1.403,0.000,-5.399,0.000,0.019,-0.015,0.000,-0.207,-0.978,1.685
0722_170103_0115.png,-0.006,0.169,0.923,-0.068,0.174,0.933,0.105,0.008,1.142,-0.175,-0.003,1.094,0.122,-0.231,1.013,-0.311,-0.216,1.192,-0.010,-0.349,0.825,-0.425,-0.307,0.977,953.707,713.754,0.923,890.274,717.472,0.933,1047.500,546.344,1.142,807.755,537.047,1.094,1074.728,323.575,1.013,711.929,367.773,1.192,947.907,138.102,0.825,546.144,241.646,0.977,-0.026,-0.972,1.403,0.000,-348.872,0.000,0.041,-0.013,-0.001,-0.190,-1.096,1.456
0722_170103_0116.png,0.025,0.184,0.938,-0.039,0.185,0.941,0.144,0.000,1.123,-0.146,0.001,1.128,0.209,-0.210,1.288,-0.275,-0.210,1.007,0.352,-0.279,1.074,-0.354,-0.352,0.791,985.807,726.446,0.938,920.873,726.773,0.941,1081.616,540.123,1.123,836.662,541.089,1.128,1114.370,385.059,1.288,700.650,341.810,1.007,1272.099,293.246,1.074,534.439,116.656,0.791,-0.034,-0.966,1.402,0.000,0.161,0.000,0.023,-0.018,-0.030,-0.122,-0.823,1.199
0722_170103_0117.png,0.037,0.177,0.935,-0.030,0.176,0.934,0.160,0.001,1.102,-0.141,0.010,1.144,0.238,-0.250,1.168,-0.267,-0.231,1.166,0.245,-0.303,0.904,-0.305,-0.304,0.910,997.662,720.390,0.935,929.020,718.948,0.934,1098.231,540.537,1.102,842.470,548.552,1.144,1154.000,336.041,1.168,742.176,351.817,1.166,1217.324,221.485,0.904,641.647,221.992,0.910,-0.027,-0.975,1.404,0.000,-6.971,0.000,-0.026,0.001,-0.024,-0.072,-1.073,1.117
0722_170103_0118.png,0.016,0.173,0.925,-0.049,0.175,0.931,0.141,-0.004,1.120,-0.155,-0.003,1.125,0.061,-0.185,0.924,-0.276,-0.223,1.011,-0.015,-0.362,0.733,-0.324,-0.350,0.781,976.407,717.503,0.925,909.637,718.531,0.931,1079.575,536.248,1.120,828.885,537.142,1.125,1023.122,349.852,0.924,699.942,330.320,1.011,940.360,71.119,0.733,565.621,112.989,0.781,-0.029,-0.959,1.401,0.000,0.275,0.000,0.003,-0.043,-0.016,-0.254,-1.100,1.246
0722_170103_0119.png,0.040,0.179,0.940,-0.025,0.177,0.936,0.156,-0.011,1.109,-0.140,-0.005,1.136,0.166,-0.284,1.150,-0.241,-0.226,1.011,0.144,-0.320,0.887,-0.199,-0.349,0.778,1000.921,721.064,0.940,934.339,720.181,0.936,1093.333,530.716,1.109,842.761,536.195,1.136,1096.869,305.365,1.150,733.288,327.460,1.011,1114.114,196.844,0.887,716.292,113.904,0.778,-0.033,-0.959,1.401,0.000,-4.247,0.000,0.000,-0.023,-0.011,0.093,-0.710,1.577
0722_170103_0120.png,0.020,0.180,0.938,-0.049,0.181,0.941,0.146,-0.007,1.116,-0.164,-0.005,1.125,0.213,-0.204,1.295,-0.293,-0.209,1.259,0.210,-0.262,1.039,-0.448,-0.262,1.049,980.201,722.737,0.938,910.696,722.937,0.941,1084.786,533.692,1.116,821.641,535.643,1.125,1116.680,390.553,1.295,738.497,382.238,1.259,1151.870,300.236,1.039,553.915,302.415,1.049,-0.025,-0.964,1.402,0.000,-0.678,0.000,-0.045,-0.013,0.005,-0.128,-0.692,1.401
0722_170103_0121.png,0.049,0.157,0.937,-0.019,0.153,0.934,0.171,-0.015,1.089,-0.127,0.000,1.155,0.258,-0.214,1.239,-0.189,-0.241,1.051,0.394,-0.267,1.014,-0.159,-0.327,0.801,1009.245,698.941,0.937,940.777,695.942,0.934,1109.076,527.193,1.089,855.285,540.406,1.155,1158.338,375.771,1.239,789.037,321.887,1.051,1329.141,289.866,1.014,770.855,151.363,0.801,-0.029,-0.969,1.403,0.000,-11.630,0.000,-0.029,0.025,-0.010,-0.047,-1.045,1.573
0722_170103_0122.png,0.002,0.147,0.938,-0.063,0.150,0.942,0.112,-0.006,1.145,-0.179,-0.016,1.098,0.131,-0.232,1.010,-0.222,-0.272,1.110,-0.018,-0.327,0.820,-0.194,-0.314,0.857,962.032,689.147,0.938,896.335,691.673,0.942,1053.204,535.192,1.145,805.349,525.722,1.098,1083.449,321.493,1.010,769.854,306.703,1.110,938.768,160.336,0.820,745.052,191.487,0.857,-0.027,-0.970,1.403,0.000,-349.499,0.000,0.007,0.046,0.017,0.024,-1.100,1.375
0722_170103_0123.png,0.054,0.170,0.940,-0.011,0.164,0.929,0.165,-0.005,1.099,-0.125,0.008,1.154,0.165,-0.273,1.030,-0.160,-0.211,0.981,-0.016,-0.338,0.839,-0.081,-0.355,0.763,1014.401,711.809,0.940,948.574,707.559,0.929,1103.085,535.789,1.099,856.823,546.464,1.154,1112.544,287.938,1.030,804.419,334.991,0.981,941.545,156.656,0.839,859.381,97.469,0.763,-0.030,-0.969,1.403,0.000,-9.880,0.000,0.003,-0.003,-0.047,0.230,-1.123,1.417
0722_170103_0124.png,0.040,0.166,0.927,-0.028,0.164,0.928,0.166,-0.008,1.102,-0.137,0.001,1.141,0.123,-0.263,1.011,-0.294,-0.189,1.268,0.073,-0.343,0.762,-0.393,-0.272,1.035,1001.271,709.718,0.927,931.776,708.468,0.928,1103.359,533.061,1.102,845.555,540.730,1.141,1076.079,292.226,1.011,739.739,398.599,1.268,1051.720,111.288,0.762,599.257,289.669,1.035,-0.034,-0.964,1.402,0.000,-6.303,0.000,-0.030,-0.020,-0.011,-0.105,-1.108,1.524
0722_170103_0125.png,0.031,0.181,0.938,-0.033,0.180,0.935,0.140,0.000,1.123,-0.147,0.001,1.128,0.276,-0.216,1.025,-0.103,-0.186,0.917,0.366,-0.350,0.809,-0.063,-0.370,0.713,991.369,723.997,0.938,926.772,723.522,0.935,1078.704,539.946,1.123,836.056,540.830,1.128,1216.303,339.596,1.025,853.645,347.587,0.917,1390.737,129.074,0.809,875.736,47.264,0.713,-0.032,-0.966,1.402,0.000,0.239,0.000,0.033,-0.022,-0.030,0.129,-0.803,1.579
0722_170103_0126.png,0.005,0.173,0.937,-0.064,0.174,0.937,0.116,0.004,1.148,-0.190,-0.008,1.092,0.148,-0.241,1.042,-0.326,-0.241,1.047,-0.023,-0.313,0.845,-0.355,-0.322,0.797,965.328,715.629,0.937,895.475,717.025,0.937,1056.435,543.710,1.148,794.811,532.736,1.092,1094.759,319.641,1.042,664.222,321.046,1.047,934.453,187.415,0.845,537.126,156.038,0.797,-0.026,-0.972,1.403,0.000,-348.237,0.000,-0.049,0.008,0.002,0.191,-0.919,1.220
0722_170103_0127.png,0.048,0.158,0.943,-0.017,0.155,0.938,0.164,-0.016,1.101,-0.124,-0.004,1.153,0.281,-0.256,1.067,-0.176,-0.179,0.934,0.236,-0.336,0.813,-0.229,-0.349,0.721,1008.402,699.805,0.943,942.789,697.152,0.938,1102.004,526.193,1.101,857.485,536.766,1.153,1210.395,311.734,1.067,780.958,357.836,0.934,1235.932,146.461,0.813,658.341,78.777,0.721,-0.032,-0.962,1.401,0.000,-9.395,0.000,0.011,0.017,-0.028,0.033,-0.988,1.508
0722_170103_0128.png,0.000,0.167,0.916,-0.066,0.172,0.922,0.110,0.004,1.147,-0.185,-0.011,1.078,0.209,-0.223,1.041,-0.238,-0.267,1.182,0.137,-0.331,0.815,-0.227,-0.304,0.924,959.977,713.665,0.916,891.424,717.257,0.922,1051.121,543.671,1.147,796.928,530.029,1.078,1150.748,336.332,1.041,768.567,325.276,1.182,1120.192,154.058,0.815,726.454,227.057,0.924,-0.030,-0.965,1.402,0.000,-345.427,0.000,-0.021,-0.040,0.019,0.014,-1.042,1.723
0722_170103_0129.png,0.036,0.161,0.937,-0.028,0.157,0.931,0.148,-0.009,1.105,-0.138,0.000,1.144,0.140,-0.263,1.003,-0.181,-0.256,1.059,0.002,-0.353,0.794,-0.139,-0.345,0.810,996.096,702.860,0.937,931.300,700.080,0.931,1086.951,531.973,1.105,845.454,539.743,1.144,1092.502,290.800,1.003,797.543,310.005,1.059,961.993,116.712,0.794,797.312,135.220,0.810,-0.023,-0.966,1.402,0.000,-6.860,0.000,0.029,0.005,-0.021,0.112,-1.068,1.630
0722_170103_0130.png,0.039,0.162,0.931,-0.027,0.162,0.936,0.168,-0.017,1.092,-0.121,-0.004,1.148,0.101,-0.193,0.892,-0.226,-0.171,0.953,0.036,-0.364,0.697,-0.328,-0.334,0.763,999.477,705.394,0.931,933.032,704.635,0.936,1106.115,525.515,1.092,859.441,536.853,1.148,1067.564,334.638,0.892,734.696,369.256,0.953,1009.155,42.852,0.697,551.621,123.610,0.763,-0.035,-0.962,1.401,0.000,-10.039,0.000,0.007,-0.001,0.002,-0.342,-0.969,1.502
0722_170103_0131.png,0.010,0.170,0.930,-0.055,0.174,0.938,0.125,0.001,1.139,-0.166,-0.007,1.100,0.145,-0.244,1.029,-0.252,-0.187,1.283,-0.009,-0.334,0.838,-0.321,-0.275,1.047,969.818,714.326,0.930,904.374,716.486,0.938,1064.340,541.152,1.139,816.912,533.573,1.100,1093.840,314.201,1.029,773.275,401.083,1.283,950.278,160.645,0.838,668.489,289.926,1.047,-0.036,-0.969,1.403,0.000,-351.112,0.000,0.013,-0.004,0.006,-0.111,-0.877,1.567
0722_170103_0132.png,0.038,0.177,0.941,-0.027,0.176,0.941,0.157,-0.005,1.114,-0.133,0.001,1.141,0.077,-0.185,0.905,-0.296,-0.202,1.212,0.003,-0.363,0.700,-0.438,-0.295,1.002,998.117,718.419,0.941,932.929,717.850,0.941,1093.757,535.711,1.114,849.397,541.027,1.141,1040.985,345.085,0.905,727.869,381.635,1.212,964.427,47.094,0.700,544.069,259.958,1.002,-0.036,-0.965,1.402,0.000,-4.341,0.000,0.021,-0.008,-0.040,-0.099,-0.946,1.069
0722_170103_0133.png,0.000,0.160,0.932,-0.066,0.162,0.933,0.102,-0.005,1.148,-0.188,-0.020,1.080,0.192,-0.208,1.299,-0.237,-0.278,1.040,0.226,-0.263,1.052,-0.055,-0.317,0.863,960.286,702.811,0.932,893.133,704.665,0.933,1044.215,536.194,1.148,794.377,522.218,1.080,1100.322,387.778,1.299,742.900,285.780,1.040,1163.878,302.365,1.052,899.323,190.999,0.863,-0.025,-0.965,1.402,0.000,-345.313,0.000,-0.004,0.010,0.037,0.234,-0.951,1.423
0722_170103_0134.png,0.009,0.177,0.927,-0.056,0.179,0.930,0.110,-0.001,1.148,-0.176,-0.017,1.080,0.130,-0.236,1.019,-0.199,-0.291,1.098,-0.017,-0.338,0.831,-0.149,-0.331,0.846,969.332,721.748,0.927,902.881,723.238,0.930,1050.854,539.255,1.148,805.323,525.395,1.080,1081.107,320.138,1.019,787.514,287.569,1.098,941.046,152.859,0.831,792.281,168.295,0.846,-0.036,-0.960,1.401,0.000,-345.040,0.000,0.011,-0.033,0.020,0.181,-0.761,1.567
0722_170103_0135.png,0.012,0.168,0.936,-0.053,0.170,0.939,0.119,0.001,1.149,-0.173,-0.010,1.102,0.092,-0.181,0.937,-0.264,-0.220,0.949,0.068,-0.360,0.731,-0.294,-0.363,0.722,972.431,710.580,0.936,906.104,712.339,0.939,1058.339,540.929,1.149,811.129,531.798,1.102,1053.472,355.947,0.937,695.619,319.950,0.949,1048.629,71.639,0.731,572.415,61.698,0.722,-0.034,-0.964,1.402,0.000,-349.576,0.000,0.006,-0.005,-0.027,0.119,-0.912,1.548
0722_170103_0136.png,0.009,0.164,0.945,-0.057,0.167,0.950,0.126,-0.005,1.146,-0.172,-0.012,1.111,0.074,-0.181,0.932,-0.244,-0.242,1.223,0.024,-0.353,0.724,-0.226,-0.289,0.959,969.006,705.176,0.945,902.682,706.818,0.950,1064.357,536.116,1.146,812.680,529.334,1.111,1035.261,355.207,0.932,770.070,351.881,1.223,991.952,76.382,0.724,735.613,253.734,0.959,-0.031,-0.964,1.402,0.000,-352.170,0.000,-0.010,0.022,-0.025,-0.059,-0.911,1.095
0722_170103_0137.png,0.026,0.163,0.952,-0.039,0.163,0.951,0.143,-0.016,1.118,-0.154,-0.013,1.131,0.163,-0.261,1.022,-0.290,-0.227,1.052,-0.017,-0.321,0.842,-0.332,-0.324,0.814,986.405,703.037,0.952,920.684,702.773,0.951,1081.445,526.432,1.118,830.749,529.116,1.131,1111.337,296.831,1.022,697.769,334.975,1.052,941.089,177.245,0.842,571.744,161.240,0.814,-0.026,-0.965,1.402,0.000,-1.421,0.000,0.001,0.042,0.012,0.021,-0.682,1.317
0722_170103_0138.png,0.027,0.151,0.941,-0.037,0.149,0.935,0.132,-0.008,1.122,-0.158,-0.008,1.123,0.195,-0.192,1.294,-0.299,-0.226,1.084,0.306,-0.262,1.071,-0.222,-0.322,0.856,987.005,693.042,0.941,922.157,691.666,0.935,1071.800,533.140,1.122,826.207,533.422,1.123,1103.470,398.657,1.294,697.677,341.729,1.084,1231.504,307.431,1.071,712.932,182.708,0.856,-0.024,-0.972,1.403,0.000,-359.113,0.000,0.024,0.041,0.016,0.272,-1.121,1.476
0722_170103_0139.png,0.048,0.151,0.926,-0.019,0.147,0.923,0.168,-0.023,1.084,-0.129,-0.010,1.142,0.097,-0.217,0.923,-0.218,-0.242,1.054,-0.017,-0.343,0.732,-0.051,-0.315,0.866,1009.455,694.854,0.926,940.864,691.908,0.923,1107.269,519.876,1.084,852.428,531.996,1.142,1059.908,316.493,0.923,763.254,321.276,1.054,938.248,94.485,0.732,903.947,194.122,0.866,-0.032,-0.959,1.401,0.000,-10.158,0.000,-0.021,-0.006,0.040,0.016,-1.138,1.625
0722_170103_0140.png,0.046,0.175,0.944,-0.019,0.173,0.936,0.156,-0.007,1.113,-0.137,-0.001,1.138,0.180,-0.267,1.031,-0.246,-0.197,1.289,0.011,-0.337,0.837,-0.281,-0.279,1.035,1006.005,716.822,0.944,940.574,715.248,0.936,1093.082,534.316,1.113,845.360,539.209,1.138,1125.859,293.737,1.031,778.585,394.469,1.289,972.895,157.076,0.837,702.204,283.466,1.035,-0.035,-0.965,1.402,0.000,-3.798,0.000,0.010,-0.003,-0.022,0.232,-0.888,1.270
0722_170103_0141.png,0.013,0.185,0.925,-0.052,0.187,0.930,0.130,0.000,1.122,-0.163,-0.004,1.104,0.219,-0.251,1.200,-0.251,-0.247,1.027,0.257,-0.304,0.952,-0.147,-0.341,0.813,973.008,730.544,0.925,906.651,731.321,0.930,1070.150,540.098,1.122,819.484,536.634,1.104,1133.635,341.342,1.200,727.552,311.588,1.027,1216.394,236.070,0.952,788.622,141.084,0.813,-0.029,-0.968,1.402,0.000,-355.319,0.000,0.011,-0.035,0.032,-0.110,-0.854,1.162
0722_170103_0142.png,0.043,0.161,0.940,-0.020,0.158,0.934,0.155,-0.016,1.096,-0.127,-0.005,1.143,0.171,-0.271,1.166,-0.218,-0.219,1.013,0.157,-0.314,0.911,-0.169,-0.346,0.793,1003.910,702.731,0.940,939.914,700.466,0.934,1094.570,526.010,1.096,854.511,535.509,1.143,1099.750,318.643,1.166,755.195,334.480,1.013,1123.608,212.122,0.911,757.683,124.718,0.793,-0.030,-0.966,1.402,0.000,-8.473,0.000,0.037,0.019,0.014,0.083,-0.963,1.407
0722_170103_0143.png,0.006,0.155,0.937,-0.059,0.159,0.949,0.135,-0.013,1.133,-0.164,-0.017,1.115,0.295,-0.223,1.082,-0.136,-0.207,0.925,0.380,-0.314,0.852,-0.056,-0.351,0.720,966.077,697.132,0.937,900.598,699.497,0.949,1073.237,528.783,1.133,819.934,525.075,1.115,1219.028,343.823,1.082,820.204,327.431,0.925,1383.662,189.146,0.852,886.663,76.548,0.720,-0.031,-0.961,1.401,0.000,-355.297,0.000,-0.009,0.020,0.009,-0.366,-0.925,1.342
0722_170103_0144.png,0.041,0.150,0.941,-0.026,0.147,0.938,0.161,-0.015,1.100,-0.136,-0.003,1.150,0.287,-0.248,1.075,-0.211,-0.175,0.945,0.330,-0.319,0.823,-0.283,-0.342,0.745,1001.517,691.638,0.941,934.100,688.999,0.938,1099.048,527.219,1.100,847.337,537.291,1.150,1213.751,320.852,1.075,748.004,363.881,0.945,1341.580,171.254,0.823,598.494,103.959,0.745,-0.026,-0.969,1.403,0.000,-8.640,0.000,-0.015,0.040,-0.010,-0.007,-1.233,1.182
0722_170103_0145.png,0.029,0.151,0.942,-0.036,0.151,0.943,0.140,-0.008,1.132,-0.152,-0.010,1.122,0.166,-0.269,1.142,-0.292,-0.226,1.051,0.142,-0.314,0.883,-0.248,-0.332,0.812,988.981,692.064,0.942,923.541,692.415,0.943,1078.003,533.304,1.132,831.247,531.356,1.122,1098.126,315.840,1.142,695.619,335.889,1.051,1113.191,201.887,0.883,669.427,150.609,0.812,-0.037,-0.968,1.403,0.000,-356.878,0.000,0.015,0.040,-0.009,0.085,-1.124,1.301
0722_170103_0146.png,0.034,0.162,0.947,-0.031,0.161,0.948,0.151,-0.010,1.122,-0.141,-0.006,1.140,0.219,-0.268,1.100,-0.207,-0.247,1.028,0.046,-0.316,0.902,-0.201,-0.350,0.777,993.733,702.316,0.947,928.634,701.922,0.948,1088.353,531.465,1.122,842.664,535.075,1.140,1149.492,307.953,1.100,768.716,311.542,1.028,1009.017,207.032,0.902,714.444,111.736,0.777,-0.034,-0.965,1.402,0.000,-2.471,0.000,0.015,0.028,-0.033,-0.054,-0.985,1.104
0722_170103_0147.png,0.040,0.157,0.933,-0.025,0.156,0.932,0.160,-0.010,1.096,-0.129,0.001,1.140,0.295,-0.233,1.053,-0.117,-0.177,0.934,0.360,-0.327,0.821,-0.104,-0.349,0.733,1000.359,700.520,0.933,934.324,698.850,0.932,1098.502,531.726,1.096,852.206,540.510,1.140,1226.157,329.554,1.053,841.227,359.977,0.934,1377.398,161.537,0.821,824.812,86.561,0.733,-0.032,-0.974,1.404,0.000,-7.742,0.000,0.016,0.027,0.020,-0.105,-1.176,1.324
0722_170103_0148.png,0.037,0.163,0.948,-0.030,0.162,0.944,0.151,-0.013,1.126,-0.153,-0.012,1.128,0.187,-0.253,1.007,-0.255,-0.210,0.969,0.042,-0.330,0.797,-0.285,-0.345,0.742,997.050,703.857,0.948,929.489,703.265,0.944,1087.203,529.311,1.126,830.735,529.772,1.128,1136.816,301.118,1.007,710.112,334.010,0.969,1009.509,146.038,0.797,594.019,97.829,0.742,-0.035,-0.962,1.401,0.000,-359.268,0.000,-0.023,0.021,-0.009,0.181,-0.762,1.571
0722_170103_0149.png,0.052,0.178,0.945,-0.013,0.175,0.939,0.167,-0.006,1.097,-0.122,0.005,1.148,0.099,-0.188,0.896,-0.277,-0.166,0.998,0.034,-0.365,0.699,-0.407,-0.330,0.828,1012.257,719.277,0.945,946.761,717.519,0.939,1105.052,534.462,1.097,859.081,544.527,1.148,1065.040,340.472,0.896,695.969,381.820,0.998,1006.469,43.031,0.699,492.886,160.955,0.828,-0.035,-0.972,1.404,0.000,-9.200,0.000,0.010,0.014,-0.019,0.049,-0.854,1.149
0722_170103_0150.png,0.004,0.184,0.924,-0.061,0.187,0.930,0.111,0.007,1.140,-0.174,-0.006,1.082,0.116,-0.223,1.007,-0.239,-0.193,0.904,0.088,-0.347,0.785,-0.260,-0.365,0.712,963.718,729.581,0.924,898.113,731.270,0.930,1052.143,546.075,1.140,806.612,534.536,1.082,1069.908,329.665,1.007,708.549,336.660,0.904,1066.689,119.406,0.785,612.839,52.437,0.712,-0.033,-0.972,1.403,0.000,-346.884,0.000,0.019,-0.026,0.030,0.016,-0.767,1.559
0722_170103_0151.png,0.019,0.144,0.938,-0.047,0.145,0.939,0.135,-0.017,1.128,-0.164,-0.018,1.122,0.147,-0.193,0.924,-0.308,-0.237,1.167,0.126,-0.352,0.715,-0.187,-0.292,0.942,979.417,686.126,0.938,912.207,686.512,0.939,1074.234,526.058,1.128,821.085,524.806,1.122,1111.075,341.352,0.924,709.153,346.733,1.167,1127.096,71.775,0.715,771.248,245.552,0.942,-0.026,-0.960,1.401,0.000,-357.643,0.000,-0.008,0.026,0.010,0.028,-1.110,1.468
0722_170103_0152.png,0.002,0.174,0.919,-0.061,0.179,0.930,0.127,0.004,1.128,-0.165,-0.002,1.102,0.255,-0.227,1.204,-0.292,-0.208,1.235,0.361,-0.298,0.979,-0.239,-0.294,0.997,962.506,720.052,0.919,897.252,722.848,0.930,1066.750,543.630,1.128,817.386,538.679,1.102,1161.490,361.095,1.204,734.826,380.046,1.235,1311.140,250.053,0.979,732.314,259.333,0.997,-0.030,-0.970,1.403,0.000,-353.727,0.000,0.013,-0.030,0.018,-0.348,-1.094,1.341
0722_170103_0153.png,0.032,0.155,0.946,-0.034,0.155,0.946,0.144,-0.008,1.132,-0.151,-0.010,1.122,0.066,-0.178,0.925,-0.280,-0.191,1.258,-0.009,-0.344,0.724,-0.461,-0.256,1.078,991.772,695.941,0.946,925.998,696.213,0.946,1081.294,533.256,1.132,832.321,531.299,1.122,1027.827,356.869,0.925,748.031,395.812,1.258,947.678,88.140,0.724,553.616,313.973,1.078,-0.039,-0.969,1.403,0.000,-356.886,0.000,0.006,0.045,-0.006,0.092,-1.003,1.257
0722_170103_0154.png,0.004,0.173,0.931,-0.062,0.179,0.944,0.130,0.002,1.147,-0.171,-0.007,1.103,0.205,-0.213,1.302,-0.230,-0.265,1.019,0.339,-0.264,1.072,-0.204,-0.345,0.762,963.965,717.094,0.931,897.408,720.163,0.944,1068.109,541.994,1.147,812.767,533.541,1.103,1109.805,384.802,1.302,744.942,293.135,1.019,1260.289,305.880,1.072,705.231,109.146,0.762,-0.038,-0.963,1.402,0.000,-350.480,0.000,-0.025,-0.018,-0.029,-0.323,-0.946,1.259
0722_170103_0155.png,0.000,0.161,0.933,-0.067,0.165,0.945,0.128,-0.009,1.139,-0.175,-0.020,1.095,0.097,-0.178,0.935,-0.254,-0.193,1.281,0.062,-0.339,0.735,-0.303,-0.259,1.038,959.556,704.081,0.933,892.935,706.525,0.945,1066.489,532.098,1.139,807.719,522.960,1.095,1058.350,359.456,0.935,771.471,396.524,1.281,1040.756,101.126,0.735,682.871,302.789,1.038,-0.033,-0.963,1.402,0.000,-350.317,0.000,-0.032,0.014,0.036,-0.305,-0.828,1.380
0722_170103_0156.png,0.045,0.171,0.923,-0.021,0.168,0.919,0.162,-0.012,1.094,-0.134,-0.002,1.136,0.121,-0.242,0.959,-0.212,-0.259,1.080,0.001,-0.353,0.756,-0.185,-0.332,0.831,1005.979,716.149,0.923,937.903,714.028,0.919,1100.784,529.772,1.094,848.181,538.285,1.136,1080.178,299.998,0.959,772.968,312.122,1.080,960.652,96.488,0.756,748.176,160.391,0.831,-0.033,-0.959,1.401,0.000,-7.179,0.000,-0.006,-0.047,0.014,0.068,-1.027,1.637
0722_170103_0157.png,0.038,0.155,0.927,-0.029,0.155,0.928,0.160,-0.003,1.114,-0.145,0.000,1.127,0.182,-0.189,1.308,-0.208,-0.175,0.926,0.269,-0.256,1.068,-0.268,-0.345,0.728,999.292,699.261,0.927,929.913,698.763,0.928,1096.543,537.127,1.114,837.713,539.828,1.127,1092.232,402.267,1.308,746.078,360.120,0.926,1199.816,311.988,1.068,609.959,89.382,0.728,-0.039,-0.971,1.403,0.000,-1.477,0.000,-0.028,0.003,0.003,-0.009,-1.293,1.514
0722_170103_0158.png,0.033,0.158,0.935,-0.034,0.158,0.938,0.160,-0.015,1.102,-0.141,-0.007,1.137,0.294,-0.213,1.220,-0.220,-0.206,0.980,0.212,-0.278,0.984,-0.201,-0.337,0.758,993.871,700.756,0.935,925.790,700.323,0.938,1097.748,527.376,1.102,841.869,534.463,1.137,1189.453,374.206,1.220,746.750,340.089,0.980,1165.108,270.838,0.984,707.970,117.255,0.758,-0.031,-0.967,1.402,0.000,-5.608,0.000,-0.020,0.022,0.022,-0.183,-0.952,1.491
0722_170103_0159.png,-0.011,0.180,0.920,-0.075,0.187,0.935,0.106,0.013,1.149,-0.181,-0.001,1.090,0.187,-0.202,1.308,-0.313,-0.239,1.045,0.279,-0.281,1.066,-0.372,-0.348,0.807,948.316,726.164,0.920,884.008,730.436,0.935,1047.825,550.806,1.149,802.348,539.560,1.090,1095.720,392.787,1.308,675.301,323.036,1.045,1208.853,289.356,1.066,522.246,130.040,0.807,-0.029,-0.970,1.403,0.000,-346.907,0.000,0.012,-0.039,-0.026,-0.307,-0.994,1.492
0722_170103_0160.png,0.044,0.199,0.934,-0.022,0.198,0.932,0.165,0.000,1.099,-0.131,0.009,1.138,0.218,-0.244,0.982,-0.248,-0.234,1.076,0.178,-0.360,0.744,-0.126,-0.330,0.859,1005.066,742.623,0.934,937.707,742.093,0.932,1102.525,540.379,1.099,850.664,547.775,1.138,1171.337,303.703,0.982,740.697,333.301,1.076,1187.012,80.373,0.744,820.120,174.716,0.859,-0.037,-0.968,1.403,0.000,-6.454,0.000,-0.004,-0.044,-0.014,-0.056,-0.702,1.240
0722_170103_0161.png,0.008,0.182,0.927,-0.057,0.185,0.936,0.123,0.003,1.143,-0.171,-0.011,1.085,0.220,-0.219,1.277,-0.231,-0.272,1.037,0.378,-0.265,1.075,-0.061,-0.327,0.848,968.481,726.164,0.927,901.617,727.858,0.936,1062.567,542.116,1.143,810.139,530.515,1.085,1123.744,376.692,1.277,747.872,290.616,1.037,1294.634,305.785,1.075,891.260,173.637,0.848,-0.040,-0.966,1.402,0.000,-347.367,0.000,-0.011,-0.024,0.021,-0.081,-0.766,1.355
0722_170103_0162.png,0.043,0.166,0.920,-0.024,0.161,0.914,0.160,-0.012,1.078,-0.135,0.003,1.144,0.273,-0.251,1.009,-0.300,-0.214,1.140,0.305,-0.340,0.768,-0.214,-0.306,0.912,1004.068,711.260,0.920,935.298,707.243,0.914,1101.602,529.192,1.078,848.027,542.541,1.144,1217.850,303.325,1.009,709.588,361.159,1.140,1337.424,119.409,0.768,736.694,221.212,0.912,-0.022,-0.966,1.402,0.000,-11.863,0.000,-0.020,-0.033,0.027,0.076,-1.212,1.543
0722_170103_0163.png,0.056,0.174,0.949,-0.009,0.171,0.943,0.174,-0.008,1.095,-0.117,0.006,1.155,0.216,-0.229,0.937,-0.138,-0.177,0.943,0.219,-0.362,0.700,-0.160,-0.355,0.736,1016.628,714.895,0.949,950.657,712.817,0.943,1110.697,533.432,1.095,863.320,545.081,1.155,1178.897,307.783,0.937,820.665,361.832,0.943,1257.535,48.156,0.700,752.874,81.879,0.736,-0.036,-0.973,1.404,0.000,-10.730,0.000,-0.001,0.029,-0.030,0.017,-0.855,1.176
0722_170103_0164.png,0.042,0.159,0.931,-0.023,0.156,0.927,0.158,-0.006,1.109,-0.135,0.002,1.142,0.236,-0.268,1.130,-0.218,-0.221,0.998,0.099,-0.318,0.904,-0.239,-0.354,0.762,1002.688,702.912,0.931,935.916,700.437,0.927,1095.347,534.796,1.109,847.593,541.367,1.142,1158.887,314.491,1.130,752.424,329.523,0.998,1064.388,205.087,0.904,661.421,98.101,0.762,-0.033,-0.964,1.402,0.000,-5.532,0.000,0.007,-0.013,-0.032,0.076,-1.272,1.486
0722_170103_0165.png,0.022,0.172,0.934,-0.045,0.173,0.935,0.138,-0.004,1.129,-0.163,-0.009,1.109,0.274,-0.228,1.208,-0.270,-0.239,1.017,0.390,-0.284,0.980,-0.212,-0.337,0.783,982.525,715.479,0.934,914.399,716.146,0.935,1076.507,536.291,1.129,820.018,532.419,1.109,1175.882,360.662,1.208,707.029,316.336,1.017,1337.967,264.227,0.980,702.937,130.171,0.783,-0.034,-0.965,1.402,0.000,-355.066,0.000,-0.018,-0.009,0.013,0.042,-0.964,1.087
0722_170103_0166.png,0.028,0.151,0.935,-0.036,0.151,0.937,0.152,-0.017,1.098,-0.137,-0.007,1.139,0.084,-0.187,0.902,-0.280,-0.228,1.127,0.017,-0.353,0.712,-0.161,-0.303,0.912,988.736,693.423,0.935,922.992,692.701,0.937,1091.702,525.546,1.098,845.437,533.960,1.139,1048.387,342.690,0.902,723.654,347.863,1.127,982.221,68.510,0.712,791.554,223.652,0.912,-0.026,-0.969,1.403,0.000,-7.130,0.000,0.016,0.034,0.029,-0.240,-1.114,1.331
0722_170103_0167.png,0.038,0.179,0.925,-0.027,0.180,0.928,0.162,-0.007,1.100,-0.131,0.001,1.132,0.110,-0.225,0.949,-0.269,-0.226,1.208,0.000,-0.356,0.753,-0.337,-0.301,0.968,999.186,724.396,0.925,932.176,724.046,0.928,1100.225,534.215,1.100,850.188,540.665,1.132,1070.033,315.128,0.949,748.148,362.087,1.208,960.312,89.892,0.753,628.386,244.187,0.968,-0.039,-0.965,1.402,0.000,-5.333,0.000,0.007,-0.036,0.013,-0.202,-0.985,1.193
0722_170103_0168.png,0.024,0.155,0.945,-0.041,0.156,0.948,0.142,-0.010,1.131,-0.151,-0.010,1.132,0.098,-0.189,0.913,-0.196,-0.240,0.987,0.058,-0.364,0.701,-0.073,-0.349,0.773,984.432,695.687,0.945,919.174,696.226,0.948,1079.623,531.475,1.131,833.154,531.730,1.132,1061.872,343.080,0.913,770.856,309.002,0.987,1038.343,45.762,0.701,869.576,110.140,0.773,-0.033,-0.963,1.401,0.000,-359.083,0.000,0.012,0.029,-0.035,-0.072,-0.969,1.471
0722_170103_0169.png,0.058,0.171,0.941,-0.007,0.165,0.931,0.173,-0.007,1.085,-0.117,0.010,1.161,0.252,-0.262,1.035,-0.272,-0.199,1.232,0.250,-0.342,0.775,-0.394,-0.283,1.004,1019.036,712.582,0.941,952.616,708.109,0.931,1111.229,533.595,1.085,864.360,548.277,1.161,1191.126,298.956,1.035,749.976,386.266,1.232,1266.151,120.482,0.775,586.691,271.787,1.004,-0.029,-0.973,1.404,0.000,-13.870,0.000,-0.009,0.013,-0.035,0.142,-1.085,1.287
0722_170103_0170.png,0.038,0.170,0.935,-0.026,0.168,0.932,0.151,-0.002,1.115,-0.136,0.002,1.133,0.123,-0.243,0.986,-0.294,-0.207,1.070,0.008,-0.360,0.775,-0.387,-0.335,0.854,998.614,712.598,0.935,933.781,711.548,0.932,1088.676,538.252,1.115,846.060,541.921,1.133,1078.356,305.775,0.986,698.953,355.761,1.070,970.254,98.244,0.775,529.148,167.431,0.854,-0.036,-0.969,1.403,0.000,-2.693,0.000,0.033,-0.004,-0.019,0.059,-1.095,1.316
0722_170103_0171.png,0.037,0.164,0.929,-0.031,0.164,0.929,0.155,-0.004,1.121,-0.152,-0.004,1.119,0.234,-0.250,1.039,-0.275,-0.231,1.210,0.120,-0.325,0.814,-0.319,-0.288,0.958,997.722,707.917,0.929,928.173,707.861,0.929,1091.296,536.999,1.121,831.072,536.622,1.119,1174.477,311.558,1.039,743.571,358.629,1.210,1100.342,159.974,0.814,643.240,254.495,0.958,-0.040,-0.967,1.403,0.000,-358.462,0.000,-0.032,-0.009,0.006,0.082,-1.076,1.561
0722_170103_0172.png,0.005,0.160,0.933,-0.062,0.163,0.943,0.138,-0.010,1.123,-0.167,-0.009,1.124,0.267,-0.225,1.021,-0.270,-0.258,1.147,0.318,-0.330,0.785,-0.281,-0.305,0.889,965.311,702.786,0.933,897.878,704.484,0.943,1076.476,531.808,1.123,818.362,532.061,1.124,1208.333,330.058,1.021,736.417,326.027,1.147,1344.953,139.685,0.785,659.879,213.163,0.889,-0.022,-0.964,1.402,0.000,-359.070,0.000,-0.027,0.008,0.002,-0.353,-0.958,1.489
0722_170103_0173.png,0.042,0.166,0.938,-0.023,0.163,0.935,0.163,-0.008,1.094,-0.123,0.007,1.157,0.100,-0.193,0.886,-0.096,-0.174,0.935,0.042,-0.374,0.683,-0.074,-0.351,0.719,1002.864,708.813,0.938,936.900,705.965,0.935,1101.450,532.923,1.094,859.209,545.342,1.157,1067.270,332.746,0.886,862.139,363.294,0.935,1019.073,19.104,0.683,862.106,76.258,0.719,-0.026,-0.969,1.403,0.000,-11.731,0.000,0.014,0.008,-0.041,-0.100,-1.058,1.445
0722_170103_0174.png,0.023,0.164,0.933,-0.043,0.165,0.933,0.136,-0.011,1.124,-0.162,-0.014,1.108,0.145,-0.182,0.921,-0.300,-0.237,1.054,0.150,-0.347,0.722,-0.235,-0.324,0.825,983.133,707.584,0.933,915.669,707.928,0.933,1075.058,530.897,1.124,820.735,527.670,1.108,1109.530,352.526,0.921,689.085,326.341,1.054,1157.807,82.792,0.722,688.859,166.203,0.825,-0.032,-0.963,1.402,0.000,-355.735,0.000,-0.006,0.000,0.040,0.095,-0.889,1.441
0722_170103_0175.png,0.010,0.142,0.935,-0.056,0.145,0.938,0.122,-0.005,1.148,-0.175,-0.016,1.101,0.261,-0.221,1.214,-0.224,-0.268,1.028,0.356,-0.281,0.976,-0.071,-0.326,0.820,970.522,684.490,0.935,903.016,687.335,0.938,1060.856,535.691,1.148,808.365,526.175,1.101,1164.655,366.708,1.214,752.490,292.342,1.028,1307.087,266.252,0.976,877.358,162.461,0.820,-0.033,-0.967,1.402,0.000,-349.613,0.000,-0.014,0.034,-0.001,0.060,-1.167,1.652
0722_170103_0176.png,0.033,0.166,0.934,-0.034,0.163,0.930,0.148,-0.005,1.108,-0.151,0.002,1.137,0.247,-0.251,1.048,-0.248,-0.233,1.038,0.272,-0.334,0.796,-0.141,-0.332,0.816,993.166,708.559,0.934,925.219,706.558,0.930,1087.461,535.922,1.108,833.336,541.691,1.137,1184.547,312.296,1.048,732.710,326.992,1.038,1284.389,141.699,0.796,795.856,153.062,0.816,-0.023,-0.970,1.403,0.000,-4.583,0.000,-0.015,0.001,-0.009,0.119,-1.148,1.357
0722_170103_0177.png,0.031,0.193,0.930,-0.034,0.192,0.928,0.146,-0.002,1.098,-0.145,0.004,1.125,0.179,-0.261,1.029,-0.288,-0.195,1.251,0.022,-0.336,0.840,-0.404,-0.284,1.042,991.313,737.360,0.930,924.966,736.968,0.928,1086.551,537.883,1.098,837.212,543.099,1.125,1125.249,298.570,1.029,741.154,391.687,1.251,985.224,159.952,0.840,590.731,281.034,1.042,-0.026,-0.971,1.403,0.000,-4.176,0.000,0.014,-0.033,0.033,0.019,-0.681,1.396
0722_170103_0178.png,0.043,0.183,0.940,-0.023,0.180,0.937,0.162,0.000,1.106,-0.135,0.010,1.146,0.166,-0.258,1.004,-0.249,-0.233,1.079,0.008,-0.343,0.800,-0.097,-0.324,0.875,1003.299,724.648,0.940,936.245,723.167,0.937,1098.914,540.400,1.106,848.307,548.022,1.146,1117.614,295.659,1.004,740.686,334.300,1.079,969.277,132.702,0.800,854.824,187.389,0.875,-0.032,-0.972,1.404,0.000,-6.724,0.000,-0.007,-0.006,-0.042,0.014,-0.922,1.225
0722_170103_0179.png,0.026,0.173,0.940,-0.040,0.175,0.945,0.150,-0.008,1.114,-0.148,-0.007,1.121,0.185,-0.269,1.095,-0.301,-0.211,1.197,0.172,-0.317,0.845,-0.208,-0.284,0.969,986.472,715.307,0.940,920.002,715.767,0.945,1088.353,533.067,1.114,834.412,534.455,1.121,1120.946,306.395,1.095,720.882,372.004,1.197,1154.054,183.307,0.845,755.997,261.781,0.969,-0.036,-0.971,1.403,0.000,-0.187,0.000,-0.005,0.021,0.033,-0.193,-0.668,1.444
0722_170103_0180.png,-0.005,0.168,0.936,-0.070,0.172,0.942,0.103,0.001,1.156,-0.187,-0.012,1.099,0.233,-0.203,1.281,-0.340,-0.238,1.076,0.355,-0.278,1.049,-0.407,-0.333,0.830,955.343,711.091,0.936,889.118,713.642,0.942,1045.129,541.054,1.156,797.794,529.668,1.099,1133.048,389.146,1.281,659.587,329.850,1.076,1281.918,287.766,1.049,493.326,158.396,0.830,-0.024,-0.961,1.401,0.000,-347.360,0.000,0.000,-0.011,-0.041,0.028,-0.871,1.575
0722_170103_0181.png,0.022,0.178,0.927,-0.044,0.178,0.927,0.139,-0.003,1.118,-0.161,-0.003,1.119,0.292,-0.229,1.081,-0.186,-0.237,0.984,0.376,-0.324,0.851,-0.056,-0.345,0.782,982.907,722.865,0.927,914.688,722.816,0.927,1078.235,537.284,1.118,823.043,537.524,1.119,1216.565,338.672,1.081,780.283,310.641,0.984,1379.669,178.216,0.851,891.416,120.746,0.782,-0.026,-0.963,1.401,0.000,-359.065,0.000,-0.011,-0.038,0.007,0.041,-0.847,1.689
0722_170103_0182.png,0.012,0.154,0.934,-0.051,0.155,0.935,0.117,-0.007,1.135,-0.166,-0.013,1.108,0.268,-0.218,1.183,-0.206,-0.276,1.108,0.393,-0.300,0.972,-0.162,-0.330,0.857,971.763,696.468,0.934,907.728,697.630,0.935,1058.100,534.317,1.135,817.880,529.045,1.108,1175.383,364.945,1.183,783.164,303.001,1.108,1344.748,246.567,0.972,780.103,173.439,0.857,-0.026,-0.966,1.402,0.000,-353.424,0.000,0.044,0.015,0.012,0.092,-1.086,1.502
0722_170103_0183.png,0.032,0.161,0.932,-0.036,0.162,0.935,0.160,-0.011,1.111,-0.150,-0.007,1.129,0.232,-0.218,1.270,-0.252,-0.188,1.304,0.396,-0.254,1.063,-0.300,-0.254,1.058,993.155,704.674,0.932,923.124,704.698,0.935,1096.685,530.197,1.111,833.454,533.778,1.129,1133.906,376.630,1.270,776.398,402.927,1.304,1314.289,312.695,1.063,689.843,311.670,1.058,-0.035,-0.964,1.402,0.000,-2.182,0.000,-0.045,0.002,0.015,-0.121,-0.985,1.490
0722_170103_0184.png,0.050,0.179,0.933,-0.016,0.176,0.925,0.161,-0.004,1.106,-0.141,0.001,1.131,0.300,-0.242,1.082,-0.242,-0.189,1.305,0.367,-0.322,0.840,-0.292,-0.267,1.059,1011.262,722.848,0.933,943.234,720.955,0.925,1098.733,536.288,1.106,841.172,541.231,1.131,1223.242,327.641,1.082,783.499,402.232,1.305,1375.350,175.487,0.840,697.736,300.436,1.059,-0.036,-0.966,1.402,0.000,-3.702,0.000,-0.023,-0.027,0.003,0.307,-0.968,1.341
0722_170103_0185.png,-0.016,0.166,0.926,-0.079,0.173,0.939,0.098,0.004,1.152,-0.187,-0.012,1.084,0.252,-0.218,1.164,-0.280,-0.253,1.005,0.327,-0.305,0.927,-0.221,-0.350,0.767,944.050,710.845,0.926,879.734,714.873,0.939,1041.013,543.075,1.152,795.716,529.575,1.084,1165.994,361.840,1.164,695.004,300.488,1.005,1295.095,226.859,0.927,685.782,105.900,0.767,-0.025,-0.968,1.402,0.000,-345.108,0.000,0.010,-0.004,0.002,-0.200,-0.901,1.640
0722_170103_0186.png,0.020,0.151,0.936,-0.047,0.152,0.939,0.143,-0.001,1.131,-0.160,-0.002,1.129,0.111,-0.224,0.968,-0.222,-0.251,1.037,0.057,-0.350,0.732,-0.066,-0.328,0.829,980.720,692.999,0.936,912.783,694.130,0.939,1080.353,538.963,1.131,825.421,538.503,1.129,1068.923,320.109,0.968,755.977,309.353,1.037,1033.819,85.556,0.732,883.943,164.050,0.829,-0.031,-0.971,1.403,0.000,-358.369,0.000,-0.020,0.025,-0.035,-0.102,-1.231,1.564
0722_170103_0187.png,0.037,0.171,0.942,-0.028,0.169,0.941,0.160,-0.013,1.091,-0.125,0.002,1.156,0.130,-0.253,0.961,-0.226,-0.174,0.963,-0.007,-0.357,0.753,-0.327,-0.345,0.775,997.256,712.337,0.942,931.433,710.859,0.941,1099.785,528.552,1.091,856.920,541.529,1.156,1088.766,289.252,0.961,736.510,368.074,0.963,951.639,89.918,0.753,559.050,116.180,0.775,-0.023,-0.966,1.402,0.000,-12.016,0.000,0.012,0.011,-0.027,-0.226,-0.807,1.501
0722_170103_0188.png,0.048,0.177,0.928,-0.018,0.173,0.920,0.160,-0.006,1.095,-0.141,0.001,1.128,0.248,-0.236,0.989,-0.305,-0.197,1.051,0.268,-0.339,0.758,-0.406,-0.316,0.849,1009.372,720.921,0.928,941.085,718.827,0.920,1099.165,534.355,1.095,841.111,541.009,1.128,1197.947,312.990,0.989,683.611,362.024,1.051,1296.138,114.130,0.758,505.015,186.510,0.849,-0.033,-0.969,1.403,0.000,-5.334,0.000,-0.021,-0.024,0.037,0.265,-1.031,1.316
0722_170103_0189.png,0.027,0.176,0.929,-0.037,0.176,0.930,0.147,-0.009,1.100,-0.143,-0.003,1.127,0.081,-0.183,0.906,-0.230,-0.218,1.001,0.017,-0.352,0.718,-0.199,-0.346,0.784,988.087,720.659,0.929,922.099,720.294,0.930,1086.673,531.967,1.100,839.189,537.365,1.127,1045.447,348.002,0.906,741.023,332.980,1.001,982.209,73.179,0.718,718.348,119.791,0.784,-0.027,-0.966,1.402,0.000,-4.260,0.000,0.020,-0.018,0.036,-0.114,-0.898,1.238
0722_170103_0190.png,0.005,0.165,0.946,-0.061,0.169,0.953,0.115,-0.002,1.158,-0.177,-0.016,1.100,0.208,-0.242,1.060,-0.251,-0.231,0.944,0.078,-0.328,0.840,-0.267,-0.362,0.705,964.529,706.351,0.946,898.813,708.513,0.953,1054.276,538.121,1.158,806.811,526.553,1.100,1146.824,323.127,1.060,706.863,306.881,0.944,1048.782,169.181,0.840,599.693,50.984,0.705,-0.035,-0.963,1.401,0.000,-347.361,0.000,-0.004,0.021,-0.038,0.019,-0.835,1.161
0722_170103_0191.png,0.029,0.168,0.935,-0.039,0.169,0.938,0.152,-0.009,1.120,-0.156,-0.010,1.118,0.183,-0.244,1.251,-0.300,-0.181,1.273,0.180,-0.272,0.994,-0.371,-0.265,1.038,989.544,711.341,0.935,920.405,711.753,0.938,1089.001,532.271,1.120,827.702,531.868,1.118,1098.929,354.694,1.251,735.847,404.646,1.273,1132.050,279.851,0.994,619.890,297.433,1.038,-0.037,-0.965,1.402,0.000,-358.448,0.000,-0.035,0.001,0.021,-0.050,-0.822,1.493
0722_170103_0192.png,0.004,0.173,0.932,-0.060,0.177,0.937,0.106,0.008,1.151,-0.175,-0.005,1.096,0.259,-0.203,1.069,-0.273,-0.258,1.085,0.367,-0.336,0.860,-0.117,-0.337,0.881,963.641,717.049,0.932,899.385,719.493,0.937,1047.236,546.314,1.151,808.621,535.834,1.096,1190.467,359.500,1.069,720.896,313.623,1.085,1365.775,168.586,0.860,833.576,176.797,0.881,-0.031,-0.969,1.403,0.000,-347.609,0.000,0.038,-0.011,-0.029,0.066,-0.885,1.654
0722_170103_0193.png,-0.008,0.175,0.926,-0.072,0.180,0.937,0.102,0.006,1.152,-0.183,-0.010,1.084,0.257,-0.217,1.168,-0.170,-0.244,0.944,0.155,-0.310,0.944,-0.089,-0.367,0.723,951.496,719.772,0.926,886.437,723.031,0.937,1043.832,544.936,1.152,799.019,531.522,1.084,1169.629,363.026,1.168,789.167,294.359,0.944,1116.200,227.501,0.944,842.799,57.839,0.723,-0.029,-0.966,1.402,0.000,-345.061,0.000,0.011,-0.022,-0.006,-0.119,-0.935,1.339
0722_170103_0194.png,0.035,0.158,0.944,-0.030,0.156,0.941,0.151,-0.005,1.114,-0.142,0.001,1.144,0.299,-0.225,1.076,-0.239,-0.171,1.316,0.377,-0.324,0.838,-0.302,-0.261,1.069,995.410,699.580,0.944,929.617,697.886,0.941,1088.903,535.340,1.114,842.014,541.116,1.144,1224.100,341.276,1.076,786.982,416.796,1.316,1388.454,171.914,0.838,691.542,307.535,1.069,-0.028,-0.973,1.404,0.000,-4.746,0.000,0.008,0.037,-0.031,0.045,-0.974,1.711
0722_170103_0195.png,0.027,0.158,0.942,-0.037,0.158,0.942,0.140,-0.008,1.124,-0.149,-0.007,1.129,0.180,-0.252,1.017,-0.220,-0.183,0.925,0.040,-0.339,0.812,-0.291,-0.355,0.728,986.877,699.812,0.942,922.189,699.725,0.942,1078.672,533.421,1.124,834.571,534.329,1.129,1127.833,304.578,1.017,734.228,351.905,0.925,1007.232,142.287,0.812,579.839,76.715,0.728,-0.031,-0.968,1.403,0.000,0.246,0.000,0.026,0.030,-0.011,0.014,-1.056,1.220
0722_170103_0196.png,0.004,0.182,0.937,-0.059,0.185,0.944,0.114,0.002,1.140,-0.169,-0.007,1.098,0.149,-0.176,0.933,-0.301,-0.229,1.029,0.184,-0.351,0.732,-0.364,-0.344,0.805,963.981,724.844,0.937,900.338,725.983,0.944,1054.995,542.041,1.140,813.362,533.859,1.098,1111.418,360.295,0.933,682.159,328.524,1.029,1198.867,83.852,0.732,530.016,132.878,0.805,-0.030,-0.970,1.403,0.000,-350.277,0.000,0.036,0.000,0.008,-0.061,-0.703,1.238
0722_170103_0197.png,0.042,0.179,0.936,-0.022,0.178,0.931,0.149,-0.003,1.114,-0.138,-0.002,1.122,0.288,-0.231,1.086,-0.215,-0.174,0.924,0.368,-0.330,0.859,-0.291,-0.344,0.732,1002.209,722.261,0.936,937.619,721.524,0.931,1087.092,537.131,1.114,842.923,538.727,1.122,1212.085,337.326,1.086,738.768,360.428,0.924,1367.089,174.866,0.859,582.068,93.431,0.732,-0.039,-0.969,1.403,0.000,-0.484,0.000,0.033,-0.012,0.013,0.202,-0.784,1.560
0722_170103_0198.png,0.022,0.169,0.933,-0.046,0.170,0.938,0.150,-0.007,1.115,-0.154,-0.003,1.132,0.265,-0.249,1.056,-0.176,-0.230,0.981,0.290,-0.332,0.803,-0.069,-0.345,0.763,982.118,712.423,0.933,913.810,712.848,0.938,1087.909,534.111,1.115,830.909,537.496,1.132,1198.615,315.761,1.056,789.384,316.724,0.981,1303.484,147.126,0.803,873.472,110.423,0.763,-0.028,-0.964,1.402,0.000,-2.130,0.000,-0.025,-0.012,-0.014,-0.234,-0.983,1.356
0722_170103_0199.png,0.046,0.152,0.940,-0.019,0.149,0.937,0.165,-0.012,1.102,-0.123,0.000,1.154,0.285,-0.249,1.066,-0.221,-0.231,1.043,0.333,-0.334,0.814,-0.098,-0.336,0.829,1006.958,693.739,0.940,941.126,690.842,0.937,1102.823,529.475,1.102,858.835,539.869,1.154,1214.385,317.928,1.066,758.034,329.353,1.043,1348.658,149.501,0.814,847.467,155.049,0.829,-0.033,-0.967,1.402,0.000,-9.389,0.000,0.013,0.027,-0.034,-0.038,-1.175,1.501
0722_170103_0200.png,0.041,0.167,0.932,-0.025,0.166,0.933,0.164,-0.017,1.094,-0.129,-0.007,1.139,0.101,-0.190,0.898,-0.248,-0.185,1.306,0.039,-0.359,0.708,-0.297,-0.266,1.067,1001.417,710.227,0.932,934.539,709.453,0.933,1102.299,525.121,1.094,852.532,534.273,1.139,1067.315,338.618,0.898,779.523,405.620,1.306,1012.594,58.072,0.708,695.617,302.544,1.067,-0.035,-0.962,1.401,0.000,-7.733,0.000,0.003,-0.008,0.025,-0.157,-0.845,1.554
0722_170103_0201.png,0.010,0.172,0.929,-0.054,0.174,0.933,0.121,-0.004,1.134,-0.168,-0.013,1.095,0.190,-0.216,0.992,-0.242,-0.234,0.970,0.217,-0.344,0.774,-0.197,-0.352,0.749,970.282,715.747,0.929,904.510,717.076,0.933,1061.733,536.397,1.134,813.925,528.569,1.095,1141.799,333.190,0.992,723.014,310.370,0.970,1225.927,117.375,0.774,709.803,93.206,0.749,-0.032,-0.965,1.402,0.000,-351.041,0.000,0.016,-0.013,0.037,-0.003,-0.825,1.487
0722_170103_0202.png,0.063,0.154,0.946,-0.002,0.149,0.938,0.176,-0.026,1.084,-0.111,-0.009,1.157,0.245,-0.233,1.226,-0.285,-0.198,1.083,0.297,-0.281,0.975,-0.382,-0.313,0.869,1023.185,694.646,0.946,957.986,691.377,0.938,1114.141,517.305,1.084,868.816,532.498,1.157,1150.290,359.140,1.226,709.695,366.219,1.083,1249.283,265.702,0.975,542.428,197.215,0.869,-0.036,-0.962,1.401,0.000,-13.448,0.000,0.003,0.037,0.009,0.110,-0.874,1.503
0722_170103_0203.png,0.001,0.159,0.931,-0.061,0.163,0.940,0.115,-0.008,1.141,-0.168,-0.015,1.108,0.223,-0.236,1.040,-0.317,-0.233,1.059,0.254,-0.350,0.801,-0.331,-0.345,0.819,961.402,702.379,0.931,897.962,705.100,0.940,1056.188,533.572,1.141,815.946,526.921,1.108,1164.374,324.456,1.040,675.616,330.714,1.059,1260.940,124.778,0.801,575.662,139.204,0.819,-0.028,-0.958,1.400,0.000,-352.062,0.000,0.039,-0.011,-0.010,-0.192,-1.063,1.322
0722_170103_0204.png,0.011,0.159,0.942,-0.053,0.160,0.943,0.113,-0.005,1.150,-0.174,-0.016,1.104,0.171,-0.211,0.976,-0.213,-0.280,1.083,0.161,-0.356,0.750,-0.182,-0.337,0.823,971.313,700.367,0.942,906.098,701.669,0.943,1053.525,535.778,1.150,809.698,526.539,1.104,1126.392,334.579,0.976,772.773,293.611,1.083,1164.010,88.388,0.750,750.282,150.673,0.823,-0.030,-0.963,1.401,0.000,-349.551,0.000,0.019,0.018,-0.019,0.231,-0.993,1.259
0722_170103_0205.png,0.016,0.182,0.929,-0.049,0.183,0.932,0.128,0.006,1.137,-0.166,-0.001,1.104,0.256,-0.231,1.086,-0.296,-0.244,1.113,0.215,-0.334,0.844,-0.317,-0.329,0.861,976.893,725.906,0.929,910.144,727.236,0.932,1066.669,545.274,1.137,817.334,538.861,1.104,1184.324,337.573,1.086,706.718,331.706,1.113,1202.354,163.192,0.844,609.260,176.578,0.861,-0.035,-0.968,1.403,0.000,-352.200,0.000,0.006,-0.030,-0.013,0.044,-1.005,1.152
0722_170103_0206.png,0.016,0.164,0.928,-0.049,0.166,0.932,0.131,-0.007,1.130,-0.165,-0.013,1.107,0.283,-0.222,1.068,-0.168,-0.217,0.933,0.358,-0.324,0.842,-0.124,-0.359,0.720,976.761,708.153,0.928,909.533,709.380,0.932,1070.553,533.713,1.130,818.252,528.967,1.107,1212.352,342.590,1.068,788.485,319.180,0.933,1364.542,173.994,0.842,796.644,65.601,0.720,-0.032,-0.961,1.401,0.000,-354.203,0.000,-0.002,-0.017,0.017,-0.009,-1.119,1.102
0722_170103_0207.png,0.038,0.161,0.947,-0.026,0.159,0.944,0.157,-0.019,1.099,-0.127,-0.006,1.156,0.118,-0.205,0.894,-0.307,-0.201,1.111,0.048,-0.372,0.690,-0.421,-0.317,0.895,997.921,702.036,0.947,933.343,700.289,0.944,1095.465,523.825,1.099,855.632,535.340,1.156,1085.981,321.812,0.894,696.896,368.364,1.111,1026.029,27.462,0.690,513.003,203.515,0.895,-0.024,-0.961,1.401,0.000,-10.430,0.000,0.026,0.022,-0.028,-0.123,-0.890,1.305
0722_170103_0208.png,0.055,0.175,0.945,-0.010,0.173,0.943,0.176,-0.009,1.096,-0.112,0.005,1.157,0.107,-0.250,0.979,-0.299,-0.183,1.201,-0.018,-0.355,0.760,-0.300,-0.300,0.954,1015.435,715.709,0.945,949.501,714.032,0.943,1113.068,532.376,1.096,867.945,544.377,1.157,1063.635,297.275,0.979,723.141,395.050,1.201,936.913,96.146,0.760,660.831,240.966,0.954,-0.039,-0.969,1.403,0.000,-11.152,0.000,0.006,0.015,-0.040,-0.130,-0.846,1.268
0722_170103_0209.png,0.037,0.168,0.931,-0.029,0.166,0.928,0.153,-0.010,1.110,-0.146,-0.005,1.129,0.208,-0.214,1.287,-0.135,-0.227,0.976,0.352,-0.267,1.072,-0.055,-0.347,0.757,998.258,711.616,0.931,930.290,710.532,0.928,1091.503,531.660,1.110,837.016,535.587,1.129,1114.063,381.711,1.287,828.359,318.745,0.976,1272.591,303.417,1.072,891.432,103.514,0.757,-0.033,-0.962,1.401,0.000,-2.659,0.000,-0.011,-0.021,0.008,0.096,-0.988,1.523
0722_170103_0210.png,0.058,0.155,0.937,-0.008,0.150,0.933,0.180,-0.014,1.082,-0.109,0.004,1.161,0.162,-0.275,1.028,-0.139,-0.173,0.944,-0.016,-0.324,0.836,-0.169,-0.346,0.732,1019.054,697.138,0.937,951.751,693.168,0.933,1117.999,527.729,1.082,870.690,543.502,1.161,1109.925,285.460,1.028,819.892,365.320,0.944,942.122,171.162,0.836,740.381,90.631,0.732,-0.035,-0.972,1.404,0.000,-14.574,0.000,-0.010,0.034,-0.017,-0.099,-1.208,1.325
0722_170103_0211.png,0.037,0.166,0.920,-0.027,0.165,0.922,0.157,-0.004,1.099,-0.128,0.003,1.130,0.164,-0.186,0.900,-0.270,-0.220,1.191,0.171,-0.365,0.706,-0.360,-0.307,0.965,997.944,711.029,0.920,932.212,710.251,0.922,1096.049,536.607,1.099,852.003,542.682,1.130,1133.529,342.881,0.900,744.181,364.716,1.191,1190.960,47.909,0.706,605.069,237.920,0.965,-0.038,-0.970,1.403,0.000,-5.169,0.000,0.032,-0.021,0.021,-0.137,-1.136,1.686
0722_170103_0212.png,0.044,0.164,0.945,-0.019,0.160,0.937,0.154,-0.015,1.100,-0.126,-0.004,1.148,0.222,-0.264,1.026,-0.111,-0.184,0.933,0.224,-0.354,0.776,-0.101,-0.360,0.725,1004.200,705.183,0.945,941.039,702.691,0.937,1092.819,526.812,1.100,855.817,536.431,1.148,1165.479,295.175,1.026,846.716,352.884,0.933,1234.184,106.003,0.776,828.178,67.986,0.725,-0.028,-0.964,1.402,0.000,-8.754,0.000,0.045,0.016,-0.012,0.129,-0.919,1.389
0722_170103_0213.png,0.044,0.167,0.938,-0.019,0.163,0.929,0.151,-0.009,1.097,-0.131,0.000,1.136,0.143,-0.189,0.895,-0.295,-0.204,1.168,0.136,-0.365,0.699,-0.386,-0.303,0.948,1004.404,709.225,0.938,940.790,706.616,0.929,1090.546,532.301,1.097,849.966,540.103,1.136,1111.759,339.424,0.895,719.508,374.077,1.168,1145.697,43.607,0.699,572.845,236.404,0.948,-0.029,-0.972,1.404,0.000,-6.940,0.000,0.040,0.015,0.022,0.222,-0.931,1.611
0722_170103_0214.png,0.062,0.175,0.935,-0.002,0.169,0.922,0.171,-0.013,1.074,-0.120,0.004,1.149,0.113,-0.245,0.958,-0.206,-0.163,0.954,0.057,-0.350,0.731,-0.288,-0.325,0.763,1023.409,718.231,0.935,957.682,714.497,0.922,1111.340,528.373,1.074,861.054,543.310,1.149,1072.486,296.878,0.958,754.380,377.809,0.954,1033.820,85.016,0.731,600.520,135.028,0.763,-0.030,-0.970,1.403,0.000,-13.582,0.000,-0.011,-0.006,0.027,0.301,-0.916,1.462
0722_170103_0215.png,0.006,0.180,0.932,-0.058,0.184,0.942,0.125,0.002,1.144,-0.168,-0.008,1.100,0.193,-0.174,0.935,-0.151,-0.252,0.975,0.260,-0.346,0.732,-0.093,-0.359,0.737,966.575,723.719,0.932,901.146,725.769,0.942,1063.706,542.076,1.144,814.903,533.416,1.100,1156.128,363.296,0.935,813.054,294.239,0.975,1297.920,90.708,0.732,840.194,76.357,0.737,-0.037,-0.964,1.402,0.000,-350.055,0.000,0.003,-0.022,-0.014,-0.196,-0.801,1.351
0722_170103_0216.png,0.025,0.156,0.931,-0.042,0.156,0.932,0.146,-0.005,1.113,-0.156,-0.002,1.127,0.271,-0.233,1.177,-0.236,-0.248,1.188,0.340,-0.291,0.933,-0.203,-0.290,0.934,985.035,699.273,0.931,916.666,699.017,0.932,1084.790,535.747,1.113,828.422,538.516,1.127,1178.816,352.162,1.177,771.413,341.504,1.188,1306.171,242.951,0.933,753.433,244.975,0.934,-0.026,-0.973,1.404,0.000,-1.552,0.000,-0.018,0.020,0.014,-0.056,-1.173,1.498
0722_170103_0217.png,0.021,0.162,0.927,-0.047,0.163,0.932,0.153,-0.005,1.106,-0.153,0.002,1.138,0.169,-0.268,1.035,-0.211,-0.225,0.998,-0.007,-0.322,0.838,-0.101,-0.335,0.779,981.671,706.275,0.927,912.018,706.179,0.932,1091.658,535.629,1.106,831.820,541.908,1.138,1115.450,293.719,1.035,759.347,325.332,0.998,952.549,175.248,0.838,836.827,130.573,0.779,-0.023,-0.968,1.403,0.000,-4.953,0.000,-0.038,-0.006,-0.011,-0.265,-1.143,1.545
0722_170103_0218.png,0.039,0.164,0.931,-0.026,0.163,0.934,0.164,-0.009,1.098,-0.125,0.003,1.146,0.180,-0.234,1.245,-0.292,-0.182,1.247,0.181,-0.292,0.986,-0.376,-0.286,1.016,999.359,707.694,0.931,933.195,706.514,0.934,1101.831,532.634,1.098,856.478,542.129,1.146,1097.213,361.242,1.245,737.544,400.979,1.247,1134.948,257.959,0.986,608.244,272.428,1.016,-0.034,-0.968,1.403,0.000,-8.549,0.000,0.014,0.002,-0.012,-0.249,-1.149,1.268
0722_170103_0219.png,0.009,0.154,0.931,-0.056,0.159,0.940,0.132,-0.007,1.140,-0.167,-0.014,1.109,0.078,-0.182,0.930,-0.273,-0.235,0.992,0.026,-0.352,0.725,-0.257,-0.348,0.752,969.533,697.789,0.931,902.886,700.723,0.940,1070.055,534.304,1.140,817.223,528.175,1.109,1040.154,353.936,0.930,698.479,314.531,0.992,994.214,77.909,0.725,635.290,100.128,0.752,-0.035,-0.961,1.401,0.000,-352.878,0.000,-0.011,0.001,-0.008,-0.220,-1.152,1.286
0722_170103_0220.png,0.038,0.169,0.952,-0.028,0.168,0.952,0.159,-0.013,1.114,-0.137,-0.006,1.148,0.097,-0.192,0.899,-0.230,-0.244,1.048,0.038,-0.366,0.689,-0.076,-0.329,0.844,998.034,708.942,0.952,932.040,708.331,0.952,1095.825,528.573,1.114,846.749,535.429,1.148,1062.304,337.270,0.899,750.945,318.421,1.048,1013.084,35.477,0.689,874.586,168.842,0.844,-0.032,-0.962,1.401,0.000,-5.599,0.000,-0.003,0.021,-0.040,-0.087,-0.697,1.443
0722_170103_0221.png,0.025,0.172,0.929,-0.040,0.172,0.932,0.149,-0.012,1.096,-0.142,-0.003,1.133,0.195,-0.276,1.141,-0.233,-0.221,1.013,0.183,-0.316,0.888,-0.185,-0.342,0.793,985.707,716.361,0.929,919.421,716.007,0.932,1089.147,529.526,1.096,841.066,537.106,1.133,1122.954,309.652,1.141,741.418,332.889,1.013,1156.185,201.312,0.888,738.724,130.339,0.793,-0.024,-0.966,1.402,0.000,-6.374,0.000,0.013,-0.012,0.033,-0.213,-0.825,1.564
0722_170103_0222.png,-0.001,0.178,0.932,-0.066,0.182,0.943,0.118,0.002,1.146,-0.175,-0.008,1.103,0.229,-0.241,1.074,-0.240,-0.276,1.081,0.119,-0.333,0.847,-0.230,-0.341,0.818,958.621,721.527,0.932,893.192,723.870,0.943,1058.199,541.514,1.146,808.673,533.067,1.103,1163.179,326.483,1.074,748.523,296.981,1.081,1093.606,165.620,0.847,692.661,143.534,0.818,-0.030,-0.962,1.401,0.000,-350.303,0.000,-0.001,-0.024,-0.027,-0.239,-0.873,1.225
0722_170103_0223.png,0.016,0.151,0.944,-0.051,0.153,0.948,0.135,-0.011,1.135,-0.166,-0.015,1.119,0.086,-0.183,0.921,-0.245,-0.184,0.918,0.039,-0.349,0.712,-0.321,-0.348,0.721,975.958,692.125,0.944,908.928,693.220,0.948,1072.768,530.780,1.135,818.542,527.516,1.119,1048.990,351.417,0.921,706.033,349.339,0.918,1011.438,73.966,0.712,536.265,80.625,0.721,-0.029,-0.965,1.402,0.000,-355.701,0.000,-0.016,0.042,-0.004,-0.033,-0.916,1.558
0722_170103_0224.png,0.052,0.165,0.945,-0.014,0.161,0.937,0.164,-0.014,1.098,-0.133,-0.004,1.142,0.117,-0.251,0.987,-0.210,-0.173,0.941,0.066,-0.342,0.749,-0.284,-0.337,0.743,1012.351,705.940,0.945,946.036,703.629,0.937,1101.943,528.082,1.098,849.457,536.996,1.142,1072.966,298.373,0.987,747.666,365.179,0.941,1043.354,105.747,0.749,596.650,108.509,0.743,-0.033,-0.969,1.403,0.000,-7.516,0.000,-0.011,0.028,0.013,0.223,-0.896,1.332
0722_170103_0225.png,0.051,0.177,0.941,-0.016,0.173,0.936,0.168,-0.011,1.081,-0.124,0.005,1.153,0.285,-0.238,1.162,-0.224,-0.205,1.018,0.185,-0.296,0.927,-0.256,-0.331,0.790,1011.241,718.398,0.941,944.091,716.339,0.936,1108.159,529.976,1.081,857.638,544.364,1.153,1193.136,345.407,1.162,750.329,348.857,1.018,1149.265,236.739,0.927,651.862,142.233,0.790,-0.026,-0.973,1.404,0.000,-13.117,0.000,-0.016,0.016,0.006,0.000,-0.841,1.142
0722_170103_0226.png,0.018,0.173,0.937,-0.047,0.173,0.936,0.127,0.001,1.126,-0.164,-0.002,1.113,0.168,-0.176,0.920,-0.242,-0.248,1.042,0.208,-0.348,0.719,-0.104,-0.330,0.837,978.180,716.085,0.937,912.392,716.247,0.936,1067.651,540.627,1.126,819.481,538.040,1.113,1134.020,358.284,0.920,739.097,313.501,1.042,1235.539,80.057,0.719,842.317,165.584,0.837,-0.026,-0.974,1.404,0.000,-356.168,0.000,0.016,0.010,0.012,0.122,-0.809,1.645
0722_170103_0227.png,0.061,0.169,0.930,-0.004,0.164,0.922,0.177,-0.011,1.081,-0.111,0.006,1.153,0.166,-0.284,1.096,-0.274,-0.210,1.189,0.130,-0.330,0.837,-0.313,-0.301,0.943,1022.462,713.088,0.930,955.630,709.113,0.922,1115.892,530.572,1.081,868.723,544.785,1.153,1103.926,293.598,1.096,741.238,372.038,1.189,1107.370,165.097,0.837,644.768,236.254,0.943,-0.037,-0.967,1.403,0.000,-13.199,0.000,-0.001,-0.015,-0.006,0.077,-1.045,1.618
0722_170103_0228.png,0.050,0.162,0.926,-0.013,0.157,0.920,0.165,-0.016,1.079,-0.110,0.000,1.151,0.272,-0.266,1.080,-0.104,-0.182,0.946,0.305,-0.344,0.833,-0.100,-0.362,0.748,1011.158,706.776,0.926,946.468,702.643,0.920,1105.514,525.571,1.079,869.395,540.233,1.151,1199.960,305.601,1.080,855.445,356.732,0.946,1308.112,146.795,0.833,832.404,79.612,0.748,-0.031,-0.962,1.401,0.000,-13.970,0.000,0.041,-0.022,0.005,-0.010,-1.259,1.273
0722_170103_0229.png,0.048,0.155,0.930,-0.015,0.151,0.924,0.160,-0.014,1.092,-0.124,-0.003,1.140,0.111,-0.236,0.956,-0.256,-0.229,1.095,-0.017,-0.352,0.766,-0.123,-0.321,0.896,1009.347,698.809,0.930,944.469,695.459,0.924,1099.143,527.724,1.092,856.806,537.333,1.140,1070.651,305.320,0.956,737.576,341.148,1.095,938.463,103.103,0.766,828.869,199.297,0.896,-0.034,-0.967,1.402,0.000,-8.573,0.000,0.031,0.005,0.025,0.129,-1.214,1.476
