rolosa10/RGSpipe/dataset/synthetic_dataset/Coods3D_unique0723_083951.csv
filename,left_eye,left_eye,left_eye,right_eye,right_eye,right_eye,left_shoulder,left_shoulder,left_shoulder,right_shoulder,right_shoulder,right_shoulder,left_elbow,left_elbow,left_elbow,right_elbow,right_elbow,right_elbow,left_wrist,left_wrist,left_wrist,right_wrist,right_wrist,right_wrist,left_eye_2D,left_eye_2D,left_eye_2D,right_eye_2D,right_eye_2D,right_eye_2D,left_shoulder_2D,left_shoulder_2D,left_shoulder_2D,right_shoulder_2D,right_shoulder_2D,right_shoulder_2D,left_elbow_2D,left_elbow_2D,left_elbow_2D,right_elbow_2D,right_elbow_2D,right_elbow_2D,left_wrist_2D,left_wrist_2D,left_wrist_2D,right_wrist_2D,right_wrist_2D,right_wrist_2D,root_position,root_position,root_position,root_pitch,root_yaw,root_roll,root_scale,root_scale,root_scale,look_at,look_at,look_at
0723_083951_0001.png,0.041,0.164,0.930,-0.023,0.162,0.928,0.161,-0.023,1.076,-0.121,-0.006,1.147,0.288,-0.242,1.170,-0.234,-0.249,1.156,0.388,-0.303,0.943,-0.219,-0.310,0.910,1001.842,707.844,0.930,936.064,705.937,0.928,1101.844,520.108,1.076,859.760,534.827,1.147,1194.070,343.480,1.170,767.881,335.509,1.156,1351.188,234.578,0.943,730.671,215.480,0.910,-0.026,-0.962,1.401,0.000,-13.305,0.000,0.021,-0.005,0.039,-0.150,-0.913,1.448
0723_083951_0002.png,-0.007,0.150,0.931,-0.074,0.156,0.940,0.109,0.001,1.156,-0.190,-0.014,1.092,0.047,-0.171,0.941,-0.306,-0.235,0.981,-0.014,-0.338,0.731,-0.335,-0.343,0.737,952.725,693.148,0.931,884.952,697.630,0.940,1049.444,540.640,1.156,794.280,527.755,1.092,1007.189,366.725,0.941,663.397,311.808,0.981,941.214,99.783,0.731,527.677,97.465,0.737,-0.027,-0.967,1.402,0.000,-346.339,0.000,-0.032,0.020,-0.016,-0.082,-1.157,1.495
0723_083951_0003.png,0.034,0.159,0.934,-0.034,0.159,0.932,0.150,-0.011,1.124,-0.157,-0.012,1.120,0.305,-0.236,1.105,-0.161,-0.208,0.934,0.380,-0.309,0.864,-0.108,-0.351,0.719,994.270,702.343,0.934,924.885,702.083,0.932,1086.864,530.488,1.124,826.464,529.827,1.120,1222.159,336.670,1.105,796.525,328.138,0.934,1377.997,200.004,0.864,817.449,75.472,0.719,-0.035,-0.960,1.401,0.000,-358.207,0.000,-0.035,-0.006,0.006,0.137,-1.093,1.306
0723_083951_0004.png,0.041,0.170,0.939,-0.027,0.168,0.937,0.163,-0.009,1.100,-0.137,0.001,1.147,0.168,-0.272,1.031,-0.195,-0.218,0.994,-0.006,-0.325,0.835,-0.102,-0.340,0.774,1001.303,712.250,0.939,933.047,710.701,0.937,1101.111,531.805,1.100,846.357,541.187,1.147,1115.315,288.725,1.031,773.252,331.170,0.994,953.108,169.181,0.835,834.905,122.826,0.774,-0.029,-0.968,1.402,0.000,-8.042,0.000,-0.024,0.006,-0.016,-0.064,-1.017,1.105
0723_083951_0005.png,0.013,0.178,0.932,-0.055,0.181,0.940,0.141,-0.007,1.125,-0.165,-0.010,1.112,0.177,-0.181,0.922,-0.157,-0.229,0.958,0.209,-0.349,0.723,-0.104,-0.348,0.733,972.896,721.953,0.932,904.823,722.907,0.940,1078.955,533.698,1.125,818.873,531.182,1.112,1142.551,353.516,0.922,803.653,312.276,0.958,1235.127,80.652,0.723,825.465,88.064,0.733,-0.031,-0.961,1.401,0.000,-356.437,0.000,-0.031,-0.023,0.016,-0.251,-0.736,1.329
0723_083951_0006.png,0.046,0.177,0.938,-0.018,0.175,0.933,0.157,-0.015,1.100,-0.129,-0.007,1.135,0.269,-0.259,1.068,-0.185,-0.200,0.958,0.302,-0.340,0.825,-0.190,-0.356,0.750,1006.384,719.827,0.938,941.726,718.857,0.933,1096.031,527.140,1.100,852.126,534.203,1.135,1199.118,309.455,1.068,776.156,341.372,0.958,1307.978,148.146,0.825,719.160,88.052,0.750,-0.036,-0.960,1.401,0.000,-5.909,0.000,0.029,-0.019,0.018,0.112,-0.713,1.451
0723_083951_0007.png,0.062,0.173,0.943,-0.003,0.169,0.936,0.177,-0.018,1.082,-0.103,0.000,1.160,0.105,-0.243,0.940,-0.107,-0.178,0.940,0.030,-0.369,0.713,-0.114,-0.353,0.726,1022.377,714.247,0.943,957.453,711.712,0.936,1115.726,523.961,1.082,875.983,539.780,1.160,1065.731,294.150,0.940,851.798,359.719,0.940,1000.034,48.251,0.713,810.802,78.219,0.726,-0.037,-0.961,1.401,0.000,-14.845,0.000,0.020,-0.001,-0.023,-0.012,-0.839,1.244
0723_083951_0008.png,-0.006,0.167,0.937,-0.071,0.171,0.946,0.101,-0.004,1.156,-0.182,-0.018,1.092,0.043,-0.181,0.952,-0.304,-0.181,1.271,-0.011,-0.356,0.755,-0.371,-0.283,1.035,953.434,709.699,0.937,889.107,712.285,0.946,1043.477,537.096,1.156,801.175,524.141,1.092,1003.337,358.805,0.952,732.727,404.798,1.271,946.013,91.392,0.755,619.102,279.799,1.035,-0.029,-0.959,1.401,0.000,-345.826,0.000,0.019,-0.002,-0.016,-0.061,-0.866,1.200
0723_083951_0009.png,0.007,0.159,0.931,-0.058,0.164,0.937,0.117,0.004,1.152,-0.172,-0.007,1.105,0.229,-0.210,1.274,-0.320,-0.231,1.061,0.200,-0.289,1.014,-0.386,-0.339,0.819,967.112,702.454,0.931,901.347,705.879,0.937,1056.397,543.289,1.152,811.576,534.106,1.105,1131.085,383.142,1.274,672.800,332.564,1.061,1147.230,269.077,1.014,511.431,145.873,0.819,-0.034,-0.965,1.402,0.000,-349.335,0.000,0.012,-0.005,-0.045,-0.027,-1.113,1.616
0723_083951_0010.png,0.038,0.167,0.940,-0.026,0.165,0.940,0.161,-0.011,1.090,-0.123,0.004,1.156,0.177,-0.232,0.929,-0.302,-0.181,1.223,0.162,-0.368,0.697,-0.332,-0.292,0.981,998.845,708.803,0.940,933.197,706.909,0.940,1100.436,530.578,1.090,858.361,543.483,1.156,1141.529,302.570,0.929,725.402,399.121,1.223,1180.745,38.803,0.697,638.128,256.519,0.981,-0.024,-0.971,1.403,0.000,-12.104,0.000,0.016,0.023,-0.021,-0.207,-0.915,1.461
0723_083951_0011.png,0.045,0.157,0.929,-0.019,0.154,0.925,0.158,-0.013,1.098,-0.128,-0.005,1.135,0.085,-0.189,0.911,-0.151,-0.178,0.928,0.014,-0.361,0.729,-0.174,-0.348,0.726,1005.973,700.507,0.929,940.470,698.181,0.925,1097.231,528.531,1.098,852.789,536.092,1.135,1049.212,342.308,0.911,804.812,357.171,0.928,978.856,68.448,0.729,731.700,84.118,0.726,-0.036,-0.965,1.402,0.000,-6.443,0.000,0.027,-0.003,0.023,0.076,-1.137,1.606
0723_083951_0012.png,0.026,0.174,0.946,-0.042,0.175,0.948,0.151,-0.004,1.124,-0.157,-0.002,1.133,0.206,-0.234,0.980,-0.249,-0.257,1.109,0.151,-0.346,0.739,-0.245,-0.318,0.845,986.425,715.125,0.946,918.039,715.319,0.948,1087.601,536.326,1.124,828.540,538.074,1.133,1159.666,313.207,0.980,746.134,319.757,1.109,1154.221,94.881,0.739,684.559,182.394,0.845,-0.031,-0.967,1.402,0.000,-0.530,0.000,-0.036,0.013,-0.031,-0.100,-0.789,1.284
0723_083951_0013.png,0.001,0.154,0.938,-0.063,0.156,0.943,0.109,-0.014,1.146,-0.178,-0.026,1.091,0.128,-0.179,0.935,-0.217,-0.284,1.136,0.146,-0.340,0.730,-0.174,-0.310,0.885,961.489,695.743,0.938,896.440,697.543,0.943,1050.523,528.609,1.146,804.995,517.107,1.091,1090.534,357.704,0.935,778.583,302.560,1.136,1150.303,96.561,0.730,772.992,207.232,0.885,-0.029,-0.959,1.401,0.000,-347.785,0.000,0.015,0.023,0.033,0.049,-0.805,1.540
0723_083951_0014.png,0.020,0.175,0.930,-0.047,0.176,0.932,0.140,0.009,1.128,-0.163,0.007,1.120,0.207,-0.242,1.035,-0.318,-0.215,1.162,0.206,-0.339,0.783,-0.404,-0.303,0.921,980.956,718.766,0.930,912.452,719.542,0.932,1078.214,547.408,1.128,821.861,545.970,1.120,1150.127,317.510,1.035,699.833,363.755,1.162,1210.237,128.181,0.783,543.017,226.876,0.921,-0.030,-0.975,1.404,0.000,-357.346,0.000,-0.020,-0.009,-0.026,-0.036,-1.160,1.258
0723_083951_0015.png,0.026,0.150,0.940,-0.039,0.151,0.942,0.146,-0.014,1.121,-0.147,-0.011,1.136,0.206,-0.222,0.951,-0.149,-0.247,0.999,0.212,-0.361,0.721,-0.097,-0.351,0.757,985.890,691.905,0.940,920.267,691.967,0.942,1083.821,527.926,1.121,837.177,530.968,1.136,1165.497,318.287,0.951,818.071,304.830,0.999,1240.071,63.063,0.721,838.634,98.553,0.757,-0.030,-0.960,1.401,0.000,-1.835,0.000,0.013,0.020,-0.021,-0.132,-1.177,1.211
0723_083951_0016.png,0.020,0.157,0.945,-0.046,0.159,0.946,0.130,-0.004,1.143,-0.164,-0.010,1.116,0.105,-0.224,0.979,-0.249,-0.261,1.131,0.017,-0.351,0.759,-0.233,-0.317,0.868,979.733,698.534,0.945,913.865,699.599,0.946,1068.318,536.664,1.143,820.230,531.278,1.116,1062.316,322.849,0.979,750.449,320.803,1.131,981.869,99.792,0.759,704.348,192.384,0.868,-0.034,-0.967,1.402,0.000,-353.431,0.000,0.005,0.033,-0.026,0.095,-0.909,1.594
0723_083951_0017.png,0.011,0.171,0.920,-0.055,0.173,0.921,0.113,0.006,1.142,-0.179,-0.008,1.084,0.186,-0.223,1.022,-0.303,-0.252,1.072,0.103,-0.337,0.805,-0.320,-0.332,0.826,971.253,716.226,0.920,903.183,718.236,0.921,1053.847,544.737,1.142,802.866,533.408,1.084,1133.126,332.737,1.022,691.131,316.067,1.072,1082.093,141.506,0.805,592.180,158.080,0.826,-0.030,-0.968,1.403,0.000,-347.409,0.000,-0.003,-0.032,0.022,0.227,-1.107,1.504
0723_083951_0018.png,0.031,0.176,0.939,-0.034,0.175,0.935,0.140,-0.009,1.125,-0.154,-0.010,1.120,0.172,-0.280,1.161,-0.324,-0.195,1.226,0.152,-0.319,0.900,-0.286,-0.298,0.985,991.134,717.837,0.939,925.112,717.499,0.935,1078.037,532.722,1.125,829.167,531.800,1.120,1100.751,310.752,1.161,708.506,388.710,1.226,1120.656,203.058,0.900,683.530,252.062,0.985,-0.033,-0.959,1.400,0.000,-357.913,0.000,0.010,-0.022,-0.005,0.200,-0.805,1.391
0723_083951_0019.png,-0.001,0.156,0.931,-0.067,0.163,0.941,0.115,0.004,1.160,-0.181,-0.012,1.090,0.175,-0.258,1.117,-0.277,-0.247,0.987,0.145,-0.316,0.855,-0.221,-0.347,0.741,959.384,699.344,0.931,892.279,704.269,0.941,1054.552,543.415,1.160,802.174,529.610,1.090,1108.718,320.327,1.117,692.934,301.677,0.987,1121.637,187.787,0.855,676.658,94.869,0.741,-0.039,-0.968,1.403,0.000,-345.211,0.000,-0.027,0.012,-0.029,-0.132,-1.155,1.345
0723_083951_0020.png,0.049,0.179,0.929,-0.014,0.173,0.921,0.161,-0.002,1.086,-0.118,0.012,1.148,0.070,-0.187,0.898,-0.262,-0.163,0.987,-0.016,-0.369,0.715,-0.403,-0.335,0.833,1010.340,722.800,0.929,945.528,719.062,0.921,1101.194,538.426,1.086,861.831,550.315,1.148,1034.059,342.324,0.898,707.954,382.636,0.987,938.452,49.666,0.715,499.797,157.341,0.833,-0.029,-0.973,1.404,0.000,-11.639,0.000,0.034,-0.022,-0.013,0.117,-1.051,1.556
0723_083951_0021.png,0.066,0.153,0.946,0.000,0.147,0.935,0.176,-0.022,1.089,-0.121,-0.008,1.152,0.240,-0.253,0.974,-0.114,-0.198,0.963,0.210,-0.340,0.732,-0.049,-0.337,0.750,1026.533,693.371,0.946,960.452,689.229,0.935,1113.651,520.463,1.089,859.709,533.470,1.152,1194.623,292.634,0.974,846.987,344.166,0.963,1232.765,98.117,0.732,897.943,112.570,0.750,-0.036,-0.965,1.402,0.000,-11.079,0.000,-0.025,0.040,0.015,0.314,-0.997,1.432
0723_083951_0022.png,0.044,0.169,0.931,-0.022,0.165,0.923,0.157,-0.006,1.096,-0.142,0.003,1.133,0.097,-0.182,0.903,-0.311,-0.186,1.045,0.037,-0.352,0.715,-0.430,-0.314,0.854,1005.133,712.294,0.931,937.393,709.670,0.923,1095.875,534.727,1.096,840.530,542.137,1.133,1062.397,348.699,0.903,676.874,370.319,1.045,1008.731,72.344,0.715,481.748,190.996,0.854,-0.028,-0.973,1.404,0.000,-6.166,0.000,-0.015,-0.001,0.027,0.216,-1.031,1.594
0723_083951_0023.png,0.056,0.173,0.944,-0.010,0.170,0.937,0.173,-0.015,1.079,-0.124,0.002,1.152,0.221,-0.274,1.057,-0.222,-0.166,0.966,0.042,-0.306,0.870,-0.314,-0.328,0.782,1016.888,714.306,0.944,949.469,712.319,0.937,1112.131,526.740,1.079,857.884,541.406,1.152,1158.362,293.204,1.057,741.783,376.917,0.966,1005.582,205.274,0.870,577.746,141.523,0.782,-0.030,-0.972,1.404,0.000,-12.993,0.000,-0.029,0.027,0.018,0.076,-0.776,1.207
0723_083951_0024.png,0.011,0.160,0.936,-0.055,0.162,0.939,0.124,-0.001,1.143,-0.171,-0.007,1.119,0.263,-0.233,1.091,-0.276,-0.244,1.198,0.230,-0.335,0.837,-0.306,-0.309,0.933,970.942,702.511,0.936,904.590,704.037,0.939,1062.796,538.989,1.143,814.756,534.357,1.119,1189.632,336.940,1.091,741.047,346.157,1.198,1221.616,159.192,0.837,647.964,224.956,0.933,-0.026,-0.962,1.401,0.000,-354.124,0.000,0.005,-0.004,-0.048,0.017,-1.176,1.304
0723_083951_0025.png,0.028,0.164,0.944,-0.037,0.166,0.951,0.155,-0.007,1.123,-0.140,-0.004,1.136,0.189,-0.228,0.961,-0.239,-0.253,1.118,0.144,-0.359,0.727,-0.225,-0.323,0.857,988.567,705.156,0.944,923.394,706.023,0.951,1091.072,534.021,1.123,842.952,536.628,1.136,1147.575,314.747,0.961,756.979,325.058,1.118,1148.018,70.993,0.727,710.082,181.823,0.857,-0.039,-0.968,1.403,0.000,-1.458,0.000,0.007,0.028,-0.031,-0.297,-0.906,1.281
0723_083951_0026.png,0.039,0.153,0.944,-0.026,0.149,0.938,0.152,-0.015,1.102,-0.137,-0.005,1.148,0.094,-0.191,0.896,-0.279,-0.192,1.265,0.040,-0.363,0.695,-0.452,-0.261,1.079,999.054,694.191,0.944,933.806,691.427,0.938,1091.456,526.898,1.102,846.748,536.088,1.148,1060.227,337.097,0.896,750.624,395.958,1.265,1014.143,43.663,0.695,561.929,309.865,1.079,-0.023,-0.968,1.402,0.000,-8.010,0.000,0.014,0.038,-0.008,0.093,-1.055,1.448
0723_083951_0027.png,0.027,0.163,0.928,-0.039,0.165,0.935,0.157,-0.011,1.105,-0.142,-0.007,1.122,0.164,-0.265,1.037,-0.247,-0.197,1.282,-0.018,-0.314,0.861,-0.283,-0.264,1.042,988.033,706.932,0.928,920.584,707.708,0.935,1095.218,530.243,1.105,839.347,533.858,1.122,1110.633,296.729,1.037,776.716,393.543,1.282,939.987,192.914,0.861,701.522,298.594,1.042,-0.037,-0.968,1.403,0.000,-2.313,0.000,-0.011,0.006,0.047,-0.321,-0.980,1.391
0723_083951_0028.png,0.020,0.170,0.931,-0.046,0.172,0.939,0.150,-0.010,1.115,-0.148,-0.006,1.132,0.251,-0.256,1.191,-0.226,-0.226,0.988,0.138,-0.300,0.953,-0.247,-0.352,0.754,980.124,713.276,0.931,913.427,714.135,0.939,1087.998,531.246,1.115,835.495,534.694,1.132,1160.110,335.871,1.191,742.696,322.056,0.988,1097.499,240.700,0.953,648.089,95.430,0.754,-0.031,-0.959,1.400,0.000,-2.209,0.000,-0.006,-0.022,-0.012,-0.351,-0.915,1.409
0723_083951_0029.png,0.034,0.146,0.934,-0.030,0.145,0.933,0.150,-0.013,1.107,-0.136,-0.006,1.137,0.218,-0.251,1.012,-0.157,-0.233,0.999,0.229,-0.348,0.770,-0.057,-0.345,0.787,994.239,689.133,0.934,929.310,687.714,0.933,1089.036,529.220,1.107,846.415,535.218,1.137,1164.481,304.188,1.012,810.497,318.033,0.999,1242.507,110.525,0.770,890.579,122.758,0.787,-0.031,-0.969,1.403,0.000,-4.918,0.000,0.031,0.029,0.010,-0.045,-1.271,1.430
0723_083951_0030.png,-0.011,0.180,0.922,-0.075,0.186,0.935,0.104,0.008,1.148,-0.183,-0.006,1.085,0.193,-0.167,0.951,-0.297,-0.212,1.233,0.281,-0.338,0.760,-0.234,-0.298,0.991,948.256,726.014,0.922,883.601,729.376,0.935,1046.336,546.996,1.148,799.815,534.824,1.085,1153.536,373.066,0.951,731.265,376.281,1.233,1311.682,116.321,0.760,735.076,254.301,0.991,-0.028,-0.968,1.403,0.000,-346.243,0.000,0.010,-0.034,-0.002,-0.254,-0.943,1.325
0723_083951_0031.png,0.027,0.158,0.924,-0.040,0.157,0.926,0.152,-0.011,1.101,-0.149,-0.003,1.135,0.092,-0.207,0.928,-0.196,-0.195,0.953,-0.018,-0.348,0.736,-0.188,-0.348,0.742,987.606,702.370,0.924,918.710,701.365,0.926,1091.204,530.882,1.101,835.406,537.745,1.135,1054.628,327.432,0.928,764.309,345.821,0.953,936.198,91.102,0.736,718.541,93.772,0.742,-0.024,-0.965,1.402,0.000,-5.490,0.000,-0.019,-0.013,0.015,-0.123,-1.140,1.681
0723_083951_0032.png,0.047,0.165,0.940,-0.021,0.162,0.934,0.163,-0.014,1.106,-0.142,-0.006,1.141,0.206,-0.214,1.283,-0.298,-0.189,1.272,0.262,-0.266,1.028,-0.391,-0.268,1.035,1007.251,707.190,0.940,938.789,705.249,0.934,1099.890,528.211,1.106,841.710,535.217,1.141,1112.383,381.381,1.283,737.324,398.804,1.272,1201.874,293.714,1.028,600.642,294.067,1.035,-0.032,-0.961,1.401,0.000,-5.496,0.000,-0.033,0.000,-0.009,0.165,-0.874,1.631
0723_083951_0033.png,0.015,0.176,0.929,-0.048,0.178,0.936,0.139,-0.005,1.110,-0.149,-0.002,1.124,0.092,-0.183,0.908,-0.108,-0.179,0.922,0.047,-0.356,0.712,-0.068,-0.353,0.725,975.694,719.924,0.929,910.953,720.506,0.936,1079.208,535.623,1.110,833.958,538.533,1.124,1056.830,348.715,0.908,848.909,354.947,0.922,1023.406,63.941,0.712,871.042,76.441,0.725,-0.026,-0.968,1.403,0.000,-1.820,0.000,0.028,-0.013,0.019,-0.280,-0.818,1.551
0723_083951_0034.png,0.033,0.163,0.924,-0.032,0.163,0.927,0.156,-0.009,1.106,-0.136,-0.003,1.135,0.239,-0.268,1.160,-0.243,-0.206,0.988,0.245,-0.320,0.900,-0.302,-0.352,0.774,993.698,708.016,0.924,926.972,707.536,0.927,1094.132,532.127,1.106,846.287,537.826,1.135,1155.575,320.480,1.160,726.087,341.514,0.988,1218.968,202.352,0.900,589.284,107.672,0.774,-0.035,-0.961,1.401,0.000,-4.565,0.000,0.012,-0.029,-0.005,-0.180,-1.235,1.296
0723_083951_0035.png,0.026,0.180,0.931,-0.039,0.180,0.929,0.130,0.004,1.135,-0.160,-0.003,1.106,0.199,-0.176,0.930,-0.162,-0.253,0.991,0.268,-0.351,0.732,-0.114,-0.361,0.752,986.456,723.688,0.931,920.236,724.184,0.929,1069.097,542.988,1.135,822.169,537.365,1.106,1163.655,360.589,0.930,804.247,297.235,0.991,1308.180,84.153,0.732,815.962,83.984,0.752,-0.037,-0.966,1.402,0.000,-353.008,0.000,0.016,-0.032,-0.011,0.219,-0.875,1.600
0723_083951_0036.png,0.019,0.182,0.926,-0.046,0.183,0.931,0.142,-0.007,1.114,-0.155,-0.006,1.120,0.104,-0.245,0.989,-0.263,-0.262,1.136,-0.017,-0.348,0.782,-0.282,-0.324,0.883,979.827,726.949,0.926,912.596,727.356,0.931,1081.493,533.783,1.114,828.582,535.058,1.120,1059.685,304.277,0.989,739.628,320.869,1.136,938.997,116.266,0.782,656.081,191.384,0.883,-0.029,-0.959,1.400,0.000,-0.085,0.000,-0.001,-0.049,0.011,-0.161,-0.750,1.615
0723_083951_0037.png,0.052,0.177,0.940,-0.015,0.175,0.939,0.176,-0.011,1.077,-0.117,0.007,1.156,0.271,-0.192,1.247,-0.272,-0.187,1.259,0.287,-0.273,0.997,-0.339,-0.267,1.018,1012.605,718.979,0.940,944.573,717.466,0.939,1115.625,530.354,1.077,863.811,545.930,1.156,1166.592,393.896,1.247,754.609,398.478,1.259,1233.780,279.358,0.997,643.527,290.352,1.018,-0.031,-0.975,1.404,0.000,-14.267,0.000,-0.024,0.021,0.002,-0.213,-0.793,1.224
0723_083951_0038.png,0.031,0.167,0.941,-0.035,0.165,0.937,0.143,0.001,1.127,-0.159,0.000,1.126,0.233,-0.205,1.271,-0.282,-0.206,1.245,0.191,-0.273,1.015,-0.399,-0.275,1.014,991.651,708.505,0.941,923.980,707.730,0.937,1080.733,540.539,1.127,825.859,540.396,1.126,1134.247,386.272,1.271,745.039,383.064,1.245,1138.781,284.077,1.015,585.558,282.173,1.014,-0.030,-0.972,1.404,0.000,-358.683,0.000,-0.017,0.016,-0.023,0.211,-1.063,1.359
0723_083951_0039.png,0.047,0.182,0.944,-0.018,0.178,0.935,0.158,-0.004,1.096,-0.129,0.009,1.153,0.220,-0.184,1.291,-0.289,-0.179,1.024,0.202,-0.281,1.037,-0.400,-0.336,0.829,1007.131,723.372,0.944,941.943,720.673,0.935,1097.465,536.515,1.096,853.420,547.431,1.153,1121.859,404.446,1.291,691.381,373.851,1.024,1145.460,281.749,1.037,500.748,154.661,0.829,-0.024,-0.970,1.403,0.000,-10.257,0.000,0.011,-0.004,-0.039,0.170,-0.844,1.413
0723_083951_0040.png,0.027,0.153,0.943,-0.036,0.153,0.945,0.148,-0.019,1.110,-0.135,-0.011,1.144,0.269,-0.249,1.147,-0.239,-0.248,1.192,0.134,-0.313,0.930,-0.218,-0.308,0.935,987.241,694.413,0.943,923.591,694.008,0.945,1086.953,523.924,1.110,847.766,530.993,1.144,1182.671,333.356,1.147,769.115,342.164,1.192,1096.679,220.535,0.930,737.869,227.095,0.935,-0.027,-0.961,1.401,0.000,-5.949,0.000,0.039,0.028,-0.010,-0.243,-1.026,1.192
0723_083951_0041.png,0.041,0.157,0.933,-0.022,0.154,0.927,0.146,-0.014,1.111,-0.137,-0.010,1.127,0.072,-0.185,0.913,-0.279,-0.202,1.247,0.001,-0.353,0.721,-0.455,-0.277,1.078,1001.388,700.003,0.933,937.475,698.149,0.927,1085.245,528.213,1.111,844.535,531.556,1.127,1035.104,347.445,0.913,747.036,386.109,1.247,961.604,74.581,0.721,558.660,295.258,1.078,-0.035,-0.961,1.401,0.000,-2.221,0.000,0.045,-0.004,0.021,0.231,-1.091,1.540
0723_083951_0042.png,0.039,0.177,0.941,-0.027,0.176,0.937,0.155,-0.002,1.112,-0.141,0.003,1.136,0.273,-0.242,1.154,-0.148,-0.179,0.921,0.133,-0.306,0.935,-0.155,-0.357,0.711,999.483,719.294,0.941,932.896,718.254,0.937,1092.334,538.090,1.112,841.852,542.786,1.136,1185.077,340.232,1.154,807.562,355.087,0.921,1095.610,228.367,0.935,752.347,62.641,0.711,-0.033,-0.970,1.403,0.000,-3.624,0.000,0.000,0.001,-0.021,0.077,-0.940,1.171
0723_083951_0043.png,0.025,0.153,0.950,-0.041,0.153,0.950,0.138,-0.013,1.139,-0.162,-0.016,1.122,0.296,-0.226,1.096,-0.137,-0.240,0.967,0.373,-0.313,0.855,-0.077,-0.349,0.730,985.108,693.147,0.950,918.470,693.502,0.950,1075.429,529.415,1.139,822.971,526.063,1.122,1216.760,343.686,1.096,824.848,304.510,0.967,1375.106,191.538,0.855,859.767,85.233,0.730,-0.034,-0.962,1.401,0.000,-355.614,0.000,-0.012,0.041,-0.019,0.128,-0.966,1.139
0723_083951_0044.png,0.032,0.183,0.946,-0.032,0.182,0.944,0.142,0.001,1.124,-0.145,0.001,1.125,0.252,-0.240,1.077,-0.228,-0.254,1.138,0.179,-0.337,0.840,-0.214,-0.326,0.881,991.863,723.858,0.946,927.796,723.731,0.944,1080.022,541.002,1.124,837.096,541.050,1.125,1182.642,328.203,1.077,769.444,327.718,1.138,1162.496,157.875,0.840,729.145,187.501,0.881,-0.036,-0.973,1.404,0.000,-358.878,0.000,0.033,0.010,-0.016,0.096,-0.707,1.331
0723_083951_0045.png,0.004,0.159,0.941,-0.061,0.161,0.946,0.111,-0.005,1.148,-0.176,-0.016,1.097,0.150,-0.260,1.091,-0.330,-0.230,1.097,0.119,-0.326,0.840,-0.294,-0.321,0.855,963.543,700.269,0.941,898.697,702.227,0.946,1051.954,536.130,1.148,807.325,525.837,1.097,1090.890,313.204,1.091,674.082,340.416,1.097,1094.185,171.365,0.840,632.774,183.091,0.855,-0.030,-0.968,1.403,0.000,-348.545,0.000,0.017,0.035,0.007,0.057,-0.942,1.161
0723_083951_0046.png,0.035,0.173,0.933,-0.032,0.171,0.929,0.152,-0.007,1.106,-0.150,-0.001,1.131,0.245,-0.261,1.074,-0.292,-0.232,1.100,0.101,-0.318,0.861,-0.175,-0.313,0.879,995.658,716.018,0.933,927.236,714.812,0.929,1090.626,533.892,1.106,833.931,538.857,1.131,1177.112,308.949,1.074,707.712,339.642,1.100,1071.909,188.829,0.861,770.990,201.563,0.879,-0.027,-0.967,1.402,0.000,-3.685,0.000,-0.020,-0.013,0.010,0.098,-1.003,1.273
0723_083951_0047.png,0.033,0.159,0.934,-0.034,0.160,0.938,0.161,-0.014,1.110,-0.141,-0.007,1.140,0.262,-0.245,1.209,-0.186,-0.244,1.011,0.312,-0.291,0.951,-0.082,-0.340,0.784,993.550,701.916,0.934,925.408,701.727,0.938,1097.772,528.163,1.110,842.616,534.239,1.140,1165.799,346.967,1.209,785.196,310.899,1.011,1271.705,249.241,0.951,860.483,127.225,0.784,-0.034,-0.960,1.401,0.000,-4.671,0.000,-0.021,-0.001,-0.014,-0.217,-1.064,1.345
0723_083951_0048.png,0.018,0.170,0.929,-0.045,0.172,0.935,0.138,-0.006,1.117,-0.149,-0.006,1.119,0.124,-0.239,0.986,-0.280,-0.211,1.237,-0.016,-0.348,0.800,-0.350,-0.293,1.002,978.383,713.831,0.929,913.898,714.708,0.935,1077.615,534.487,1.117,833.609,535.059,1.119,1079.683,309.232,0.986,744.749,377.777,1.237,941.423,125.697,0.800,627.380,261.825,1.002,-0.031,-0.966,1.402,0.000,-359.414,0.000,0.034,-0.010,0.019,-0.238,-1.025,1.126
0723_083951_0049.png,0.020,0.165,0.922,-0.044,0.165,0.925,0.141,-0.005,1.107,-0.147,-0.001,1.127,0.170,-0.263,1.029,-0.120,-0.181,0.922,0.009,-0.340,0.841,-0.095,-0.358,0.724,980.602,709.929,0.922,914.781,709.986,0.925,1081.387,535.437,1.107,835.882,539.292,1.127,1116.904,296.859,1.029,835.931,353.097,0.922,969.684,155.613,0.841,835.481,69.740,0.724,-0.026,-0.967,1.402,0.000,-2.790,0.000,0.026,-0.023,0.015,-0.177,-1.124,1.598
0723_083951_0050.png,0.031,0.173,0.943,-0.034,0.173,0.945,0.153,-0.009,1.107,-0.137,-0.001,1.141,0.244,-0.252,1.168,-0.227,-0.192,0.966,0.125,-0.305,0.936,-0.267,-0.353,0.756,991.422,714.856,0.943,926.265,714.489,0.945,1091.421,532.573,1.107,846.098,539.383,1.141,1158.560,334.605,1.168,736.623,351.221,0.966,1087.429,230.529,0.936,624.341,95.972,0.756,-0.029,-0.968,1.403,0.000,-5.774,0.000,0.017,0.014,-0.011,-0.186,-0.779,1.353
0723_083951_0051.png,0.033,0.174,0.932,-0.031,0.171,0.926,0.141,-0.001,1.112,-0.147,0.003,1.130,0.193,-0.200,1.295,-0.247,-0.217,1.006,0.306,-0.279,1.071,-0.290,-0.352,0.781,993.642,717.417,0.932,928.357,715.720,0.926,1080.982,539.155,1.112,836.340,542.650,1.130,1101.617,393.422,1.295,726.104,334.417,1.006,1231.563,292.328,1.071,606.588,111.190,0.781,-0.026,-0.969,1.403,0.000,-2.491,0.000,0.027,-0.019,-0.007,0.206,-1.080,1.409
0723_083951_0052.png,0.067,0.163,0.934,0.002,0.157,0.925,0.182,-0.017,1.075,-0.107,0.001,1.156,0.115,-0.240,0.939,-0.266,-0.189,1.265,0.044,-0.353,0.714,-0.334,-0.271,1.026,1028.452,705.632,0.934,961.566,701.203,0.925,1121.204,524.753,1.075,872.150,541.153,1.156,1076.154,297.464,0.939,760.178,397.909,1.265,1018.816,69.745,0.714,650.700,288.656,1.026,-0.038,-0.966,1.402,0.000,-14.892,0.000,-0.013,0.005,0.006,0.112,-1.138,1.273
0723_083951_0053.png,0.043,0.168,0.928,-0.023,0.167,0.927,0.161,-0.013,1.100,-0.133,-0.006,1.128,0.189,-0.198,1.298,-0.277,-0.200,1.255,0.226,-0.270,1.057,-0.446,-0.268,1.073,1003.746,711.774,0.928,936.558,710.939,0.927,1099.238,528.979,1.100,847.550,534.682,1.128,1098.378,394.627,1.298,749.685,388.072,1.255,1163.383,296.724,1.057,564.983,302.375,1.073,-0.039,-0.964,1.402,0.000,-4.406,0.000,0.004,-0.015,0.038,-0.015,-1.006,1.336
0723_083951_0054.png,0.055,0.166,0.936,-0.011,0.161,0.925,0.166,-0.014,1.087,-0.133,-0.001,1.142,0.174,-0.281,1.077,-0.296,-0.202,1.072,0.153,-0.320,0.823,-0.321,-0.315,0.843,1015.662,708.520,0.936,948.493,705.116,0.925,1104.896,527.745,1.087,849.425,538.886,1.142,1113.400,291.664,1.077,697.309,360.860,1.072,1136.694,169.884,0.823,597.924,185.065,0.843,-0.030,-0.968,1.403,0.000,-9.562,0.000,-0.023,0.005,0.027,0.277,-0.969,1.557
0723_083951_0055.png,0.039,0.177,0.951,-0.027,0.176,0.950,0.157,-0.011,1.117,-0.139,-0.005,1.142,0.176,-0.273,1.037,-0.277,-0.199,1.269,-0.010,-0.330,0.851,-0.457,-0.265,1.079,998.726,717.018,0.951,932.616,716.559,0.950,1093.983,531.055,1.117,843.889,536.090,1.142,1121.332,289.539,1.037,752.416,390.539,1.269,948.584,170.468,0.851,556.918,306.764,1.079,-0.034,-0.961,1.401,0.000,-3.822,0.000,-0.004,0.005,-0.038,-0.014,-0.659,1.338
0723_083951_0056.png,0.028,0.172,0.941,-0.037,0.172,0.939,0.139,-0.007,1.124,-0.155,-0.008,1.119,0.199,-0.242,1.007,-0.253,-0.230,1.005,0.121,-0.346,0.780,-0.285,-0.346,0.772,988.698,714.107,0.941,922.930,713.890,0.939,1077.404,533.920,1.124,828.664,533.112,1.119,1148.032,311.784,1.007,720.223,322.288,1.005,1107.139,118.607,0.780,608.854,113.839,0.772,-0.032,-0.965,1.402,0.000,-358.021,0.000,0.012,0.003,0.007,0.156,-0.836,1.258
0723_083951_0057.png,0.024,0.181,0.930,-0.044,0.182,0.934,0.145,-0.001,1.126,-0.161,-0.006,1.107,0.240,-0.237,1.237,-0.250,-0.265,1.107,0.289,-0.280,0.986,-0.245,-0.317,0.852,984.169,724.889,0.930,915.125,725.650,0.934,1082.591,538.743,1.126,822.124,535.094,1.107,1144.201,357.973,1.237,745.396,311.967,1.107,1239.184,269.810,0.986,686.460,186.309,0.852,-0.038,-0.966,1.402,0.000,-355.297,0.000,-0.031,-0.024,0.019,-0.051,-0.736,1.607
0723_083951_0058.png,0.037,0.187,0.929,-0.028,0.186,0.930,0.157,-0.005,1.098,-0.134,0.003,1.132,0.239,-0.266,1.141,-0.148,-0.228,0.994,0.245,-0.321,0.886,-0.056,-0.349,0.784,997.602,731.091,0.929,930.936,730.616,0.930,1096.456,535.520,1.098,847.186,542.329,1.132,1159.582,318.123,1.141,818.797,322.161,0.994,1223.229,195.667,0.886,892.615,117.053,0.784,-0.034,-0.967,1.402,0.000,-5.757,0.000,0.010,-0.033,0.016,-0.114,-0.785,1.365
0723_083951_0059.png,0.030,0.158,0.923,-0.033,0.159,0.927,0.149,-0.008,1.111,-0.136,-0.005,1.124,0.204,-0.262,1.041,-0.185,-0.247,1.020,0.072,-0.341,0.836,-0.057,-0.347,0.821,990.454,703.073,0.923,925.753,703.540,0.927,1087.262,533.175,1.111,845.170,535.691,1.124,1146.575,301.161,1.041,787.688,309.671,1.020,1041.757,151.920,0.836,893.956,138.386,0.821,-0.039,-0.965,1.402,0.000,-1.419,0.000,0.041,-0.013,0.020,-0.182,-1.268,1.316
0723_083951_0060.png,0.055,0.155,0.939,-0.009,0.148,0.928,0.165,-0.021,1.084,-0.119,-0.005,1.156,0.251,-0.270,1.035,-0.172,-0.236,1.027,0.250,-0.342,0.782,-0.147,-0.341,0.788,1015.241,696.637,0.939,950.295,691.795,0.928,1104.886,521.300,1.084,862.338,536.182,1.156,1191.094,291.643,1.035,800.571,321.889,1.027,1263.596,123.890,0.782,783.109,128.065,0.788,-0.026,-0.962,1.401,0.000,-13.521,0.000,0.012,0.014,0.000,0.184,-1.049,1.614
0723_083951_0061.png,-0.008,0.162,0.925,-0.071,0.168,0.937,0.109,0.000,1.141,-0.176,-0.011,1.094,0.116,-0.231,1.007,-0.295,-0.245,1.043,0.003,-0.345,0.805,-0.330,-0.340,0.805,951.528,706.553,0.925,887.890,710.403,0.937,1051.254,540.225,1.141,807.131,530.850,1.094,1069.912,321.943,1.007,690.700,316.953,1.043,963.052,132.635,0.805,570.448,138.234,0.805,-0.027,-0.968,1.403,0.000,-349.240,0.000,0.025,-0.003,0.016,-0.293,-1.071,1.408
0723_083951_0062.png,0.032,0.182,0.929,-0.034,0.180,0.926,0.153,-0.008,1.100,-0.147,0.000,1.137,0.085,-0.196,0.913,-0.260,-0.208,1.289,-0.018,-0.357,0.727,-0.305,-0.278,1.037,993.269,726.190,0.929,924.612,725.131,0.926,1092.188,532.946,1.100,836.835,540.200,1.137,1049.023,335.393,0.913,768.188,386.516,1.289,935.920,72.542,0.727,680.380,285.259,1.037,-0.024,-0.960,1.401,0.000,-5.950,0.000,-0.019,-0.046,-0.003,-0.003,-0.814,1.633
0723_083951_0063.png,0.056,0.188,0.931,-0.011,0.185,0.923,0.173,-0.005,1.083,-0.126,0.009,1.144,0.271,-0.263,1.060,-0.222,-0.250,1.157,0.187,-0.327,0.820,-0.179,-0.305,0.902,1017.254,732.195,0.931,948.594,730.191,0.923,1112.026,535.191,1.083,855.080,547.198,1.144,1203.350,303.875,1.060,777.590,334.181,1.157,1177.136,160.541,0.820,770.836,218.935,0.902,-0.034,-0.970,1.403,0.000,-10.734,0.000,-0.030,-0.033,0.007,0.117,-0.794,1.546
0723_083951_0064.png,0.026,0.152,0.937,-0.037,0.150,0.933,0.132,-0.015,1.122,-0.152,-0.015,1.123,0.133,-0.251,0.996,-0.224,-0.272,1.114,-0.014,-0.347,0.807,-0.203,-0.332,0.861,986.631,693.882,0.937,922.712,692.966,0.933,1071.692,527.058,1.122,831.154,527.390,1.123,1086.855,300.179,0.996,768.377,307.646,1.114,942.924,130.878,0.807,736.121,173.632,0.861,-0.027,-0.959,1.401,0.000,-359.163,0.000,0.044,0.008,0.012,0.203,-1.157,1.303
0723_083951_0065.png,0.025,0.187,0.934,-0.040,0.187,0.935,0.144,0.007,1.121,-0.152,0.009,1.130,0.124,-0.240,0.991,-0.262,-0.240,1.175,0.010,-0.358,0.774,-0.288,-0.318,0.914,985.654,730.030,0.934,918.964,729.960,0.935,1081.782,546.198,1.121,832.145,547.955,1.130,1078.727,309.669,0.991,747.554,345.969,1.175,972.444,99.842,0.774,660.008,209.317,0.914,-0.029,-0.972,1.404,0.000,-0.686,0.000,0.004,-0.024,-0.040,-0.041,-0.892,1.449
0723_083951_0066.png,0.044,0.182,0.943,-0.021,0.181,0.944,0.168,-0.008,1.103,-0.123,0.002,1.147,0.218,-0.221,1.265,-0.296,-0.200,1.201,0.274,-0.287,1.010,-0.433,-0.294,0.988,1004.756,723.198,0.943,938.966,722.685,0.944,1104.548,532.971,1.103,857.986,541.631,1.147,1123.910,373.891,1.265,725.864,381.668,1.201,1218.123,269.869,1.010,543.699,256.779,0.988,-0.038,-0.965,1.402,0.000,-7.663,0.000,0.009,-0.006,-0.031,-0.191,-0.695,1.388
0723_083951_0067.png,0.018,0.168,0.949,-0.050,0.170,0.952,0.136,-0.006,1.145,-0.169,-0.013,1.114,0.211,-0.223,1.280,-0.169,-0.255,0.984,0.239,-0.268,1.016,-0.114,-0.345,0.735,978.182,708.826,0.949,910.304,709.785,0.952,1072.814,534.958,1.145,815.441,528.690,1.114,1117.079,374.166,1.280,796.710,293.356,0.984,1183.365,289.114,1.016,812.466,92.889,0.735,-0.036,-0.962,1.401,0.000,-352.835,0.000,-0.033,0.019,-0.029,0.030,-0.709,1.408
0723_083951_0068.png,0.007,0.178,0.925,-0.058,0.182,0.932,0.121,0.005,1.139,-0.170,-0.006,1.092,0.128,-0.225,1.000,-0.282,-0.203,0.945,0.001,-0.341,0.804,-0.337,-0.355,0.740,967.446,723.182,0.925,901.166,725.318,0.932,1061.323,543.842,1.139,811.761,534.673,1.092,1081.785,325.771,1.000,676.673,335.701,0.945,961.341,136.881,0.804,526.949,83.691,0.740,-0.035,-0.969,1.403,0.000,-349.507,0.000,0.005,-0.024,0.015,-0.095,-0.972,1.199
0723_083951_0069.png,0.062,0.161,0.942,-0.003,0.155,0.933,0.178,-0.019,1.086,-0.111,-0.001,1.162,0.089,-0.247,0.959,-0.107,-0.179,0.939,-0.018,-0.355,0.735,-0.105,-0.352,0.722,1023.031,702.074,0.942,956.647,697.969,0.933,1115.621,523.288,1.086,868.983,538.781,1.162,1048.703,294.583,0.959,851.187,358.824,0.939,936.125,80.864,0.735,821.322,76.364,0.722,-0.034,-0.962,1.401,0.000,-14.038,0.000,-0.008,0.011,-0.028,0.096,-0.951,1.609
0723_083951_0070.png,0.044,0.175,0.940,-0.021,0.171,0.931,0.155,-0.008,1.104,-0.136,0.002,1.145,0.264,-0.235,0.995,-0.209,-0.263,1.119,0.309,-0.355,0.757,-0.168,-0.328,0.861,1004.553,717.009,0.940,938.807,714.523,0.931,1093.769,533.251,1.104,846.713,541.371,1.145,1212.205,315.144,0.995,782.334,316.889,1.119,1348.369,94.638,0.757,774.536,177.557,0.861,-0.027,-0.964,1.402,0.000,-7.088,0.000,0.008,-0.014,-0.026,0.214,-0.974,1.298
0723_083951_0071.png,0.041,0.160,0.925,-0.023,0.157,0.926,0.165,-0.020,1.082,-0.114,-0.003,1.152,0.117,-0.218,0.903,-0.238,-0.241,1.200,0.019,-0.372,0.711,-0.225,-0.309,0.947,1002.110,703.931,0.925,936.278,701.581,0.926,1105.508,522.819,1.082,865.782,537.219,1.152,1083.085,310.347,0.903,771.027,349.132,1.200,985.581,43.284,0.711,733.746,230.082,0.947,-0.030,-0.958,1.400,0.000,-13.308,0.000,0.028,-0.021,0.004,-0.256,-1.109,1.524
0723_083951_0072.png,0.010,0.174,0.921,-0.055,0.177,0.926,0.127,0.003,1.123,-0.167,-0.003,1.098,0.080,-0.173,0.929,-0.275,-0.210,1.241,0.032,-0.344,0.740,-0.409,-0.280,1.035,970.244,719.739,0.921,903.503,721.258,0.926,1067.269,542.210,1.123,815.676,537.346,1.098,1041.752,362.518,0.929,749.054,379.026,1.241,1000.608,97.425,0.740,584.229,283.163,1.035,-0.029,-0.974,1.404,0.000,-353.891,0.000,0.008,-0.017,0.046,-0.099,-1.048,1.311
0723_083951_0073.png,0.040,0.179,0.928,-0.027,0.178,0.928,0.162,-0.002,1.107,-0.142,0.003,1.127,0.255,-0.230,1.234,-0.304,-0.211,1.072,0.150,-0.281,0.998,-0.313,-0.322,0.836,1001.194,723.337,0.928,931.951,722.822,0.928,1099.161,538.553,1.107,840.063,542.562,1.127,1156.734,362.940,1.234,690.619,352.777,1.072,1102.419,272.019,0.998,603.748,173.404,0.836,-0.038,-0.970,1.403,0.000,-2.791,0.000,-0.027,-0.024,0.008,-0.018,-0.941,1.444
0723_083951_0074.png,0.017,0.175,0.926,-0.049,0.177,0.930,0.131,0.011,1.139,-0.164,0.005,1.111,0.174,-0.256,1.072,-0.300,-0.212,1.214,0.166,-0.346,0.814,-0.219,-0.302,0.968,977.252,719.224,0.926,910.126,721.200,0.930,1069.368,549.433,1.139,819.515,544.266,1.111,1114.542,312.570,1.072,725.204,373.530,1.214,1154.066,136.187,0.814,744.517,243.226,0.968,-0.035,-0.972,1.403,0.000,-353.373,0.000,0.002,-0.026,-0.039,-0.024,-1.210,1.296
0723_083951_0075.png,0.016,0.164,0.935,-0.051,0.165,0.937,0.137,-0.010,1.125,-0.167,-0.011,1.119,0.184,-0.197,1.314,-0.239,-0.262,1.050,0.234,-0.259,1.064,-0.053,-0.316,0.868,976.585,706.608,0.935,908.180,707.139,0.937,1075.636,531.888,1.125,817.771,530.763,1.119,1092.965,397.115,1.314,743.990,302.493,1.050,1169.034,308.938,1.064,901.987,194.041,0.868,-0.025,-0.962,1.401,0.000,-357.755,0.000,-0.025,-0.001,0.007,-0.040,-0.966,1.327
0723_083951_0076.png,0.028,0.168,0.927,-0.037,0.168,0.927,0.142,-0.002,1.117,-0.154,-0.003,1.110,0.154,-0.249,1.027,-0.195,-0.210,0.954,-0.018,-0.324,0.850,-0.191,-0.349,0.741,989.161,711.997,0.927,921.873,712.219,0.927,1081.162,538.643,1.117,828.511,537.331,1.110,1102.990,308.887,1.027,765.177,330.645,0.954,939.450,177.964,0.850,714.302,92.212,0.741,-0.035,-0.973,1.404,0.000,-357.511,0.000,0.003,-0.001,0.038,0.066,-1.070,1.390
0723_083951_0077.png,0.010,0.172,0.923,-0.054,0.174,0.925,0.112,0.003,1.138,-0.173,-0.008,1.093,0.074,-0.172,0.930,-0.290,-0.255,1.105,0.038,-0.343,0.728,-0.143,-0.328,0.904,969.931,717.545,0.923,904.328,719.144,0.925,1053.182,542.097,1.138,809.949,533.241,1.093,1035.776,364.339,0.930,710.829,320.285,1.105,1010.192,92.013,0.728,810.073,194.868,0.904,-0.028,-0.965,1.402,0.000,-349.648,0.000,0.031,-0.033,0.013,0.148,-0.960,1.674
0723_083951_0078.png,0.015,0.168,0.938,-0.052,0.171,0.943,0.130,0.000,1.148,-0.169,-0.011,1.102,0.081,-0.177,0.937,-0.161,-0.241,0.953,0.032,-0.348,0.731,-0.107,-0.357,0.717,975.051,710.218,0.938,907.687,712.199,0.943,1067.761,539.753,1.148,814.328,530.599,1.102,1041.714,360.624,0.937,799.213,299.592,0.953,1002.037,87.057,0.731,818.705,66.138,0.717,-0.040,-0.966,1.402,0.000,-349.835,0.000,-0.019,0.006,-0.018,-0.006,-0.785,1.698
0723_083951_0079.png,0.034,0.166,0.927,-0.032,0.163,0.924,0.150,-0.008,1.112,-0.147,-0.003,1.135,0.202,-0.275,1.050,-0.289,-0.201,1.270,0.031,-0.335,0.853,-0.417,-0.282,1.048,995.127,709.905,0.927,927.362,708.197,0.924,1088.262,532.788,1.112,836.722,537.504,1.135,1143.359,290.938,1.050,743.822,389.237,1.270,994.992,166.546,0.853,581.927,284.604,1.048,-0.028,-0.957,1.400,0.000,-3.511,0.000,-0.004,-0.041,-0.020,0.102,-1.239,1.325
0723_083951_0080.png,0.018,0.165,0.948,-0.049,0.166,0.951,0.133,-0.006,1.142,-0.166,-0.010,1.122,0.169,-0.259,1.040,-0.249,-0.186,0.917,-0.013,-0.325,0.852,-0.332,-0.356,0.717,977.982,705.388,0.948,911.307,706.194,0.951,1071.149,535.208,1.142,818.915,531.247,1.122,1114.100,303.414,1.040,701.234,347.169,0.917,945.599,177.097,0.852,519.377,67.360,0.717,-0.031,-0.963,1.401,0.000,-354.934,0.000,-0.012,0.021,-0.040,0.035,-0.894,1.146
0723_083951_0081.png,0.002,0.170,0.930,-0.061,0.175,0.942,0.117,0.000,1.145,-0.168,-0.014,1.084,0.268,-0.192,1.043,-0.162,-0.200,0.895,0.381,-0.321,0.852,-0.112,-0.365,0.703,961.877,713.904,0.930,897.926,716.571,0.942,1056.971,539.853,1.145,812.334,527.598,1.084,1204.774,365.007,1.043,787.953,327.119,0.895,1385.027,180.989,0.852,808.869,46.276,0.703,-0.040,-0.969,1.403,0.000,-346.496,0.000,0.017,0.005,0.028,-0.213,-0.852,1.262
0723_083951_0082.png,0.026,0.188,0.927,-0.037,0.189,0.930,0.144,0.006,1.115,-0.143,0.007,1.120,0.136,-0.244,1.004,-0.191,-0.261,1.081,-0.014,-0.351,0.819,-0.150,-0.344,0.834,986.849,732.579,0.927,921.792,732.936,0.930,1082.538,545.082,1.115,838.361,546.114,1.120,1088.429,309.072,1.004,791.815,310.355,1.081,943.445,132.101,0.819,788.644,147.464,0.834,-0.035,-0.973,1.404,0.000,0.064,0.000,0.033,-0.032,-0.002,-0.120,-0.868,1.480
0723_083951_0083.png,0.002,0.179,0.945,-0.064,0.181,0.952,0.112,0.002,1.158,-0.181,-0.013,1.096,0.234,-0.215,1.266,-0.169,-0.241,0.936,0.391,-0.272,1.052,-0.133,-0.369,0.697,961.954,719.751,0.945,895.836,721.228,0.952,1051.702,541.329,1.158,802.939,528.982,1.096,1136.098,378.839,1.266,788.200,294.786,0.936,1313.837,294.296,1.052,778.368,36.163,0.697,-0.034,-0.963,1.402,0.000,-346.510,0.000,-0.009,0.002,-0.039,0.041,-0.634,1.380
0723_083951_0084.png,0.020,0.145,0.945,-0.046,0.145,0.945,0.134,-0.013,1.137,-0.162,-0.015,1.129,0.143,-0.280,1.118,-0.157,-0.228,0.950,0.093,-0.323,0.856,-0.091,-0.362,0.722,980.107,685.683,0.945,914.180,686.055,0.945,1071.820,528.911,1.137,823.863,527.383,1.129,1081.980,301.616,1.118,802.545,311.399,0.950,1063.235,181.420,0.856,840.670,62.722,0.722,-0.028,-0.959,1.400,0.000,-357.334,0.000,0.005,0.031,-0.036,0.053,-1.079,1.548
0723_083951_0085.png,-0.001,0.156,0.936,-0.068,0.158,0.938,0.104,0.002,1.153,-0.190,-0.013,1.089,0.172,-0.202,0.990,-0.237,-0.240,1.211,0.159,-0.339,0.765,-0.220,-0.284,0.953,958.766,698.030,0.936,891.285,700.621,0.938,1045.774,541.648,1.153,794.150,529.062,1.089,1125.276,346.248,0.990,773.453,351.561,1.211,1158.279,118.794,0.765,740.104,256.267,0.953,-0.024,-0.972,1.404,0.000,-346.386,0.000,-0.014,0.032,0.002,0.174,-1.120,1.300
0723_083951_0086.png,0.031,0.168,0.936,-0.035,0.166,0.933,0.145,-0.004,1.117,-0.152,-0.001,1.129,0.219,-0.247,1.022,-0.249,-0.231,1.023,0.233,-0.344,0.775,-0.173,-0.341,0.795,991.550,710.139,0.936,924.752,709.198,0.933,1083.302,536.447,1.117,832.384,538.936,1.129,1164.123,310.111,1.022,728.397,325.146,1.023,1245.526,118.441,0.775,752.398,131.861,0.795,-0.028,-0.969,1.403,0.000,-1.336,0.000,0.001,0.003,-0.006,0.119,-1.099,1.198
0723_083951_0087.png,0.033,0.166,0.948,-0.033,0.165,0.946,0.150,-0.008,1.118,-0.144,-0.003,1.141,0.259,-0.233,1.204,-0.177,-0.236,0.999,0.313,-0.296,0.947,-0.086,-0.350,0.772,992.918,707.024,0.948,927.314,706.258,0.946,1087.473,533.356,1.118,840.002,537.866,1.141,1164.385,355.923,1.204,791.700,315.177,0.999,1274.261,242.761,0.947,854.001,108.706,0.772,-0.029,-0.968,1.403,0.000,-3.389,0.000,0.008,0.026,-0.031,-0.002,-0.895,1.281
0723_083951_0088.png,0.058,0.181,0.946,-0.007,0.176,0.935,0.171,-0.005,1.092,-0.123,0.009,1.153,0.249,-0.261,1.047,-0.214,-0.241,1.089,0.265,-0.338,0.789,-0.196,-0.327,0.834,1018.642,721.948,0.946,952.558,719.257,0.935,1108.644,535.447,1.092,858.889,547.247,1.153,1186.322,302.738,1.047,773.331,329.871,1.089,1279.124,133.184,0.789,736.893,167.452,0.834,-0.032,-0.973,1.404,0.000,-10.871,0.000,-0.010,0.009,-0.025,0.207,-0.850,1.268
0723_083951_0089.png,0.046,0.175,0.927,-0.021,0.171,0.922,0.165,-0.009,1.082,-0.128,0.006,1.149,0.215,-0.254,0.972,-0.205,-0.248,1.086,0.154,-0.353,0.736,-0.182,-0.328,0.836,1006.669,719.082,0.927,938.621,716.176,0.922,1104.840,531.659,1.082,854.088,544.874,1.149,1170.822,291.687,0.972,780.189,322.393,1.086,1159.386,83.589,0.736,753.166,166.519,0.836,-0.026,-0.967,1.402,0.000,-12.029,0.000,-0.013,-0.025,0.002,0.004,-1.003,1.524
0723_083951_0090.png,0.031,0.163,0.948,-0.037,0.163,0.947,0.148,-0.010,1.126,-0.157,-0.010,1.123,0.064,-0.178,0.930,-0.304,-0.201,1.233,-0.020,-0.341,0.738,-0.435,-0.266,1.014,990.863,703.960,0.948,923.072,703.978,0.947,1085.061,531.871,1.126,827.389,531.149,1.123,1025.178,357.569,0.930,725.614,384.736,1.233,933.968,100.142,0.738,551.912,290.273,1.014,-0.035,-0.968,1.403,0.000,-358.138,0.000,-0.026,0.037,0.005,0.076,-0.809,1.301
0723_083951_0091.png,0.040,0.178,0.941,-0.027,0.178,0.943,0.166,-0.008,1.091,-0.133,0.004,1.144,0.130,-0.196,0.903,-0.093,-0.170,0.936,0.043,-0.351,0.711,-0.052,-0.338,0.733,1000.385,720.375,0.941,932.407,719.846,0.943,1105.127,533.214,1.091,849.701,543.660,1.144,1097.199,333.363,0.903,865.765,367.402,0.936,1016.897,70.069,0.711,892.888,101.177,0.733,-0.031,-0.976,1.404,0.000,-9.137,0.000,-0.024,0.023,0.014,-0.222,-0.680,1.429
0723_083951_0092.png,0.007,0.158,0.943,-0.059,0.158,0.943,0.114,-0.014,1.139,-0.179,-0.024,1.098,0.271,-0.214,1.069,-0.159,-0.233,0.944,0.335,-0.315,0.845,-0.108,-0.350,0.724,966.931,699.173,0.943,900.720,699.820,0.943,1055.282,528.027,1.139,804.683,519.586,1.098,1201.436,349.647,1.069,799.556,305.195,0.944,1337.223,185.433,0.845,817.953,80.519,0.724,-0.023,-0.961,1.401,0.000,-350.826,0.000,0.002,0.028,0.038,0.185,-0.793,1.315
0723_083951_0093.png,-0.001,0.170,0.915,-0.065,0.175,0.921,0.098,0.014,1.146,-0.181,-0.001,1.080,0.251,-0.203,1.097,-0.281,-0.221,1.216,0.350,-0.325,0.889,-0.379,-0.306,0.991,958.653,716.499,0.915,893.050,720.554,0.921,1041.292,551.839,1.146,800.354,539.103,1.080,1177.315,363.977,1.097,740.537,366.760,1.216,1334.925,191.785,0.889,596.259,246.565,0.991,-0.028,-0.975,1.404,0.000,-345.092,0.000,0.032,-0.031,0.007,0.073,-1.220,1.560
0723_083951_0094.png,0.010,0.168,0.944,-0.056,0.169,0.947,0.129,-0.005,1.134,-0.172,-0.008,1.123,0.273,-0.217,1.039,-0.284,-0.221,1.241,0.349,-0.331,0.806,-0.361,-0.283,0.990,970.570,708.868,0.944,903.666,709.517,0.947,1067.876,535.694,1.134,814.606,533.540,1.123,1210.378,341.143,1.039,742.643,370.792,1.241,1371.770,148.988,0.806,613.278,268.438,0.990,-0.022,-0.965,1.402,0.000,-356.703,0.000,-0.012,0.014,-0.026,-0.027,-0.801,1.524
0723_083951_0095.png,-0.001,0.173,0.933,-0.067,0.177,0.941,0.110,0.005,1.153,-0.182,-0.008,1.095,0.250,-0.202,1.034,-0.166,-0.266,0.998,0.341,-0.335,0.817,-0.106,-0.355,0.749,958.790,715.826,0.933,892.513,718.534,0.941,1050.307,544.052,1.153,801.873,532.664,1.095,1189.435,354.379,1.034,801.963,286.075,0.998,1357.439,149.534,0.817,825.263,89.459,0.749,-0.030,-0.966,1.402,0.000,-347.266,0.000,-0.003,-0.009,-0.029,-0.032,-0.976,1.195
0723_083951_0096.png,0.042,0.163,0.937,-0.024,0.159,0.935,0.165,-0.013,1.092,-0.123,0.003,1.160,0.232,-0.243,1.217,-0.264,-0.208,1.044,0.291,-0.299,0.958,-0.326,-0.339,0.811,1002.970,704.960,0.937,936.080,702.052,0.935,1103.847,528.644,1.092,858.978,542.092,1.160,1141.204,350.369,1.217,719.257,350.939,1.044,1248.327,242.828,0.958,578.025,142.467,0.811,-0.025,-0.963,1.401,0.000,-12.400,0.000,0.001,0.002,-0.043,-0.143,-1.129,1.299
0723_083951_0097.png,0.055,0.167,0.932,-0.011,0.162,0.926,0.175,-0.011,1.084,-0.114,0.007,1.161,0.167,-0.283,1.026,-0.269,-0.204,1.246,-0.008,-0.340,0.825,-0.398,-0.285,1.019,1015.956,710.537,0.932,948.255,706.268,0.926,1113.711,530.331,1.084,866.787,545.533,1.161,1114.711,277.780,1.026,754.454,384.712,1.246,951.118,147.902,0.825,588.259,274.352,1.019,-0.031,-0.964,1.402,0.000,-14.184,0.000,-0.010,-0.018,-0.042,-0.018,-1.115,1.551
0723_083951_0098.png,0.041,0.160,0.935,-0.023,0.156,0.930,0.156,-0.010,1.099,-0.132,0.002,1.147,0.139,-0.254,0.979,-0.142,-0.226,0.996,-0.017,-0.349,0.786,-0.104,-0.352,0.764,1001.667,702.478,0.935,936.034,699.315,0.930,1094.627,531.747,1.099,850.805,541.390,1.147,1094.896,293.205,0.979,823.937,324.306,0.996,939.714,118.038,0.786,830.817,101.919,0.764,-0.026,-0.968,1.403,0.000,-8.712,0.000,0.018,0.008,-0.015,0.074,-1.091,1.654
0723_083951_0099.png,0.032,0.147,0.934,-0.035,0.147,0.937,0.158,-0.017,1.098,-0.139,-0.008,1.139,0.275,-0.254,1.089,-0.236,-0.251,1.156,0.169,-0.309,0.862,-0.210,-0.296,0.905,992.403,690.010,0.934,924.722,689.202,0.937,1097.141,525.160,1.098,843.710,533.724,1.139,1199.878,318.558,1.089,765.467,333.545,1.156,1146.974,199.384,0.862,739.354,228.647,0.905,-0.028,-0.969,1.403,0.000,-7.031,0.000,-0.013,0.037,0.029,-0.202,-1.062,1.640
0723_083951_0100.png,0.049,0.172,0.926,-0.015,0.167,0.917,0.160,-0.014,1.078,-0.125,0.001,1.142,0.147,-0.266,0.989,-0.250,-0.181,0.997,-0.017,-0.342,0.808,-0.327,-0.337,0.809,1010.400,717.053,0.926,944.814,713.678,0.917,1100.971,527.635,1.078,856.290,540.475,1.142,1100.902,284.138,0.989,721.023,367.282,0.997,939.843,136.959,0.808,575.236,143.391,0.809,-0.027,-0.965,1.402,0.000,-11.732,0.000,0.018,-0.030,0.035,0.174,-0.974,1.629
0723_083951_0101.png,0.040,0.166,0.937,-0.027,0.165,0.936,0.164,-0.017,1.101,-0.135,-0.006,1.148,0.128,-0.240,0.944,-0.208,-0.262,1.080,0.073,-0.358,0.709,-0.177,-0.330,0.822,1000.994,708.733,0.937,932.788,707.435,0.936,1101.805,525.639,1.101,847.967,535.141,1.148,1088.889,298.181,0.944,777.137,309.149,1.080,1057.762,58.986,0.709,755.645,157.753,0.822,-0.030,-0.957,1.400,0.000,-7.946,0.000,-0.021,-0.012,-0.019,-0.101,-0.942,1.342
0723_083951_0102.png,0.034,0.182,0.929,-0.030,0.180,0.926,0.150,-0.004,1.101,-0.138,0.004,1.134,0.172,-0.273,1.170,-0.276,-0.210,1.041,0.158,-0.322,0.911,-0.294,-0.344,0.815,994.919,726.286,0.929,929.011,725.163,0.926,1089.867,536.944,1.101,844.452,543.391,1.134,1099.839,318.160,1.170,707.955,348.242,1.041,1124.533,203.366,0.911,616.472,138.685,0.815,-0.029,-0.967,1.402,0.000,-5.528,0.000,0.023,-0.034,0.001,-0.009,-1.024,1.116
0723_083951_0103.png,0.045,0.163,0.940,-0.023,0.160,0.934,0.160,-0.009,1.106,-0.145,-0.002,1.137,0.184,-0.255,1.003,-0.268,-0.236,1.091,0.027,-0.324,0.802,-0.097,-0.302,0.897,1005.142,704.492,0.940,936.739,702.416,0.934,1097.495,532.127,1.106,838.810,538.342,1.137,1134.294,298.481,1.003,726.273,334.118,1.091,992.345,155.502,0.802,857.208,220.053,0.897,-0.031,-0.971,1.403,0.000,-4.826,0.000,-0.032,0.022,0.007,0.191,-1.064,1.276
0723_083951_0104.png,0.007,0.167,0.920,-0.059,0.172,0.928,0.128,0.008,1.139,-0.171,0.000,1.101,0.247,-0.240,1.169,-0.262,-0.260,1.132,0.099,-0.300,0.954,-0.273,-0.321,0.873,967.687,712.200,0.920,899.838,715.766,0.928,1067.273,547.034,1.139,812.508,539.818,1.101,1161.164,345.081,1.169,740.261,321.696,1.132,1058.977,241.380,0.954,662.430,190.391,0.873,-0.034,-0.970,1.403,0.000,-351.487,0.000,-0.016,-0.027,-0.012,-0.174,-1.185,1.602
0723_083951_0105.png,0.013,0.150,0.934,-0.052,0.153,0.939,0.131,-0.002,1.133,-0.161,-0.005,1.117,0.151,-0.246,1.024,-0.192,-0.259,1.039,-0.015,-0.330,0.838,-0.150,-0.340,0.790,972.898,692.777,0.934,907.481,694.845,0.939,1069.653,538.723,1.133,822.751,535.642,1.117,1099.898,311.200,1.024,784.257,302.927,1.039,943.294,165.013,0.838,779.802,131.362,0.790,-0.030,-0.973,1.404,0.000,-355.676,0.000,0.016,0.032,-0.007,-0.130,-1.216,1.493
0723_083951_0106.png,0.037,0.160,0.926,-0.029,0.157,0.925,0.159,-0.014,1.085,-0.134,0.000,1.143,0.169,-0.281,1.064,-0.123,-0.202,0.971,0.145,-0.328,0.812,-0.051,-0.341,0.764,998.017,703.932,0.926,929.959,701.505,0.925,1099.734,527.729,1.085,848.352,539.661,1.143,1110.784,288.673,1.064,839.891,342.370,0.971,1130.133,155.691,0.812,896.861,116.211,0.764,-0.024,-0.968,1.403,0.000,-10.502,0.000,-0.010,0.000,0.027,-0.105,-1.188,1.372
0723_083951_0107.png,0.011,0.182,0.931,-0.056,0.185,0.937,0.131,0.000,1.136,-0.173,-0.010,1.093,0.132,-0.230,1.003,-0.324,-0.238,1.075,-0.024,-0.325,0.813,-0.377,-0.316,0.835,971.391,726.384,0.931,902.920,727.390,0.937,1069.547,540.029,1.136,809.812,531.435,1.093,1084.650,322.044,1.003,673.010,329.784,1.075,932.435,159.631,0.813,531.030,179.572,0.835,-0.035,-0.967,1.403,0.000,-350.559,0.000,-0.033,-0.017,0.030,-0.061,-0.684,1.429
0723_083951_0108.png,-0.001,0.147,0.932,-0.066,0.150,0.936,0.110,-0.007,1.145,-0.183,-0.019,1.096,0.079,-0.177,0.932,-0.241,-0.178,1.300,0.048,-0.341,0.725,-0.308,-0.260,1.063,959.183,689.977,0.932,892.465,692.759,0.936,1051.230,533.783,1.145,800.752,523.763,1.096,1040.707,359.942,0.932,783.600,409.865,1.300,1022.968,93.407,0.725,684.224,307.217,1.063,-0.024,-0.964,1.402,0.000,-349.132,0.000,-0.002,0.020,0.018,0.025,-1.235,1.241
0723_083951_0109.png,0.032,0.179,0.929,-0.033,0.178,0.929,0.155,-0.006,1.097,-0.135,0.005,1.142,0.174,-0.269,1.184,-0.248,-0.217,1.028,0.163,-0.316,0.922,-0.208,-0.346,0.800,992.922,722.992,0.929,926.405,721.881,0.929,1094.157,535.219,1.097,847.862,544.046,1.142,1099.970,324.129,1.184,730.779,339.596,1.028,1127.942,213.829,0.922,712.481,128.370,0.800,-0.026,-0.966,1.402,0.000,-7.920,0.000,0.013,-0.028,-0.009,-0.176,-1.026,1.196
0723_083951_0110.png,0.044,0.165,0.927,-0.021,0.162,0.925,0.165,-0.012,1.094,-0.124,0.000,1.148,0.277,-0.259,1.155,-0.285,-0.213,1.086,0.331,-0.321,0.901,-0.271,-0.334,0.848,1005.547,709.172,0.927,938.555,706.734,0.925,1103.700,529.146,1.094,857.313,539.860,1.148,1188.281,327.036,1.155,710.375,353.323,1.086,1309.901,201.253,0.901,655.934,165.581,0.848,-0.033,-0.959,1.401,0.000,-9.595,0.000,0.008,-0.031,-0.016,-0.065,-1.092,1.614
0723_083951_0111.png,0.019,0.167,0.929,-0.048,0.169,0.932,0.138,0.009,1.136,-0.165,0.004,1.114,0.220,-0.251,1.107,-0.307,-0.179,1.258,0.045,-0.308,0.910,-0.366,-0.278,1.013,979.931,710.851,0.929,911.350,712.579,0.932,1075.420,547.604,1.136,819.205,543.493,1.114,1148.949,324.572,1.107,728.056,404.983,1.258,1006.885,218.238,0.910,616.244,279.376,1.013,-0.035,-0.975,1.404,0.000,-354.619,0.000,-0.022,-0.003,-0.028,-0.029,-1.277,1.266
0723_083951_0112.png,0.038,0.160,0.944,-0.027,0.160,0.945,0.157,-0.013,1.113,-0.135,-0.007,1.136,0.283,-0.241,1.150,-0.279,-0.215,1.213,0.342,-0.306,0.903,-0.368,-0.289,0.978,997.804,701.152,0.944,932.390,700.810,0.945,1094.081,529.180,1.113,846.929,533.798,1.136,1194.248,340.677,1.150,741.710,371.751,1.213,1320.209,217.609,0.903,601.791,258.807,0.978,-0.038,-0.967,1.402,0.000,-3.423,0.000,0.013,0.032,-0.001,-0.095,-0.920,1.303
0723_083951_0113.png,0.019,0.167,0.931,-0.045,0.169,0.936,0.136,0.004,1.132,-0.155,0.001,1.119,0.221,-0.235,1.227,-0.127,-0.186,0.910,0.244,-0.300,0.966,-0.101,-0.368,0.707,979.556,710.560,0.931,913.902,712.060,0.936,1074.488,543.213,1.132,827.996,540.744,1.119,1130.893,357.644,1.227,827.683,345.987,0.910,1200.047,244.273,0.966,823.529,44.295,0.707,-0.035,-0.971,1.403,0.000,-356.242,0.000,0.017,-0.003,-0.026,-0.102,-1.090,1.482
0723_083951_0114.png,0.012,0.177,0.919,-0.054,0.179,0.922,0.125,0.006,1.126,-0.170,-0.001,1.098,0.073,-0.169,0.927,-0.284,-0.251,1.113,0.021,-0.340,0.732,-0.153,-0.316,0.901,972.306,723.074,0.919,904.756,724.448,0.922,1065.321,544.949,1.126,813.101,539.510,1.098,1035.166,366.061,0.927,717.697,325.909,1.113,987.495,98.164,0.732,798.294,206.624,0.901,-0.028,-0.972,1.403,0.000,-353.259,0.000,0.004,-0.034,0.029,0.017,-1.056,1.486
0723_083951_0115.png,0.045,0.179,0.935,-0.018,0.177,0.931,0.158,-0.004,1.102,-0.127,0.004,1.135,0.248,-0.198,1.269,-0.117,-0.177,0.926,0.326,-0.288,1.037,-0.109,-0.353,0.723,1005.780,721.626,0.935,941.222,720.318,0.931,1096.186,536.440,1.102,853.913,542.965,1.135,1145.596,391.686,1.269,840.039,358.643,0.926,1258.923,275.659,1.037,816.629,75.286,0.723,-0.037,-0.971,1.403,0.000,-5.686,0.000,0.035,-0.008,0.005,0.065,-0.944,1.207
0723_083951_0116.png,0.000,0.183,0.932,-0.065,0.186,0.939,0.107,0.009,1.151,-0.182,-0.006,1.086,0.063,-0.175,0.950,-0.303,-0.224,1.198,0.021,-0.355,0.754,-0.209,-0.300,0.961,959.953,726.801,0.932,893.807,728.718,0.939,1047.991,547.426,1.151,800.937,534.852,1.086,1023.034,364.910,0.950,719.391,362.332,1.198,986.791,92.590,0.754,752.887,243.606,0.961,-0.031,-0.971,1.403,0.000,-345.857,0.000,0.004,-0.014,-0.010,0.051,-0.792,1.349
0723_083951_0117.png,0.028,0.166,0.937,-0.041,0.166,0.934,0.140,0.000,1.132,-0.169,-0.006,1.107,0.184,-0.195,1.310,-0.274,-0.199,0.950,0.239,-0.250,1.062,-0.318,-0.339,0.732,988.161,708.639,0.937,918.336,708.833,0.934,1077.590,539.665,1.132,814.942,534.830,1.107,1093.657,398.751,1.310,685.367,340.287,0.950,1173.838,316.360,1.062,547.475,100.023,0.732,-0.034,-0.972,1.404,0.000,-354.182,0.000,-0.044,0.014,0.013,0.238,-0.992,1.420
0723_083951_0118.png,0.039,0.159,0.936,-0.027,0.155,0.933,0.159,-0.011,1.105,-0.136,0.000,1.152,0.294,-0.246,1.131,-0.273,-0.235,1.102,0.357,-0.319,0.876,-0.128,-0.320,0.891,999.269,701.150,0.936,932.051,698.508,0.933,1096.483,530.410,1.105,847.961,539.744,1.152,1207.372,333.386,1.131,724.179,337.681,1.102,1347.631,194.072,0.876,823.456,198.084,0.891,-0.026,-0.961,1.401,0.000,-8.161,0.000,-0.004,-0.004,-0.044,-0.009,-1.162,1.484
0723_083951_0119.png,0.022,0.160,0.936,-0.044,0.160,0.934,0.133,-0.012,1.121,-0.162,-0.013,1.116,0.248,-0.236,1.214,-0.256,-0.247,1.034,0.156,-0.286,0.980,-0.139,-0.330,0.821,982.067,702.950,0.936,915.391,702.731,0.934,1073.031,529.719,1.121,821.542,528.809,1.116,1154.237,355.335,1.214,724.466,312.556,1.034,1111.648,262.658,0.980,799.466,158.009,0.821,-0.025,-0.964,1.402,0.000,-357.946,0.000,0.004,0.008,0.031,0.139,-1.009,1.264
0723_083951_0120.png,0.055,0.189,0.931,-0.010,0.185,0.923,0.170,-0.002,1.089,-0.120,0.012,1.147,0.159,-0.249,0.963,-0.126,-0.172,0.931,0.130,-0.369,0.724,-0.133,-0.352,0.722,1016.073,732.993,0.931,949.389,730.419,0.923,1108.338,538.276,1.089,860.638,549.556,1.147,1116.973,293.761,0.963,831.289,364.416,0.931,1130.346,55.778,0.724,784.289,76.519,0.722,-0.035,-0.968,1.403,0.000,-10.584,0.000,0.003,-0.042,-0.021,0.120,-0.980,1.238
0723_083951_0121.png,0.020,0.162,0.945,-0.046,0.163,0.945,0.128,-0.011,1.141,-0.167,-0.019,1.106,0.056,-0.179,0.934,-0.284,-0.190,1.273,-0.014,-0.343,0.733,-0.420,-0.264,1.062,980.235,703.336,0.945,913.980,703.869,0.945,1066.611,530.916,1.141,816.401,523.898,1.106,1016.986,357.330,0.934,747.920,398.136,1.273,941.296,94.719,0.733,583.392,303.475,1.062,-0.034,-0.961,1.401,0.000,-352.061,0.000,0.000,0.020,0.007,0.191,-0.742,1.511
0723_083951_0122.png,0.008,0.161,0.934,-0.060,0.163,0.933,0.114,0.004,1.147,-0.187,-0.009,1.092,0.243,-0.226,1.092,-0.219,-0.273,1.111,0.138,-0.310,0.864,-0.190,-0.310,0.854,967.746,704.223,0.934,898.702,705.944,0.933,1054.297,542.945,1.147,797.118,532.008,1.092,1171.947,343.286,1.092,772.153,306.190,1.111,1111.564,199.092,0.864,748.289,194.880,0.854,-0.026,-0.973,1.404,0.000,-348.128,0.000,-0.031,0.017,0.007,0.245,-1.086,1.414
0723_083951_0123.png,-0.005,0.158,0.933,-0.068,0.163,0.944,0.104,-0.004,1.153,-0.176,-0.019,1.086,0.267,-0.210,1.193,-0.309,-0.246,1.049,0.189,-0.301,0.962,-0.249,-0.337,0.812,954.748,700.669,0.933,891.374,704.367,0.944,1046.008,536.839,1.153,805.771,523.237,1.086,1172.698,372.864,1.193,680.045,317.045,1.049,1146.544,242.998,0.962,668.578,144.779,0.812,-0.034,-0.965,1.402,0.000,-345.127,0.000,0.028,0.017,0.009,-0.154,-1.014,1.168
0723_083951_0124.png,0.029,0.160,0.946,-0.035,0.160,0.948,0.150,-0.017,1.104,-0.134,-0.007,1.147,0.117,-0.230,0.939,-0.307,-0.185,1.045,0.070,-0.367,0.715,-0.442,-0.323,0.863,989.120,701.018,0.946,925.145,700.376,0.948,1089.272,525.731,1.104,848.989,534.453,1.147,1078.686,306.885,0.939,680.343,371.885,1.045,1052.921,51.470,0.715,473.308,184.681,0.863,-0.025,-0.965,1.402,0.000,-7.655,0.000,0.032,0.035,-0.009,-0.205,-0.767,1.605
0723_083951_0125.png,0.008,0.173,0.935,-0.060,0.175,0.937,0.118,0.000,1.145,-0.182,-0.014,1.086,0.198,-0.204,1.303,-0.318,-0.247,1.058,0.305,-0.252,1.073,-0.231,-0.317,0.826,968.133,716.241,0.935,899.417,717.471,0.937,1058.363,539.912,1.145,800.435,528.018,1.086,1104.793,390.801,1.303,674.461,318.133,1.058,1230.283,316.691,1.073,694.075,174.837,0.826,-0.032,-0.969,1.403,0.000,-347.430,0.000,-0.033,0.005,0.026,0.153,-0.802,1.278
0723_083951_0126.png,0.044,0.160,0.936,-0.021,0.156,0.929,0.153,-0.009,1.105,-0.138,-0.002,1.135,0.106,-0.222,0.949,-0.308,-0.177,1.241,0.003,-0.353,0.748,-0.317,-0.286,1.005,1004.254,702.046,0.936,938.842,699.424,0.929,1091.509,532.254,1.105,844.697,538.218,1.135,1066.085,317.890,0.949,723.775,404.531,1.241,964.132,90.939,0.748,659.441,269.381,1.005,-0.031,-0.970,1.403,0.000,-4.860,0.000,0.017,0.015,0.011,0.231,-1.141,1.415
0723_083951_0127.png,0.040,0.171,0.940,-0.023,0.169,0.934,0.149,-0.010,1.108,-0.133,-0.004,1.136,0.290,-0.236,1.084,-0.199,-0.245,1.031,0.369,-0.334,0.854,-0.064,-0.345,0.833,1000.385,713.540,0.940,936.640,712.124,0.934,1088.299,531.137,1.108,848.284,536.757,1.136,1214.903,332.685,1.084,776.477,314.334,1.031,1371.208,167.775,0.854,886.595,145.845,0.833,-0.032,-0.964,1.402,0.000,-4.642,0.000,0.042,-0.004,-0.001,0.135,-0.872,1.422
0723_083951_0128.png,0.016,0.180,0.944,-0.049,0.181,0.945,0.125,0.000,1.140,-0.167,-0.007,1.110,0.220,-0.221,1.262,-0.309,-0.211,1.214,0.275,-0.286,1.008,-0.430,-0.291,0.992,976.172,721.683,0.944,910.600,722.223,0.945,1064.063,540.214,1.140,816.608,534.363,1.110,1126.087,373.456,1.262,717.991,374.521,1.214,1219.657,270.322,1.008,547.147,260.514,0.992,-0.031,-0.967,1.402,0.000,-352.862,0.000,0.011,-0.001,-0.018,0.126,-0.674,1.455
0723_083951_0129.png,0.001,0.173,0.924,-0.064,0.177,0.933,0.122,0.000,1.135,-0.173,-0.007,1.105,0.272,-0.230,1.131,-0.308,-0.233,1.033,0.348,-0.317,0.893,-0.360,-0.343,0.799,961.002,717.619,0.924,894.724,720.013,0.933,1062.148,540.256,1.135,810.971,534.333,1.105,1188.689,346.777,1.131,676.170,325.101,1.033,1330.142,203.003,0.893,531.571,131.739,0.799,-0.026,-0.963,1.401,0.000,-352.875,0.000,0.001,-0.033,-0.001,-0.235,-1.072,1.225
0723_083951_0130.png,0.034,0.174,0.943,-0.029,0.173,0.940,0.143,-0.004,1.118,-0.144,-0.003,1.122,0.106,-0.220,0.966,-0.242,-0.179,1.294,-0.016,-0.349,0.778,-0.305,-0.272,1.060,994.749,715.942,0.943,930.617,715.470,0.940,1081.441,536.848,1.118,837.967,537.681,1.122,1064.253,323.847,0.966,782.393,408.487,1.294,940.794,113.018,0.778,686.596,295.933,1.060,-0.035,-0.973,1.404,0.000,0.308,0.000,0.034,0.020,0.015,0.160,-0.787,1.360
0723_083951_0131.png,0.048,0.173,0.934,-0.019,0.169,0.929,0.165,0.000,1.102,-0.135,0.010,1.145,0.224,-0.211,1.263,-0.121,-0.174,0.927,0.348,-0.273,1.031,-0.108,-0.353,0.715,1008.593,715.797,0.934,940.294,713.107,0.929,1102.803,540.109,1.102,848.145,548.471,1.145,1128.948,381.492,1.263,836.081,361.595,0.927,1280.766,288.308,1.031,816.419,70.049,0.715,-0.032,-0.974,1.404,0.000,-7.352,0.000,-0.022,-0.004,-0.029,0.102,-1.045,1.613
0723_083951_0132.png,0.021,0.160,0.937,-0.045,0.162,0.942,0.143,-0.004,1.130,-0.156,-0.005,1.121,0.229,-0.211,1.272,-0.231,-0.254,1.047,0.397,-0.260,1.072,-0.055,-0.320,0.860,981.673,702.362,0.937,914.766,703.664,0.942,1080.800,536.941,1.130,827.792,535.395,1.121,1131.448,382.488,1.272,749.948,309.739,1.047,1312.084,309.645,1.072,899.593,185.710,0.860,-0.035,-0.969,1.403,0.000,-357.292,0.000,-0.009,0.020,-0.011,-0.145,-1.079,1.287
0723_083951_0133.png,0.019,0.192,0.936,-0.045,0.191,0.935,0.128,0.002,1.123,-0.161,0.001,1.117,0.101,-0.181,0.913,-0.312,-0.222,1.084,0.077,-0.360,0.711,-0.322,-0.339,0.846,978.917,734.815,0.936,913.848,734.745,0.935,1068.086,541.668,1.123,822.838,540.657,1.117,1065.147,351.806,0.913,685.894,344.780,1.084,1062.954,57.828,0.711,597.667,159.164,0.846,-0.024,-0.968,1.402,0.000,-357.766,0.000,0.027,-0.031,-0.004,0.126,-0.670,1.455
0723_083951_0134.png,0.002,0.167,0.930,-0.065,0.170,0.934,0.116,-0.002,1.138,-0.182,-0.013,1.093,0.205,-0.209,1.290,-0.170,-0.259,0.996,0.335,-0.259,1.073,-0.056,-0.335,0.779,961.730,710.950,0.930,894.133,712.702,0.934,1056.546,538.052,1.138,801.737,529.081,1.093,1110.896,386.210,1.290,797.317,292.488,0.996,1256.652,310.619,1.073,891.867,131.527,0.779,-0.024,-0.968,1.402,0.000,-350.106,0.000,-0.014,-0.001,0.031,0.006,-1.024,1.116
0723_083951_0135.png,0.001,0.167,0.929,-0.067,0.171,0.937,0.126,0.001,1.140,-0.180,-0.005,1.112,0.156,-0.249,1.024,-0.291,-0.250,1.045,-0.017,-0.330,0.829,-0.313,-0.337,0.788,960.557,710.692,0.929,892.203,713.299,0.937,1064.807,541.189,1.140,806.356,535.811,1.112,1104.693,308.467,1.024,695.405,312.089,1.045,940.910,161.622,0.829,581.814,133.070,0.788,-0.024,-0.964,1.402,0.000,-353.543,0.000,-0.033,-0.020,-0.032,-0.205,-1.084,1.427
0723_083951_0136.png,0.044,0.174,0.935,-0.023,0.173,0.931,0.158,-0.002,1.119,-0.146,0.001,1.129,0.116,-0.267,1.060,-0.232,-0.194,0.950,0.051,-0.332,0.807,-0.253,-0.352,0.733,1004.559,717.386,0.935,936.024,716.338,0.931,1094.324,538.610,1.119,836.867,540.560,1.129,1064.359,300.099,1.060,728.058,346.349,0.950,1020.288,149.106,0.807,631.538,82.923,0.733,-0.039,-0.967,1.402,0.000,-0.761,0.000,-0.025,-0.017,-0.019,0.193,-0.997,1.408
0723_083951_0137.png,0.035,0.168,0.939,-0.031,0.168,0.942,0.159,-0.005,1.111,-0.139,0.001,1.137,0.106,-0.183,0.908,-0.213,-0.243,1.047,0.054,-0.356,0.709,-0.205,-0.335,0.798,995.716,710.008,0.939,928.690,709.772,0.942,1096.400,535.893,1.111,843.973,540.989,1.137,1070.685,348.160,0.908,766.502,319.706,1.047,1031.921,61.778,0.709,715.271,140.618,0.798,-0.036,-0.972,1.404,0.000,-3.946,0.000,-0.008,0.022,-0.011,-0.150,-0.892,1.498
0723_083951_0138.png,0.058,0.148,0.949,-0.007,0.145,0.943,0.174,-0.032,1.086,-0.115,-0.015,1.157,0.275,-0.239,1.205,-0.141,-0.213,0.980,0.353,-0.283,0.960,-0.070,-0.340,0.763,1018.233,688.474,0.949,952.505,685.867,0.943,1112.221,512.178,1.086,865.306,527.315,1.157,1176.895,351.085,1.205,823.170,333.670,0.980,1309.370,259.450,0.960,872.973,116.008,0.763,-0.034,-0.958,1.400,0.000,-12.995,0.000,-0.004,0.046,0.014,0.023,-0.933,1.125
0723_083951_0139.png,0.021,0.138,0.940,-0.045,0.139,0.940,0.133,-0.014,1.135,-0.162,-0.018,1.119,0.213,-0.223,1.269,-0.297,-0.187,1.268,0.240,-0.273,1.013,-0.402,-0.267,1.040,980.796,679.804,0.940,914.488,680.621,0.940,1071.686,528.075,1.135,822.286,524.863,1.119,1119.450,372.469,1.269,737.516,399.619,1.268,1185.013,283.711,1.013,592.732,295.878,1.040,-0.031,-0.962,1.401,0.000,-355.728,0.000,0.004,0.039,0.000,0.068,-1.204,1.487
0723_083951_0140.png,0.012,0.168,0.921,-0.055,0.171,0.923,0.117,0.001,1.145,-0.177,-0.012,1.086,0.261,-0.216,1.066,-0.282,-0.225,1.238,0.301,-0.328,0.834,-0.395,-0.289,1.008,971.887,713.905,0.921,903.370,716.320,0.923,1057.131,541.072,1.145,804.589,529.272,1.086,1192.481,347.054,1.066,743.561,367.435,1.238,1303.919,165.783,0.834,587.724,267.419,1.008,-0.034,-0.961,1.401,0.000,-347.225,0.000,-0.013,-0.043,0.009,0.155,-1.142,1.353
0723_083951_0141.png,0.000,0.164,0.939,-0.064,0.167,0.942,0.101,-0.001,1.153,-0.181,-0.013,1.103,0.250,-0.227,1.148,-0.303,-0.253,1.085,0.140,-0.320,0.924,-0.319,-0.342,0.829,959.529,706.477,0.939,895.224,708.385,0.942,1043.272,538.777,1.153,803.529,528.891,1.103,1166.941,351.837,1.148,694.613,318.139,1.085,1103.680,210.599,0.924,594.132,147.798,0.829,-0.023,-0.962,1.401,0.000,-348.610,0.000,0.033,0.001,-0.035,0.132,-0.930,1.440
0723_083951_0142.png,-0.015,0.166,0.926,-0.082,0.171,0.936,0.106,0.002,1.149,-0.195,-0.014,1.080,0.174,-0.165,0.947,-0.272,-0.200,1.261,0.236,-0.327,0.748,-0.461,-0.253,1.078,944.807,710.438,0.926,877.042,713.922,0.936,1047.589,541.467,1.149,788.330,527.604,1.080,1134.357,373.912,0.947,755.085,389.346,1.261,1259.617,123.698,0.748,552.892,316.733,1.078,-0.023,-0.969,1.403,0.000,-345.590,0.000,-0.041,-0.002,0.025,-0.188,-1.048,1.142
0723_083951_0143.png,0.037,0.159,0.926,-0.027,0.156,0.922,0.150,-0.014,1.094,-0.138,-0.005,1.132,0.198,-0.205,1.282,-0.169,-0.177,0.930,0.324,-0.271,1.070,-0.197,-0.344,0.733,997.734,702.823,0.926,931.655,700.530,0.922,1090.469,527.747,1.094,843.803,535.463,1.132,1106.647,387.916,1.282,787.418,359.346,0.930,1247.516,298.770,1.070,704.700,94.237,0.733,-0.027,-0.965,1.402,0.000,-6.497,0.000,0.020,-0.008,0.042,0.090,-1.143,1.528
0723_083951_0144.png,0.057,0.193,0.932,-0.007,0.189,0.921,0.166,-0.004,1.079,-0.119,0.011,1.142,0.167,-0.273,1.033,-0.132,-0.200,0.978,-0.016,-0.334,0.860,-0.056,-0.350,0.781,1018.249,737.195,0.932,953.142,735.166,0.921,1106.603,536.873,1.079,860.975,549.036,1.142,1113.690,289.056,1.033,831.328,345.397,0.978,942.444,171.129,0.860,891.680,112.984,0.781,-0.033,-0.973,1.404,0.000,-11.527,0.000,0.015,-0.032,0.020,0.233,-0.776,1.403
0723_083951_0145.png,0.000,0.174,0.919,-0.066,0.177,0.922,0.105,0.007,1.141,-0.186,-0.007,1.080,0.212,-0.244,1.166,-0.280,-0.260,1.042,0.246,-0.306,0.921,-0.287,-0.336,0.798,959.660,720.419,0.919,891.870,722.702,0.922,1047.459,545.659,1.141,795.956,533.583,1.080,1132.853,341.341,1.166,704.506,302.454,1.042,1213.763,223.559,0.921,618.391,139.579,0.798,-0.024,-0.971,1.403,0.000,-346.649,0.000,-0.003,-0.029,0.034,0.116,-0.978,1.611
0723_083951_0146.png,0.022,0.167,0.937,-0.045,0.166,0.934,0.135,-0.008,1.121,-0.166,-0.008,1.121,0.291,-0.226,1.083,-0.244,-0.194,1.301,0.360,-0.318,0.847,-0.292,-0.265,1.054,982.223,709.613,0.937,914.443,709.117,0.934,1074.244,533.632,1.121,818.983,533.609,1.121,1215.387,341.587,1.083,781.385,398.219,1.301,1363.641,183.103,0.847,696.215,301.115,1.054,-0.022,-0.965,1.402,0.000,-358.806,0.000,-0.014,-0.001,0.008,0.152,-0.871,1.633
0723_083951_0147.png,0.032,0.169,0.927,-0.033,0.168,0.925,0.142,-0.003,1.116,-0.150,-0.004,1.112,0.131,-0.255,1.031,-0.290,-0.211,1.023,0.092,-0.341,0.795,-0.363,-0.336,0.814,992.612,713.233,0.927,926.221,713.066,0.925,1080.952,537.517,1.116,831.987,536.648,1.112,1081.114,305.063,1.031,690.534,343.823,1.023,1069.620,131.534,0.795,535.586,147.669,0.814,-0.036,-0.970,1.403,0.000,-357.947,0.000,0.018,-0.012,0.035,0.139,-1.135,1.232
0723_083951_0148.png,0.055,0.176,0.938,-0.011,0.171,0.928,0.169,-0.016,1.078,-0.123,0.003,1.159,0.098,-0.261,0.978,-0.164,-0.175,0.949,-0.017,-0.348,0.752,-0.203,-0.348,0.744,1015.845,718.911,0.938,948.594,715.573,0.928,1109.502,526.294,1.078,859.212,542.469,1.159,1055.524,286.168,0.978,795.799,364.446,0.949,938.855,100.750,0.752,700.180,94.496,0.744,-0.024,-0.963,1.401,0.000,-14.647,0.000,-0.023,-0.017,-0.014,0.147,-0.909,1.295
0723_083951_0149.png,0.037,0.183,0.932,-0.031,0.182,0.931,0.162,-0.005,1.093,-0.143,0.006,1.140,0.172,-0.271,1.037,-0.324,-0.201,1.119,-0.007,-0.317,0.847,-0.423,-0.300,0.897,997.943,727.113,0.932,927.988,726.158,0.931,1101.428,535.572,1.093,840.420,544.776,1.140,1118.064,291.344,1.037,684.820,368.855,1.119,951.710,183.556,0.847,511.508,222.442,0.897,-0.027,-0.971,1.403,0.000,-7.797,0.000,-0.043,-0.017,0.009,-0.102,-0.868,1.243
0723_083951_0150.png,0.018,0.150,0.930,-0.049,0.152,0.936,0.146,-0.013,1.121,-0.157,-0.011,1.127,0.218,-0.273,1.093,-0.246,-0.197,0.947,0.032,-0.307,0.904,-0.273,-0.350,0.732,978.695,693.275,0.930,910.620,694.474,0.936,1083.663,529.179,1.121,827.549,530.427,1.127,1149.570,302.450,1.093,712.663,342.610,0.947,994.113,216.751,0.904,604.757,84.817,0.732,-0.029,-0.959,1.401,0.000,-0.019,0.000,-0.020,-0.002,-0.004,-0.223,-1.181,1.503
0723_083951_0151.png,0.025,0.175,0.927,-0.039,0.175,0.926,0.131,0.000,1.132,-0.158,-0.005,1.109,0.270,-0.214,1.037,-0.280,-0.204,1.259,0.362,-0.342,0.825,-0.443,-0.284,1.071,985.751,719.619,0.927,919.846,720.115,0.926,1069.932,539.933,1.132,824.495,535.450,1.109,1207.741,343.768,1.037,748.220,385.763,1.259,1377.630,145.878,0.825,566.529,287.889,1.071,-0.035,-0.962,1.401,0.000,-354.209,0.000,0.024,-0.039,-0.005,0.168,-0.939,1.633
0723_083951_0152.png,0.070,0.170,0.942,0.003,0.164,0.930,0.182,-0.009,1.086,-0.115,0.008,1.159,0.118,-0.249,0.968,-0.171,-0.222,1.016,-0.016,-0.343,0.752,-0.080,-0.336,0.787,1030.225,711.973,0.942,963.054,707.335,0.930,1119.557,532.341,1.086,865.256,546.721,1.159,1075.474,295.329,0.968,800.042,332.721,1.016,939.152,106.664,0.752,863.134,134.308,0.787,-0.036,-0.972,1.403,0.000,-13.084,0.000,-0.034,0.013,-0.030,0.261,-1.005,1.459
0723_083951_0153.png,0.001,0.148,0.936,-0.066,0.153,0.945,0.124,-0.012,1.149,-0.179,-0.023,1.100,0.149,-0.181,0.934,-0.242,-0.257,1.211,0.172,-0.344,0.723,-0.216,-0.282,0.951,961.271,690.283,0.936,893.678,693.574,0.945,1062.633,530.073,1.149,804.880,519.934,1.100,1112.040,355.776,0.934,769.925,338.347,1.211,1185.837,87.094,0.723,743.581,257.930,0.951,-0.032,-0.958,1.400,0.000,-349.455,0.000,-0.036,0.019,0.002,-0.181,-1.083,1.215
0723_083951_0154.png,-0.001,0.160,0.931,-0.067,0.163,0.936,0.105,-0.007,1.152,-0.186,-0.022,1.084,0.182,-0.175,0.950,-0.349,-0.239,1.077,0.256,-0.339,0.753,-0.426,-0.322,0.842,958.836,703.335,0.931,891.900,705.842,0.936,1046.890,534.416,1.152,797.301,520.521,1.084,1142.627,364.800,0.950,651.426,329.236,1.077,1283.833,111.886,0.753,479.116,175.855,0.842,-0.028,-0.958,1.400,0.000,-345.484,0.000,-0.007,-0.006,0.014,0.091,-1.019,1.184
0723_083951_0155.png,0.012,0.159,0.938,-0.054,0.163,0.945,0.128,-0.006,1.142,-0.167,-0.016,1.099,0.198,-0.176,0.945,-0.244,-0.191,1.281,0.264,-0.341,0.753,-0.283,-0.265,1.035,971.986,701.554,0.938,905.762,703.621,0.945,1066.953,534.977,1.142,815.362,526.337,1.099,1158.832,363.030,0.945,778.699,398.513,1.281,1293.156,109.521,0.753,699.893,296.947,1.035,-0.038,-0.967,1.403,0.000,-350.440,0.000,-0.007,0.029,0.017,-0.083,-0.967,1.099
0723_083951_0156.png,0.002,0.165,0.947,-0.064,0.167,0.951,0.110,-0.003,1.151,-0.182,-0.016,1.092,0.240,-0.192,1.277,-0.245,-0.196,1.267,0.337,-0.262,1.047,-0.275,-0.267,1.019,961.765,705.866,0.947,895.983,707.205,0.951,1050.596,537.783,1.151,801.681,525.880,1.092,1138.434,397.381,1.277,775.909,393.130,1.267,1265.882,301.525,1.047,703.009,291.086,1.019,-0.029,-0.971,1.403,0.000,-347.118,0.000,-0.002,0.045,0.012,0.114,-0.680,1.444
0723_083951_0157.png,0.009,0.163,0.945,-0.058,0.165,0.947,0.121,-0.008,1.150,-0.180,-0.018,1.106,0.248,-0.219,1.260,-0.186,-0.274,1.014,0.395,-0.267,1.039,-0.144,-0.344,0.757,969.289,704.322,0.945,901.554,705.505,0.947,1059.715,533.735,1.150,804.900,524.874,1.106,1147.347,374.886,1.260,785.383,282.541,1.014,1321.454,295.576,1.039,778.984,107.452,0.757,-0.029,-0.959,1.400,0.000,-350.375,0.000,-0.025,0.011,-0.025,0.128,-0.793,1.467
0723_083951_0158.png,0.059,0.159,0.954,-0.006,0.157,0.948,0.175,-0.028,1.082,-0.110,-0.010,1.160,0.114,-0.258,0.962,-0.283,-0.203,1.095,-0.016,-0.343,0.753,-0.272,-0.316,0.860,1018.835,698.969,0.954,953.760,697.281,0.948,1113.484,515.164,1.082,869.658,531.599,1.160,1073.025,285.338,0.962,714.532,364.003,1.095,939.362,106.497,0.753,659.502,190.903,0.860,-0.033,-0.962,1.401,0.000,-14.592,0.000,0.004,0.048,0.008,-0.040,-0.641,1.430
0723_083951_0159.png,0.025,0.159,0.935,-0.040,0.160,0.940,0.148,-0.017,1.108,-0.143,-0.013,1.125,0.195,-0.217,0.947,-0.248,-0.235,1.229,0.182,-0.351,0.732,-0.238,-0.286,0.981,985.310,701.825,0.935,919.874,702.254,0.940,1087.028,525.296,1.108,838.804,528.819,1.125,1155.426,321.826,0.947,768.022,358.160,1.229,1196.663,84.222,0.732,729.557,262.652,0.981,-0.032,-0.963,1.402,0.000,-2.252,0.000,0.017,0.016,0.041,-0.246,-0.947,1.198
0723_083951_0160.png,0.037,0.171,0.941,-0.026,0.170,0.939,0.151,-0.013,1.101,-0.128,-0.005,1.140,0.072,-0.187,0.903,-0.224,-0.176,0.947,-0.002,-0.358,0.709,-0.320,-0.344,0.761,997.040,712.825,0.941,933.648,711.895,0.939,1090.658,528.351,1.101,852.807,536.088,1.140,1036.214,342.747,0.903,734.723,362.951,0.947,957.337,59.922,0.709,560.021,109.998,0.761,-0.031,-0.965,1.402,0.000,-6.825,0.000,0.049,0.006,0.007,-0.064,-0.855,1.164
0723_083951_0161.png,-0.001,0.169,0.925,-0.066,0.174,0.932,0.108,0.005,1.150,-0.182,-0.009,1.087,0.191,-0.236,1.255,-0.269,-0.231,0.953,0.202,-0.290,0.995,-0.276,-0.361,0.722,959.180,713.909,0.925,892.527,717.162,0.932,1049.082,544.167,1.150,800.940,531.716,1.087,1104.867,360.967,1.255,691.543,309.932,0.953,1152.655,262.439,0.995,596.644,64.169,0.722,-0.031,-0.966,1.402,0.000,-346.218,0.000,0.000,-0.022,-0.007,-0.008,-0.957,1.669
0723_083951_0162.png,0.007,0.173,0.931,-0.056,0.177,0.939,0.108,0.003,1.150,-0.168,-0.011,1.086,0.107,-0.172,0.936,-0.243,-0.249,0.985,0.108,-0.345,0.728,-0.257,-0.366,0.750,967.128,716.531,0.931,903.593,719.011,0.939,1049.541,542.650,1.150,813.331,529.963,1.086,1068.483,364.724,0.936,724.987,299.687,0.985,1100.950,88.887,0.728,633.878,76.612,0.750,-0.040,-0.967,1.403,0.000,-345.471,0.000,0.045,-0.007,-0.001,0.031,-0.895,1.291
0723_083951_0163.png,0.033,0.145,0.939,-0.032,0.143,0.939,0.154,-0.021,1.103,-0.133,-0.010,1.150,0.236,-0.214,0.930,-0.281,-0.192,1.270,0.265,-0.363,0.710,-0.429,-0.269,1.065,993.070,686.521,0.939,927.779,684.809,0.939,1092.828,522.028,1.103,850.244,531.634,1.150,1201.165,320.838,0.930,749.455,396.599,1.270,1314.600,53.669,0.710,576.808,299.411,1.065,-0.026,-0.960,1.401,0.000,-8.316,0.000,0.021,0.028,-0.012,-0.166,-1.232,1.242
0723_083951_0164.png,0.018,0.171,0.921,-0.048,0.174,0.927,0.138,-0.002,1.130,-0.163,-0.009,1.097,0.248,-0.196,0.984,-0.190,-0.258,1.000,0.304,-0.336,0.777,-0.087,-0.340,0.779,979.082,716.932,0.921,910.587,718.771,0.927,1076.114,538.447,1.130,818.850,531.884,1.097,1199.624,350.694,0.984,779.674,294.298,1.000,1332.086,128.181,0.777,853.408,124.679,0.779,-0.040,-0.964,1.402,0.000,-352.461,0.000,-0.020,-0.032,0.030,-0.090,-1.037,1.329
0723_083951_0165.png,0.034,0.177,0.938,-0.030,0.175,0.937,0.152,-0.008,1.101,-0.131,0.002,1.145,0.067,-0.188,0.899,-0.203,-0.241,1.039,-0.011,-0.364,0.704,-0.062,-0.343,0.844,994.004,719.271,0.938,929.528,718.180,0.937,1090.922,532.664,1.101,850.994,541.402,1.145,1031.358,341.661,0.899,774.200,319.500,1.039,945.102,47.972,0.704,890.568,153.059,0.844,-0.026,-0.965,1.402,0.000,-7.957,0.000,0.036,-0.009,-0.018,-0.098,-0.763,1.642
0723_083951_0166.png,0.011,0.162,0.934,-0.053,0.166,0.944,0.132,-0.008,1.133,-0.158,-0.016,1.102,0.182,-0.177,0.930,-0.248,-0.261,1.059,0.231,-0.341,0.731,-0.078,-0.320,0.876,970.705,705.457,0.934,906.591,707.612,0.944,1070.377,532.928,1.133,823.650,526.565,1.102,1146.408,359.146,0.930,737.281,305.723,1.059,1260.228,96.541,0.731,875.607,192.702,0.876,-0.039,-0.965,1.402,0.000,-352.543,0.000,0.019,0.015,0.031,-0.282,-0.887,1.262
0723_083951_0167.png,-0.009,0.150,0.932,-0.073,0.156,0.942,0.102,-0.006,1.153,-0.183,-0.020,1.088,0.249,-0.217,1.085,-0.185,-0.242,0.938,0.245,-0.325,0.847,-0.150,-0.361,0.708,950.636,693.530,0.932,886.346,697.525,0.942,1043.811,535.226,1.153,800.250,522.088,1.088,1178.286,349.349,1.085,772.458,294.832,0.938,1235.014,175.204,0.847,759.197,55.675,0.708,-0.028,-0.964,1.402,0.000,-345.823,0.000,0.017,0.021,0.009,-0.118,-0.978,1.604
0723_083951_0168.png,0.053,0.163,0.935,-0.014,0.159,0.927,0.166,-0.019,1.090,-0.136,-0.008,1.140,0.202,-0.206,1.283,-0.275,-0.219,1.054,0.344,-0.257,1.068,-0.316,-0.317,0.822,1013.611,705.681,0.935,945.657,702.893,0.927,1104.527,523.097,1.090,846.675,533.495,1.140,1109.413,387.444,1.283,712.257,342.662,1.054,1266.615,311.465,1.068,594.444,173.272,0.822,-0.031,-0.962,1.401,0.000,-8.553,0.000,-0.030,-0.002,0.033,0.250,-0.998,1.352
0723_083951_0169.png,0.008,0.161,0.930,-0.057,0.164,0.934,0.118,0.006,1.147,-0.173,-0.003,1.108,0.109,-0.177,0.923,-0.303,-0.238,1.053,0.103,-0.356,0.706,-0.349,-0.343,0.805,968.446,704.622,0.930,902.107,707.291,0.934,1058.074,544.849,1.147,811.316,537.416,1.108,1072.285,358.055,0.923,685.976,325.337,1.053,1099.201,60.968,0.706,548.063,134.637,0.805,-0.030,-0.968,1.403,0.000,-351.102,0.000,0.009,-0.007,-0.043,0.016,-1.161,1.592
0723_083951_0170.png,0.009,0.168,0.935,-0.056,0.171,0.943,0.126,-0.001,1.141,-0.167,-0.011,1.098,0.283,-0.218,1.147,-0.228,-0.214,0.934,0.386,-0.300,0.922,-0.237,-0.356,0.714,969.420,710.675,0.935,903.731,712.716,0.943,1064.793,539.189,1.141,815.181,530.690,1.098,1194.655,359.502,1.147,728.082,321.718,0.934,1357.957,230.208,0.922,644.829,66.586,0.714,-0.037,-0.970,1.403,0.000,-350.352,0.000,0.002,0.014,0.012,-0.108,-0.822,1.486
0723_083951_0171.png,0.042,0.140,0.943,-0.023,0.140,0.944,0.165,-0.028,1.099,-0.123,-0.016,1.150,0.148,-0.261,0.974,-0.224,-0.242,1.053,-0.009,-0.340,0.780,-0.065,-0.320,0.861,1001.926,681.719,0.943,936.394,680.526,0.944,1103.144,516.177,1.099,858.092,526.889,1.150,1104.381,285.013,0.974,757.989,321.701,1.053,948.843,126.038,0.780,887.884,186.723,0.861,-0.035,-0.959,1.401,0.000,-9.071,0.000,0.012,0.045,0.007,-0.231,-1.082,1.310
0723_083951_0172.png,0.002,0.158,0.917,-0.063,0.162,0.923,0.118,-0.002,1.133,-0.177,-0.011,1.095,0.123,-0.266,1.073,-0.321,-0.242,1.074,0.063,-0.327,0.831,-0.371,-0.328,0.837,962.335,704.084,0.917,894.863,706.982,0.923,1059.159,538.036,1.133,806.477,530.488,1.095,1069.403,304.240,1.073,675.542,326.035,1.074,1032.564,164.998,0.831,538.612,167.275,0.837,-0.025,-0.964,1.402,0.000,-351.396,0.000,-0.002,-0.030,0.031,-0.089,-1.211,1.585
0723_083951_0173.png,0.026,0.156,0.944,-0.039,0.157,0.948,0.147,-0.011,1.123,-0.145,-0.008,1.137,0.141,-0.251,0.991,-0.227,-0.254,1.062,-0.015,-0.344,0.796,-0.224,-0.341,0.806,985.932,697.206,0.944,920.918,697.550,0.948,1084.808,530.266,1.123,839.049,533.168,1.137,1095.573,298.900,0.991,756.342,312.240,1.062,942.265,128.961,0.796,695.439,138.286,0.806,-0.032,-0.964,1.402,0.000,-1.736,0.000,0.015,0.029,-0.027,-0.175,-0.982,1.358
0723_083951_0174.png,-0.002,0.158,0.926,-0.067,0.161,0.930,0.103,-0.003,1.147,-0.185,-0.019,1.078,0.169,-0.231,1.035,-0.273,-0.206,1.250,0.049,-0.327,0.830,-0.340,-0.277,1.014,958.175,701.955,0.926,891.639,704.698,0.930,1045.061,537.212,1.147,797.122,523.078,1.078,1115.228,328.163,1.035,752.244,383.596,1.250,1015.788,164.875,0.830,641.128,280.352,1.014,-0.027,-0.966,1.402,0.000,-345.014,0.000,0.004,0.004,0.042,0.098,-0.963,1.627
0723_083951_0175.png,0.036,0.166,0.937,-0.029,0.165,0.938,0.154,-0.011,1.106,-0.136,-0.005,1.132,0.160,-0.277,1.128,-0.294,-0.215,1.089,0.135,-0.318,0.874,-0.259,-0.324,0.856,996.227,708.059,0.937,930.616,707.526,0.938,1092.564,530.377,1.106,845.531,535.657,1.132,1095.144,306.701,1.128,703.378,352.088,1.089,1107.297,193.410,0.874,671.989,180.533,0.856,-0.035,-0.968,1.403,0.000,-4.116,0.000,0.017,0.014,0.018,-0.085,-0.982,1.134
0723_083951_0176.png,0.054,0.154,0.937,-0.009,0.150,0.930,0.166,-0.026,1.085,-0.117,-0.012,1.146,0.179,-0.186,1.297,-0.276,-0.197,1.249,0.234,-0.269,1.062,-0.458,-0.265,1.083,1014.983,696.554,0.937,950.395,693.550,0.930,1105.484,517.496,1.085,863.154,530.365,1.146,1091.484,403.568,1.297,749.603,389.908,1.249,1169.302,299.227,1.062,557.932,307.344,1.083,-0.034,-0.960,1.401,0.000,-11.352,0.000,0.025,0.014,0.035,0.116,-1.088,1.138
0723_083951_0177.png,0.027,0.190,0.938,-0.038,0.190,0.939,0.144,-0.001,1.124,-0.152,-0.001,1.123,0.224,-0.251,1.037,-0.249,-0.241,1.027,0.237,-0.347,0.786,-0.156,-0.348,0.799,987.678,732.191,0.938,921.173,732.311,0.939,1081.790,539.197,1.124,830.989,539.071,1.123,1165.757,309.956,1.037,729.533,316.550,1.027,1246.233,119.899,0.786,774.686,126.344,0.799,-0.034,-0.964,1.402,0.000,-358.700,0.000,0.002,-0.031,-0.020,0.000,-0.649,1.458
0723_083951_0178.png,0.012,0.172,0.930,-0.053,0.174,0.932,0.115,0.000,1.143,-0.172,-0.013,1.085,0.249,-0.222,1.218,-0.287,-0.252,1.042,0.145,-0.290,0.993,-0.308,-0.337,0.802,972.448,716.040,0.930,906.363,717.505,0.932,1055.520,539.831,1.143,809.433,528.305,1.085,1154.592,366.489,1.218,698.242,310.014,1.042,1098.763,262.074,0.993,594.385,140.195,0.802,-0.035,-0.967,1.402,0.000,-347.257,0.000,0.015,-0.008,0.030,0.187,-0.924,1.215
0723_083951_0179.png,0.040,0.166,0.941,-0.023,0.165,0.941,0.159,-0.008,1.106,-0.125,0.000,1.143,0.249,-0.199,1.267,-0.245,-0.201,1.263,0.339,-0.283,1.033,-0.279,-0.288,1.012,1000.554,707.341,0.941,936.338,706.382,0.941,1096.512,533.034,1.106,855.996,540.345,1.143,1146.814,390.919,1.267,775.338,388.420,1.263,1272.109,279.389,1.033,698.332,269.664,1.012,-0.036,-0.970,1.403,0.000,-6.459,0.000,0.036,0.022,-0.016,-0.118,-0.899,1.542
0723_083951_0180.png,0.002,0.195,0.931,-0.063,0.197,0.937,0.110,0.010,1.143,-0.178,-0.001,1.096,0.154,-0.240,1.032,-0.184,-0.246,0.967,0.014,-0.346,0.835,-0.061,-0.363,0.761,961.748,738.898,0.931,896.282,739.964,0.937,1051.256,547.917,1.143,805.752,538.831,1.096,1101.906,318.770,1.032,778.874,298.320,0.967,975.800,146.170,0.835,884.225,86.560,0.761,-0.027,-0.968,1.403,0.000,-349.249,0.000,0.018,-0.040,-0.016,0.023,-0.726,1.247
0723_083951_0181.png,0.049,0.167,0.922,-0.017,0.163,0.918,0.170,-0.013,1.073,-0.122,0.004,1.148,0.284,-0.263,1.094,-0.256,-0.232,1.172,0.203,-0.319,0.857,-0.277,-0.300,0.924,1010.634,712.698,0.922,942.137,709.176,0.918,1110.357,528.160,1.073,858.841,543.284,1.148,1206.490,311.833,1.094,751.992,351.428,1.172,1185.396,185.792,0.857,675.207,231.321,0.924,-0.028,-0.967,1.402,0.000,-13.677,0.000,-0.016,-0.022,0.027,-0.038,-1.197,1.330
0723_083951_0182.png,0.055,0.192,0.933,-0.012,0.189,0.927,0.173,-0.005,1.091,-0.127,0.007,1.143,0.109,-0.193,0.901,-0.274,-0.204,1.252,0.011,-0.358,0.714,-0.426,-0.274,1.045,1016.391,735.307,0.933,947.912,733.877,0.927,1111.091,535.881,1.091,854.676,546.216,1.143,1074.578,335.909,0.901,752.237,384.721,1.252,974.007,62.889,0.714,572.409,290.240,1.045,-0.037,-0.967,1.402,0.000,-9.120,0.000,-0.027,-0.040,-0.007,0.096,-0.755,1.418
0723_083951_0183.png,0.056,0.175,0.946,-0.006,0.169,0.932,0.162,-0.010,1.088,-0.115,0.006,1.157,0.255,-0.234,1.203,-0.242,-0.233,1.135,0.310,-0.307,0.952,-0.268,-0.328,0.883,1016.643,716.205,0.946,953.827,712.135,0.932,1101.715,531.050,1.088,865.163,544.736,1.157,1161.340,354.638,1.203,757.337,344.576,1.135,1269.929,232.984,0.952,671.264,186.298,0.883,-0.026,-0.968,1.403,0.000,-13.266,0.000,0.035,0.005,-0.029,0.287,-0.885,1.450
0723_083951_0184.png,0.048,0.173,0.924,-0.016,0.167,0.916,0.165,-0.008,1.080,-0.121,0.009,1.153,0.215,-0.228,0.921,-0.280,-0.192,1.257,0.226,-0.373,0.697,-0.418,-0.284,1.047,1009.884,718.202,0.924,942.906,713.578,0.916,1104.870,533.038,1.080,859.870,547.267,1.153,1181.585,304.879,0.921,747.886,394.625,1.257,1269.128,30.260,0.697,580.021,282.313,1.047,-0.025,-0.965,1.402,0.000,-13.459,0.000,0.005,-0.040,-0.016,0.085,-1.256,1.318
0723_083951_0185.png,0.039,0.195,0.931,-0.027,0.194,0.928,0.153,0.001,1.112,-0.148,0.003,1.120,0.226,-0.255,1.044,-0.246,-0.220,1.000,0.230,-0.338,0.795,-0.223,-0.347,0.772,1000.248,739.073,0.931,932.122,738.688,0.928,1091.162,541.223,1.112,834.685,542.856,1.120,1165.643,307.702,1.044,726.002,330.953,1.000,1235.474,135.793,0.795,684.936,112.986,0.772,-0.037,-0.968,1.403,0.000,-0.470,0.000,-0.014,-0.045,0.009,0.166,-0.765,1.232
0723_083951_0186.png,0.004,0.183,0.932,-0.060,0.186,0.940,0.123,0.003,1.133,-0.170,-0.005,1.102,0.245,-0.233,1.082,-0.214,-0.272,1.133,0.172,-0.329,0.851,-0.173,-0.320,0.880,964.424,727.206,0.932,899.092,728.476,0.940,1062.831,542.098,1.133,813.702,536.036,1.102,1175.354,335.283,1.082,780.227,311.562,1.133,1151.816,172.384,0.851,773.252,194.547,0.880,-0.029,-0.970,1.403,0.000,-352.638,0.000,0.010,-0.015,0.011,-0.180,-0.786,1.189
0723_083951_0187.png,0.025,0.144,0.938,-0.042,0.144,0.938,0.144,-0.016,1.125,-0.158,-0.015,1.129,0.268,-0.234,1.218,-0.217,-0.259,1.031,0.357,-0.282,0.974,-0.070,-0.327,0.820,985.241,685.908,0.938,917.225,685.914,0.938,1082.164,526.271,1.125,826.758,527.243,1.129,1169.258,357.627,1.218,759.362,301.062,1.031,1308.525,264.261,0.974,878.783,160.493,0.820,-0.029,-0.959,1.400,0.000,0.253,0.000,-0.020,0.021,-0.005,-0.009,-1.259,1.242
0723_083951_0188.png,0.026,0.175,0.930,-0.039,0.173,0.925,0.134,-0.003,1.123,-0.163,-0.004,1.119,0.106,-0.224,0.964,-0.303,-0.217,1.231,-0.006,-0.354,0.762,-0.439,-0.289,1.015,986.868,718.420,0.930,919.446,717.640,0.925,1073.546,537.496,1.123,821.020,536.679,1.119,1064.251,319.163,0.964,725.897,372.579,1.231,952.545,98.055,0.762,548.991,269.433,1.015,-0.025,-0.962,1.401,0.000,-358.010,0.000,-0.002,-0.037,-0.006,0.262,-1.002,1.487
0723_083951_0189.png,0.008,0.161,0.931,-0.057,0.165,0.940,0.124,-0.003,1.143,-0.167,-0.013,1.103,0.212,-0.248,1.061,-0.285,-0.254,1.069,0.083,-0.330,0.846,-0.149,-0.329,0.855,967.712,704.294,0.931,902.301,707.195,0.940,1063.417,537.115,1.143,816.045,529.210,1.103,1149.864,318.105,1.061,706.442,314.000,1.069,1053.373,168.791,0.846,794.579,173.373,0.855,-0.035,-0.962,1.401,0.000,-350.929,0.000,0.009,-0.004,-0.009,-0.172,-1.110,1.181
0723_083951_0190.png,0.047,0.145,0.931,-0.020,0.140,0.926,0.166,-0.024,1.078,-0.130,-0.007,1.152,0.130,-0.271,0.993,-0.193,-0.256,1.094,0.024,-0.331,0.768,-0.131,-0.307,0.848,1008.167,687.945,0.931,939.728,683.597,0.926,1106.297,518.587,1.078,852.364,534.133,1.152,1084.427,280.940,0.993,792.440,317.348,1.094,989.739,130.538,0.768,813.130,195.901,0.848,-0.023,-0.964,1.402,0.000,-13.330,0.000,-0.030,0.023,0.032,0.036,-1.238,1.471
0723_083951_0191.png,0.026,0.164,0.938,-0.039,0.164,0.938,0.134,-0.011,1.131,-0.158,-0.017,1.104,0.087,-0.223,0.983,-0.170,-0.239,0.963,-0.019,-0.340,0.781,-0.080,-0.348,0.751,986.625,706.220,0.938,920.570,706.630,0.938,1072.733,530.620,1.131,823.488,524.973,1.104,1044.459,324.165,0.983,791.783,304.194,0.963,936.747,126.037,0.781,858.647,99.470,0.751,-0.038,-0.963,1.401,0.000,-353.350,0.000,0.010,0.010,0.034,0.182,-0.843,1.320
0723_083951_0192.png,0.034,0.171,0.931,-0.031,0.169,0.928,0.151,-0.014,1.102,-0.143,-0.007,1.134,0.172,-0.272,1.203,-0.307,-0.218,1.090,0.151,-0.304,0.945,-0.317,-0.327,0.855,995.107,714.221,0.931,928.378,713.092,0.928,1089.837,527.678,1.102,840.378,534.045,1.134,1096.293,325.282,1.203,692.125,350.133,1.090,1112.128,234.427,0.945,607.114,176.101,0.855,-0.027,-0.958,1.400,0.000,-5.074,0.000,0.007,-0.027,0.015,0.040,-0.838,1.669
0723_083951_0193.png,0.044,0.158,0.941,-0.020,0.154,0.934,0.154,-0.021,1.099,-0.132,-0.012,1.139,0.188,-0.204,0.909,-0.174,-0.184,0.939,0.172,-0.363,0.705,-0.215,-0.352,0.743,1004.423,699.607,0.941,939.920,697.357,0.934,1093.249,521.949,1.099,849.595,530.385,1.139,1156.927,326.683,0.909,783.650,353.547,0.939,1191.913,50.390,0.705,685.045,89.169,0.743,-0.030,-0.961,1.401,0.000,-7.116,0.000,0.026,0.014,0.023,0.181,-1.027,1.153
0723_083951_0194.png,0.045,0.170,0.923,-0.021,0.168,0.923,0.167,-0.013,1.090,-0.124,-0.002,1.141,0.137,-0.259,0.979,-0.189,-0.176,0.940,0.085,-0.355,0.743,-0.253,-0.347,0.744,1006.290,714.621,0.923,938.780,712.972,0.923,1106.154,528.228,1.090,856.962,538.603,1.141,1092.965,288.295,0.979,768.292,361.585,0.940,1068.389,84.958,0.743,636.821,96.224,0.744,-0.036,-0.960,1.401,0.000,-9.099,0.000,0.004,-0.038,0.013,-0.109,-0.997,1.621
0723_083951_0195.png,0.058,0.158,0.947,-0.006,0.155,0.940,0.170,-0.024,1.091,-0.113,-0.011,1.148,0.247,-0.258,0.999,-0.236,-0.228,1.064,0.251,-0.346,0.757,-0.111,-0.323,0.860,1018.149,698.468,0.947,953.986,696.445,0.940,1108.454,519.317,1.091,866.041,531.266,1.148,1195.357,294.468,0.999,748.920,336.199,1.064,1275.312,105.622,0.757,836.894,182.860,0.860,-0.039,-0.963,1.402,0.000,-10.547,0.000,0.024,0.036,0.022,0.076,-0.745,1.626
0723_083951_0196.png,0.045,0.164,0.936,-0.022,0.159,0.928,0.158,-0.010,1.097,-0.147,0.000,1.138,0.258,-0.240,1.191,-0.263,-0.243,1.147,0.115,-0.276,0.975,-0.275,-0.298,0.894,1005.934,706.419,0.936,937.288,703.364,0.928,1097.119,531.709,1.097,836.849,539.991,1.138,1166.163,348.061,1.191,741.672,338.779,1.147,1072.608,270.678,0.975,667.237,222.746,0.894,-0.025,-0.971,1.403,0.000,-6.773,0.000,-0.039,0.012,0.017,0.261,-1.014,1.589
0723_083951_0197.png,0.012,0.157,0.932,-0.055,0.159,0.933,0.121,-0.001,1.138,-0.177,-0.011,1.094,0.241,-0.222,1.058,-0.266,-0.255,1.041,0.278,-0.316,0.824,-0.120,-0.317,0.838,971.933,700.464,0.932,903.791,702.050,0.933,1061.420,539.052,1.138,805.980,530.118,1.094,1176.523,340.113,1.058,716.632,307.065,1.041,1280.779,175.611,0.824,823.380,180.526,0.838,-0.030,-0.973,1.404,0.000,-350.129,0.000,-0.017,0.024,0.034,0.139,-0.976,1.706
0723_083951_0198.png,0.016,0.175,0.928,-0.049,0.178,0.936,0.141,-0.009,1.118,-0.156,-0.011,1.109,0.196,-0.179,0.921,-0.333,-0.205,1.052,0.247,-0.346,0.728,-0.450,-0.319,0.857,976.202,719.823,0.928,909.853,720.795,0.936,1079.623,532.430,1.118,826.280,530.505,1.109,1162.262,354.731,0.921,659.310,354.783,1.052,1282.217,88.549,0.728,460.401,186.067,0.857,-0.034,-0.963,1.401,0.000,-356.958,0.000,0.001,-0.020,0.043,-0.252,-0.742,1.493
0723_083951_0199.png,0.057,0.182,0.945,-0.010,0.180,0.939,0.176,-0.005,1.094,-0.117,0.010,1.156,0.281,-0.247,1.018,-0.163,-0.220,1.004,0.313,-0.346,0.765,-0.086,-0.348,0.776,1017.197,723.700,0.945,950.176,721.789,0.939,1113.201,535.799,1.094,863.361,547.833,1.156,1222.336,309.034,1.018,805.414,331.248,1.004,1349.038,110.412,0.765,854.715,113.628,0.776,-0.036,-0.971,1.403,0.000,-11.138,0.000,-0.012,0.004,-0.042,-0.012,-0.785,1.365
0723_083951_0200.png,0.055,0.166,0.933,-0.008,0.161,0.924,0.165,-0.014,1.084,-0.119,0.000,1.146,0.100,-0.233,0.946,-0.269,-0.211,1.082,-0.018,-0.354,0.749,-0.221,-0.328,0.855,1016.391,709.412,0.933,951.489,705.568,0.924,1104.811,527.920,1.084,861.136,540.403,1.146,1060.624,305.646,0.946,723.483,354.234,1.082,937.559,89.928,0.749,714.412,175.494,0.855,-0.032,-0.967,1.402,0.000,-11.453,0.000,0.019,-0.003,0.016,0.212,-1.052,1.458
0723_083951_0201.png,0.008,0.163,0.926,-0.055,0.166,0.933,0.118,-0.007,1.139,-0.166,-0.018,1.094,0.083,-0.177,0.930,-0.280,-0.209,1.253,0.049,-0.342,0.728,-0.461,-0.276,1.085,968.607,707.122,0.926,903.935,709.386,0.933,1058.708,533.739,1.139,815.787,524.531,1.094,1045.109,359.559,0.930,747.750,381.292,1.253,1024.347,93.017,0.728,555.996,298.162,1.085,-0.035,-0.959,1.401,0.000,-349.637,0.000,0.031,-0.018,0.026,-0.053,-0.883,1.695
0723_083951_0202.png,0.014,0.156,0.934,-0.052,0.158,0.937,0.122,-0.010,1.144,-0.170,-0.022,1.091,0.069,-0.178,0.939,-0.158,-0.239,0.942,0.015,-0.341,0.740,-0.110,-0.354,0.719,973.994,698.525,0.934,907.339,700.361,0.937,1061.183,531.818,1.144,811.538,520.779,1.091,1029.445,359.635,0.939,800.661,298.713,0.942,979.112,101.378,0.740,815.055,72.125,0.719,-0.038,-0.961,1.401,0.000,-348.259,0.000,0.000,0.012,0.031,0.106,-0.910,1.521
0723_083951_0203.png,0.012,0.166,0.922,-0.053,0.169,0.927,0.127,0.002,1.132,-0.169,-0.006,1.099,0.201,-0.173,0.937,-0.186,-0.242,0.975,0.272,-0.343,0.747,-0.066,-0.345,0.771,972.704,711.610,0.922,905.228,713.580,0.927,1066.809,541.500,1.132,814.176,535.127,1.099,1164.439,364.577,0.937,778.263,304.265,0.975,1306.493,103.179,0.747,878.453,114.678,0.771,-0.032,-0.970,1.403,0.000,-352.435,0.000,-0.002,-0.017,0.023,-0.027,-1.091,1.531
0723_083951_0204.png,-0.002,0.163,0.935,-0.066,0.167,0.944,0.113,0.002,1.143,-0.175,-0.007,1.102,0.107,-0.219,0.987,-0.207,-0.259,1.017,-0.014,-0.344,0.792,-0.186,-0.350,0.770,957.591,705.909,0.935,893.341,708.685,0.944,1053.664,541.655,1.143,809.029,533.656,1.102,1062.882,329.501,0.987,765.989,297.528,1.017,943.047,126.910,0.792,729.968,108.022,0.770,-0.026,-0.973,1.404,0.000,-350.575,0.000,0.021,0.023,-0.003,-0.163,-0.999,1.333
0723_083951_0205.png,0.002,0.163,0.933,-0.061,0.168,0.946,0.126,-0.001,1.142,-0.166,-0.011,1.099,0.132,-0.209,0.973,-0.215,-0.261,1.023,0.054,-0.345,0.763,-0.070,-0.333,0.818,962.418,706.022,0.933,898.253,709.208,0.946,1064.614,539.104,1.142,816.306,530.718,1.099,1088.675,335.509,0.973,760.091,296.991,1.023,1027.299,109.816,0.763,878.314,152.997,0.818,-0.037,-0.970,1.403,0.000,-350.421,0.000,0.007,0.021,0.009,-0.319,-0.891,1.482
0723_083951_0206.png,0.030,0.159,0.933,-0.034,0.159,0.936,0.153,-0.017,1.107,-0.136,-0.010,1.136,0.111,-0.204,0.916,-0.275,-0.217,1.237,0.027,-0.364,0.725,-0.310,-0.292,0.989,990.730,701.864,0.933,925.296,701.755,0.936,1091.908,525.278,1.107,846.501,531.255,1.136,1074.752,328.391,0.916,748.413,373.018,1.237,995.282,63.189,0.725,662.275,259.366,0.989,-0.033,-0.959,1.400,0.000,-4.727,0.000,0.021,-0.003,0.010,-0.238,-1.056,1.249
0723_083951_0207.png,0.016,0.159,0.936,-0.049,0.161,0.939,0.126,-0.005,1.143,-0.165,-0.013,1.105,0.243,-0.213,1.266,-0.280,-0.217,1.237,0.180,-0.282,1.018,-0.371,-0.287,0.999,976.677,701.666,0.936,910.652,703.454,0.939,1065.001,536.107,1.143,817.683,528.589,1.105,1142.803,380.010,1.266,744.865,373.032,1.237,1128.649,276.799,1.018,607.101,266.963,0.999,-0.036,-0.963,1.402,0.000,-351.339,0.000,0.009,0.007,-0.009,0.061,-1.122,1.117
0723_083951_0208.png,0.062,0.178,0.945,-0.007,0.176,0.941,0.184,-0.017,1.086,-0.119,-0.001,1.155,0.196,-0.192,1.292,-0.170,-0.173,0.942,0.338,-0.252,1.069,-0.218,-0.340,0.734,1022.177,718.775,0.945,953.148,717.600,0.941,1120.861,524.839,1.086,861.671,538.814,1.155,1104.214,398.517,1.292,788.070,365.081,0.942,1260.421,315.896,1.069,677.866,99.623,0.734,-0.039,-0.963,1.401,0.000,-11.989,0.000,-0.048,0.002,-0.009,-0.020,-0.625,1.443
0723_083951_0209.png,0.017,0.162,0.933,-0.046,0.164,0.935,0.120,0.002,1.143,-0.163,-0.006,1.105,0.121,-0.181,0.929,-0.139,-0.191,0.897,0.125,-0.362,0.721,-0.120,-0.372,0.694,977.198,705.102,0.933,912.753,706.834,0.935,1059.792,541.855,1.143,819.867,534.549,1.105,1083.857,354.324,0.929,812.103,337.516,0.897,1125.439,63.142,0.721,795.191,30.333,0.694,-0.035,-0.969,1.403,0.000,-351.128,0.000,0.039,0.003,-0.017,0.133,-1.143,1.359
0723_083951_0210.png,0.047,0.164,0.920,-0.017,0.159,0.914,0.164,-0.018,1.071,-0.122,0.000,1.146,0.265,-0.234,1.212,-0.196,-0.245,1.068,0.391,-0.292,0.995,-0.175,-0.330,0.829,1008.880,709.212,0.920,941.815,705.039,0.914,1105.235,524.221,1.071,858.836,539.695,1.146,1167.834,356.328,1.212,785.399,322.156,1.068,1334.301,260.851,0.995,759.645,161.293,0.829,-0.025,-0.963,1.401,0.000,-14.052,0.000,0.004,-0.031,0.038,0.044,-1.229,1.382
0723_083951_0211.png,0.029,0.186,0.940,-0.037,0.186,0.940,0.145,0.005,1.130,-0.154,0.005,1.126,0.209,-0.194,1.308,-0.277,-0.202,1.259,0.214,-0.277,1.045,-0.431,-0.277,1.047,989.640,728.035,0.940,922.611,728.156,0.940,1082.286,544.527,1.130,830.264,543.919,1.126,1112.317,398.646,1.308,750.596,387.646,1.259,1155.068,287.953,1.045,568.929,288.049,1.047,-0.035,-0.969,1.403,0.000,-358.197,0.000,-0.007,-0.016,-0.046,0.047,-0.856,1.226
0723_083951_0212.png,0.051,0.150,0.937,-0.017,0.146,0.933,0.170,-0.013,1.099,-0.130,-0.001,1.151,0.168,-0.253,1.209,-0.206,-0.209,0.988,0.149,-0.286,0.945,-0.229,-0.341,0.755,1011.496,692.596,0.937,943.106,689.091,0.933,1107.215,528.462,1.099,852.294,539.055,1.151,1091.987,340.719,1.209,762.115,338.763,0.988,1110.178,252.187,0.945,672.249,110.224,0.755,-0.033,-0.967,1.402,0.000,-9.090,0.000,-0.028,0.024,-0.019,0.069,-1.258,1.419
0723_083951_0213.png,0.033,0.163,0.927,-0.036,0.163,0.928,0.158,-0.006,1.107,-0.149,-0.001,1.126,0.239,-0.256,1.172,-0.267,-0.225,1.035,0.243,-0.292,0.916,-0.298,-0.323,0.800,993.575,707.629,0.927,923.588,707.330,0.928,1095.727,534.864,1.107,833.774,538.797,1.126,1154.239,331.954,1.172,714.298,333.585,1.035,1211.662,237.454,0.916,605.534,155.799,0.800,-0.033,-0.970,1.403,0.000,-2.609,0.000,-0.038,-0.002,0.025,-0.086,-1.091,1.522
0723_083951_0214.png,0.036,0.177,0.927,-0.032,0.177,0.928,0.163,-0.013,1.081,-0.135,0.002,1.144,0.292,-0.256,1.102,-0.232,-0.245,1.090,0.242,-0.316,0.856,-0.230,-0.319,0.843,996.445,722.010,0.927,927.251,720.953,0.928,1103.637,528.595,1.081,847.972,541.374,1.144,1211.579,318.885,1.102,757.493,326.629,1.090,1228.718,189.121,0.856,700.572,179.740,0.843,-0.024,-0.966,1.402,0.000,-11.177,0.000,-0.027,-0.023,0.025,-0.222,-0.805,1.596
0723_083951_0215.png,0.008,0.163,0.931,-0.059,0.165,0.932,0.114,0.001,1.148,-0.184,-0.013,1.086,0.276,-0.206,1.086,-0.239,-0.264,1.007,0.368,-0.308,0.865,-0.078,-0.325,0.810,968.673,706.247,0.931,899.791,708.201,0.932,1054.634,540.815,1.148,798.692,528.410,1.086,1202.159,359.925,1.086,734.033,290.653,1.007,1364.508,201.823,0.865,869.024,158.428,0.810,-0.031,-0.968,1.403,0.000,-346.820,0.000,-0.028,0.005,0.015,0.223,-1.031,1.411
0723_083951_0216.png,0.020,0.150,0.943,-0.047,0.151,0.942,0.125,-0.003,1.151,-0.173,-0.013,1.106,0.244,-0.186,0.980,-0.335,-0.179,1.234,0.309,-0.339,0.766,-0.286,-0.279,0.989,979.695,691.179,0.943,912.294,692.522,0.942,1062.944,537.742,1.151,811.138,528.755,1.106,1196.368,359.852,0.980,701.735,402.368,1.234,1343.224,118.956,0.766,684.809,272.045,0.989,-0.035,-0.968,1.403,0.000,-350.010,0.000,-0.015,0.038,-0.024,0.252,-1.057,1.576
0723_083951_0217.png,-0.013,0.172,0.938,-0.079,0.178,0.951,0.108,0.004,1.155,-0.188,-0.011,1.086,0.255,-0.218,1.192,-0.267,-0.251,0.990,0.316,-0.288,0.944,-0.174,-0.339,0.758,946.677,714.897,0.938,881.354,717.736,0.951,1048.928,543.599,1.155,795.788,529.992,1.086,1163.706,366.045,1.192,703.407,298.876,0.990,1277.851,250.197,0.944,741.313,114.668,0.758,-0.030,-0.972,1.403,0.000,-345.403,0.000,-0.024,0.020,-0.006,-0.250,-0.750,1.345
0723_083951_0218.png,0.021,0.173,0.937,-0.042,0.174,0.938,0.122,-0.002,1.141,-0.158,-0.011,1.103,0.249,-0.209,1.254,-0.319,-0.219,1.070,0.328,-0.297,1.017,-0.381,-0.340,0.844,981.324,715.542,0.937,917.720,716.459,0.938,1061.526,538.443,1.141,823.651,530.812,1.103,1149.125,381.399,1.254,676.032,344.857,1.070,1266.862,262.473,1.017,530.605,156.866,0.844,-0.039,-0.964,1.402,0.000,-350.851,0.000,0.048,-0.007,-0.006,0.187,-0.847,1.339
0723_083951_0219.png,0.005,0.160,0.946,-0.060,0.163,0.949,0.111,-0.004,1.152,-0.179,-0.017,1.094,0.251,-0.224,1.189,-0.330,-0.228,1.131,0.118,-0.285,0.972,-0.391,-0.305,0.888,965.117,701.236,0.946,899.539,702.789,0.949,1051.581,536.628,1.152,804.561,524.830,1.094,1160.378,361.103,1.189,682.759,347.859,1.131,1075.247,261.162,0.972,540.948,213.173,0.888,-0.032,-0.969,1.403,0.000,-347.192,0.000,0.004,0.045,0.005,0.140,-0.730,1.559
0723_083951_0220.png,0.022,0.171,0.940,-0.043,0.171,0.942,0.138,-0.011,1.124,-0.157,-0.014,1.113,0.226,-0.219,1.270,-0.236,-0.258,1.044,0.389,-0.263,1.075,-0.069,-0.322,0.858,982.645,712.752,0.940,916.540,713.113,0.942,1076.485,530.615,1.124,825.480,528.199,1.113,1129.181,376.277,1.270,744.675,304.765,1.044,1304.094,307.077,1.075,883.596,182.565,0.858,-0.033,-0.963,1.402,0.000,-356.481,0.000,0.005,0.007,0.029,0.007,-0.671,1.504
0723_083951_0221.png,0.013,0.167,0.925,-0.053,0.170,0.929,0.127,0.003,1.134,-0.169,-0.004,1.102,0.265,-0.227,1.092,-0.228,-0.193,0.917,0.246,-0.324,0.850,-0.235,-0.359,0.713,972.919,711.809,0.925,905.554,713.739,0.929,1066.731,542.255,1.134,814.574,536.150,1.102,1190.963,342.176,1.092,723.743,340.316,0.917,1235.206,177.012,0.850,646.286,61.071,0.713,-0.031,-0.969,1.403,0.000,-352.667,0.000,-0.002,-0.015,0.009,-0.025,-1.137,1.380
0723_083951_0222.png,-0.002,0.167,0.925,-0.067,0.172,0.936,0.117,0.009,1.142,-0.175,0.000,1.102,0.188,-0.227,1.256,-0.271,-0.251,1.062,0.204,-0.290,0.997,-0.126,-0.332,0.853,957.635,711.505,0.925,892.350,715.223,0.936,1057.054,547.569,1.142,809.317,539.860,1.102,1102.119,368.407,1.256,716.876,314.970,1.062,1154.557,263.302,0.997,819.626,170.437,0.853,-0.028,-0.974,1.404,0.000,-350.751,0.000,0.010,-0.005,-0.017,-0.219,-1.050,1.679
0723_083951_0223.png,-0.013,0.157,0.943,-0.079,0.162,0.954,0.100,-0.002,1.162,-0.191,-0.018,1.094,0.223,-0.217,1.042,-0.319,-0.210,1.219,0.272,-0.333,0.801,-0.427,-0.281,0.983,946.840,698.467,0.943,881.652,701.903,0.954,1041.791,538.367,1.162,794.089,524.735,1.094,1163.345,342.070,1.042,710.931,375.798,1.219,1282.475,144.913,0.801,547.024,268.181,0.983,-0.026,-0.965,1.402,0.000,-345.389,0.000,-0.007,0.035,-0.032,-0.091,-0.791,1.659
0723_083951_0224.png,0.057,0.156,0.936,-0.009,0.151,0.931,0.176,-0.011,1.089,-0.115,0.005,1.158,0.243,-0.269,1.056,-0.207,-0.188,0.981,0.243,-0.332,0.795,-0.234,-0.345,0.762,1017.692,698.066,0.936,950.396,693.940,0.931,1114.134,530.127,1.089,865.576,543.819,1.158,1178.866,297.586,1.056,758.942,357.899,0.981,1250.812,142.486,0.795,667.642,109.210,0.762,-0.035,-0.971,1.403,0.000,-12.563,0.000,-0.010,0.025,-0.024,-0.004,-1.243,1.382
0723_083951_0225.png,0.041,0.184,0.936,-0.025,0.183,0.934,0.161,-0.011,1.098,-0.132,0.000,1.144,0.303,-0.246,1.072,-0.246,-0.199,1.300,0.373,-0.334,0.831,-0.294,-0.278,1.049,1001.797,727.193,0.936,934.936,726.332,0.934,1099.772,530.698,1.098,850.531,539.907,1.144,1228.509,321.932,1.072,780.156,394.604,1.300,1387.462,157.567,0.831,693.920,287.705,1.049,-0.031,-0.960,1.401,0.000,-8.025,0.000,0.000,-0.033,-0.013,-0.062,-0.713,1.452
0723_083951_0226.png,0.043,0.184,0.923,-0.025,0.183,0.923,0.170,-0.002,1.082,-0.131,0.013,1.144,0.205,-0.273,1.053,-0.212,-0.161,0.945,0.019,-0.315,0.868,-0.288,-0.329,0.750,1004.458,729.986,0.923,934.269,728.333,0.923,1109.817,538.486,1.082,851.042,550.443,1.144,1144.922,293.307,1.053,746.860,378.354,0.945,980.862,194.841,0.868,595.196,122.550,0.750,-0.030,-0.974,1.404,0.000,-10.772,0.000,-0.038,-0.029,0.008,-0.166,-0.989,1.359
0723_083951_0227.png,-0.007,0.158,0.931,-0.072,0.163,0.939,0.103,-0.001,1.155,-0.186,-0.016,1.091,0.124,-0.201,0.966,-0.245,-0.208,1.273,0.097,-0.355,0.747,-0.265,-0.280,1.017,952.839,701.270,0.931,886.880,704.947,0.939,1045.021,538.879,1.155,797.618,526.154,1.091,1082.088,341.745,0.966,776.723,384.567,1.273,1083.154,88.829,0.747,711.843,278.153,1.017,-0.027,-0.962,1.401,0.000,-346.203,0.000,0.000,0.000,-0.015,-0.053,-0.993,1.586
0723_083951_0228.png,0.012,0.155,0.934,-0.051,0.156,0.936,0.120,-0.009,1.132,-0.163,-0.014,1.112,0.261,-0.230,1.175,-0.279,-0.237,1.026,0.352,-0.310,0.944,-0.318,-0.347,0.794,972.067,697.887,0.934,908.243,698.892,0.936,1060.761,532.145,1.132,820.801,528.203,1.112,1171.069,353.888,1.175,701.719,320.597,1.026,1314.169,228.272,0.944,578.553,123.911,0.794,-0.026,-0.963,1.401,0.000,-354.808,0.000,0.045,0.010,0.010,0.035,-0.945,1.741
