rolosa10/RGSpipe/dataset/synthetic_dataset/Coods3D_unique0722_180739.csv
filename,left_eye,left_eye,left_eye,right_eye,right_eye,right_eye,left_shoulder,left_shoulder,left_shoulder,right_shoulder,right_shoulder,right_shoulder,left_elbow,left_elbow,left_elbow,right_elbow,right_elbow,right_elbow,left_wrist,left_wrist,left_wrist,right_wrist,right_wrist,right_wrist,left_eye_2D,left_eye_2D,left_eye_2D,right_eye_2D,right_eye_2D,right_eye_2D,left_shoulder_2D,left_shoulder_2D,left_shoulder_2D,right_shoulder_2D,right_shoulder_2D,right_shoulder_2D,left_elbow_2D,left_elbow_2D,left_elbow_2D,right_elbow_2D,right_elbow_2D,right_elbow_2D,left_wrist_2D,left_wrist_2D,left_wrist_2D,right_wrist_2D,right_wrist_2D,right_wrist_2D,root_position,root_position,root_position,root_pitch,root_yaw,root_roll,root_scale,root_scale,root_scale,look_at,look_at,look_at
0722_180739_0001.png,0.023,0.160,0.922,-0.043,0.162,0.926,0.144,0.000,1.115,-0.153,0.000,1.115,0.095,-0.189,0.935,-0.309,-0.219,1.095,0.006,-0.347,0.751,-0.269,-0.318,0.862,983.507,705.084,0.922,915.806,706.039,0.926,1082.889,539.730,1.115,829.113,539.629,1.115,1056.582,348.145,0.935,691.291,349.993,1.095,967.785,100.206,0.751,663.267,189.459,0.862,-0.033,-0.974,1.404,0.000,-358.725,0.000,-0.002,-0.002,0.030,-0.116,-1.224,1.544
0722_180739_0002.png,0.004,0.184,0.931,-0.061,0.188,0.942,0.122,0.009,1.145,-0.171,-0.002,1.100,0.158,-0.258,1.082,-0.209,-0.274,1.076,0.126,-0.337,0.826,-0.178,-0.341,0.817,963.612,727.459,0.931,898.004,729.708,0.942,1060.936,547.060,1.145,811.746,538.411,1.100,1098.790,313.034,1.082,775.439,297.610,1.076,1104.942,152.158,0.826,753.092,143.225,0.817,-0.035,-0.970,1.403,0.000,-349.875,0.000,0.001,-0.020,-0.025,-0.200,-0.881,1.173
0722_180739_0003.png,0.038,0.168,0.932,-0.030,0.166,0.933,0.164,-0.008,1.088,-0.136,0.005,1.146,0.306,-0.239,1.081,-0.279,-0.185,1.275,0.370,-0.312,0.838,-0.426,-0.254,1.070,998.349,711.079,0.932,929.159,709.486,0.933,1103.755,532.786,1.088,846.893,544.216,1.146,1229.334,330.194,1.081,752.228,401.825,1.275,1380.172,185.871,0.838,581.570,313.792,1.070,-0.026,-0.974,1.404,0.000,-10.024,0.000,-0.032,0.014,0.012,-0.197,-1.094,1.183
0722_180739_0004.png,-0.004,0.172,0.929,-0.068,0.175,0.936,0.108,-0.006,1.137,-0.179,-0.016,1.090,0.205,-0.213,1.283,-0.232,-0.263,1.007,0.334,-0.270,1.072,-0.213,-0.346,0.769,956.077,715.826,0.929,891.248,717.376,0.936,1050.435,535.378,1.137,804.210,525.768,1.090,1112.030,381.860,1.283,740.790,291.940,1.007,1256.716,300.030,1.072,696.114,112.511,0.769,-0.024,-0.964,1.402,0.000,-349.293,0.000,0.021,-0.011,0.042,-0.087,-0.808,1.322
0722_180739_0005.png,0.038,0.166,0.940,-0.026,0.165,0.939,0.155,-0.007,1.113,-0.133,0.000,1.141,0.088,-0.200,0.922,-0.170,-0.233,0.997,-0.015,-0.364,0.732,-0.085,-0.357,0.774,998.873,708.030,0.940,933.976,706.912,0.939,1092.346,533.960,1.113,849.271,539.626,1.141,1050.585,333.991,0.922,798.038,318.100,0.997,939.964,67.239,0.732,855.513,102.129,0.774,-0.034,-0.967,1.402,0.000,-4.691,0.000,0.026,0.010,-0.028,-0.025,-1.071,1.148
0722_180739_0006.png,-0.001,0.155,0.929,-0.066,0.161,0.939,0.117,-0.003,1.147,-0.176,-0.015,1.092,0.092,-0.176,0.935,-0.171,-0.244,0.953,0.067,-0.343,0.728,-0.096,-0.352,0.729,958.742,698.924,0.929,892.887,702.715,0.939,1057.083,537.551,1.147,806.330,526.564,1.092,1053.961,361.258,0.935,789.799,296.969,0.953,1047.731,91.322,0.728,835.199,81.059,0.729,-0.033,-0.966,1.402,0.000,-348.082,0.000,-0.006,0.013,0.013,-0.194,-1.085,1.353
0722_180739_0007.png,0.028,0.159,0.939,-0.039,0.161,0.947,0.158,-0.005,1.126,-0.146,-0.004,1.134,0.196,-0.261,1.038,-0.239,-0.235,1.017,0.028,-0.324,0.836,-0.120,-0.334,0.794,988.321,700.487,0.939,920.800,701.733,0.947,1093.222,535.401,1.126,837.305,536.970,1.134,1139.842,300.871,1.038,736.496,320.206,1.017,991.631,170.910,0.836,816.377,139.899,0.794,-0.040,-0.967,1.403,0.000,-0.368,0.000,-0.024,0.023,-0.034,-0.275,-1.055,1.360
0722_180739_0008.png,0.014,0.178,0.928,-0.052,0.179,0.930,0.128,0.004,1.130,-0.169,-0.001,1.108,0.236,-0.243,1.082,-0.203,-0.256,1.016,0.248,-0.329,0.834,-0.075,-0.342,0.802,974.085,722.005,0.928,906.572,723.023,0.930,1068.130,543.134,1.130,815.127,538.837,1.108,1166.973,326.353,1.082,769.658,300.567,1.016,1242.263,164.514,0.834,870.686,134.575,0.802,-0.028,-0.969,1.403,0.000,-354.465,0.000,-0.004,-0.024,0.002,0.011,-0.964,1.426
0722_180739_0009.png,0.028,0.160,0.932,-0.035,0.159,0.934,0.148,-0.007,1.101,-0.135,0.002,1.139,0.189,-0.186,1.293,-0.141,-0.176,0.927,0.292,-0.272,1.071,-0.150,-0.349,0.722,988.480,702.903,0.932,923.920,701.903,0.934,1088.101,533.827,1.101,847.551,541.308,1.139,1098.955,402.980,1.293,815.059,359.847,0.927,1219.269,298.525,1.071,762.507,80.057,0.722,-0.026,-0.973,1.404,0.000,-6.656,0.000,0.038,0.018,0.005,-0.169,-1.044,1.670
0722_180739_0010.png,-0.006,0.159,0.935,-0.069,0.165,0.947,0.114,0.001,1.143,-0.173,-0.009,1.097,0.265,-0.187,1.246,-0.238,-0.237,1.204,0.260,-0.281,1.004,-0.221,-0.292,0.951,954.283,701.742,0.935,890.974,705.327,0.947,1055.246,540.936,1.143,809.962,531.794,1.097,1162.563,397.420,1.246,772.173,352.571,1.204,1206.424,273.862,1.004,739.407,248.427,0.951,-0.031,-0.976,1.404,0.000,-349.490,0.000,0.018,0.040,0.015,-0.306,-0.967,1.395
0722_180739_0011.png,-0.003,0.170,0.925,-0.069,0.174,0.936,0.117,0.001,1.145,-0.181,-0.012,1.089,0.179,-0.170,0.939,-0.233,-0.177,1.302,0.237,-0.336,0.737,-0.298,-0.264,1.063,956.869,714.358,0.925,889.822,717.329,0.936,1057.563,540.434,1.145,802.323,529.452,1.089,1141.284,367.506,0.939,789.983,410.520,1.302,1265.320,106.005,0.737,693.645,304.030,1.063,-0.031,-0.965,1.402,0.000,-348.135,0.000,-0.022,-0.018,0.012,-0.184,-0.888,1.581
0722_180739_0012.png,0.013,0.173,0.943,-0.051,0.175,0.948,0.126,-0.003,1.135,-0.162,-0.010,1.107,0.180,-0.176,0.930,-0.327,-0.208,1.046,0.234,-0.345,0.730,-0.432,-0.326,0.841,972.903,714.644,0.943,908.708,715.593,0.948,1065.402,537.403,1.135,820.720,531.656,1.107,1144.181,359.683,0.930,662.598,351.170,1.046,1264.735,90.109,0.730,470.903,170.974,0.841,-0.034,-0.970,1.403,0.000,-352.976,0.000,0.025,0.023,0.012,-0.049,-0.674,1.405
0722_180739_0013.png,0.013,0.164,0.927,-0.052,0.166,0.931,0.131,0.000,1.125,-0.164,-0.003,1.109,0.270,-0.228,1.148,-0.172,-0.228,0.968,0.337,-0.303,0.911,-0.072,-0.346,0.762,973.416,708.210,0.927,906.651,709.578,0.931,1070.412,540.200,1.125,818.925,537.088,1.109,1183.889,351.352,1.148,791.543,316.268,0.968,1312.242,223.348,0.911,870.367,108.768,0.762,-0.028,-0.974,1.404,0.000,-355.681,0.000,0.005,0.005,0.025,-0.085,-1.178,1.228
0722_180739_0014.png,0.002,0.160,0.942,-0.065,0.161,0.941,0.104,-0.001,1.155,-0.191,-0.014,1.097,0.274,-0.201,1.079,-0.259,-0.169,1.302,0.382,-0.314,0.861,-0.285,-0.261,1.052,961.989,701.667,0.942,894.448,703.161,0.941,1045.738,539.367,1.155,793.929,527.742,1.097,1201.291,362.865,1.079,770.796,416.445,1.302,1381.637,192.738,0.861,702.593,303.951,1.052,-0.022,-0.966,1.402,0.000,-347.415,0.000,-0.016,0.022,-0.020,0.293,-0.987,1.336
0722_180739_0015.png,0.038,0.168,0.941,-0.026,0.167,0.940,0.153,-0.008,1.110,-0.136,-0.004,1.130,0.136,-0.232,0.968,-0.278,-0.184,1.260,0.013,-0.346,0.772,-0.419,-0.270,1.061,998.186,709.519,0.941,933.254,709.007,0.940,1091.224,532.791,1.110,845.654,536.834,1.130,1093.196,312.259,0.968,750.041,401.163,1.260,975.591,113.325,0.772,584.086,298.446,1.061,-0.037,-0.972,1.404,0.000,-2.937,0.000,0.024,0.025,0.019,-0.007,-0.857,1.351
0722_180739_0016.png,0.025,0.168,0.918,-0.040,0.170,0.923,0.147,-0.001,1.116,-0.146,0.000,1.121,0.119,-0.228,0.966,-0.135,-0.184,0.914,-0.003,-0.356,0.772,-0.124,-0.365,0.714,985.496,713.937,0.918,918.467,714.881,0.923,1085.675,538.874,1.116,835.812,539.955,1.121,1077.580,315.823,0.966,819.482,348.315,0.914,956.212,101.928,0.772,794.124,53.944,0.714,-0.036,-0.964,1.402,0.000,0.069,0.000,0.010,-0.045,0.000,-0.185,-1.206,1.516
0722_180739_0017.png,-0.007,0.138,0.932,-0.070,0.146,0.946,0.112,-0.012,1.152,-0.175,-0.026,1.092,0.049,-0.178,0.944,-0.277,-0.268,1.058,-0.013,-0.340,0.740,-0.116,-0.321,0.861,952.951,681.254,0.932,889.515,686.590,0.946,1052.378,529.859,1.152,807.662,517.218,1.092,1009.066,360.368,0.944,711.332,299.394,1.058,943.391,103.736,0.740,831.864,185.952,0.861,-0.035,-0.960,1.401,0.000,-346.648,0.000,0.012,0.031,0.014,-0.303,-1.119,1.476
0722_180739_0018.png,0.030,0.177,0.941,-0.034,0.177,0.940,0.139,-0.005,1.127,-0.147,-0.005,1.126,0.082,-0.189,0.923,-0.204,-0.246,1.004,0.030,-0.369,0.725,-0.085,-0.356,0.792,989.959,719.134,0.941,925.779,718.927,0.940,1077.321,535.477,1.127,835.571,535.492,1.126,1044.369,345.611,0.923,766.319,306.917,1.004,999.308,55.404,0.725,857.887,112.180,0.792,-0.034,-0.961,1.401,0.000,-358.843,0.000,0.035,-0.016,-0.027,0.112,-0.837,1.253
0722_180739_0019.png,0.052,0.163,0.933,-0.013,0.160,0.931,0.174,-0.014,1.081,-0.116,0.001,1.147,0.078,-0.184,0.900,-0.211,-0.228,1.055,-0.016,-0.349,0.723,-0.058,-0.317,0.865,1013.405,705.751,0.933,946.362,703.544,0.931,1112.900,527.267,1.081,864.093,540.633,1.147,1042.890,344.948,0.900,769.919,334.734,1.055,938.479,80.462,0.723,896.572,191.175,0.865,-0.037,-0.972,1.404,0.000,-12.053,0.000,-0.002,0.020,0.027,-0.128,-1.057,1.276
0722_180739_0020.png,0.015,0.163,0.931,-0.051,0.166,0.940,0.142,-0.004,1.129,-0.159,-0.009,1.107,0.180,-0.176,0.929,-0.337,-0.212,1.108,0.215,-0.344,0.732,-0.432,-0.303,0.885,975.482,706.194,0.931,908.523,708.375,0.940,1079.179,536.902,1.129,823.058,532.514,1.107,1144.567,359.313,0.929,670.895,357.846,1.108,1239.827,93.120,0.732,495.368,213.938,0.885,-0.039,-0.970,1.403,0.000,-354.554,0.000,-0.017,0.015,0.024,-0.275,-1.037,1.205
0722_180739_0021.png,0.027,0.186,0.932,-0.038,0.186,0.932,0.146,-0.002,1.103,-0.145,0.004,1.132,0.130,-0.186,0.898,-0.265,-0.238,1.097,0.116,-0.366,0.698,-0.145,-0.325,0.881,987.484,730.023,0.932,921.297,729.526,0.932,1085.717,537.872,1.103,838.080,543.534,1.132,1098.214,342.527,0.898,729.986,333.610,1.097,1118.224,40.889,0.698,803.183,189.358,0.881,-0.025,-0.969,1.403,0.000,-4.676,0.000,0.015,-0.027,0.003,-0.075,-0.747,1.562
0722_180739_0022.png,0.040,0.174,0.940,-0.029,0.172,0.934,0.155,-0.014,1.103,-0.154,-0.006,1.135,0.253,-0.262,1.168,-0.316,-0.225,1.107,0.118,-0.286,0.943,-0.233,-0.307,0.871,999.957,716.329,0.940,930.693,715.009,0.934,1093.931,527.933,1.103,831.370,534.562,1.135,1165.902,327.012,1.168,688.550,346.341,1.107,1078.869,251.405,0.943,705.942,204.657,0.871,-0.024,-0.962,1.401,0.000,-5.015,0.000,-0.046,-0.009,0.014,0.202,-0.755,1.471
0722_180739_0023.png,0.051,0.188,0.941,-0.014,0.186,0.937,0.171,-0.001,1.093,-0.120,0.012,1.151,0.146,-0.193,0.890,-0.226,-0.209,1.023,0.101,-0.371,0.687,-0.173,-0.343,0.795,1011.980,730.466,0.941,945.371,729.014,0.937,1108.580,538.843,1.093,860.433,550.001,1.151,1116.197,333.430,0.890,749.596,345.630,1.023,1099.371,26.425,0.687,752.477,129.854,0.795,-0.034,-0.974,1.404,0.000,-10.466,0.000,-0.001,-0.004,-0.029,-0.038,-0.702,1.534
0722_180739_0024.png,0.012,0.149,0.943,-0.055,0.150,0.946,0.132,-0.016,1.134,-0.173,-0.021,1.115,0.087,-0.234,0.988,-0.327,-0.192,1.249,-0.021,-0.330,0.769,-0.343,-0.269,1.002,972.353,689.861,0.943,904.223,690.866,0.946,1070.523,526.214,1.134,812.009,522.288,1.115,1043.386,314.707,0.988,711.024,393.975,1.249,933.743,131.505,0.769,634.109,284.769,1.002,-0.025,-0.960,1.401,0.000,-355.206,0.000,-0.030,0.036,0.015,-0.017,-1.043,1.088
0722_180739_0025.png,0.026,0.169,0.937,-0.037,0.171,0.943,0.149,-0.007,1.111,-0.136,-0.002,1.134,0.244,-0.197,1.272,-0.128,-0.183,0.926,0.335,-0.283,1.042,-0.123,-0.360,0.724,986.801,711.837,0.937,923.007,712.138,0.943,1087.517,533.973,1.111,846.137,538.538,1.134,1142.593,392.875,1.272,828.218,352.215,0.926,1265.476,281.653,1.042,797.709,66.572,0.724,-0.033,-0.969,1.403,0.000,-3.575,0.000,0.038,0.013,-0.002,-0.281,-0.889,1.325
0722_180739_0026.png,0.030,0.178,0.928,-0.037,0.178,0.930,0.154,-0.004,1.110,-0.146,0.001,1.131,0.289,-0.244,1.081,-0.271,-0.214,1.257,0.305,-0.331,0.830,-0.308,-0.287,1.004,990.446,722.570,0.928,922.286,722.448,0.930,1091.836,536.606,1.110,837.239,540.685,1.131,1214.023,325.609,1.081,755.355,378.234,1.257,1309.888,160.914,0.830,668.548,268.580,1.004,-0.032,-0.964,1.402,0.000,-2.895,0.000,-0.012,-0.035,-0.009,-0.138,-0.946,1.430
0722_180739_0027.png,0.051,0.172,0.934,-0.015,0.169,0.930,0.171,-0.006,1.083,-0.120,0.010,1.153,0.254,-0.216,1.228,-0.191,-0.225,1.037,0.368,-0.281,0.997,-0.067,-0.331,0.826,1011.680,715.113,0.934,944.297,712.259,0.930,1110.058,534.462,1.083,861.258,548.085,1.153,1156.730,372.850,1.228,785.066,333.696,1.037,1310.911,272.249,0.997,883.254,159.678,0.826,-0.030,-0.975,1.404,0.000,-12.730,0.000,-0.008,0.010,-0.009,-0.048,-0.935,1.624
0722_180739_0028.png,0.052,0.172,0.929,-0.017,0.169,0.929,0.181,-0.008,1.080,-0.120,0.009,1.157,0.288,-0.260,1.100,-0.151,-0.168,0.942,0.188,-0.311,0.858,-0.180,-0.341,0.731,1013.414,715.937,0.929,943.098,713.478,0.929,1119.561,532.557,1.080,861.708,547.640,1.157,1208.680,315.259,1.100,807.243,369.874,0.942,1168.807,194.809,0.858,725.547,97.034,0.731,-0.033,-0.971,1.403,0.000,-13.588,0.000,-0.047,-0.005,-0.014,-0.202,-1.025,1.456
0722_180739_0029.png,-0.014,0.159,0.940,-0.079,0.166,0.954,0.114,-0.001,1.151,-0.186,-0.012,1.106,0.246,-0.210,1.252,-0.314,-0.208,1.231,0.176,-0.274,1.000,-0.431,-0.274,0.998,945.997,701.385,0.940,880.854,705.128,0.954,1054.287,538.897,1.151,799.947,529.938,1.106,1146.497,380.584,1.252,717.644,379.411,1.231,1127.542,279.551,1.000,548.743,278.575,0.998,-0.024,-0.967,1.402,0.000,-350.066,0.000,-0.023,0.028,-0.027,-0.372,-0.933,1.361
0722_180739_0030.png,0.007,0.161,0.926,-0.059,0.164,0.932,0.129,-0.006,1.128,-0.169,-0.010,1.107,0.098,-0.179,0.924,-0.319,-0.234,1.145,0.065,-0.348,0.724,-0.182,-0.302,0.936,967.162,705.567,0.926,900.023,707.543,0.932,1068.931,535.246,1.128,814.761,531.117,1.107,1060.870,355.270,0.924,695.073,345.614,1.145,1045.899,82.999,0.724,775.091,233.492,0.936,-0.027,-0.965,1.402,0.000,-354.800,0.000,-0.007,-0.009,0.024,-0.168,-0.974,1.706
0722_180739_0031.png,-0.004,0.153,0.924,-0.068,0.158,0.933,0.110,-0.003,1.138,-0.175,-0.012,1.098,0.199,-0.173,0.946,-0.318,-0.196,1.229,0.286,-0.340,0.760,-0.338,-0.294,0.991,955.433,697.465,0.924,891.049,701.069,0.933,1052.163,537.755,1.138,808.130,529.707,1.098,1160.376,365.702,0.946,713.618,388.226,1.229,1318.571,114.187,0.760,635.676,258.129,0.991,-0.024,-0.967,1.402,0.000,-350.647,0.000,0.028,0.003,0.022,-0.187,-1.201,1.459
0722_180739_0032.png,0.021,0.160,0.928,-0.042,0.162,0.935,0.147,-0.014,1.110,-0.140,-0.010,1.127,0.248,-0.252,1.041,-0.315,-0.198,1.203,0.187,-0.343,0.808,-0.265,-0.303,0.973,981.675,704.093,0.928,917.145,704.983,0.935,1085.555,527.932,1.110,841.545,531.469,1.127,1186.768,309.927,1.041,710.989,383.212,1.203,1180.228,136.554,0.808,700.915,243.744,0.973,-0.033,-0.960,1.401,0.000,-2.366,0.000,0.032,-0.010,0.021,-0.340,-1.041,1.385
0722_180739_0033.png,0.022,0.167,0.933,-0.045,0.167,0.931,0.135,0.000,1.124,-0.170,-0.004,1.109,0.099,-0.174,0.922,-0.340,-0.213,1.095,0.061,-0.342,0.724,-0.401,-0.306,0.863,982.658,710.202,0.933,913.657,710.273,0.931,1074.303,539.799,1.124,814.583,536.731,1.109,1062.469,360.406,0.922,664.271,354.898,1.095,1039.914,90.712,0.724,518.021,202.557,0.863,-0.027,-0.975,1.404,0.000,-355.829,0.000,-0.027,0.013,0.029,0.171,-0.967,1.562
0722_180739_0034.png,0.054,0.169,0.926,-0.011,0.166,0.923,0.175,-0.005,1.083,-0.111,0.011,1.152,0.231,-0.194,1.272,-0.096,-0.173,0.944,0.361,-0.275,1.057,-0.083,-0.353,0.742,1015.347,713.786,0.926,948.263,710.478,0.923,1114.107,535.708,1.083,868.411,549.029,1.152,1132.719,395.189,1.272,863.167,365.798,0.944,1284.853,292.311,1.057,853.982,87.866,0.742,-0.037,-0.973,1.404,0.000,-12.684,0.000,0.007,-0.010,-0.011,-0.088,-1.107,1.646
0722_180739_0035.png,0.034,0.169,0.932,-0.033,0.168,0.930,0.153,-0.014,1.104,-0.145,-0.007,1.134,0.098,-0.262,1.011,-0.227,-0.234,1.013,0.025,-0.342,0.773,-0.121,-0.338,0.798,994.226,712.721,0.932,926.530,711.780,0.930,1091.334,528.099,1.104,838.188,534.123,1.134,1051.979,293.559,1.011,746.663,320.274,1.013,991.356,119.124,0.773,816.089,137.213,0.798,-0.028,-0.959,1.401,0.000,-4.661,0.000,-0.008,-0.022,0.011,0.001,-0.878,1.570
0722_180739_0036.png,0.033,0.176,0.922,-0.034,0.173,0.918,0.150,-0.003,1.096,-0.150,0.006,1.134,0.198,-0.217,1.272,-0.252,-0.239,1.066,0.239,-0.281,1.020,-0.103,-0.324,0.865,993.851,721.920,0.922,924.763,719.752,0.918,1090.580,537.614,1.096,834.429,545.023,1.134,1108.176,377.359,1.272,735.174,326.792,1.066,1182.748,278.199,1.020,846.758,183.947,0.865,-0.021,-0.968,1.402,0.000,-6.232,0.000,-0.020,-0.042,0.009,0.086,-1.102,1.542
0722_180739_0037.png,0.055,0.178,0.939,-0.009,0.173,0.930,0.170,-0.010,1.083,-0.110,0.008,1.160,0.277,-0.253,1.140,-0.285,-0.199,1.184,0.325,-0.325,0.885,-0.383,-0.305,0.954,1015.781,720.012,0.939,950.479,716.701,0.930,1109.274,531.354,1.083,869.401,546.464,1.160,1191.227,328.670,1.140,730.783,380.445,1.184,1309.642,190.409,0.885,577.616,235.407,0.954,-0.029,-0.967,1.402,0.000,-14.589,0.000,0.019,-0.010,-0.033,0.033,-0.910,1.411
0722_180739_0038.png,0.026,0.163,0.938,-0.038,0.163,0.938,0.141,-0.009,1.119,-0.149,-0.007,1.128,0.123,-0.246,0.990,-0.318,-0.204,1.187,0.010,-0.351,0.778,-0.282,-0.304,0.946,986.587,705.683,0.938,921.375,705.447,0.938,1079.839,532.468,1.119,834.318,534.336,1.128,1078.184,304.054,0.990,705.390,376.365,1.187,972.037,110.518,0.778,676.126,234.175,0.946,-0.029,-0.965,1.402,0.000,-0.716,0.000,0.022,0.010,-0.002,0.001,-0.967,1.376
0722_180739_0039.png,-0.007,0.164,0.925,-0.071,0.169,0.935,0.111,0.001,1.139,-0.178,-0.008,1.096,0.052,-0.181,0.950,-0.321,-0.225,1.168,-0.017,-0.351,0.763,-0.397,-0.305,0.933,952.906,708.598,0.925,888.246,711.947,0.935,1052.441,541.201,1.139,805.750,532.739,1.096,1012.005,358.661,0.950,698.319,356.526,1.168,939.276,102.728,0.763,555.411,229.122,0.933,-0.024,-0.970,1.403,0.000,-350.197,0.000,0.017,-0.004,0.016,-0.246,-1.113,1.292
0722_180739_0040.png,0.054,0.155,0.932,-0.012,0.151,0.928,0.171,-0.012,1.095,-0.122,0.000,1.145,0.220,-0.266,1.025,-0.310,-0.185,1.201,0.219,-0.340,0.773,-0.248,-0.292,0.969,1014.815,697.602,0.932,947.789,694.425,0.928,1108.204,529.960,1.095,858.254,539.873,1.145,1164.408,293.468,1.025,714.718,393.584,1.201,1229.310,121.354,0.773,716.804,253.823,0.969,-0.039,-0.969,1.403,0.000,-8.686,0.000,-0.002,0.014,0.004,0.068,-1.206,1.535
0722_180739_0041.png,0.035,0.162,0.928,-0.029,0.161,0.928,0.154,-0.005,1.107,-0.132,0.002,1.140,0.175,-0.231,0.949,-0.308,-0.191,1.205,0.122,-0.371,0.725,-0.269,-0.309,0.967,995.608,706.334,0.928,930.187,704.929,0.928,1091.982,535.285,1.107,849.715,541.820,1.140,1134.982,308.750,0.949,716.652,389.499,1.205,1119.715,52.692,0.725,695.832,236.183,0.967,-0.032,-0.966,1.402,0.000,-5.658,0.000,0.030,-0.015,-0.023,-0.089,-1.254,1.383
0722_180739_0042.png,0.028,0.172,0.948,-0.039,0.171,0.946,0.146,-0.003,1.123,-0.157,-0.001,1.133,0.079,-0.181,0.913,-0.320,-0.216,1.139,0.014,-0.353,0.708,-0.394,-0.305,0.895,988.366,712.743,0.948,921.029,712.335,0.946,1083.404,537.323,1.123,828.513,539.280,1.133,1042.006,351.827,0.913,692.976,359.395,1.139,979.017,65.437,0.708,541.565,215.527,0.895,-0.027,-0.971,1.403,0.000,-0.775,0.000,-0.019,0.024,-0.027,0.057,-0.733,1.626
0722_180739_0043.png,-0.007,0.151,0.937,-0.070,0.156,0.948,0.109,-0.008,1.147,-0.177,-0.019,1.100,0.175,-0.222,1.000,-0.299,-0.247,1.142,0.126,-0.346,0.775,-0.175,-0.306,0.919,953.369,692.697,0.937,889.864,696.070,0.948,1050.306,533.567,1.147,807.024,524.002,1.100,1126.455,328.963,1.000,711.348,334.142,1.142,1114.510,115.279,0.775,779.071,223.879,0.919,-0.027,-0.965,1.402,0.000,-349.300,0.000,0.023,0.033,0.004,-0.198,-0.951,1.514
0722_180739_0044.png,0.043,0.168,0.940,-0.021,0.164,0.932,0.154,-0.011,1.106,-0.133,-0.002,1.143,0.183,-0.240,0.957,-0.229,-0.187,0.960,0.119,-0.366,0.729,-0.287,-0.356,0.758,1003.681,709.627,0.940,938.876,707.214,0.932,1092.396,530.701,1.106,849.203,538.209,1.143,1141.320,301.806,0.957,733.214,355.159,0.960,1115.182,62.484,0.729,599.651,93.044,0.758,-0.030,-0.963,1.401,0.000,-6.496,0.000,0.024,-0.005,-0.019,0.180,-1.083,1.151
0722_180739_0045.png,0.021,0.176,0.929,-0.042,0.176,0.929,0.134,0.000,1.118,-0.153,0.001,1.124,0.116,-0.230,0.970,-0.220,-0.251,1.040,-0.002,-0.361,0.775,-0.069,-0.344,0.848,981.838,720.447,0.929,916.782,720.308,0.929,1074.052,539.793,1.118,830.840,540.840,1.124,1074.048,314.838,0.970,759.073,310.337,1.040,957.329,97.415,0.775,882.343,153.632,0.848,-0.026,-0.967,1.402,0.000,0.071,0.000,0.034,-0.027,-0.008,0.012,-1.039,1.309
0722_180739_0046.png,0.030,0.174,0.937,-0.038,0.174,0.936,0.151,-0.011,1.116,-0.157,-0.009,1.124,0.250,-0.265,1.104,-0.316,-0.233,1.129,0.245,-0.313,0.847,-0.201,-0.302,0.903,990.307,716.982,0.937,920.964,716.831,0.936,1088.443,531.038,1.116,826.958,532.733,1.124,1175.737,312.039,1.104,693.403,343.831,1.129,1235.440,188.539,0.847,748.554,221.600,0.903,-0.031,-0.961,1.401,0.000,-0.427,0.000,-0.038,-0.014,0.012,0.018,-0.875,1.074
0722_180739_0047.png,0.042,0.163,0.944,-0.024,0.160,0.938,0.155,-0.013,1.113,-0.142,-0.007,1.141,0.158,-0.265,1.007,-0.293,-0.231,1.142,-0.016,-0.335,0.817,-0.316,-0.313,0.888,1002.146,703.919,0.944,935.752,702.131,0.938,1092.368,528.911,1.113,841.945,534.531,1.141,1109.047,290.162,1.007,715.717,348.008,1.142,941.410,149.617,0.817,621.160,205.137,0.888,-0.031,-0.962,1.401,0.000,-4.347,0.000,-0.003,0.009,-0.020,0.160,-0.865,1.671
0722_180739_0048.png,0.051,0.162,0.929,-0.014,0.158,0.924,0.168,-0.005,1.096,-0.126,0.006,1.143,0.256,-0.261,1.121,-0.244,-0.228,1.073,0.094,-0.309,0.917,-0.121,-0.322,0.858,1012.669,705.979,0.929,945.356,702.723,0.924,1105.870,535.339,1.096,855.451,544.656,1.143,1176.928,318.914,1.121,743.361,337.810,1.073,1057.244,219.470,0.917,825.794,183.079,0.858,-0.037,-0.972,1.404,0.000,-8.292,0.000,-0.003,-0.001,-0.005,0.090,-1.277,1.402
0722_180739_0049.png,0.032,0.168,0.937,-0.035,0.167,0.937,0.156,-0.005,1.103,-0.143,0.005,1.144,0.134,-0.243,0.973,-0.296,-0.202,1.052,-0.007,-0.342,0.768,-0.380,-0.323,0.828,992.492,710.648,0.937,924.556,709.526,0.937,1094.819,535.844,1.103,841.326,543.774,1.144,1090.963,302.050,0.973,692.002,357.542,1.052,951.744,116.052,0.768,523.668,168.823,0.828,-0.025,-0.973,1.404,0.000,-6.780,0.000,-0.017,0.014,-0.016,-0.134,-1.002,1.415
0722_180739_0050.png,0.001,0.158,0.928,-0.063,0.163,0.936,0.113,0.002,1.148,-0.175,-0.011,1.091,0.087,-0.205,0.975,-0.169,-0.200,0.896,-0.016,-0.345,0.778,-0.116,-0.367,0.697,961.501,701.520,0.928,895.983,705.343,0.936,1053.484,541.422,1.148,807.314,530.102,1.091,1044.825,340.611,0.975,781.095,327.303,0.896,940.557,118.159,0.778,801.234,39.233,0.697,-0.034,-0.969,1.403,0.000,-347.373,0.000,0.010,0.008,0.002,-0.093,-1.178,1.278
0722_180739_0051.png,-0.003,0.160,0.938,-0.069,0.165,0.945,0.106,0.008,1.157,-0.186,-0.006,1.096,0.177,-0.202,0.990,-0.304,-0.231,1.163,0.207,-0.346,0.760,-0.184,-0.297,0.930,956.513,702.318,0.938,890.318,705.789,0.945,1047.176,546.458,1.157,798.943,534.672,1.096,1130.088,345.887,0.990,710.983,350.924,1.163,1218.536,107.284,0.760,772.035,236.431,0.930,-0.028,-0.976,1.404,0.000,-346.735,0.000,-0.005,0.035,-0.031,0.007,-1.109,1.241
0722_180739_0052.png,0.051,0.156,0.945,-0.015,0.153,0.938,0.162,-0.017,1.106,-0.136,-0.011,1.135,0.235,-0.213,1.262,-0.180,-0.228,0.993,0.391,-0.257,1.058,-0.054,-0.330,0.791,1011.100,696.940,0.945,944.784,695.018,0.938,1099.279,525.211,1.106,846.161,531.139,1.135,1137.451,379.479,1.262,787.936,321.895,0.993,1311.593,308.842,1.058,894.821,142.641,0.791,-0.038,-0.967,1.402,0.000,-4.501,0.000,-0.008,0.038,0.026,0.236,-0.924,1.405
0722_180739_0053.png,0.023,0.163,0.925,-0.045,0.163,0.925,0.141,-0.004,1.117,-0.165,-0.005,1.113,0.125,-0.249,1.016,-0.323,-0.228,1.117,-0.021,-0.323,0.814,-0.382,-0.305,0.880,983.774,707.242,0.925,914.051,707.383,0.925,1080.327,536.186,1.117,819.322,535.365,1.113,1076.850,306.596,1.016,685.301,345.978,1.117,936.024,162.715,0.814,547.588,210.530,0.880,-0.028,-0.969,1.403,0.000,-358.039,0.000,-0.030,-0.010,0.035,0.054,-1.177,1.378
0722_180739_0054.png,0.044,0.148,0.940,-0.023,0.144,0.934,0.160,-0.018,1.105,-0.143,-0.009,1.143,0.162,-0.261,0.993,-0.230,-0.192,0.962,0.131,-0.340,0.744,-0.250,-0.341,0.744,1004.547,689.535,0.940,936.343,686.727,0.934,1097.491,524.852,1.105,840.715,532.531,1.143,1114.926,290.219,0.993,732.819,350.180,0.962,1127.688,105.498,0.744,640.281,103.742,0.744,-0.029,-0.963,1.401,0.000,-6.072,0.000,-0.029,0.027,0.001,0.160,-1.124,1.553
0722_180739_0055.png,0.016,0.156,0.937,-0.050,0.158,0.941,0.135,-0.009,1.131,-0.162,-0.010,1.124,0.215,-0.257,1.055,-0.289,-0.231,1.028,0.073,-0.328,0.841,-0.323,-0.341,0.786,975.852,698.619,0.937,909.423,699.719,0.941,1073.529,532.827,1.131,823.142,531.339,1.124,1154.143,308.475,1.055,692.365,326.495,1.028,1042.692,168.719,0.841,569.136,127.453,0.786,-0.028,-0.962,1.401,0.000,-357.361,0.000,0.000,0.010,-0.019,-0.104,-1.111,1.268
0722_180739_0056.png,0.039,0.187,0.938,-0.027,0.185,0.934,0.154,0.002,1.114,-0.145,0.007,1.134,0.067,-0.180,0.919,-0.273,-0.180,0.971,-0.016,-0.359,0.729,-0.353,-0.347,0.771,999.866,729.118,0.938,932.481,728.174,0.934,1091.831,541.742,1.114,838.550,545.642,1.134,1029.723,353.311,0.919,692.229,363.889,0.971,938.761,71.862,0.729,525.036,111.446,0.771,-0.033,-0.970,1.403,0.000,-2.828,0.000,-0.010,-0.020,-0.030,0.124,-0.788,1.533
0722_180739_0057.png,0.032,0.187,0.929,-0.033,0.186,0.929,0.152,-0.009,1.088,-0.136,0.002,1.134,0.089,-0.199,0.916,-0.300,-0.211,1.170,-0.018,-0.355,0.744,-0.386,-0.302,0.949,992.542,731.038,0.929,926.351,730.452,0.929,1092.555,532.562,1.088,845.652,541.834,1.134,1052.410,333.877,0.916,716.139,368.768,1.170,936.564,85.655,0.744,572.714,237.290,0.949,-0.025,-0.969,1.403,0.000,-8.241,0.000,0.017,-0.026,0.037,-0.136,-0.773,1.200
0722_180739_0058.png,0.032,0.189,0.929,-0.035,0.187,0.925,0.140,0.010,1.126,-0.161,0.008,1.114,0.195,-0.232,1.002,-0.229,-0.220,0.974,0.203,-0.351,0.762,-0.186,-0.355,0.747,992.564,733.110,0.929,924.167,732.708,0.925,1078.673,548.553,1.126,822.757,546.510,1.114,1144.726,320.266,1.002,736.007,325.044,0.974,1213.465,102.687,0.762,723.287,87.769,0.747,-0.033,-0.973,1.404,0.000,-356.711,0.000,-0.015,-0.039,-0.017,0.283,-1.023,1.263
0722_180739_0059.png,0.031,0.186,0.925,-0.036,0.184,0.921,0.144,0.004,1.109,-0.157,0.006,1.117,0.280,-0.228,1.177,-0.222,-0.206,0.968,0.388,-0.297,0.951,-0.201,-0.347,0.754,991.574,730.833,0.925,923.039,730.071,0.921,1083.107,543.638,1.109,826.130,545.206,1.117,1186.067,355.937,1.177,742.150,337.568,0.968,1347.927,243.279,0.951,706.445,102.275,0.754,-0.027,-0.974,1.404,0.000,-0.419,0.000,-0.013,-0.033,0.025,0.172,-0.895,1.599
0722_180739_0060.png,0.005,0.163,0.926,-0.062,0.168,0.936,0.129,0.001,1.143,-0.174,-0.007,1.109,0.279,-0.230,1.101,-0.223,-0.275,1.053,0.283,-0.323,0.846,-0.201,-0.340,0.791,965.189,707.156,0.926,897.123,710.407,0.936,1067.642,540.564,1.143,810.719,533.995,1.109,1200.549,341.376,1.101,758.714,292.110,1.053,1277.503,176.536,0.846,718.959,130.950,0.791,-0.031,-0.962,1.401,0.000,-352.379,0.000,-0.028,-0.023,-0.031,-0.223,-1.198,1.311
0722_180739_0061.png,0.033,0.166,0.930,-0.036,0.166,0.933,0.164,-0.007,1.094,-0.142,0.004,1.142,0.187,-0.254,0.990,-0.281,-0.211,1.236,0.047,-0.329,0.780,-0.376,-0.271,0.999,993.496,710.036,0.930,923.500,709.138,0.933,1102.393,533.685,1.094,841.825,543.269,1.142,1139.935,295.700,0.990,743.762,377.792,1.236,1017.688,139.090,0.780,601.919,281.664,0.999,-0.027,-0.972,1.404,0.000,-8.108,0.000,-0.043,0.007,0.007,-0.250,-1.052,1.439
0722_180739_0062.png,0.007,0.171,0.936,-0.056,0.174,0.943,0.116,0.000,1.140,-0.165,-0.009,1.098,0.097,-0.179,0.934,-0.232,-0.258,1.033,0.079,-0.354,0.734,-0.081,-0.339,0.839,967.030,713.514,0.936,903.667,715.275,0.943,1056.899,540.228,1.140,816.928,531.827,1.098,1058.270,358.131,0.934,746.132,301.956,1.033,1062.424,81.332,0.734,868.437,156.218,0.839,-0.034,-0.971,1.403,0.000,-350.069,0.000,0.041,0.014,0.013,-0.055,-0.737,1.663
0722_180739_0063.png,0.026,0.175,0.934,-0.039,0.174,0.930,0.134,-0.007,1.117,-0.159,-0.008,1.110,0.168,-0.272,1.147,-0.255,-0.238,1.024,0.145,-0.311,0.898,-0.268,-0.336,0.792,986.587,717.844,0.934,920.419,717.543,0.930,1074.366,534.336,1.117,824.187,533.090,1.110,1099.578,314.379,1.147,723.571,318.708,1.024,1113.456,210.936,0.898,638.669,136.742,0.792,-0.028,-0.968,1.403,0.000,-357.590,0.000,0.013,-0.006,0.045,0.207,-0.821,1.390
0722_180739_0064.png,0.033,0.170,0.940,-0.035,0.171,0.945,0.163,-0.006,1.114,-0.146,-0.001,1.132,0.136,-0.256,1.021,-0.298,-0.226,1.120,-0.018,-0.321,0.812,-0.314,-0.304,0.868,993.371,711.655,0.940,924.320,712.020,0.945,1098.913,535.269,1.114,837.216,538.806,1.132,1086.858,301.230,1.021,707.006,348.104,1.120,939.042,164.518,0.812,615.971,207.417,0.868,-0.038,-0.971,1.403,0.000,-2.236,0.000,-0.042,0.020,-0.004,-0.232,-0.920,1.158
0722_180739_0065.png,0.035,0.171,0.933,-0.030,0.169,0.931,0.155,-0.004,1.101,-0.135,0.006,1.144,0.226,-0.222,1.248,-0.188,-0.173,0.931,0.282,-0.291,0.996,-0.243,-0.348,0.724,995.287,714.216,0.933,929.123,712.630,0.931,1093.522,536.248,1.101,848.175,544.588,1.144,1132.036,371.004,1.248,767.830,363.144,0.931,1229.524,261.803,0.996,641.557,83.411,0.724,-0.027,-0.970,1.403,0.000,-7.489,0.000,0.015,-0.006,-0.020,-0.076,-0.940,1.728
0722_180739_0066.png,0.015,0.192,0.936,-0.053,0.193,0.940,0.137,0.008,1.129,-0.168,0.005,1.116,0.181,-0.250,1.043,-0.242,-0.245,1.027,0.012,-0.325,0.847,-0.098,-0.331,0.816,974.860,734.742,0.936,906.446,735.414,0.940,1075.589,547.054,1.129,816.735,544.679,1.116,1125.554,311.896,1.043,735.482,312.988,1.027,973.061,174.428,0.847,845.940,154.038,0.816,-0.028,-0.973,1.404,0.000,-356.415,0.000,-0.030,-0.019,-0.022,-0.101,-0.755,1.296
0722_180739_0067.png,0.041,0.171,0.928,-0.026,0.170,0.930,0.164,-0.008,1.094,-0.133,0.000,1.130,0.248,-0.262,1.087,-0.302,-0.204,1.095,0.247,-0.316,0.840,-0.309,-0.312,0.867,1001.646,714.981,0.928,933.671,714.323,0.930,1102.733,532.932,1.094,847.907,540.301,1.130,1176.802,310.700,1.087,698.048,362.997,1.095,1239.866,181.927,0.840,620.666,198.239,0.867,-0.037,-0.973,1.404,0.000,-6.088,0.000,-0.010,0.003,0.044,-0.133,-0.932,1.445
0722_180739_0068.png,0.015,0.174,0.929,-0.053,0.175,0.930,0.132,0.010,1.135,-0.174,0.005,1.114,0.094,-0.212,0.970,-0.327,-0.219,1.170,-0.018,-0.345,0.760,-0.404,-0.299,0.922,975.622,718.156,0.929,906.066,719.176,0.930,1070.422,548.055,1.135,811.082,544.044,1.114,1052.418,332.408,0.970,694.241,362.004,1.170,937.860,108.277,0.760,543.067,231.392,0.922,-0.026,-0.973,1.404,0.000,-354.758,0.000,-0.034,-0.017,-0.031,0.060,-1.052,1.619
0722_180739_0069.png,0.003,0.183,0.930,-0.064,0.186,0.938,0.124,0.009,1.138,-0.176,0.002,1.106,0.116,-0.174,0.922,-0.304,-0.212,1.226,0.107,-0.352,0.712,-0.225,-0.289,0.981,962.970,727.213,0.930,895.532,729.066,0.938,1064.028,547.423,1.138,808.504,541.463,1.106,1079.365,360.470,0.922,724.482,375.622,1.226,1103.255,69.326,0.712,741.904,259.438,0.981,-0.027,-0.972,1.403,0.000,-352.742,0.000,-0.018,-0.021,-0.019,-0.167,-0.900,1.356
0722_180739_0070.png,0.004,0.167,0.920,-0.064,0.171,0.927,0.126,0.009,1.137,-0.180,0.000,1.099,0.232,-0.238,1.081,-0.323,-0.236,1.074,0.096,-0.315,0.864,-0.367,-0.322,0.828,964.004,712.585,0.920,894.468,715.650,0.927,1065.006,547.109,1.137,804.210,539.818,1.099,1164.479,330.790,1.081,674.071,331.349,1.074,1065.976,192.657,0.864,538.786,169.590,0.828,-0.028,-0.972,1.404,0.000,-351.575,0.000,-0.038,-0.022,-0.002,-0.120,-1.229,1.460
0722_180739_0071.png,0.015,0.158,0.931,-0.050,0.160,0.933,0.123,0.002,1.142,-0.167,-0.006,1.108,0.241,-0.240,1.104,-0.238,-0.249,1.202,0.132,-0.325,0.877,-0.217,-0.306,0.941,975.436,701.200,0.931,909.443,703.045,0.933,1062.188,541.333,1.142,816.468,534.727,1.108,1168.032,333.493,1.104,772.007,342.929,1.202,1103.669,187.637,0.877,740.583,231.001,0.941,-0.032,-0.968,1.403,0.000,-352.027,0.000,0.017,0.001,-0.019,0.091,-1.186,1.504
0722_180739_0072.png,0.005,0.155,0.944,-0.062,0.157,0.947,0.114,-0.007,1.151,-0.182,-0.018,1.103,0.097,-0.214,0.974,-0.170,-0.243,0.949,-0.004,-0.343,0.762,-0.121,-0.355,0.712,964.712,695.744,0.944,897.944,697.577,0.947,1054.274,534.293,1.151,803.196,524.408,1.103,1054.341,330.776,0.974,790.205,296.927,0.949,954.841,111.786,0.762,798.679,66.248,0.712,-0.027,-0.963,1.401,0.000,-349.265,0.000,-0.011,0.031,-0.015,0.111,-0.981,1.246
0722_180739_0073.png,0.066,0.164,0.941,-0.001,0.159,0.932,0.181,-0.020,1.081,-0.116,-0.003,1.153,0.166,-0.281,1.028,-0.279,-0.205,1.232,0.001,-0.319,0.828,-0.303,-0.275,0.983,1027.012,705.451,0.941,959.446,702.322,0.932,1119.598,522.240,1.081,864.203,537.159,1.153,1114.020,280.264,1.028,744.291,382.013,1.232,961.096,174.266,0.828,666.383,274.272,0.983,-0.038,-0.965,1.402,0.000,-12.926,0.000,-0.033,0.017,0.014,0.158,-0.956,1.229
0722_180739_0074.png,-0.011,0.165,0.940,-0.076,0.170,0.950,0.108,-0.003,1.151,-0.188,-0.015,1.099,0.273,-0.215,1.116,-0.233,-0.273,1.034,0.356,-0.310,0.880,-0.065,-0.327,0.834,949.235,707.285,0.940,883.675,709.824,0.950,1049.065,537.774,1.151,797.652,527.277,1.099,1192.354,356.672,1.116,746.034,289.228,1.034,1345.042,205.507,0.880,886.229,167.050,0.834,-0.023,-0.965,1.402,0.000,-348.543,0.000,-0.011,0.018,-0.014,-0.181,-0.857,1.201
0722_180739_0075.png,0.042,0.169,0.935,-0.024,0.168,0.934,0.162,-0.021,1.085,-0.130,-0.009,1.139,0.252,-0.273,1.112,-0.125,-0.178,0.935,0.086,-0.302,0.921,-0.116,-0.341,0.735,1002.266,711.787,0.935,935.421,711.017,0.934,1102.219,521.166,1.085,851.729,532.316,1.139,1175.744,306.547,1.112,833.183,359.203,0.935,1048.790,227.925,0.921,809.424,98.999,0.735,-0.031,-0.962,1.401,0.000,-9.476,0.000,0.000,0.002,0.050,-0.130,-0.813,1.118
0722_180739_0076.png,0.023,0.155,0.934,-0.043,0.156,0.938,0.147,-0.009,1.123,-0.152,-0.007,1.132,0.068,-0.184,0.918,-0.280,-0.199,1.272,-0.008,-0.355,0.719,-0.453,-0.263,1.077,983.652,697.324,0.934,916.564,697.905,0.938,1084.517,532.057,1.123,832.730,534.021,1.132,1030.460,348.953,0.918,750.429,391.113,1.272,949.669,69.948,0.719,560.605,307.533,1.077,-0.031,-0.962,1.401,0.000,-0.761,0.000,-0.006,0.004,-0.022,-0.166,-1.186,1.339
0722_180739_0077.png,0.034,0.145,0.939,-0.033,0.143,0.935,0.150,-0.018,1.119,-0.156,-0.015,1.132,0.130,-0.239,0.965,-0.302,-0.209,1.249,0.091,-0.346,0.728,-0.441,-0.265,1.031,994.913,686.684,0.939,926.366,685.234,0.935,1087.146,524.299,1.119,829.202,527.008,1.132,1088.449,304.861,0.965,729.782,381.093,1.249,1078.800,87.460,0.728,553.045,295.196,1.031,-0.029,-0.958,1.400,0.000,-1.349,0.000,-0.029,0.019,0.001,0.159,-1.076,1.675
0722_180739_0078.png,0.007,0.162,0.931,-0.058,0.166,0.940,0.132,-0.004,1.129,-0.163,-0.006,1.122,0.275,-0.224,1.058,-0.245,-0.183,0.925,0.352,-0.332,0.827,-0.326,-0.356,0.734,966.832,705.468,0.931,901.403,707.491,0.940,1071.089,536.627,1.129,822.208,535.213,1.122,1207.394,338.801,1.058,708.511,351.784,0.925,1365.462,157.466,0.827,537.401,78.561,0.734,-0.026,-0.965,1.402,0.000,-357.401,0.000,0.008,-0.002,-0.017,-0.305,-1.088,1.348
0722_180739_0079.png,0.051,0.160,0.932,-0.015,0.155,0.926,0.172,-0.014,1.084,-0.121,0.003,1.158,0.189,-0.268,0.981,-0.272,-0.212,1.233,0.053,-0.346,0.762,-0.359,-0.285,0.989,1012.287,703.444,0.932,944.112,699.187,0.926,1110.558,527.833,1.084,860.424,542.719,1.158,1143.169,280.507,0.981,750.093,376.585,1.233,1025.819,109.031,0.762,615.189,266.072,0.989,-0.028,-0.965,1.402,0.000,-13.504,0.000,-0.019,-0.003,-0.021,-0.003,-1.176,1.504
0722_180739_0080.png,0.015,0.172,0.940,-0.053,0.173,0.941,0.131,-0.002,1.132,-0.176,-0.008,1.107,0.121,-0.180,0.932,-0.258,-0.261,1.121,0.086,-0.341,0.729,-0.255,-0.304,0.866,975.106,713.913,0.940,906.145,714.447,0.941,1070.258,538.253,1.132,809.093,533.224,1.107,1083.751,356.543,0.932,740.961,318.397,1.121,1072.605,95.110,0.729,679.550,205.820,0.866,-0.027,-0.972,1.403,0.000,-354.000,0.000,-0.037,0.019,0.019,0.099,-0.813,1.286
0722_180739_0081.png,0.017,0.178,0.938,-0.050,0.180,0.942,0.137,-0.006,1.131,-0.167,-0.011,1.112,0.171,-0.251,1.018,-0.247,-0.241,0.991,0.143,-0.338,0.770,-0.165,-0.343,0.761,977.252,720.740,0.938,909.195,721.370,0.942,1075.344,534.697,1.131,817.484,530.897,1.112,1119.480,305.635,1.018,723.174,309.046,0.991,1135.962,123.055,0.770,754.000,112.026,0.761,-0.032,-0.961,1.401,0.000,-355.180,0.000,-0.026,-0.015,0.001,-0.046,-0.673,1.466
0722_180739_0082.png,0.019,0.165,0.950,-0.047,0.166,0.951,0.130,-0.008,1.143,-0.167,-0.015,1.110,0.209,-0.196,1.308,-0.143,-0.236,0.955,0.218,-0.261,1.052,-0.086,-0.350,0.723,979.152,705.196,0.950,912.841,705.858,0.951,1068.400,533.654,1.143,816.868,526.969,1.110,1111.637,397.479,1.308,817.804,305.079,0.955,1156.822,304.466,1.052,846.880,78.975,0.723,-0.035,-0.965,1.402,0.000,-352.333,0.000,-0.008,0.034,-0.006,0.132,-0.712,1.360
0722_180739_0083.png,0.027,0.174,0.931,-0.040,0.174,0.933,0.148,-0.011,1.105,-0.152,-0.007,1.123,0.158,-0.260,1.016,-0.256,-0.234,1.035,-0.018,-0.323,0.838,-0.269,-0.328,0.800,987.422,717.347,0.931,919.517,717.192,0.933,1087.231,530.308,1.105,831.327,534.001,1.123,1108.052,296.314,1.016,724.432,324.581,1.035,939.074,173.638,0.838,640.132,150.710,0.800,-0.028,-0.965,1.402,0.000,-2.387,0.000,-0.011,-0.010,0.042,-0.066,-0.778,1.493
0722_180739_0084.png,0.024,0.184,0.935,-0.040,0.185,0.938,0.143,0.005,1.119,-0.147,0.007,1.128,0.278,-0.202,1.231,-0.211,-0.256,1.089,0.235,-0.303,0.984,-0.193,-0.342,0.834,984.409,727.398,0.935,919.384,727.627,0.938,1081.082,544.393,1.119,836.285,546.116,1.128,1174.481,384.261,1.231,775.475,316.094,1.089,1187.010,247.475,0.984,740.417,149.938,0.834,-0.031,-0.974,1.404,0.000,-0.670,0.000,0.025,-0.011,-0.025,-0.123,-0.859,1.373
0722_180739_0085.png,-0.013,0.155,0.935,-0.080,0.160,0.946,0.111,-0.007,1.151,-0.191,-0.020,1.096,0.278,-0.218,1.191,-0.231,-0.256,0.970,0.385,-0.282,0.958,-0.203,-0.344,0.723,946.551,697.297,0.935,879.597,700.899,0.946,1051.783,534.446,1.151,793.811,523.059,1.096,1181.877,366.046,1.191,733.151,289.471,0.970,1342.247,259.804,0.958,693.719,87.830,0.723,-0.023,-0.961,1.401,0.000,-348.139,0.000,-0.037,0.016,-0.002,-0.246,-0.980,1.354
0722_180739_0086.png,0.040,0.163,0.940,-0.024,0.160,0.935,0.150,-0.014,1.110,-0.136,-0.008,1.136,0.281,-0.237,1.179,-0.294,-0.212,1.205,0.171,-0.309,0.952,-0.372,-0.299,0.969,1000.275,704.747,0.940,935.985,703.141,0.935,1088.299,528.019,1.110,846.116,533.256,1.136,1186.498,348.953,1.179,728.269,372.873,1.205,1130.623,231.503,0.952,595.138,246.265,0.969,-0.032,-0.962,1.401,0.000,-4.121,0.000,0.033,0.004,0.000,0.152,-0.985,1.329
0722_180739_0087.png,0.015,0.171,0.926,-0.051,0.173,0.929,0.121,0.002,1.146,-0.172,-0.008,1.101,0.227,-0.229,1.261,-0.246,-0.209,1.283,0.351,-0.288,1.029,-0.281,-0.288,1.027,975.061,715.662,0.926,907.633,717.573,0.929,1060.826,541.869,1.146,811.471,533.011,1.101,1131.067,367.061,1.261,777.934,385.080,1.283,1284.485,273.831,1.029,699.655,273.415,1.027,-0.034,-0.960,1.401,0.000,-349.885,0.000,0.000,-0.041,-0.027,0.122,-1.040,1.509
0722_180739_0088.png,0.045,0.165,0.942,-0.019,0.162,0.935,0.157,-0.014,1.107,-0.131,-0.005,1.145,0.100,-0.193,0.898,-0.239,-0.240,1.056,0.048,-0.369,0.696,-0.118,-0.336,0.839,1005.824,707.066,0.942,940.756,704.739,0.935,1095.098,528.396,1.107,850.875,536.193,1.145,1066.113,335.653,0.898,744.854,323.610,1.056,1024.996,35.382,0.696,825.814,158.971,0.839,-0.032,-0.960,1.401,0.000,-6.682,0.000,0.019,-0.003,-0.024,0.156,-0.988,1.361
0722_180739_0089.png,-0.006,0.162,0.937,-0.073,0.166,0.947,0.120,-0.008,1.143,-0.185,-0.018,1.098,0.139,-0.271,1.113,-0.256,-0.264,1.022,0.077,-0.304,0.862,-0.246,-0.329,0.771,954.168,704.814,0.937,886.856,707.051,0.947,1059.952,533.678,1.143,800.164,524.623,1.098,1079.105,308.265,1.113,721.806,294.263,1.022,1044.930,204.963,0.862,656.584,133.834,0.771,-0.025,-0.964,1.402,0.000,-350.358,0.000,-0.038,0.016,0.016,-0.220,-0.775,1.520
0722_180739_0090.png,0.023,0.179,0.946,-0.042,0.179,0.947,0.135,-0.003,1.136,-0.158,-0.006,1.123,0.071,-0.181,0.920,-0.311,-0.179,1.263,0.011,-0.356,0.709,-0.342,-0.289,1.015,983.371,719.747,0.946,917.973,720.010,0.947,1073.246,537.500,1.136,826.154,535.049,1.123,1033.274,352.959,0.920,725.539,405.327,1.263,975.174,63.259,0.709,639.889,269.503,1.015,-0.033,-0.963,1.401,0.000,-356.333,0.000,0.011,-0.005,-0.038,0.078,-0.692,1.455
0722_180739_0091.png,0.038,0.182,0.931,-0.028,0.182,0.933,0.159,-0.007,1.103,-0.139,-0.003,1.123,0.200,-0.224,0.959,-0.279,-0.228,1.081,0.169,-0.348,0.740,-0.172,-0.319,0.867,998.603,726.122,0.931,931.143,726.010,0.933,1096.953,533.617,1.103,842.554,537.739,1.123,1158.694,317.504,0.959,714.869,339.318,1.081,1177.696,92.747,0.740,770.841,189.909,0.867,-0.039,-0.968,1.403,0.000,-2.889,0.000,-0.005,-0.017,0.038,-0.081,-0.713,1.443
0722_180739_0092.png,0.016,0.173,0.937,-0.049,0.174,0.942,0.140,-0.010,1.111,-0.156,-0.007,1.123,0.263,-0.204,1.248,-0.245,-0.241,1.039,0.298,-0.280,1.006,-0.118,-0.327,0.833,976.436,715.005,0.937,910.408,715.369,0.942,1079.452,531.367,1.111,828.089,533.875,1.123,1160.719,384.384,1.248,735.528,319.055,1.039,1241.225,275.395,1.006,825.310,166.723,0.833,-0.024,-0.968,1.403,0.000,-1.295,0.000,0.004,0.011,0.033,-0.221,-0.767,1.231
0722_180739_0093.png,0.008,0.173,0.930,-0.058,0.176,0.932,0.114,0.009,1.149,-0.181,-0.002,1.099,0.178,-0.252,1.210,-0.179,-0.252,0.978,0.155,-0.302,0.944,-0.094,-0.360,0.743,968.358,717.263,0.930,900.584,719.239,0.932,1054.600,547.762,1.149,803.433,538.258,1.099,1100.022,342.073,1.210,785.654,294.769,0.978,1115.806,235.512,0.944,839.854,79.651,0.743,-0.028,-0.969,1.403,0.000,-349.054,0.000,-0.009,-0.018,-0.033,0.157,-1.039,1.473
0722_180739_0094.png,0.052,0.175,0.936,-0.015,0.172,0.929,0.168,-0.014,1.094,-0.137,-0.004,1.136,0.138,-0.211,0.919,-0.272,-0.185,1.293,0.060,-0.348,0.715,-0.274,-0.261,1.048,1013.004,717.450,0.936,944.257,715.797,0.929,1105.692,528.224,1.094,845.250,536.763,1.136,1102.993,322.106,0.919,759.939,403.884,1.293,1039.364,77.297,0.715,711.415,303.146,1.048,-0.035,-0.964,1.402,0.000,-6.902,0.000,-0.036,-0.012,0.028,0.198,-0.874,1.264
0722_180739_0095.png,0.049,0.169,0.926,-0.016,0.166,0.923,0.169,-0.010,1.076,-0.115,0.007,1.149,0.090,-0.187,0.891,-0.134,-0.173,0.945,0.012,-0.361,0.710,-0.151,-0.349,0.747,1010.523,713.910,0.926,943.765,710.858,0.923,1109.322,531.323,1.076,864.466,545.767,1.149,1055.784,339.828,0.891,825.585,365.758,0.945,975.980,57.098,0.710,768.061,95.788,0.747,-0.031,-0.972,1.404,0.000,-13.592,0.000,0.010,-0.007,0.017,-0.077,-0.982,1.737
0722_180739_0096.png,0.021,0.190,0.934,-0.046,0.192,0.940,0.143,0.003,1.130,-0.160,-0.002,1.109,0.246,-0.205,1.284,-0.163,-0.239,0.973,0.334,-0.273,1.043,-0.117,-0.349,0.737,981.635,733.200,0.934,913.529,733.923,0.940,1080.647,542.177,1.130,822.507,538.026,1.109,1141.995,388.128,1.284,800.668,306.798,0.973,1264.511,291.570,1.043,809.503,90.193,0.737,-0.039,-0.967,1.403,0.000,-354.716,0.000,-0.026,-0.027,-0.002,-0.114,-0.711,1.217
0722_180739_0097.png,0.010,0.155,0.942,-0.057,0.158,0.949,0.130,-0.009,1.145,-0.169,-0.015,1.116,0.195,-0.215,0.970,-0.197,-0.252,0.979,0.197,-0.352,0.736,-0.069,-0.347,0.761,969.628,696.013,0.942,903.262,698.224,0.949,1068.020,532.606,1.145,815.948,526.889,1.116,1151.571,329.550,0.970,769.063,295.248,0.979,1214.150,84.761,0.736,874.309,106.818,0.761,-0.032,-0.960,1.401,0.000,-353.294,0.000,-0.012,0.022,-0.029,-0.154,-1.061,1.098
0722_180739_0098.png,0.001,0.163,0.920,-0.062,0.168,0.929,0.110,0.003,1.143,-0.171,-0.010,1.089,0.074,-0.175,0.938,-0.283,-0.233,0.994,0.039,-0.350,0.738,-0.322,-0.357,0.769,961.257,708.080,0.920,897.022,712.039,0.929,1051.864,542.352,1.143,811.105,531.699,1.089,1034.763,362.563,0.938,688.842,316.778,0.994,1010.367,89.821,0.738,561.097,98.551,0.769,-0.033,-0.967,1.402,0.000,-347.738,0.000,0.036,-0.020,0.012,-0.130,-1.157,1.461
0722_180739_0099.png,0.052,0.172,0.935,-0.015,0.169,0.933,0.175,-0.010,1.095,-0.118,0.004,1.156,0.252,-0.275,1.073,-0.133,-0.203,0.964,0.108,-0.332,0.848,-0.079,-0.358,0.744,1012.672,714.999,0.935,944.987,712.627,0.933,1111.950,531.478,1.095,862.640,543.610,1.156,1183.574,296.739,1.073,828.463,339.993,0.964,1081.542,167.982,0.848,859.443,82.232,0.744,-0.036,-0.962,1.401,0.000,-11.025,0.000,-0.010,-0.017,-0.044,-0.103,-1.084,1.176
0722_180739_0100.png,0.019,0.138,0.935,-0.043,0.138,0.936,0.133,-0.018,1.123,-0.151,-0.017,1.127,0.123,-0.264,1.017,-0.169,-0.193,0.920,0.073,-0.352,0.777,-0.189,-0.364,0.718,979.745,679.923,0.935,915.816,680.139,0.936,1072.552,524.398,1.123,832.712,525.368,1.127,1074.874,293.521,1.017,785.282,340.715,0.920,1049.222,109.314,0.777,709.777,57.702,0.718,-0.027,-0.958,1.400,0.000,0.203,0.000,0.044,0.022,0.007,-0.046,-1.302,1.407
0722_180739_0101.png,0.011,0.172,0.929,-0.054,0.175,0.932,0.112,0.004,1.148,-0.172,-0.008,1.091,0.132,-0.178,0.937,-0.303,-0.246,1.080,0.153,-0.358,0.732,-0.209,-0.338,0.850,970.821,716.223,0.929,905.356,718.406,0.932,1052.738,543.724,1.148,810.488,532.635,1.091,1093.880,358.845,0.937,692.951,323.650,1.080,1159.021,75.273,0.732,726.290,162.218,0.850,-0.035,-0.966,1.402,0.000,-347.304,0.000,0.025,-0.018,-0.008,0.144,-1.029,1.276
0722_180739_0102.png,0.008,0.160,0.939,-0.058,0.162,0.946,0.132,-0.015,1.131,-0.168,-0.019,1.114,0.140,-0.257,1.019,-0.167,-0.273,1.032,0.105,-0.337,0.775,-0.103,-0.331,0.787,968.219,701.705,0.939,901.619,703.100,0.946,1071.274,527.284,1.131,816.345,523.697,1.114,1090.545,300.211,1.019,806.497,288.433,1.032,1089.410,126.435,0.775,835.993,139.869,0.787,-0.028,-0.958,1.400,0.000,-355.454,0.000,-0.014,0.011,0.016,-0.206,-0.808,1.409
0722_180739_0103.png,0.029,0.171,0.940,-0.039,0.171,0.941,0.153,-0.006,1.106,-0.151,0.000,1.134,0.296,-0.233,1.121,-0.222,-0.172,0.939,0.362,-0.300,0.877,-0.289,-0.339,0.747,989.007,713.168,0.940,920.534,712.803,0.941,1091.726,534.510,1.106,833.264,540.111,1.134,1211.187,342.299,1.121,735.103,365.500,0.939,1352.254,214.345,0.877,592.576,108.007,0.747,-0.026,-0.974,1.404,0.000,-4.289,0.000,-0.029,0.024,0.013,-0.109,-0.774,1.568
0722_180739_0104.png,0.055,0.153,0.932,-0.010,0.147,0.925,0.170,-0.022,1.080,-0.116,-0.005,1.153,0.126,-0.286,1.090,-0.200,-0.188,0.976,0.073,-0.324,0.838,-0.229,-0.345,0.768,1016.356,695.591,0.932,950.165,691.052,0.925,1109.523,520.824,1.080,864.066,535.962,1.153,1069.864,290.243,1.090,764.717,356.529,0.976,1043.365,172.209,0.838,676.827,113.396,0.768,-0.031,-0.962,1.401,0.000,-13.585,0.000,0.004,0.007,0.014,0.093,-1.155,1.523
0722_180739_0105.png,-0.001,0.165,0.940,-0.067,0.167,0.943,0.105,-0.002,1.155,-0.189,-0.015,1.097,0.224,-0.227,1.052,-0.228,-0.265,0.990,0.250,-0.334,0.806,-0.210,-0.354,0.737,959.362,706.793,0.940,892.337,708.586,0.943,1046.099,538.415,1.155,795.917,526.784,1.097,1162.642,334.943,1.052,741.226,285.889,0.990,1255.077,145.458,0.806,688.679,82.579,0.737,-0.024,-0.962,1.401,0.000,-347.388,0.000,-0.010,0.006,-0.025,0.181,-0.952,1.183
0722_180739_0106.png,0.010,0.157,0.939,-0.054,0.161,0.949,0.133,-0.015,1.130,-0.158,-0.020,1.109,0.268,-0.228,1.057,-0.249,-0.207,1.270,0.330,-0.324,0.830,-0.279,-0.273,1.026,969.929,699.386,0.939,906.062,701.091,0.949,1071.570,527.099,1.130,824.591,522.855,1.109,1201.386,335.028,1.057,773.389,385.000,1.270,1338.555,169.127,0.830,701.672,286.671,1.026,-0.035,-0.962,1.401,0.000,-354.720,0.000,0.019,0.028,0.036,-0.296,-0.796,1.336
0722_180739_0107.png,0.026,0.165,0.934,-0.039,0.165,0.934,0.143,-0.010,1.116,-0.150,-0.006,1.130,0.087,-0.188,0.914,-0.221,-0.182,0.925,0.034,-0.362,0.718,-0.291,-0.354,0.725,986.923,708.413,0.934,920.739,707.971,0.934,1081.758,531.777,1.116,833.850,534.639,1.130,1050.444,344.617,0.914,733.167,352.812,0.925,1004.530,60.266,0.718,579.000,76.428,0.725,-0.028,-0.961,1.401,0.000,-1.690,0.000,0.012,-0.011,-0.007,-0.002,-0.898,1.708
0722_180739_0108.png,0.016,0.150,0.944,-0.049,0.152,0.949,0.139,-0.015,1.124,-0.155,-0.014,1.129,0.264,-0.234,1.193,-0.320,-0.218,1.153,0.317,-0.292,0.943,-0.238,-0.302,0.918,976.505,691.598,0.944,911.345,692.425,0.949,1077.322,527.218,1.124,829.232,528.389,1.129,1170.360,353.702,1.193,695.892,360.445,1.153,1279.443,245.552,0.943,713.026,227.552,0.918,-0.027,-0.965,1.402,0.000,0.028,0.000,0.010,0.044,0.002,-0.193,-0.934,1.424
0722_180739_0109.png,0.042,0.188,0.941,-0.023,0.186,0.937,0.156,-0.003,1.111,-0.139,0.001,1.130,0.072,-0.179,0.912,-0.225,-0.172,0.930,-0.009,-0.352,0.719,-0.310,-0.341,0.735,1002.658,729.784,0.941,936.544,729.231,0.937,1093.211,537.389,1.111,843.147,541.076,1.130,1034.820,353.089,0.912,729.391,364.010,0.930,947.558,74.943,0.719,558.579,98.586,0.735,-0.037,-0.968,1.403,0.000,-2.583,0.000,0.006,-0.016,-0.003,0.123,-0.716,1.234
0722_180739_0110.png,0.007,0.149,0.934,-0.056,0.150,0.935,0.113,-0.005,1.140,-0.172,-0.012,1.109,0.136,-0.268,1.092,-0.237,-0.241,0.982,0.087,-0.334,0.841,-0.248,-0.360,0.746,967.349,691.375,0.934,902.649,692.996,0.935,1054.005,536.028,1.140,812.160,529.899,1.109,1078.159,306.543,1.092,730.568,307.068,0.982,1057.867,162.745,0.841,643.490,80.916,0.746,-0.023,-0.966,1.402,0.000,-352.554,0.000,0.034,0.017,-0.007,0.100,-1.260,1.388
0722_180739_0111.png,0.046,0.172,0.936,-0.018,0.170,0.934,0.166,-0.009,1.100,-0.120,0.002,1.150,0.162,-0.282,1.140,-0.249,-0.240,1.147,0.140,-0.332,0.874,-0.271,-0.326,0.890,1007.023,714.990,0.936,941.415,713.215,0.934,1103.369,531.923,1.100,860.388,541.671,1.150,1095.370,304.978,1.140,753.962,340.674,1.147,1111.982,178.905,0.874,670.697,191.223,0.890,-0.036,-0.963,1.401,0.000,-8.879,0.000,0.021,-0.016,-0.034,-0.090,-1.052,1.164
0722_180739_0112.png,0.003,0.168,0.928,-0.061,0.173,0.937,0.122,0.004,1.134,-0.169,-0.004,1.100,0.161,-0.171,0.929,-0.261,-0.192,1.267,0.198,-0.342,0.729,-0.330,-0.275,1.032,963.052,712.551,0.928,897.817,715.203,0.937,1062.634,543.644,1.134,813.848,536.927,1.100,1124.799,365.144,0.929,763.822,396.105,1.267,1218.298,94.683,0.729,655.625,286.568,1.032,-0.031,-0.976,1.404,0.000,-351.927,0.000,0.011,0.008,0.020,-0.226,-1.046,1.306
0722_180739_0113.png,0.025,0.159,0.941,-0.040,0.158,0.938,0.134,-0.005,1.125,-0.160,-0.005,1.122,0.082,-0.183,0.927,-0.252,-0.234,1.019,0.026,-0.354,0.733,-0.151,-0.335,0.799,985.498,700.754,0.941,919.537,700.126,0.938,1073.501,535.931,1.125,824.321,535.371,1.122,1043.968,351.848,0.927,725.218,321.441,1.019,993.910,80.308,0.733,780.417,141.432,0.799,-0.026,-0.972,1.404,0.000,-358.264,0.000,0.009,0.032,0.004,0.187,-0.951,1.660
0722_180739_0114.png,0.038,0.140,0.937,-0.028,0.138,0.936,0.159,-0.023,1.107,-0.140,-0.014,1.142,0.151,-0.261,0.986,-0.282,-0.205,1.264,-0.017,-0.331,0.795,-0.438,-0.260,1.060,999.041,682.167,0.937,931.322,680.362,0.936,1096.374,520.559,1.107,843.143,527.996,1.142,1105.331,288.261,0.986,748.180,385.927,1.264,939.678,143.644,0.795,567.209,306.807,1.060,-0.030,-0.958,1.400,0.000,-5.813,0.000,-0.015,0.026,0.006,-0.006,-1.142,1.635
0722_180739_0115.png,0.054,0.154,0.937,-0.012,0.151,0.935,0.178,-0.020,1.088,-0.111,-0.004,1.160,0.274,-0.268,1.124,-0.209,-0.201,0.993,0.144,-0.312,0.894,-0.224,-0.347,0.766,1015.054,696.435,0.937,947.897,693.506,0.935,1115.326,522.230,1.088,868.641,537.077,1.160,1192.106,313.439,1.124,759.862,347.812,0.993,1113.278,208.307,0.894,681.816,109.368,0.766,-0.036,-0.961,1.401,0.000,-13.337,0.000,-0.006,0.014,-0.023,-0.130,-0.979,1.726
0722_180739_0116.png,0.011,0.175,0.935,-0.057,0.179,0.944,0.141,-0.002,1.135,-0.169,-0.007,1.111,0.125,-0.230,0.985,-0.193,-0.273,1.052,-0.010,-0.333,0.778,-0.138,-0.325,0.797,971.664,718.376,0.935,902.901,719.989,0.944,1078.542,538.282,1.135,815.343,533.588,1.111,1081.018,318.440,0.985,785.246,293.480,1.052,948.180,132.647,0.778,795.090,152.482,0.797,-0.035,-0.965,1.402,0.000,-354.353,0.000,-0.049,-0.009,-0.007,-0.250,-0.791,1.402
0722_180739_0117.png,-0.008,0.171,0.922,-0.072,0.177,0.934,0.108,0.008,1.147,-0.179,-0.008,1.078,0.068,-0.189,0.971,-0.183,-0.254,0.975,-0.020,-0.342,0.780,-0.150,-0.352,0.739,952.082,716.631,0.922,887.183,720.513,0.934,1049.921,546.400,1.147,801.922,532.841,1.078,1026.956,355.258,0.971,781.098,292.045,0.975,935.474,122.651,0.780,766.582,86.631,0.739,-0.034,-0.974,1.404,0.000,-345.020,0.000,0.002,-0.006,0.025,-0.217,-0.907,1.621
0722_180739_0118.png,0.048,0.186,0.935,-0.016,0.184,0.928,0.161,-0.007,1.094,-0.130,0.002,1.136,0.074,-0.183,0.903,-0.210,-0.240,1.048,-0.012,-0.356,0.718,-0.056,-0.332,0.859,1009.289,729.568,0.935,943.372,728.276,0.928,1099.750,533.721,1.094,851.395,542.034,1.136,1037.535,346.896,0.903,769.079,322.134,1.048,944.543,68.906,0.718,897.756,172.879,0.859,-0.034,-0.967,1.402,0.000,-7.267,0.000,0.011,-0.027,0.014,0.156,-0.783,1.296
0722_180739_0119.png,0.023,0.141,0.933,-0.041,0.142,0.935,0.135,-0.013,1.134,-0.154,-0.017,1.118,0.102,-0.221,0.962,-0.317,-0.222,1.159,0.019,-0.358,0.753,-0.409,-0.308,0.928,983.446,683.423,0.933,918.311,684.711,0.935,1072.976,528.860,1.134,829.151,525.597,1.118,1060.903,321.390,0.962,699.805,357.744,1.159,983.764,87.434,0.753,541.533,224.192,0.928,-0.036,-0.959,1.401,0.000,-355.597,0.000,0.027,0.014,-0.002,0.015,-1.202,1.648
0722_180739_0120.png,0.027,0.173,0.927,-0.039,0.174,0.930,0.153,-0.007,1.101,-0.143,0.001,1.135,0.255,-0.255,1.049,-0.321,-0.193,1.213,0.175,-0.335,0.812,-0.266,-0.295,0.978,987.837,717.847,0.927,920.244,717.462,0.930,1091.952,533.869,1.101,839.755,540.516,1.135,1190.829,309.069,1.049,708.262,388.857,1.213,1164.283,148.190,0.812,701.608,253.239,0.978,-0.027,-0.966,1.402,0.000,-5.460,0.000,-0.004,-0.021,0.007,-0.194,-0.906,1.615
0722_180739_0121.png,0.006,0.179,0.937,-0.059,0.181,0.942,0.118,0.003,1.137,-0.174,-0.006,1.094,0.191,-0.250,1.111,-0.313,-0.234,1.088,0.193,-0.317,0.863,-0.226,-0.318,0.861,965.976,721.521,0.937,900.179,722.553,0.942,1058.478,542.819,1.137,808.817,534.362,1.094,1123.674,325.922,1.111,686.617,335.343,1.088,1172.868,190.778,0.863,710.115,188.328,0.861,-0.029,-0.976,1.404,0.000,-350.248,0.000,0.006,0.016,0.027,0.013,-0.661,1.534
0722_180739_0122.png,-0.001,0.171,0.926,-0.065,0.177,0.939,0.122,0.011,1.145,-0.170,0.001,1.103,0.111,-0.203,0.967,-0.266,-0.252,1.060,0.028,-0.356,0.759,-0.115,-0.333,0.852,958.977,715.499,0.926,894.178,719.634,0.939,1061.181,548.745,1.145,813.080,540.718,1.103,1069.205,339.869,0.967,721.197,313.476,1.060,995.406,94.682,0.759,831.233,167.725,0.852,-0.034,-0.973,1.404,0.000,-350.399,0.000,0.005,-0.010,-0.030,-0.321,-1.029,1.587
0722_180739_0123.png,0.016,0.173,0.943,-0.048,0.173,0.945,0.127,-0.009,1.133,-0.164,-0.015,1.109,0.084,-0.196,0.945,-0.325,-0.223,1.154,0.001,-0.353,0.752,-0.405,-0.306,0.921,976.609,714.075,0.943,911.427,714.530,0.945,1066.908,532.414,1.133,819.663,527.551,1.109,1044.142,342.791,0.945,692.227,355.884,1.154,961.390,93.966,0.752,541.880,224.462,0.921,-0.031,-0.962,1.401,0.000,-354.022,0.000,0.016,0.006,0.014,0.066,-0.661,1.400
0722_180739_0124.png,0.043,0.159,0.932,-0.023,0.155,0.926,0.159,-0.017,1.097,-0.136,-0.006,1.143,0.133,-0.255,0.972,-0.229,-0.242,1.048,-0.017,-0.344,0.776,-0.083,-0.329,0.846,1004.059,702.322,0.932,936.831,699.589,0.926,1097.775,525.661,1.097,847.241,535.054,1.143,1089.784,290.545,0.972,752.184,320.694,1.048,938.945,117.716,0.776,866.385,170.912,0.846,-0.028,-0.959,1.401,0.000,-7.956,0.000,-0.004,-0.012,0.005,0.097,-1.026,1.708
0722_180739_0125.png,0.046,0.157,0.945,-0.021,0.156,0.948,0.176,-0.020,1.092,-0.117,-0.004,1.159,0.295,-0.201,1.240,-0.296,-0.201,1.195,0.233,-0.278,0.991,-0.203,-0.287,0.958,1006.478,697.839,0.945,939.405,696.744,0.948,1113.177,522.985,1.092,863.744,536.643,1.159,1186.569,386.126,1.240,724.636,379.703,1.195,1183.894,273.505,0.991,758.224,255.405,0.958,-0.035,-0.965,1.402,0.000,-12.065,0.000,-0.015,0.039,-0.022,-0.356,-0.909,1.323
0722_180739_0126.png,0.002,0.174,0.943,-0.063,0.177,0.949,0.119,0.003,1.146,-0.175,-0.004,1.116,0.079,-0.192,0.943,-0.226,-0.193,0.910,0.007,-0.361,0.737,-0.241,-0.369,0.696,962.273,715.941,0.943,896.890,717.608,0.949,1058.396,542.635,1.146,810.402,536.868,1.116,1040.117,346.038,0.943,723.840,337.991,0.910,969.029,74.091,0.737,630.774,35.887,0.696,-0.024,-0.968,1.402,0.000,-352.890,0.000,0.004,0.007,-0.048,-0.107,-0.900,1.124
0722_180739_0127.png,-0.001,0.146,0.936,-0.066,0.152,0.946,0.115,-0.001,1.151,-0.176,-0.014,1.097,0.185,-0.189,1.316,-0.171,-0.208,0.907,0.236,-0.256,1.067,-0.114,-0.361,0.696,958.636,688.155,0.936,893.473,692.412,0.946,1054.911,538.762,1.151,807.078,527.943,1.097,1093.906,403.691,1.316,780.630,321.471,0.907,1170.266,311.904,1.067,804.039,47.244,0.696,-0.033,-0.972,1.403,0.000,-348.059,0.000,0.001,0.048,-0.004,-0.143,-1.023,1.727
0722_180739_0128.png,0.048,0.175,0.933,-0.019,0.172,0.927,0.163,-0.004,1.100,-0.139,0.003,1.132,0.259,-0.256,1.082,-0.212,-0.253,1.096,0.132,-0.314,0.862,-0.181,-0.317,0.846,1009.178,717.989,0.933,940.924,716.156,0.927,1100.935,536.483,1.100,843.599,542.852,1.132,1187.965,314.622,1.082,776.364,320.182,1.096,1105.380,193.401,0.862,756.035,183.696,0.846,-0.035,-0.973,1.404,0.000,-5.132,0.000,-0.022,-0.004,0.019,0.182,-1.025,1.282
0722_180739_0129.png,0.031,0.170,0.927,-0.034,0.169,0.928,0.156,-0.009,1.093,-0.135,0.003,1.146,0.272,-0.257,1.090,-0.170,-0.235,1.015,0.306,-0.332,0.837,-0.057,-0.343,0.802,992.097,714.813,0.927,924.693,713.253,0.928,1095.936,532.481,1.093,847.570,542.867,1.146,1197.533,315.420,1.090,800.556,320.146,1.015,1307.368,162.848,0.837,892.681,132.846,0.802,-0.023,-0.965,1.402,0.000,-9.318,0.000,0.001,-0.022,-0.008,-0.204,-1.125,1.276
0722_180739_0130.png,0.035,0.173,0.929,-0.032,0.171,0.926,0.154,-0.010,1.097,-0.146,-0.001,1.137,0.286,-0.250,1.074,-0.234,-0.236,1.037,0.338,-0.325,0.828,-0.103,-0.328,0.828,995.704,716.819,0.929,927.000,715.219,0.926,1093.729,531.568,1.097,837.801,539.541,1.137,1213.183,318.762,1.074,745.111,323.430,1.037,1348.130,167.392,0.828,841.904,163.278,0.828,-0.024,-0.964,1.402,0.000,-6.596,0.000,-0.021,-0.025,0.012,0.030,-0.967,1.494
0722_180739_0131.png,0.024,0.177,0.935,-0.039,0.180,0.943,0.150,0.001,1.119,-0.138,0.004,1.134,0.150,-0.187,0.902,-0.303,-0.207,1.165,0.154,-0.372,0.692,-0.215,-0.318,0.935,984.309,720.288,0.935,920.203,721.177,0.943,1087.275,540.551,1.119,844.282,543.442,1.134,1117.702,342.552,0.902,712.221,371.214,1.165,1171.330,28.863,0.692,741.494,216.305,0.935,-0.036,-0.969,1.403,0.000,-1.896,0.000,0.029,-0.009,-0.036,-0.343,-0.899,1.412
0722_180739_0132.png,0.017,0.168,0.928,-0.051,0.170,0.928,0.126,0.009,1.144,-0.178,-0.001,1.100,0.228,-0.240,1.082,-0.201,-0.257,1.003,0.090,-0.316,0.863,-0.160,-0.342,0.752,976.966,712.059,0.928,907.258,713.784,0.928,1065.032,547.240,1.144,806.520,538.845,1.100,1159.937,329.519,1.082,769.037,296.006,1.003,1058.768,192.041,0.863,757.738,106.706,0.752,-0.032,-0.972,1.404,0.000,-350.432,0.000,-0.035,-0.012,-0.018,0.187,-1.213,1.339
0722_180739_0133.png,0.022,0.175,0.925,-0.043,0.175,0.926,0.139,0.000,1.112,-0.154,0.002,1.122,0.060,-0.181,0.926,-0.309,-0.220,1.101,-0.017,-0.358,0.746,-0.389,-0.325,0.875,982.256,720.438,0.925,915.522,720.281,0.926,1078.668,539.691,1.112,829.520,541.688,1.122,1021.495,353.986,0.926,692.692,349.846,1.101,938.430,83.431,0.746,537.807,186.689,0.875,-0.026,-0.969,1.403,0.000,-0.883,0.000,0.013,-0.029,0.009,-0.043,-1.159,1.140
0722_180739_0134.png,0.032,0.164,0.927,-0.033,0.164,0.928,0.149,-0.005,1.119,-0.145,-0.003,1.126,0.069,-0.181,0.916,-0.239,-0.184,1.312,-0.008,-0.353,0.718,-0.305,-0.273,1.071,993.153,708.070,0.927,926.161,707.902,0.928,1086.819,535.726,1.119,837.127,537.211,1.126,1031.869,352.262,0.916,787.034,406.856,1.312,949.715,72.725,0.718,688.982,297.760,1.071,-0.036,-0.963,1.401,0.000,-0.325,0.000,0.007,-0.023,-0.010,-0.003,-1.242,1.258
0722_180739_0135.png,0.012,0.182,0.939,-0.052,0.185,0.946,0.136,0.002,1.123,-0.154,0.004,1.131,0.220,-0.193,0.942,-0.316,-0.202,1.059,0.254,-0.364,0.731,-0.408,-0.335,0.841,972.325,724.810,0.939,907.971,725.574,0.946,1075.316,541.936,1.123,830.330,543.497,1.131,1181.730,344.961,0.942,675.862,358.359,1.059,1290.944,66.265,0.731,499.042,160.924,0.841,-0.025,-0.971,1.403,0.000,-0.475,0.000,0.022,-0.004,-0.034,-0.298,-0.798,1.308
0722_180739_0136.png,0.007,0.151,0.943,-0.058,0.152,0.944,0.116,-0.015,1.142,-0.177,-0.024,1.102,0.059,-0.180,0.934,-0.271,-0.260,1.032,0.003,-0.340,0.730,-0.145,-0.327,0.818,967.323,691.919,0.943,901.287,693.056,0.944,1056.545,527.890,1.142,807.052,519.591,1.102,1020.346,356.994,0.934,709.982,300.500,1.032,963.700,97.730,0.730,791.466,159.487,0.818,-0.026,-0.961,1.401,0.000,-350.929,0.000,0.003,0.034,0.024,0.121,-0.839,1.574
0722_180739_0137.png,0.049,0.153,0.933,-0.015,0.150,0.932,0.170,-0.022,1.079,-0.108,-0.004,1.155,0.221,-0.255,1.196,-0.273,-0.198,1.075,0.248,-0.302,0.942,-0.310,-0.326,0.852,1009.838,696.107,0.933,944.446,693.269,0.932,1110.111,520.743,1.079,870.710,536.328,1.155,1136.047,337.244,1.196,718.650,365.025,1.075,1210.422,234.627,0.942,613.668,175.774,0.852,-0.033,-0.964,1.402,0.000,-14.397,0.000,0.026,0.018,0.013,-0.217,-1.171,1.231
0722_180739_0138.png,-0.004,0.172,0.922,-0.067,0.177,0.935,0.119,-0.002,1.135,-0.171,-0.011,1.096,0.245,-0.217,1.037,-0.137,-0.191,0.900,0.312,-0.336,0.818,-0.103,-0.367,0.710,956.167,717.190,0.922,891.781,720.072,0.935,1059.483,538.611,1.135,811.554,530.849,1.096,1184.547,341.167,1.037,815.205,338.687,0.900,1322.804,149.684,0.818,821.672,49.241,0.710,-0.029,-0.963,1.402,0.000,-351.030,0.000,0.015,-0.030,0.022,-0.349,-0.960,1.381
0722_180739_0139.png,0.015,0.179,0.929,-0.051,0.181,0.933,0.134,0.008,1.129,-0.165,0.006,1.120,0.186,-0.218,1.281,-0.282,-0.190,0.959,0.214,-0.285,1.019,-0.345,-0.355,0.751,975.246,723.626,0.929,907.703,724.573,0.933,1073.042,546.461,1.129,820.093,544.772,1.120,1097.769,377.833,1.281,680.489,351.257,0.959,1160.055,274.228,1.019,522.504,90.746,0.751,-0.027,-0.971,1.403,0.000,-357.073,0.000,-0.007,-0.025,-0.033,-0.084,-1.119,1.150
0722_180739_0140.png,0.042,0.159,0.936,-0.025,0.157,0.934,0.161,-0.014,1.104,-0.143,-0.007,1.133,0.168,-0.269,1.034,-0.122,-0.178,0.929,-0.007,-0.315,0.845,-0.098,-0.343,0.729,1002.794,701.429,0.936,934.240,700.045,0.934,1098.268,528.237,1.104,840.074,534.119,1.133,1114.884,292.589,1.034,835.286,357.795,0.929,951.840,185.400,0.845,831.959,92.447,0.729,-0.034,-0.967,1.402,0.000,-4.418,0.000,-0.027,0.017,0.023,0.075,-1.091,1.194
0722_180739_0141.png,0.032,0.169,0.946,-0.033,0.167,0.944,0.148,-0.002,1.117,-0.144,0.003,1.140,0.177,-0.240,0.983,-0.152,-0.180,0.920,0.169,-0.359,0.738,-0.164,-0.359,0.706,991.945,709.536,0.946,926.625,708.630,0.944,1086.158,537.901,1.117,840.227,542.461,1.140,1131.527,307.431,0.983,802.748,353.890,0.920,1178.186,77.874,0.738,739.483,56.786,0.706,-0.028,-0.973,1.404,0.000,-3.565,0.000,0.014,0.029,-0.033,-0.002,-0.968,1.246
0722_180739_0142.png,0.045,0.175,0.928,-0.021,0.173,0.927,0.169,-0.014,1.084,-0.122,0.001,1.147,0.118,-0.224,0.921,-0.246,-0.231,1.231,0.024,-0.362,0.718,-0.237,-0.293,0.977,1006.208,719.284,0.928,938.594,717.662,0.927,1107.938,527.919,1.084,858.748,540.710,1.147,1081.380,308.731,0.921,770.038,361.869,1.231,992.131,60.990,0.718,729.109,255.086,0.977,-0.032,-0.963,1.401,0.000,-11.487,0.000,-0.003,-0.027,0.008,-0.158,-0.921,1.403
0722_180739_0143.png,0.052,0.184,0.935,-0.014,0.181,0.927,0.165,-0.011,1.080,-0.132,0.003,1.139,0.122,-0.228,0.942,-0.301,-0.199,1.093,0.063,-0.343,0.726,-0.329,-0.309,0.869,1012.453,727.156,0.935,945.228,725.780,0.927,1105.073,530.696,1.080,850.043,542.403,1.139,1082.819,309.868,0.942,698.527,366.937,1.093,1042.855,90.428,0.726,599.921,201.430,0.869,-0.029,-0.972,1.404,0.000,-10.276,0.000,-0.019,-0.007,0.046,0.180,-0.721,1.340
0722_180739_0144.png,0.046,0.181,0.929,-0.018,0.179,0.924,0.159,0.003,1.104,-0.129,0.010,1.136,0.074,-0.179,0.906,-0.124,-0.173,0.921,-0.006,-0.357,0.712,-0.121,-0.353,0.713,1007.367,725.719,0.929,941.554,723.781,0.924,1097.164,542.645,1.104,851.759,548.757,1.136,1037.829,352.530,0.906,832.038,361.371,0.921,951.378,63.301,0.712,798.470,68.884,0.713,-0.037,-0.972,1.404,0.000,-5.351,0.000,0.022,-0.028,-0.018,0.122,-1.110,1.277
0722_180739_0145.png,-0.007,0.171,0.942,-0.073,0.176,0.953,0.110,0.002,1.159,-0.186,-0.012,1.098,0.202,-0.248,1.087,-0.284,-0.207,1.255,0.027,-0.313,0.891,-0.407,-0.274,1.023,952.728,713.047,0.942,886.785,715.714,0.953,1050.641,541.588,1.159,799.123,529.645,1.098,1136.714,323.009,1.087,744.509,383.552,1.255,989.062,205.733,0.891,581.421,285.443,1.023,-0.030,-0.965,1.402,0.000,-347.002,0.000,-0.019,0.009,-0.041,-0.151,-0.764,1.387
0722_180739_0146.png,0.024,0.174,0.925,-0.044,0.175,0.928,0.153,0.000,1.108,-0.155,0.005,1.131,0.181,-0.248,1.229,-0.311,-0.179,1.271,0.182,-0.286,0.966,-0.348,-0.274,1.026,984.877,719.355,0.925,914.676,719.299,0.928,1091.524,539.822,1.108,829.659,544.266,1.131,1100.152,348.001,1.229,727.404,405.902,1.271,1139.128,258.760,0.966,637.187,286.391,1.026,-0.027,-0.970,1.403,0.000,-3.201,0.000,-0.041,-0.026,-0.005,-0.171,-0.998,1.654
0722_180739_0147.png,0.007,0.173,0.935,-0.058,0.174,0.935,0.111,0.003,1.145,-0.182,-0.006,1.102,0.185,-0.196,1.316,-0.255,-0.187,0.904,0.237,-0.271,1.063,-0.328,-0.363,0.711,967.344,716.098,0.935,900.514,717.195,0.935,1052.496,542.842,1.145,803.325,534.548,1.102,1093.917,398.156,1.316,691.506,343.519,0.904,1171.620,297.230,1.063,520.841,54.791,0.711,-0.023,-0.966,1.402,0.000,-350.383,0.000,0.002,-0.012,-0.021,0.221,-0.975,1.337
0722_180739_0148.png,0.050,0.179,0.939,-0.017,0.177,0.936,0.171,-0.009,1.094,-0.127,0.005,1.152,0.294,-0.232,1.194,-0.164,-0.175,0.934,0.175,-0.295,0.960,-0.201,-0.350,0.721,1010.504,721.383,0.939,942.425,719.676,0.936,1108.711,532.590,1.094,855.327,544.023,1.152,1194.325,355.545,1.194,792.770,362.065,0.934,1133.464,247.877,0.960,694.996,79.150,0.721,-0.032,-0.966,1.402,0.000,-10.183,0.000,-0.023,-0.009,-0.026,-0.023,-0.751,1.640
0722_180739_0149.png,0.002,0.166,0.941,-0.060,0.170,0.954,0.118,-0.006,1.146,-0.163,-0.016,1.102,0.231,-0.212,1.266,-0.115,-0.194,0.898,0.386,-0.276,1.066,-0.071,-0.369,0.701,962.388,707.478,0.941,900.501,709.797,0.954,1057.762,535.003,1.146,819.126,526.107,1.102,1133.501,381.041,1.266,838.034,334.559,0.898,1304.634,293.927,1.066,863.113,39.692,0.701,-0.037,-0.964,1.402,0.000,-349.733,0.000,0.041,0.020,-0.003,-0.265,-0.760,1.298
0722_180739_0150.png,0.027,0.165,0.937,-0.041,0.165,0.939,0.152,-0.001,1.116,-0.154,0.002,1.132,0.116,-0.231,0.976,-0.231,-0.250,1.077,-0.018,-0.335,0.769,-0.219,-0.321,0.822,987.685,707.191,0.937,918.900,707.095,0.939,1089.494,538.804,1.116,830.708,541.980,1.132,1072.650,315.202,0.976,756.385,319.703,1.077,937.613,126.069,0.769,707.083,168.517,0.822,-0.029,-0.975,1.404,0.000,-1.969,0.000,-0.032,0.024,-0.010,-0.106,-1.080,1.297
0722_180739_0151.png,0.000,0.151,0.937,-0.065,0.154,0.943,0.112,-0.008,1.149,-0.180,-0.018,1.106,0.226,-0.251,1.120,-0.236,-0.279,1.069,0.062,-0.308,0.919,-0.219,-0.338,0.808,960.018,693.234,0.937,894.124,695.799,0.943,1052.888,533.482,1.149,804.943,524.870,1.106,1151.940,326.638,1.120,750.047,291.970,1.069,1024.424,220.959,0.919,701.920,142.945,0.808,-0.024,-0.960,1.401,0.000,-350.385,0.000,0.004,0.015,-0.019,-0.023,-1.027,1.521
0722_180739_0152.png,0.006,0.187,0.924,-0.061,0.189,0.928,0.121,0.008,1.133,-0.177,0.000,1.096,0.245,-0.234,1.190,-0.193,-0.260,1.016,0.137,-0.296,0.959,-0.055,-0.336,0.808,965.827,732.166,0.924,897.735,733.491,0.928,1061.774,546.840,1.133,806.044,539.662,1.096,1155.617,353.391,1.190,778.895,296.257,1.016,1096.029,246.489,0.959,895.658,144.268,0.808,-0.026,-0.972,1.403,0.000,-351.553,0.000,-0.014,-0.035,0.016,-0.021,-0.794,1.648
0722_180739_0153.png,0.039,0.197,0.936,-0.026,0.195,0.932,0.155,-0.001,1.102,-0.137,0.007,1.137,0.068,-0.184,0.909,-0.147,-0.180,0.931,-0.015,-0.363,0.721,-0.158,-0.365,0.733,999.804,740.064,0.936,933.514,739.361,0.932,1093.669,539.441,1.102,845.311,546.112,1.137,1031.527,347.890,0.909,809.738,355.733,0.931,940.711,61.103,0.721,754.573,66.783,0.733,-0.030,-0.967,1.402,0.000,-5.760,0.000,0.009,-0.042,-0.014,0.049,-0.723,1.208
0722_180739_0154.png,0.041,0.145,0.940,-0.026,0.143,0.937,0.158,-0.015,1.113,-0.141,-0.009,1.140,0.076,-0.186,0.911,-0.314,-0.206,1.074,-0.004,-0.351,0.714,-0.368,-0.318,0.840,1001.144,686.834,0.940,933.952,685.034,0.937,1094.718,527.136,1.113,842.422,532.661,1.140,1039.148,346.267,0.911,682.415,358.009,1.074,954.775,72.310,0.714,543.724,179.777,0.840,-0.033,-0.965,1.402,0.000,-4.173,0.000,-0.010,0.035,-0.007,0.071,-1.111,1.659
0722_180739_0155.png,0.025,0.161,0.934,-0.043,0.162,0.938,0.151,-0.002,1.122,-0.154,0.000,1.128,0.179,-0.184,1.315,-0.322,-0.207,1.066,0.254,-0.254,1.068,-0.414,-0.317,0.840,985.378,703.942,0.934,916.807,704.612,0.938,1087.855,538.335,1.122,829.855,539.687,1.128,1089.853,406.656,1.315,672.231,355.516,1.066,1186.285,313.454,1.068,490.780,181.417,0.840,-0.033,-0.972,1.403,0.000,-0.162,0.000,-0.028,0.015,-0.014,-0.163,-1.197,1.208
0722_180739_0156.png,0.010,0.180,0.938,-0.053,0.182,0.945,0.125,0.006,1.134,-0.161,0.001,1.111,0.112,-0.174,0.920,-0.320,-0.211,1.127,0.103,-0.351,0.712,-0.414,-0.317,0.904,970.183,722.410,0.938,906.575,723.748,0.945,1064.506,544.908,1.134,822.553,540.514,1.111,1075.754,359.864,0.920,689.924,361.595,1.127,1097.013,71.352,0.712,524.752,206.171,0.904,-0.031,-0.976,1.404,0.000,-354.127,0.000,0.036,0.009,-0.010,-0.144,-0.846,1.190
0722_180739_0157.png,0.018,0.171,0.946,-0.048,0.172,0.948,0.128,0.000,1.147,-0.168,-0.009,1.109,0.253,-0.228,1.061,-0.242,-0.255,1.181,0.220,-0.332,0.813,-0.226,-0.304,0.916,977.923,711.818,0.946,911.465,712.862,0.948,1066.055,539.641,1.147,815.696,532.116,1.109,1186.616,335.329,1.061,765.400,334.306,1.181,1217.027,151.003,0.813,725.552,223.901,0.916,-0.036,-0.967,1.402,0.000,-351.306,0.000,-0.007,0.018,-0.031,0.129,-0.833,1.174
0722_180739_0158.png,0.014,0.157,0.943,-0.052,0.158,0.947,0.134,-0.009,1.129,-0.165,-0.010,1.124,0.228,-0.256,1.105,-0.287,-0.233,1.038,0.079,-0.305,0.893,-0.323,-0.331,0.795,974.283,698.115,0.943,907.736,698.859,0.947,1073.009,532.368,1.129,820.499,531.396,1.124,1156.510,319.658,1.105,697.309,326.256,1.038,1044.578,214.891,0.893,573.970,144.003,0.795,-0.025,-0.967,1.402,0.000,-357.879,0.000,-0.007,0.036,-0.004,-0.074,-0.833,1.713
0722_180739_0159.png,0.016,0.171,0.933,-0.052,0.173,0.939,0.145,-0.008,1.118,-0.163,-0.006,1.127,0.288,-0.242,1.108,-0.327,-0.196,1.243,0.252,-0.314,0.855,-0.331,-0.280,0.992,975.919,714.224,0.933,906.916,714.847,0.939,1083.140,533.377,1.118,822.337,535.299,1.127,1207.526,332.009,1.108,709.845,390.357,1.243,1240.313,190.810,0.855,642.759,271.744,0.992,-0.024,-0.963,1.401,0.000,-0.664,0.000,-0.038,-0.012,-0.004,-0.221,-0.875,1.438
0722_180739_0160.png,0.045,0.171,0.929,-0.020,0.167,0.925,0.162,-0.005,1.090,-0.124,0.007,1.143,0.244,-0.254,1.163,-0.300,-0.193,1.180,0.099,-0.307,0.951,-0.281,-0.307,0.944,1005.601,714.673,0.929,939.633,712.097,0.925,1100.888,535.521,1.090,856.636,545.799,1.143,1159.341,332.487,1.163,718.425,384.140,1.180,1058.977,233.391,0.951,676.997,230.907,0.944,-0.032,-0.973,1.404,0.000,-9.538,0.000,0.021,-0.007,0.004,-0.010,-1.163,1.289
0722_180739_0161.png,0.055,0.158,0.940,-0.010,0.153,0.935,0.173,-0.011,1.088,-0.112,0.006,1.161,0.282,-0.252,1.093,-0.291,-0.194,1.154,0.201,-0.325,0.845,-0.245,-0.308,0.913,1015.361,699.870,0.940,949.376,695.803,0.935,1111.214,530.647,1.088,868.451,545.098,1.161,1205.226,320.812,1.093,719.913,379.918,1.154,1186.332,173.823,0.845,704.698,219.264,0.913,-0.032,-0.973,1.404,0.000,-13.690,0.000,0.008,0.033,-0.033,-0.025,-1.035,1.706
0722_180739_0162.png,0.044,0.173,0.926,-0.020,0.170,0.921,0.157,-0.009,1.092,-0.128,0.001,1.134,0.181,-0.235,1.250,-0.152,-0.177,0.932,0.191,-0.296,1.000,-0.175,-0.352,0.736,1005.222,718.116,0.926,939.823,715.999,0.921,1096.554,532.577,1.092,852.620,541.002,1.134,1097.792,361.280,1.250,805.221,359.384,0.932,1141.750,258.518,1.000,734.490,85.799,0.736,-0.033,-0.967,1.402,0.000,-7.488,0.000,0.030,-0.025,0.028,0.097,-1.140,1.130
0722_180739_0163.png,0.033,0.169,0.930,-0.030,0.167,0.926,0.147,-0.004,1.100,-0.136,0.006,1.140,0.203,-0.268,1.066,-0.199,-0.244,1.052,0.060,-0.337,0.856,-0.183,-0.348,0.809,993.728,713.161,0.930,928.785,710.939,0.926,1087.297,536.797,1.100,846.440,544.612,1.140,1141.173,301.165,1.066,779.816,319.151,1.052,1026.311,165.994,0.856,744.783,131.179,0.809,-0.024,-0.971,1.403,0.000,-7.104,0.000,0.036,-0.009,-0.006,0.028,-1.068,1.595
0722_180739_0164.png,0.037,0.182,0.934,-0.027,0.179,0.927,0.149,-0.003,1.100,-0.139,0.007,1.141,0.140,-0.279,1.109,-0.200,-0.178,0.942,0.090,-0.336,0.852,-0.261,-0.359,0.750,997.533,725.766,0.934,931.927,723.790,0.927,1089.058,537.681,1.100,844.260,545.563,1.141,1079.702,300.615,1.109,758.318,360.169,0.942,1060.400,165.232,0.852,628.887,84.610,0.750,-0.023,-0.968,1.403,0.000,-7.076,0.000,0.020,-0.026,-0.016,0.124,-0.859,1.610
0722_180739_0165.png,0.011,0.164,0.933,-0.057,0.167,0.937,0.132,0.004,1.138,-0.175,-0.002,1.113,0.249,-0.241,1.158,-0.336,-0.196,1.217,0.085,-0.290,0.948,-0.298,-0.284,0.966,971.581,707.402,0.933,902.378,709.225,0.937,1070.516,543.192,1.138,810.464,538.227,1.113,1164.506,341.664,1.158,697.875,387.111,1.217,1045.022,249.193,0.948,666.289,260.379,0.966,-0.028,-0.971,1.403,0.000,-353.931,0.000,-0.039,0.006,-0.023,-0.050,-1.083,1.481
0722_180739_0166.png,0.058,0.157,0.942,-0.004,0.150,0.931,0.167,-0.020,1.086,-0.107,-0.004,1.158,0.087,-0.245,0.954,-0.276,-0.187,1.244,0.006,-0.369,0.731,-0.424,-0.284,1.046,1018.818,698.384,0.942,955.904,693.600,0.931,1106.060,522.125,1.086,872.122,536.745,1.158,1046.588,295.562,0.954,749.209,396.914,1.244,967.851,60.093,0.731,574.895,281.444,1.046,-0.032,-0.961,1.401,0.000,-13.849,0.000,0.045,0.013,-0.014,0.175,-1.079,1.430
0722_180739_0167.png,0.063,0.177,0.935,-0.004,0.171,0.925,0.177,-0.002,1.092,-0.124,0.011,1.151,0.172,-0.271,1.034,-0.150,-0.222,1.005,-0.008,-0.325,0.840,-0.112,-0.341,0.765,1024.074,719.719,0.935,955.951,715.790,0.925,1114.286,538.057,1.092,857.780,549.407,1.151,1118.566,290.415,1.034,818.167,329.562,1.005,950.943,171.614,0.840,821.017,115.644,0.765,-0.037,-0.973,1.404,0.000,-10.251,0.000,-0.033,-0.011,-0.026,0.244,-1.047,1.489
0722_180739_0168.png,-0.003,0.186,0.930,-0.068,0.190,0.940,0.111,0.011,1.145,-0.179,0.000,1.099,0.245,-0.229,1.123,-0.186,-0.260,1.005,0.153,-0.324,0.890,-0.055,-0.352,0.790,956.690,730.168,0.930,891.433,732.314,0.940,1052.410,549.106,1.145,805.411,540.305,1.099,1167.206,346.438,1.123,783.700,293.914,1.005,1123.354,193.438,0.890,893.570,115.520,0.790,-0.027,-0.971,1.403,0.000,-349.545,0.000,0.011,-0.023,-0.025,-0.146,-0.862,1.277
0722_180739_0169.png,0.037,0.190,0.937,-0.030,0.187,0.932,0.155,-0.003,1.095,-0.141,0.009,1.144,0.243,-0.225,1.234,-0.274,-0.206,1.034,0.166,-0.290,0.986,-0.341,-0.335,0.810,997.248,732.510,0.937,929.753,731.229,0.932,1094.287,537.768,1.095,842.458,547.152,1.144,1147.051,366.545,1.234,708.265,350.766,1.034,1120.398,259.885,0.986,559.148,147.049,0.810,-0.022,-0.970,1.403,0.000,-8.393,0.000,-0.011,-0.023,-0.014,0.031,-0.701,1.588
0722_180739_0170.png,0.057,0.161,0.927,-0.006,0.155,0.921,0.171,-0.014,1.083,-0.107,0.001,1.150,0.222,-0.227,1.249,-0.202,-0.219,1.024,0.278,-0.297,1.004,-0.136,-0.349,0.808,1018.537,704.884,0.927,953.634,700.646,0.921,1110.565,527.482,1.083,871.713,540.880,1.150,1128.665,367.048,1.249,772.512,336.921,1.024,1223.169,258.867,1.004,799.829,128.957,0.808,-0.038,-0.964,1.402,0.000,-12.642,0.000,0.035,-0.016,0.003,0.051,-1.220,1.488
0722_180739_0171.png,0.040,0.178,0.939,-0.027,0.178,0.938,0.163,-0.015,1.099,-0.140,-0.006,1.138,0.227,-0.227,1.261,-0.320,-0.204,1.086,0.344,-0.272,1.028,-0.396,-0.313,0.862,1000.733,720.590,0.939,932.232,720.091,0.938,1100.920,527.306,1.099,843.258,535.229,1.138,1131.519,368.776,1.261,680.210,361.067,1.086,1277.992,288.607,1.028,522.441,194.628,0.862,-0.032,-0.961,1.401,0.000,-6.362,0.000,-0.028,-0.014,0.011,-0.064,-0.676,1.395
0722_180739_0172.png,0.037,0.172,0.935,-0.029,0.172,0.933,0.151,-0.003,1.124,-0.149,-0.003,1.125,0.285,-0.238,1.178,-0.184,-0.247,1.001,0.198,-0.305,0.932,-0.086,-0.349,0.773,997.892,715.383,0.935,930.076,715.008,0.933,1088.111,537.260,1.124,833.784,537.406,1.125,1189.926,348.008,1.178,785.456,305.482,1.001,1162.246,229.251,0.932,854.672,110.911,0.773,-0.039,-0.964,1.402,0.000,-358.973,0.000,-0.013,-0.017,-0.020,0.130,-0.916,1.567
0722_180739_0173.png,0.053,0.183,0.945,-0.014,0.179,0.935,0.169,-0.010,1.081,-0.126,0.008,1.160,0.229,-0.230,1.228,-0.170,-0.198,0.978,0.303,-0.285,0.974,-0.160,-0.345,0.750,1013.257,724.580,0.945,945.642,722.151,0.935,1108.823,531.025,1.081,856.915,546.551,1.160,1137.540,362.087,1.228,794.539,347.872,0.978,1256.168,261.767,0.974,757.254,102.643,0.750,-0.022,-0.969,1.403,0.000,-14.228,0.000,-0.030,-0.001,-0.027,0.087,-0.804,1.138
0722_180739_0174.png,0.019,0.161,0.944,-0.047,0.162,0.948,0.138,-0.008,1.133,-0.164,-0.012,1.115,0.240,-0.247,1.176,-0.170,-0.233,0.966,0.242,-0.292,0.920,-0.088,-0.343,0.743,979.514,702.049,0.944,912.346,702.935,0.948,1075.895,533.428,1.133,820.491,529.859,1.115,1154.127,340.531,1.176,792.516,310.449,0.966,1210.196,238.373,0.920,847.197,101.484,0.743,-0.033,-0.969,1.403,0.000,-355.387,0.000,-0.018,0.038,0.008,-0.029,-0.930,1.056
0722_180739_0175.png,0.006,0.163,0.944,-0.060,0.166,0.951,0.128,0.000,1.138,-0.171,-0.004,1.122,0.261,-0.209,1.227,-0.183,-0.202,0.926,0.393,-0.277,1.002,-0.142,-0.359,0.705,965.693,703.968,0.944,899.679,705.599,0.951,1066.622,539.842,1.138,814.992,536.826,1.122,1162.398,377.801,1.227,772.040,332.349,0.926,1333.346,277.550,1.002,768.188,56.457,0.705,-0.024,-0.972,1.404,0.000,-355.784,0.000,-0.007,0.037,-0.032,-0.163,-0.903,1.477
0722_180739_0176.png,0.034,0.165,0.930,-0.032,0.164,0.933,0.163,-0.010,1.095,-0.130,0.003,1.153,0.087,-0.225,0.933,-0.296,-0.191,1.045,-0.018,-0.362,0.722,-0.399,-0.330,0.836,994.627,708.989,0.930,926.989,707.539,0.933,1101.907,531.222,1.095,853.155,542.721,1.153,1048.358,310.935,0.933,690.823,366.643,1.045,935.791,63.018,0.722,505.616,164.559,0.836,-0.026,-0.964,1.402,0.000,-10.376,0.000,-0.007,-0.013,-0.033,-0.280,-1.035,1.612
0722_180739_0177.png,0.012,0.166,0.944,-0.051,0.169,0.951,0.131,-0.008,1.134,-0.158,-0.010,1.125,0.093,-0.187,0.915,-0.321,-0.220,1.088,0.060,-0.362,0.703,-0.351,-0.333,0.844,972.491,707.640,0.944,908.574,708.765,0.951,1069.737,533.346,1.134,826.259,531.570,1.125,1056.710,346.192,0.915,679.304,347.853,1.088,1041.004,50.462,0.703,564.435,164.981,0.844,-0.029,-0.962,1.401,0.000,-357.025,0.000,0.026,0.013,-0.028,-0.187,-0.875,1.138
0722_180739_0178.png,0.024,0.190,0.938,-0.044,0.190,0.938,0.145,0.001,1.118,-0.162,0.003,1.126,0.153,-0.275,1.108,-0.265,-0.229,1.016,0.118,-0.320,0.847,-0.217,-0.340,0.778,984.568,732.828,0.938,915.516,732.760,0.938,1083.648,540.677,1.118,823.355,542.203,1.126,1091.084,303.939,1.108,712.510,326.055,1.016,1092.694,180.290,0.847,695.297,124.874,0.778,-0.026,-0.968,1.403,0.000,-0.336,0.000,-0.035,-0.024,-0.014,-0.001,-0.650,1.542
0722_180739_0179.png,0.035,0.159,0.930,-0.029,0.157,0.926,0.146,-0.007,1.116,-0.145,-0.003,1.132,0.201,-0.251,1.004,-0.287,-0.235,1.143,0.116,-0.356,0.774,-0.178,-0.317,0.915,996.016,703.003,0.930,930.005,701.271,0.926,1084.545,534.334,1.116,838.395,537.550,1.132,1150.579,302.000,1.004,720.984,344.647,1.143,1102.490,102.504,0.774,774.740,210.377,0.915,-0.031,-0.962,1.401,0.000,-2.106,0.000,0.019,-0.018,-0.017,0.156,-1.215,1.540
0722_180739_0180.png,0.011,0.187,0.932,-0.053,0.189,0.938,0.129,0.001,1.127,-0.161,-0.001,1.116,0.145,-0.276,1.115,-0.124,-0.188,0.915,0.099,-0.336,0.860,-0.090,-0.371,0.720,970.822,731.069,0.932,905.908,731.872,0.938,1068.541,540.981,1.127,822.745,538.816,1.116,1083.510,304.808,1.115,831.157,344.593,0.915,1069.451,168.673,0.860,841.331,49.625,0.720,-0.027,-0.965,1.402,0.000,-356.574,0.000,0.024,-0.034,-0.011,-0.170,-0.794,1.220
0722_180739_0181.png,0.024,0.176,0.927,-0.042,0.177,0.929,0.140,-0.004,1.120,-0.156,-0.005,1.114,0.152,-0.182,0.913,-0.206,-0.275,1.112,0.163,-0.356,0.712,-0.159,-0.324,0.861,984.619,720.689,0.927,917.468,721.032,0.929,1078.833,536.816,1.120,826.928,535.706,1.114,1118.311,350.271,0.913,783.684,304.878,1.112,1177.212,64.221,0.712,784.931,182.608,0.861,-0.032,-0.965,1.402,0.000,-357.719,0.000,0.004,-0.029,0.018,0.005,-0.863,1.582
0722_180739_0182.png,0.042,0.156,0.933,-0.023,0.155,0.935,0.167,-0.020,1.082,-0.115,-0.004,1.150,0.189,-0.269,0.996,-0.232,-0.240,1.179,0.174,-0.349,0.752,-0.206,-0.301,0.930,1002.647,698.799,0.933,937.084,697.289,0.935,1106.807,522.479,1.082,864.711,536.332,1.150,1140.897,283.487,0.996,772.675,346.535,1.179,1179.710,98.391,0.752,749.742,232.108,0.930,-0.032,-0.967,1.402,0.000,-12.610,0.000,0.021,0.023,0.024,-0.298,-0.967,1.568
0722_180739_0183.png,0.041,0.179,0.924,-0.024,0.176,0.921,0.162,-0.008,1.079,-0.120,0.009,1.152,0.211,-0.207,1.272,-0.194,-0.165,0.944,0.369,-0.282,1.077,-0.267,-0.336,0.743,1001.917,724.443,0.924,935.212,721.638,0.921,1103.058,532.873,1.079,861.096,547.136,1.152,1117.558,385.056,1.272,764.857,373.528,0.944,1285.865,291.297,1.077,617.906,109.994,0.743,-0.024,-0.965,1.402,0.000,-13.659,0.000,0.017,-0.043,-0.011,-0.158,-1.155,1.139
0722_180739_0184.png,0.012,0.179,0.937,-0.053,0.182,0.943,0.129,0.000,1.140,-0.166,-0.009,1.104,0.125,-0.179,0.925,-0.169,-0.238,0.956,0.122,-0.354,0.715,-0.085,-0.358,0.735,972.620,721.743,0.937,906.458,723.029,0.943,1067.503,539.601,1.140,816.860,532.505,1.104,1088.601,355.624,0.925,792.132,303.334,0.956,1121.827,69.640,0.715,849.571,76.669,0.735,-0.036,-0.965,1.402,0.000,-351.735,0.000,-0.002,-0.011,-0.008,-0.082,-0.745,1.334
0722_180739_0185.png,0.044,0.153,0.932,-0.023,0.151,0.932,0.168,-0.014,1.093,-0.132,-0.003,1.142,0.099,-0.233,0.962,-0.274,-0.225,1.188,-0.016,-0.334,0.754,-0.322,-0.286,0.943,1004.929,695.994,0.932,936.159,694.288,0.932,1106.471,527.477,1.093,849.885,537.251,1.142,1058.107,309.711,0.962,740.230,360.034,1.188,939.330,118.839,0.754,634.982,251.128,0.943,-0.034,-0.970,1.403,0.000,-8.189,0.000,-0.026,0.026,0.024,-0.098,-1.076,1.626
0722_180739_0186.png,0.051,0.167,0.927,-0.017,0.165,0.928,0.179,-0.016,1.082,-0.123,-0.002,1.145,0.245,-0.225,1.246,-0.254,-0.206,1.275,0.376,-0.269,1.020,-0.270,-0.265,1.025,1012.099,710.992,0.927,942.072,709.551,0.928,1117.387,525.710,1.082,857.799,538.508,1.145,1147.281,368.386,1.246,770.722,386.085,1.275,1310.486,289.523,1.020,709.707,293.697,1.025,-0.039,-0.965,1.402,0.000,-10.894,0.000,-0.040,-0.010,0.027,-0.186,-0.944,1.536
0722_180739_0187.png,0.013,0.181,0.924,-0.053,0.183,0.929,0.132,0.000,1.130,-0.168,-0.006,1.102,0.262,-0.240,1.183,-0.272,-0.252,1.189,0.321,-0.302,0.936,-0.297,-0.305,0.934,973.833,726.139,0.924,905.720,727.378,0.929,1070.880,540.166,1.130,815.095,534.728,1.102,1170.883,346.753,1.183,742.454,338.077,1.189,1286.293,233.452,0.936,657.676,229.073,0.934,-0.032,-0.963,1.402,0.000,-353.459,0.000,-0.014,-0.044,0.014,-0.063,-0.842,1.571
0722_180739_0188.png,0.013,0.166,0.931,-0.051,0.168,0.937,0.129,-0.008,1.130,-0.162,-0.014,1.105,0.188,-0.207,1.306,-0.156,-0.231,0.954,0.262,-0.270,1.067,-0.116,-0.355,0.732,973.228,709.468,0.931,907.761,710.917,0.937,1068.986,533.153,1.130,821.027,528.196,1.105,1096.931,389.499,1.306,804.017,309.312,0.954,1193.502,299.644,1.067,808.679,78.659,0.732,-0.033,-0.963,1.401,0.000,-353.930,0.000,0.016,-0.006,0.026,-0.118,-0.925,1.319
0722_180739_0189.png,0.040,0.171,0.934,-0.024,0.170,0.934,0.158,-0.017,1.099,-0.128,-0.008,1.137,0.087,-0.191,0.902,-0.214,-0.235,1.023,0.018,-0.361,0.710,-0.107,-0.342,0.815,1000.863,714.187,0.934,935.552,713.424,0.934,1097.114,525.336,1.099,852.681,533.202,1.137,1051.708,338.866,0.902,760.747,321.736,1.023,983.692,56.930,0.710,835.408,140.919,0.815,-0.035,-0.959,1.401,0.000,-6.643,0.000,0.025,-0.016,0.018,-0.094,-0.886,1.165
0722_180739_0190.png,0.025,0.161,0.934,-0.040,0.162,0.935,0.138,0.000,1.127,-0.154,0.000,1.124,0.168,-0.189,0.927,-0.240,-0.239,1.209,0.167,-0.363,0.719,-0.223,-0.301,0.949,985.194,704.166,0.934,919.277,704.341,0.935,1076.458,540.309,1.127,829.535,539.734,1.124,1132.622,345.606,0.927,771.587,351.813,1.209,1180.867,60.316,0.719,736.263,238.123,0.949,-0.031,-0.972,1.403,0.000,-358.231,0.000,0.016,0.011,-0.019,0.044,-1.210,1.306
0722_180739_0191.png,0.020,0.170,0.945,-0.044,0.171,0.951,0.135,-0.009,1.132,-0.153,-0.014,1.112,0.191,-0.256,1.051,-0.150,-0.226,0.949,0.046,-0.327,0.849,-0.100,-0.359,0.732,980.299,710.677,0.945,916.298,711.454,0.951,1073.545,532.226,1.132,828.938,528.051,1.112,1132.493,308.647,1.051,809.467,313.903,0.949,1011.801,173.943,0.849,830.595,73.048,0.732,-0.039,-0.966,1.402,0.000,-354.656,0.000,0.026,0.024,0.015,-0.084,-0.654,1.327
0722_180739_0192.png,0.046,0.163,0.931,-0.019,0.160,0.930,0.169,-0.014,1.079,-0.112,0.003,1.153,0.149,-0.259,0.972,-0.090,-0.170,0.941,-0.006,-0.346,0.780,-0.069,-0.340,0.734,1006.978,706.575,0.931,940.929,703.994,0.930,1108.929,527.758,1.079,867.289,542.765,1.153,1105.738,286.441,0.972,868.682,367.822,0.941,953.183,118.204,0.780,869.967,99.461,0.734,-0.030,-0.970,1.403,0.000,-14.128,0.000,0.018,0.012,0.007,-0.240,-1.142,1.203
0722_180739_0193.png,0.037,0.173,0.936,-0.031,0.173,0.938,0.168,-0.013,1.094,-0.135,0.000,1.153,0.281,-0.265,1.097,-0.128,-0.186,0.945,0.302,-0.321,0.834,-0.091,-0.352,0.731,997.791,715.957,0.936,928.323,715.038,0.938,1106.398,528.453,1.094,848.860,540.219,1.153,1203.091,310.025,1.097,831.192,352.582,0.945,1304.903,174.163,0.834,841.364,82.531,0.731,-0.027,-0.961,1.401,0.000,-10.113,0.000,-0.041,-0.013,-0.025,-0.283,-0.877,1.343
0722_180739_0194.png,0.047,0.173,0.940,-0.020,0.167,0.929,0.158,-0.010,1.101,-0.143,0.001,1.147,0.266,-0.245,1.198,-0.310,-0.217,1.112,0.320,-0.297,0.938,-0.386,-0.317,0.872,1007.133,714.638,0.940,939.587,711.446,0.929,1096.713,531.371,1.101,841.678,540.448,1.147,1171.351,345.765,1.198,694.692,354.414,1.112,1283.962,238.853,0.938,539.649,194.885,0.872,-0.024,-0.962,1.401,0.000,-7.707,0.000,-0.026,-0.018,-0.026,0.298,-1.023,1.320
0722_180739_0195.png,0.037,0.156,0.930,-0.028,0.153,0.927,0.153,-0.014,1.098,-0.134,-0.004,1.143,0.071,-0.189,0.900,-0.165,-0.222,0.987,-0.009,-0.361,0.708,-0.064,-0.349,0.781,997.361,699.343,0.930,931.416,696.751,0.927,1092.970,527.777,1.098,848.759,537.027,1.143,1034.645,339.999,0.900,801.120,325.960,0.987,948.119,55.202,0.708,882.559,114.877,0.781,-0.026,-0.963,1.401,0.000,-8.127,0.000,0.020,-0.004,0.000,-0.003,-1.260,1.331
0722_180739_0196.png,0.020,0.161,0.920,-0.044,0.163,0.927,0.144,-0.009,1.116,-0.146,-0.007,1.121,0.075,-0.182,0.915,-0.247,-0.237,1.018,0.008,-0.353,0.719,-0.172,-0.349,0.796,980.247,706.303,0.920,914.523,707.730,0.927,1082.465,532.690,1.116,835.742,533.665,1.121,1037.577,350.404,0.915,728.900,318.982,1.018,970.286,73.322,0.719,754.530,122.484,0.796,-0.034,-0.959,1.401,0.000,0.192,0.000,0.023,-0.037,0.010,-0.268,-1.165,1.547
0722_180739_0197.png,0.052,0.180,0.926,-0.011,0.176,0.923,0.172,-0.003,1.080,-0.106,0.013,1.151,0.107,-0.190,0.880,-0.200,-0.225,1.053,0.047,-0.374,0.687,-0.075,-0.341,0.856,1013.701,724.691,0.926,948.210,721.778,0.923,1111.026,537.241,1.080,872.099,550.925,1.151,1075.844,334.682,0.880,779.294,337.007,1.053,1025.692,22.194,0.687,877.071,160.764,0.856,-0.036,-0.973,1.404,0.000,-13.551,0.000,0.032,-0.023,-0.011,-0.109,-1.043,1.440
0722_180739_0198.png,0.024,0.190,0.933,-0.041,0.191,0.937,0.144,0.002,1.119,-0.151,0.002,1.122,0.143,-0.183,0.907,-0.317,-0.210,1.177,0.144,-0.363,0.702,-0.268,-0.312,0.935,984.312,733.717,0.933,917.936,734.026,0.937,1082.244,541.500,1.119,832.000,542.097,1.122,1110.207,348.411,0.907,703.979,370.101,1.177,1154.957,47.300,0.702,687.429,222.704,0.935,-0.033,-0.967,1.402,0.000,-359.443,0.000,0.007,-0.032,-0.011,-0.110,-0.699,1.518
0722_180739_0199.png,0.012,0.174,0.918,-0.051,0.177,0.924,0.118,0.006,1.138,-0.166,-0.006,1.084,0.219,-0.217,1.034,-0.259,-0.245,1.003,0.198,-0.342,0.812,-0.201,-0.354,0.779,972.752,720.078,0.918,906.975,722.681,0.924,1058.294,545.324,1.138,814.257,534.739,1.084,1161.542,340.326,1.034,714.266,307.626,1.003,1192.180,139.005,0.812,714.782,107.980,0.779,-0.038,-0.970,1.403,0.000,-347.816,0.000,0.026,-0.032,0.028,0.037,-1.170,1.154
0722_180739_0200.png,0.004,0.167,0.940,-0.061,0.169,0.945,0.114,-0.002,1.147,-0.178,-0.013,1.097,0.226,-0.215,1.262,-0.254,-0.187,1.284,0.359,-0.270,1.041,-0.305,-0.269,1.038,964.465,708.960,0.940,898.388,710.554,0.945,1054.619,538.537,1.147,805.549,528.587,1.097,1130.540,378.088,1.262,771.937,401.107,1.284,1287.544,292.957,1.041,680.435,293.907,1.038,-0.029,-0.968,1.402,0.000,-348.948,0.000,0.000,0.019,0.000,0.059,-0.751,1.604
0722_180739_0201.png,0.006,0.162,0.938,-0.062,0.164,0.944,0.130,-0.012,1.138,-0.178,-0.019,1.108,0.258,-0.246,1.092,-0.329,-0.229,1.192,0.131,-0.308,0.867,-0.410,-0.285,0.947,966.446,703.909,0.938,897.842,705.425,0.944,1068.476,530.301,1.138,807.304,524.036,1.108,1184.447,325.758,1.092,697.343,357.300,1.192,1103.574,201.865,0.867,548.544,253.531,0.947,-0.027,-0.959,1.400,0.000,-353.040,0.000,-0.042,0.006,0.008,-0.122,-0.895,1.174
0722_180739_0202.png,-0.002,0.169,0.933,-0.068,0.174,0.944,0.120,0.003,1.151,-0.179,-0.009,1.100,0.283,-0.218,1.153,-0.185,-0.260,0.987,0.387,-0.302,0.918,-0.095,-0.351,0.748,958.235,712.368,0.933,891.633,715.508,0.944,1058.986,542.414,1.151,805.082,532.468,1.100,1193.028,360.193,1.153,781.630,289.400,0.987,1360.484,227.104,0.918,839.891,93.788,0.748,-0.032,-0.966,1.402,0.000,-348.972,0.000,-0.022,-0.003,-0.028,-0.202,-0.870,1.567
0722_180739_0203.png,0.005,0.177,0.933,-0.058,0.180,0.940,0.114,0.005,1.144,-0.167,-0.004,1.103,0.210,-0.174,0.947,-0.153,-0.220,0.931,0.306,-0.349,0.758,-0.080,-0.376,0.723,964.732,720.023,0.933,901.300,722.146,0.940,1054.696,544.156,1.144,815.817,536.339,1.103,1170.490,365.222,0.947,803.859,314.815,0.931,1344.556,101.708,0.758,854.203,44.672,0.723,-0.032,-0.968,1.403,0.000,-350.475,0.000,0.043,-0.012,-0.021,-0.090,-0.908,1.325
0722_180739_0204.png,0.015,0.161,0.941,-0.051,0.162,0.941,0.121,-0.011,1.147,-0.175,-0.023,1.095,0.207,-0.255,1.080,-0.161,-0.241,0.942,0.030,-0.309,0.893,-0.108,-0.354,0.714,975.438,702.400,0.941,908.171,703.374,0.941,1060.403,530.890,1.147,808.191,520.126,1.095,1142.703,315.700,1.080,797.896,296.657,0.942,991.643,210.632,0.893,816.471,69.210,0.714,-0.035,-0.959,1.401,0.000,-348.652,0.000,-0.012,0.012,0.016,0.241,-0.856,1.243
0722_180739_0205.png,0.005,0.175,0.941,-0.063,0.178,0.946,0.121,0.004,1.151,-0.183,-0.008,1.097,0.058,-0.171,0.942,-0.238,-0.166,1.308,-0.004,-0.341,0.737,-0.308,-0.253,1.063,965.324,717.089,0.941,896.685,718.730,0.946,1059.860,543.465,1.151,801.075,532.891,1.097,1018.955,366.871,0.942,787.103,419.346,1.308,955.431,99.483,0.737,684.192,313.645,1.063,-0.032,-0.970,1.403,0.000,-348.517,0.000,-0.042,0.010,-0.020,0.040,-0.727,1.540
0722_180739_0206.png,0.019,0.173,0.935,-0.047,0.174,0.939,0.141,-0.002,1.121,-0.159,-0.002,1.122,0.082,-0.215,0.964,-0.226,-0.257,1.062,-0.018,-0.345,0.756,-0.213,-0.332,0.810,979.768,715.585,0.935,912.330,716.131,0.939,1079.919,538.025,1.121,825.218,538.190,1.122,1040.413,327.498,0.964,757.668,309.564,1.062,937.410,105.560,0.756,709.431,149.759,0.810,-0.029,-0.970,1.403,0.000,-358.991,0.000,-0.012,0.001,0.000,-0.111,-0.882,1.440
0722_180739_0207.png,0.055,0.184,0.929,-0.012,0.180,0.921,0.172,-0.007,1.077,-0.126,0.009,1.149,0.145,-0.238,0.938,-0.276,-0.216,1.104,0.104,-0.355,0.707,-0.170,-0.312,0.880,1016.531,728.329,0.929,947.803,725.458,0.921,1111.712,533.564,1.077,855.477,547.543,1.149,1107.395,298.697,0.938,722.500,353.628,1.104,1100.259,62.714,0.707,776.235,202.560,0.880,-0.029,-0.969,1.403,0.000,-12.630,0.000,-0.034,-0.031,0.007,0.130,-0.920,1.428
0722_180739_0208.png,0.053,0.162,0.940,-0.015,0.159,0.936,0.173,-0.012,1.094,-0.128,0.000,1.145,0.153,-0.253,0.984,-0.274,-0.189,1.265,-0.015,-0.325,0.796,-0.459,-0.247,1.087,1013.348,703.498,0.940,945.096,701.369,0.936,1109.987,529.470,1.094,853.427,539.775,1.145,1108.298,295.348,0.984,754.119,397.789,1.265,941.649,151.601,0.796,558.091,323.991,1.087,-0.036,-0.972,1.404,0.000,-8.794,0.000,-0.029,0.033,0.011,0.026,-1.007,1.320
0722_180739_0209.png,0.007,0.165,0.939,-0.056,0.167,0.946,0.127,-0.013,1.126,-0.161,-0.015,1.117,0.190,-0.234,0.992,-0.144,-0.200,0.924,0.140,-0.351,0.767,-0.090,-0.362,0.726,967.407,706.838,0.939,903.635,707.973,0.946,1067.365,529.212,1.126,823.097,527.312,1.117,1141.871,315.797,0.992,811.786,333.988,0.924,1133.147,103.988,0.767,842.460,65.698,0.726,-0.025,-0.961,1.401,0.000,-356.940,0.000,0.030,0.010,0.016,-0.237,-0.796,1.312
0722_180739_0210.png,0.062,0.174,0.941,-0.003,0.168,0.929,0.172,-0.011,1.079,-0.113,0.007,1.155,0.216,-0.275,1.078,-0.171,-0.221,1.021,0.062,-0.320,0.868,-0.074,-0.339,0.807,1022.220,715.469,0.941,957.332,711.687,0.929,1111.163,530.329,1.079,867.376,545.438,1.155,1150.295,296.899,1.078,800.482,334.388,1.021,1027.859,189.326,0.868,872.269,140.085,0.807,-0.031,-0.972,1.404,0.000,-14.276,0.000,0.008,0.012,-0.003,0.198,-0.881,1.513
0722_180739_0211.png,0.041,0.175,0.922,-0.026,0.173,0.920,0.159,0.001,1.107,-0.143,0.006,1.127,0.145,-0.226,0.957,-0.265,-0.234,1.070,0.115,-0.356,0.730,-0.144,-0.326,0.853,1002.595,720.649,0.922,933.470,719.410,0.920,1096.754,540.786,1.107,839.744,544.721,1.127,1104.370,315.152,0.957,724.453,331.892,1.070,1109.470,76.643,0.730,799.036,177.037,0.853,-0.037,-0.969,1.403,0.000,-2.789,0.000,-0.018,-0.039,0.003,0.080,-1.238,1.282
0722_180739_0212.png,0.035,0.174,0.931,-0.033,0.173,0.930,0.157,-0.004,1.111,-0.151,0.001,1.131,0.181,-0.252,1.227,-0.315,-0.188,1.250,0.181,-0.286,0.964,-0.346,-0.279,1.002,996.062,717.407,0.931,926.275,716.660,0.930,1094.142,536.967,1.111,833.209,540.887,1.131,1100.038,344.484,1.227,720.218,396.880,1.250,1138.311,257.518,0.964,631.925,275.736,1.002,-0.032,-0.967,1.402,0.000,-2.647,0.000,-0.038,-0.019,-0.007,0.024,-0.900,1.706
0722_180739_0213.png,0.040,0.163,0.938,-0.025,0.161,0.937,0.162,-0.017,1.085,-0.124,-0.003,1.148,0.249,-0.243,0.978,-0.265,-0.178,1.287,0.267,-0.347,0.743,-0.278,-0.267,1.046,1000.724,704.970,0.938,934.855,703.485,0.937,1101.780,524.685,1.085,857.079,537.564,1.148,1201.688,303.410,0.978,763.961,408.375,1.287,1301.889,95.843,0.743,707.093,296.896,1.046,-0.027,-0.969,1.403,0.000,-11.611,0.000,0.013,0.026,0.024,-0.188,-0.877,1.428
0722_180739_0214.png,0.007,0.173,0.921,-0.060,0.178,0.927,0.124,0.012,1.144,-0.179,0.001,1.094,0.183,-0.197,1.316,-0.204,-0.250,0.984,0.258,-0.263,1.068,-0.063,-0.342,0.776,967.564,718.959,0.921,898.337,722.061,0.927,1062.842,550.325,1.144,804.881,540.998,1.094,1092.444,397.800,1.316,762.645,298.386,0.984,1189.605,306.139,1.068,882.628,121.199,0.776,-0.033,-0.973,1.404,0.000,-349.376,0.000,-0.032,-0.027,-0.014,-0.041,-1.220,1.292
0722_180739_0215.png,0.033,0.151,0.944,-0.032,0.149,0.940,0.146,-0.009,1.118,-0.150,-0.005,1.134,0.092,-0.184,0.909,-0.323,-0.192,1.050,0.040,-0.354,0.705,-0.441,-0.316,0.849,993.271,692.571,0.944,927.133,691.146,0.940,1084.240,532.595,1.118,834.474,535.855,1.134,1056.494,347.615,0.909,668.002,366.037,1.050,1014.480,62.353,0.705,465.967,186.560,0.849,-0.028,-0.972,1.404,0.000,-2.078,0.000,0.003,0.048,-0.003,0.134,-1.130,1.370
0722_180739_0216.png,0.012,0.169,0.917,-0.053,0.173,0.923,0.127,0.000,1.133,-0.167,-0.009,1.093,0.235,-0.222,1.029,-0.181,-0.280,1.057,0.286,-0.336,0.806,-0.124,-0.335,0.813,972.416,715.560,0.917,905.122,718.043,0.923,1066.882,540.347,1.133,815.117,532.504,1.093,1177.347,335.225,1.029,797.503,288.411,1.057,1297.127,143.099,0.806,814.936,147.515,0.813,-0.036,-0.964,1.402,0.000,-351.015,0.000,0.001,-0.040,0.029,-0.087,-1.141,1.368
0722_180739_0217.png,0.039,0.182,0.942,-0.028,0.182,0.943,0.165,-0.004,1.099,-0.132,0.008,1.151,0.172,-0.276,1.109,-0.284,-0.215,1.091,0.138,-0.324,0.844,-0.205,-0.323,0.854,999.029,724.209,0.942,931.345,723.393,0.943,1103.108,536.422,1.099,850.711,546.521,1.151,1107.267,303.102,1.109,712.405,352.754,1.091,1115.443,174.801,0.844,731.935,180.182,0.854,-0.029,-0.970,1.403,0.000,-9.055,0.000,-0.019,0.001,-0.037,-0.215,-0.747,1.418
0722_180739_0218.png,0.026,0.182,0.927,-0.040,0.183,0.930,0.144,-0.003,1.118,-0.152,-0.003,1.117,0.285,-0.219,1.223,-0.298,-0.227,1.057,0.220,-0.300,0.982,-0.281,-0.337,0.821,986.237,726.869,0.927,918.980,727.204,0.930,1082.626,537.413,1.118,830.314,537.286,1.117,1181.932,369.759,1.223,691.816,336.257,1.057,1173.263,249.895,0.982,634.362,149.385,0.821,-0.034,-0.963,1.401,0.000,-358.700,0.000,0.001,-0.041,0.007,-0.054,-0.830,1.487
0722_180739_0219.png,0.010,0.162,0.931,-0.054,0.164,0.934,0.117,-0.004,1.139,-0.171,-0.014,1.095,0.242,-0.224,1.225,-0.284,-0.228,1.211,0.166,-0.289,0.988,-0.366,-0.294,0.977,970.544,705.705,0.931,904.828,707.366,0.934,1057.736,536.875,1.139,811.525,528.072,1.095,1148.140,365.714,1.225,737.270,361.013,1.211,1120.304,261.743,0.988,603.451,253.796,0.977,-0.031,-0.967,1.402,0.000,-350.022,0.000,0.018,0.005,0.026,0.097,-1.034,1.275
0722_180739_0220.png,0.047,0.168,0.947,-0.018,0.166,0.942,0.162,-0.014,1.105,-0.130,-0.006,1.140,0.202,-0.190,0.902,-0.099,-0.181,0.932,0.242,-0.361,0.703,-0.071,-0.352,0.729,1007.195,709.131,0.947,941.873,707.972,0.942,1099.061,528.325,1.105,851.800,535.374,1.140,1173.316,340.044,0.902,858.599,355.327,0.932,1288.003,51.778,0.703,868.026,81.018,0.729,-0.037,-0.966,1.402,0.000,-5.837,0.000,0.011,0.022,0.002,0.067,-0.849,1.098
0722_180739_0221.png,0.012,0.172,0.923,-0.054,0.175,0.928,0.124,0.001,1.138,-0.169,-0.010,1.092,0.179,-0.260,1.210,-0.314,-0.223,1.191,0.155,-0.298,0.954,-0.420,-0.298,0.966,972.058,716.988,0.923,904.971,719.088,0.928,1064.016,540.718,1.138,813.005,531.678,1.092,1100.768,335.215,1.210,709.635,362.014,1.191,1114.673,242.534,0.954,547.010,246.308,0.966,-0.036,-0.965,1.402,0.000,-349.816,0.000,0.000,-0.028,0.021,-0.017,-0.889,1.720
0722_180739_0222.png,0.025,0.179,0.934,-0.038,0.179,0.934,0.137,-0.006,1.121,-0.150,-0.006,1.125,0.268,-0.246,1.153,-0.142,-0.234,0.972,0.339,-0.326,0.910,-0.059,-0.366,0.757,985.642,722.078,0.934,920.828,721.949,0.934,1076.197,534.565,1.121,833.051,535.285,1.125,1180.621,337.140,1.153,821.130,310.575,0.972,1314.451,199.037,0.910,885.826,79.433,0.757,-0.030,-0.959,1.400,0.000,0.432,0.000,0.033,-0.034,-0.013,0.046,-0.821,1.446
0722_180739_0223.png,0.005,0.168,0.930,-0.060,0.173,0.941,0.128,0.002,1.141,-0.167,-0.005,1.110,0.207,-0.210,1.293,-0.158,-0.220,0.933,0.348,-0.270,1.072,-0.095,-0.367,0.714,964.822,711.398,0.930,899.298,714.391,0.941,1066.293,541.452,1.141,816.606,535.388,1.110,1112.494,385.384,1.293,799.070,316.104,0.933,1268.480,300.578,1.072,832.985,51.645,0.714,-0.033,-0.966,1.402,0.000,-352.670,0.000,0.001,-0.010,-0.025,-0.292,-1.089,1.216
0722_180739_0224.png,-0.007,0.143,0.936,-0.071,0.150,0.949,0.112,-0.003,1.160,-0.179,-0.017,1.096,0.267,-0.201,1.054,-0.280,-0.184,1.271,0.366,-0.322,0.834,-0.446,-0.254,1.073,953.227,684.904,0.936,888.546,690.605,0.949,1051.916,537.878,1.160,804.332,525.059,1.096,1201.088,358.405,1.054,750.337,402.531,1.271,1377.152,172.311,0.834,565.174,314.928,1.073,-0.036,-0.967,1.402,0.000,-346.198,0.000,-0.006,0.042,-0.025,-0.263,-1.189,1.351
0722_180739_0225.png,0.048,0.175,0.931,-0.015,0.171,0.923,0.160,-0.009,1.089,-0.121,0.004,1.146,0.184,-0.190,1.298,-0.250,-0.170,0.974,0.275,-0.283,1.071,-0.377,-0.341,0.809,1009.285,719.151,0.931,944.556,716.155,0.923,1100.050,531.710,1.089,859.921,543.059,1.146,1094.714,400.987,1.298,716.206,373.711,0.974,1203.951,288.994,1.071,516.585,139.533,0.809,-0.030,-0.965,1.402,0.000,-10.656,0.000,0.033,-0.026,-0.003,0.116,-1.067,1.255
0722_180739_0226.png,0.027,0.171,0.936,-0.042,0.172,0.940,0.155,0.001,1.115,-0.153,0.006,1.133,0.172,-0.205,0.933,-0.299,-0.223,1.154,0.141,-0.351,0.709,-0.172,-0.291,0.927,986.961,714.118,0.936,917.734,714.319,0.940,1092.355,541.126,1.115,831.655,544.677,1.133,1135.510,331.088,0.933,713.392,356.519,1.154,1148.467,69.560,0.709,784.018,241.055,0.927,-0.030,-0.976,1.404,0.000,-2.354,0.000,-0.039,0.014,-0.016,-0.171,-0.897,1.658
0722_180739_0227.png,0.048,0.168,0.930,-0.020,0.164,0.928,0.175,-0.014,1.077,-0.123,0.005,1.159,0.109,-0.246,0.950,-0.220,-0.163,0.956,0.047,-0.351,0.713,-0.313,-0.327,0.757,1009.562,711.328,0.930,939.632,708.378,0.928,1114.619,527.555,1.077,859.013,543.960,1.159,1068.684,293.220,0.950,741.041,377.551,0.956,1022.907,71.646,0.713,567.089,129.920,0.757,-0.026,-0.966,1.402,0.000,-14.647,0.000,-0.043,-0.006,-0.010,-0.173,-1.098,1.272
0722_180739_0228.png,0.025,0.174,0.921,-0.043,0.175,0.924,0.146,0.004,1.119,-0.158,0.002,1.110,0.233,-0.217,1.264,-0.275,-0.212,1.243,0.188,-0.276,1.015,-0.385,-0.278,1.015,985.477,719.472,0.921,916.125,720.340,0.924,1083.646,543.114,1.119,824.332,541.394,1.110,1135.542,377.000,1.264,749.413,377.427,1.243,1135.641,281.337,1.015,599.237,279.543,1.015,-0.035,-0.972,1.404,0.000,-357.112,0.000,-0.024,-0.027,0.021,-0.051,-1.156,1.325
